%
(Generated by SketchUcam {1.2a})
(File: Plate_printouts_side.skp)
(Bit diameter: 1/8")
(Feed rate: 60"/min)
(Material Thickness: 1/8")
(Material length: 12" X width: 12")
(Overhead Gantry: true)
(Retract feed rate NOT limited to plunge feed rate)
(Multipass enabled, Depth = 1/64")
(Optimization is ON)
(Z ZERO IS TABLETOP)
(www.PhlatBoyz.com)
G90 G20 G49 
M3 S15000
G0   Z0.2500    
(Pass: 1)
   X0.5072       Y0.5240    
G1   Z0.1094     F60  
   X0.4949       Y0.5400    
   X0.4871       Y0.5587    
   X0.4845       Y0.5788    
   X0.4871       Y0.5988    
   X0.4949       Y0.6175    
   X0.5072       Y0.6335    
   X0.5232       Y0.6458    
   X0.5419       Y0.6536    
   X0.5620       Y0.6562    
   X0.5820       Y0.6536    
   X0.6007       Y0.6458    
   X0.6167       Y0.6335    
   X0.6290       Y0.6175    
   X0.6368       Y0.5988    
   X0.6394       Y0.5788    
   X0.6368       Y0.5587    
   X0.6290       Y0.5400    
   X0.6167       Y0.5240    
   X0.6007       Y0.5117    
   X0.5820       Y0.5040    
   X0.5620       Y0.5013    
   X0.5419       Y0.5040    
   X0.5232       Y0.5117    
   X0.5072       Y0.5240    
(Pass: 2)
   Z0.0938    
   X0.4949       Y0.5400    
   X0.4871       Y0.5587    
   X0.4845       Y0.5788    
   X0.4871       Y0.5988    
   X0.4949       Y0.6175    
   X0.5072       Y0.6335    
   X0.5232       Y0.6458    
   X0.5419       Y0.6536    
   X0.5620       Y0.6562    
   X0.5820       Y0.6536    
   X0.6007       Y0.6458    
   X0.6167       Y0.6335    
   X0.6290       Y0.6175    
   X0.6368       Y0.5988    
   X0.6394       Y0.5788    
   X0.6368       Y0.5587    
   X0.6290       Y0.5400    
   X0.6167       Y0.5240    
   X0.6007       Y0.5117    
   X0.5820       Y0.5040    
   X0.5620       Y0.5013    
   X0.5419       Y0.5040    
   X0.5232       Y0.5117    
   X0.5072       Y0.5240    
(Pass: 3)
   Z0.0781    
   X0.4949       Y0.5400    
   X0.4871       Y0.5587    
   X0.4845       Y0.5788    
   X0.4871       Y0.5988    
   X0.4949       Y0.6175    
   X0.5072       Y0.6335    
   X0.5232       Y0.6458    
   X0.5419       Y0.6536    
   X0.5620       Y0.6562    
   X0.5820       Y0.6536    
   X0.6007       Y0.6458    
   X0.6167       Y0.6335    
   X0.6290       Y0.6175    
   X0.6368       Y0.5988    
   X0.6394       Y0.5788    
   X0.6368       Y0.5587    
   X0.6290       Y0.5400    
   X0.6167       Y0.5240    
   X0.6007       Y0.5117    
   X0.5820       Y0.5040    
   X0.5620       Y0.5013    
   X0.5419       Y0.5040    
   X0.5232       Y0.5117    
   X0.5072       Y0.5240    
(Pass: 4)
   Z0.0625    
   X0.4949       Y0.5400    
   X0.4871       Y0.5587    
   X0.4845       Y0.5788    
   X0.4871       Y0.5988    
   X0.4949       Y0.6175    
   X0.5072       Y0.6335    
   X0.5232       Y0.6458    
   X0.5419       Y0.6536    
   X0.5620       Y0.6562    
   X0.5820       Y0.6536    
   X0.6007       Y0.6458    
   X0.6167       Y0.6335    
   X0.6290       Y0.6175    
   X0.6368       Y0.5988    
   X0.6394       Y0.5788    
   X0.6368       Y0.5587    
   X0.6290       Y0.5400    
   X0.6167       Y0.5240    
   X0.6007       Y0.5117    
   X0.5820       Y0.5040    
   X0.5620       Y0.5013    
   X0.5419       Y0.5040    
   X0.5232       Y0.5117    
   X0.5072       Y0.5240    
(Pass: 5)
   Z0.0469    
   X0.4949       Y0.5400    
   X0.4871       Y0.5587    
   X0.4845       Y0.5788    
   X0.4871       Y0.5988    
   X0.4949       Y0.6175    
   X0.5072       Y0.6335    
   X0.5232       Y0.6458    
   X0.5419       Y0.6536    
   X0.5620       Y0.6562    
   X0.5820       Y0.6536    
   X0.6007       Y0.6458    
   X0.6167       Y0.6335    
   X0.6290       Y0.6175    
   X0.6368       Y0.5988    
   X0.6394       Y0.5788    
   X0.6368       Y0.5587    
   X0.6290       Y0.5400    
   X0.6167       Y0.5240    
   X0.6007       Y0.5117    
   X0.5820       Y0.5040    
   X0.5620       Y0.5013    
   X0.5419       Y0.5040    
   X0.5232       Y0.5117    
   X0.5072       Y0.5240    
(Pass: 6)
   Z0.0312    
   X0.4949       Y0.5400    
   X0.4871       Y0.5587    
   X0.4845       Y0.5788    
   X0.4871       Y0.5988    
   X0.4949       Y0.6175    
   X0.5072       Y0.6335    
   X0.5232       Y0.6458    
   X0.5419       Y0.6536    
   X0.5620       Y0.6562    
   X0.5820       Y0.6536    
   X0.6007       Y0.6458    
   X0.6167       Y0.6335    
   X0.6290       Y0.6175    
   X0.6368       Y0.5988    
   X0.6394       Y0.5788    
   X0.6368       Y0.5587    
   X0.6290       Y0.5400    
   X0.6167       Y0.5240    
   X0.6007       Y0.5117    
   X0.5820       Y0.5040    
   X0.5620       Y0.5013    
   X0.5419       Y0.5040    
   X0.5232       Y0.5117    
   X0.5072       Y0.5240    
(Pass: 7)
   Z0.0156    
   X0.4949       Y0.5400    
   X0.4871       Y0.5587    
   X0.4845       Y0.5788    
   X0.4871       Y0.5988    
   X0.4949       Y0.6175    
   X0.5072       Y0.6335    
   X0.5232       Y0.6458    
   X0.5419       Y0.6536    
   X0.5620       Y0.6562    
   X0.5820       Y0.6536    
   X0.6007       Y0.6458    
   X0.6167       Y0.6335    
   X0.6290       Y0.6175    
   X0.6368       Y0.5988    
   X0.6394       Y0.5788    
   X0.6368       Y0.5587    
   X0.6290       Y0.5400    
   X0.6167       Y0.5240    
   X0.6007       Y0.5117    
   X0.5820       Y0.5040    
   X0.5620       Y0.5013    
   X0.5419       Y0.5040    
   X0.5232       Y0.5117    
   X0.5072       Y0.5240    
(Pass: 8)
   Z0.0000    
   X0.4949       Y0.5400    
   X0.4871       Y0.5587    
   X0.4845       Y0.5788    
   X0.4871       Y0.5988    
   X0.4949       Y0.6175    
   X0.5072       Y0.6335    
   X0.5232       Y0.6458    
   X0.5419       Y0.6536    
   X0.5620       Y0.6562    
   X0.5820       Y0.6536    
   X0.6007       Y0.6458    
   X0.6167       Y0.6335    
   X0.6290       Y0.6175    
   X0.6368       Y0.5988    
   X0.6394       Y0.5788    
   X0.6368       Y0.5587    
   X0.6290       Y0.5400    
   X0.6167       Y0.5240    
   X0.6007       Y0.5117    
   X0.5820       Y0.5040    
   X0.5620       Y0.5013    
   X0.5419       Y0.5040    
   X0.5232       Y0.5117    
   X0.5072       Y0.5240    
G0   Z0.2500    
(Pass: 1)
   X0.5620       Y3.4667    
G1   Z0.1094     F60  
   X0.5419       Y3.4693    
   X0.5232       Y3.4770    
   X0.5072       Y3.4894    
   X0.4949       Y3.5054    
   X0.4871       Y3.5241    
   X0.4845       Y3.5441    
   X0.4871       Y3.5642    
   X0.4949       Y3.5829    
   X0.5072       Y3.5989    
   X0.5232       Y3.6112    
   X0.5419       Y3.6189    
   X0.5620       Y3.6216    
   X0.5820       Y3.6189    
   X0.6007       Y3.6112    
   X0.6167       Y3.5989    
   X0.6290       Y3.5829    
   X0.6368       Y3.5642    
   X0.6394       Y3.5441    
   X0.6368       Y3.5241    
   X0.6290       Y3.5054    
   X0.6167       Y3.4894    
   X0.6007       Y3.4770    
   X0.5820       Y3.4693    
   X0.5620       Y3.4667    
(Pass: 2)
   Z0.0938    
   X0.5419       Y3.4693    
   X0.5232       Y3.4770    
   X0.5072       Y3.4894    
   X0.4949       Y3.5054    
   X0.4871       Y3.5241    
   X0.4845       Y3.5441    
   X0.4871       Y3.5642    
   X0.4949       Y3.5829    
   X0.5072       Y3.5989    
   X0.5232       Y3.6112    
   X0.5419       Y3.6189    
   X0.5620       Y3.6216    
   X0.5820       Y3.6189    
   X0.6007       Y3.6112    
   X0.6167       Y3.5989    
   X0.6290       Y3.5829    
   X0.6368       Y3.5642    
   X0.6394       Y3.5441    
   X0.6368       Y3.5241    
   X0.6290       Y3.5054    
   X0.6167       Y3.4894    
   X0.6007       Y3.4770    
   X0.5820       Y3.4693    
   X0.5620       Y3.4667    
(Pass: 3)
   Z0.0781    
   X0.5419       Y3.4693    
   X0.5232       Y3.4770    
   X0.5072       Y3.4894    
   X0.4949       Y3.5054    
   X0.4871       Y3.5241    
   X0.4845       Y3.5441    
   X0.4871       Y3.5642    
   X0.4949       Y3.5829    
   X0.5072       Y3.5989    
   X0.5232       Y3.6112    
   X0.5419       Y3.6189    
   X0.5620       Y3.6216    
   X0.5820       Y3.6189    
   X0.6007       Y3.6112    
   X0.6167       Y3.5989    
   X0.6290       Y3.5829    
   X0.6368       Y3.5642    
   X0.6394       Y3.5441    
   X0.6368       Y3.5241    
   X0.6290       Y3.5054    
   X0.6167       Y3.4894    
   X0.6007       Y3.4770    
   X0.5820       Y3.4693    
   X0.5620       Y3.4667    
(Pass: 4)
   Z0.0625    
   X0.5419       Y3.4693    
   X0.5232       Y3.4770    
   X0.5072       Y3.4894    
   X0.4949       Y3.5054    
   X0.4871       Y3.5241    
   X0.4845       Y3.5441    
   X0.4871       Y3.5642    
   X0.4949       Y3.5829    
   X0.5072       Y3.5989    
   X0.5232       Y3.6112    
   X0.5419       Y3.6189    
   X0.5620       Y3.6216    
   X0.5820       Y3.6189    
   X0.6007       Y3.6112    
   X0.6167       Y3.5989    
   X0.6290       Y3.5829    
   X0.6368       Y3.5642    
   X0.6394       Y3.5441    
   X0.6368       Y3.5241    
   X0.6290       Y3.5054    
   X0.6167       Y3.4894    
   X0.6007       Y3.4770    
   X0.5820       Y3.4693    
   X0.5620       Y3.4667    
(Pass: 5)
   Z0.0469    
   X0.5419       Y3.4693    
   X0.5232       Y3.4770    
   X0.5072       Y3.4894    
   X0.4949       Y3.5054    
   X0.4871       Y3.5241    
   X0.4845       Y3.5441    
   X0.4871       Y3.5642    
   X0.4949       Y3.5829    
   X0.5072       Y3.5989    
   X0.5232       Y3.6112    
   X0.5419       Y3.6189    
   X0.5620       Y3.6216    
   X0.5820       Y3.6189    
   X0.6007       Y3.6112    
   X0.6167       Y3.5989    
   X0.6290       Y3.5829    
   X0.6368       Y3.5642    
   X0.6394       Y3.5441    
   X0.6368       Y3.5241    
   X0.6290       Y3.5054    
   X0.6167       Y3.4894    
   X0.6007       Y3.4770    
   X0.5820       Y3.4693    
   X0.5620       Y3.4667    
(Pass: 6)
   Z0.0312    
   X0.5419       Y3.4693    
   X0.5232       Y3.4770    
   X0.5072       Y3.4894    
   X0.4949       Y3.5054    
   X0.4871       Y3.5241    
   X0.4845       Y3.5441    
   X0.4871       Y3.5642    
   X0.4949       Y3.5829    
   X0.5072       Y3.5989    
   X0.5232       Y3.6112    
   X0.5419       Y3.6189    
   X0.5620       Y3.6216    
   X0.5820       Y3.6189    
   X0.6007       Y3.6112    
   X0.6167       Y3.5989    
   X0.6290       Y3.5829    
   X0.6368       Y3.5642    
   X0.6394       Y3.5441    
   X0.6368       Y3.5241    
   X0.6290       Y3.5054    
   X0.6167       Y3.4894    
   X0.6007       Y3.4770    
   X0.5820       Y3.4693    
   X0.5620       Y3.4667    
(Pass: 7)
   Z0.0156    
   X0.5419       Y3.4693    
   X0.5232       Y3.4770    
   X0.5072       Y3.4894    
   X0.4949       Y3.5054    
   X0.4871       Y3.5241    
   X0.4845       Y3.5441    
   X0.4871       Y3.5642    
   X0.4949       Y3.5829    
   X0.5072       Y3.5989    
   X0.5232       Y3.6112    
   X0.5419       Y3.6189    
   X0.5620       Y3.6216    
   X0.5820       Y3.6189    
   X0.6007       Y3.6112    
   X0.6167       Y3.5989    
   X0.6290       Y3.5829    
   X0.6368       Y3.5642    
   X0.6394       Y3.5441    
   X0.6368       Y3.5241    
   X0.6290       Y3.5054    
   X0.6167       Y3.4894    
   X0.6007       Y3.4770    
   X0.5820       Y3.4693    
   X0.5620       Y3.4667    
(Pass: 8)
   Z0.0000    
   X0.5419       Y3.4693    
   X0.5232       Y3.4770    
   X0.5072       Y3.4894    
   X0.4949       Y3.5054    
   X0.4871       Y3.5241    
   X0.4845       Y3.5441    
   X0.4871       Y3.5642    
   X0.4949       Y3.5829    
   X0.5072       Y3.5989    
   X0.5232       Y3.6112    
   X0.5419       Y3.6189    
   X0.5620       Y3.6216    
   X0.5820       Y3.6189    
   X0.6007       Y3.6112    
   X0.6167       Y3.5989    
   X0.6290       Y3.5829    
   X0.6368       Y3.5642    
   X0.6394       Y3.5441    
   X0.6368       Y3.5241    
   X0.6290       Y3.5054    
   X0.6167       Y3.4894    
   X0.6007       Y3.4770    
   X0.5820       Y3.4693    
   X0.5620       Y3.4667    
G0   Z0.2500    
(Pass: 1)
   X3.1460       Y2.6241    
G1   Z0.1094     F60  
   X3.1497       Y2.6330    
   X3.1556       Y2.6407    
   X3.1633       Y2.6465    
   X3.1722       Y2.6502    
   X3.1858       Y2.6520    
   X3.5320    
   X3.5456       Y2.6502    
   X3.5545       Y2.6465    
   X3.5622       Y2.6407    
   X3.5681       Y2.6330    
   X3.5718       Y2.6241    
   X3.5730       Y2.6145    
   X3.5718       Y2.6050    
   X3.5681       Y2.5960    
   X3.5622       Y2.5884    
   X3.5545       Y2.5825    
   X3.5456       Y2.5788    
   X3.5320       Y2.5770    
   X3.1858    
   X3.1722       Y2.5788    
   X3.1633       Y2.5825    
   X3.1556       Y2.5884    
   X3.1497       Y2.5960    
   X3.1460       Y2.6050    
   X3.1448       Y2.6145    
   X3.1460       Y2.6241    
(Pass: 2)
   Z0.0938    
   X3.1497       Y2.6330    
   X3.1556       Y2.6407    
   X3.1633       Y2.6465    
   X3.1722       Y2.6502    
   X3.1858       Y2.6520    
   X3.5320    
   X3.5456       Y2.6502    
   X3.5545       Y2.6465    
   X3.5622       Y2.6407    
   X3.5681       Y2.6330    
   X3.5718       Y2.6241    
   X3.5730       Y2.6145    
   X3.5718       Y2.6050    
   X3.5681       Y2.5960    
   X3.5622       Y2.5884    
   X3.5545       Y2.5825    
   X3.5456       Y2.5788    
   X3.5320       Y2.5770    
   X3.1858    
   X3.1722       Y2.5788    
   X3.1633       Y2.5825    
   X3.1556       Y2.5884    
   X3.1497       Y2.5960    
   X3.1460       Y2.6050    
   X3.1448       Y2.6145    
   X3.1460       Y2.6241    
(Pass: 3)
   Z0.0781    
   X3.1497       Y2.6330    
   X3.1556       Y2.6407    
   X3.1633       Y2.6465    
   X3.1722       Y2.6502    
   X3.1858       Y2.6520    
   X3.5320    
   X3.5456       Y2.6502    
   X3.5545       Y2.6465    
   X3.5622       Y2.6407    
   X3.5681       Y2.6330    
   X3.5718       Y2.6241    
   X3.5730       Y2.6145    
   X3.5718       Y2.6050    
   X3.5681       Y2.5960    
   X3.5622       Y2.5884    
   X3.5545       Y2.5825    
   X3.5456       Y2.5788    
   X3.5320       Y2.5770    
   X3.1858    
   X3.1722       Y2.5788    
   X3.1633       Y2.5825    
   X3.1556       Y2.5884    
   X3.1497       Y2.5960    
   X3.1460       Y2.6050    
   X3.1448       Y2.6145    
   X3.1460       Y2.6241    
(Pass: 4)
   Z0.0625    
   X3.1497       Y2.6330    
   X3.1556       Y2.6407    
   X3.1633       Y2.6465    
   X3.1722       Y2.6502    
   X3.1858       Y2.6520    
   X3.5320    
   X3.5456       Y2.6502    
   X3.5545       Y2.6465    
   X3.5622       Y2.6407    
   X3.5681       Y2.6330    
   X3.5718       Y2.6241    
   X3.5730       Y2.6145    
   X3.5718       Y2.6050    
   X3.5681       Y2.5960    
   X3.5622       Y2.5884    
   X3.5545       Y2.5825    
   X3.5456       Y2.5788    
   X3.5320       Y2.5770    
   X3.1858    
   X3.1722       Y2.5788    
   X3.1633       Y2.5825    
   X3.1556       Y2.5884    
   X3.1497       Y2.5960    
   X3.1460       Y2.6050    
   X3.1448       Y2.6145    
   X3.1460       Y2.6241    
(Pass: 5)
   Z0.0469    
   X3.1497       Y2.6330    
   X3.1556       Y2.6407    
   X3.1633       Y2.6465    
   X3.1722       Y2.6502    
   X3.1858       Y2.6520    
   X3.5320    
   X3.5456       Y2.6502    
   X3.5545       Y2.6465    
   X3.5622       Y2.6407    
   X3.5681       Y2.6330    
   X3.5718       Y2.6241    
   X3.5730       Y2.6145    
   X3.5718       Y2.6050    
   X3.5681       Y2.5960    
   X3.5622       Y2.5884    
   X3.5545       Y2.5825    
   X3.5456       Y2.5788    
   X3.5320       Y2.5770    
   X3.1858    
   X3.1722       Y2.5788    
   X3.1633       Y2.5825    
   X3.1556       Y2.5884    
   X3.1497       Y2.5960    
   X3.1460       Y2.6050    
   X3.1448       Y2.6145    
   X3.1460       Y2.6241    
(Pass: 6)
   Z0.0312    
   X3.1497       Y2.6330    
   X3.1556       Y2.6407    
   X3.1633       Y2.6465    
   X3.1722       Y2.6502    
   X3.1858       Y2.6520    
   X3.5320    
   X3.5456       Y2.6502    
   X3.5545       Y2.6465    
   X3.5622       Y2.6407    
   X3.5681       Y2.6330    
   X3.5718       Y2.6241    
   X3.5730       Y2.6145    
   X3.5718       Y2.6050    
   X3.5681       Y2.5960    
   X3.5622       Y2.5884    
   X3.5545       Y2.5825    
   X3.5456       Y2.5788    
   X3.5320       Y2.5770    
   X3.1858    
   X3.1722       Y2.5788    
   X3.1633       Y2.5825    
   X3.1556       Y2.5884    
   X3.1497       Y2.5960    
   X3.1460       Y2.6050    
   X3.1448       Y2.6145    
   X3.1460       Y2.6241    
(Pass: 7)
   Z0.0156    
   X3.1497       Y2.6330    
   X3.1556       Y2.6407    
   X3.1633       Y2.6465    
   X3.1722       Y2.6502    
   X3.1858       Y2.6520    
   X3.5320    
   X3.5456       Y2.6502    
   X3.5545       Y2.6465    
   X3.5622       Y2.6407    
   X3.5681       Y2.6330    
   X3.5718       Y2.6241    
   X3.5730       Y2.6145    
   X3.5718       Y2.6050    
   X3.5681       Y2.5960    
   X3.5622       Y2.5884    
   X3.5545       Y2.5825    
   X3.5456       Y2.5788    
   X3.5320       Y2.5770    
   X3.1858    
   X3.1722       Y2.5788    
   X3.1633       Y2.5825    
   X3.1556       Y2.5884    
   X3.1497       Y2.5960    
   X3.1460       Y2.6050    
   X3.1448       Y2.6145    
   X3.1460       Y2.6241    
(Pass: 8)
   Z0.0000    
   X3.1497       Y2.6330    
   X3.1556       Y2.6407    
   X3.1633       Y2.6465    
   X3.1722       Y2.6502    
   X3.1858       Y2.6520    
   X3.5320    
   X3.5456       Y2.6502    
   X3.5545       Y2.6465    
   X3.5622       Y2.6407    
   X3.5681       Y2.6330    
   X3.5718       Y2.6241    
   X3.5730       Y2.6145    
   X3.5718       Y2.6050    
   X3.5681       Y2.5960    
   X3.5622       Y2.5884    
   X3.5545       Y2.5825    
   X3.5456       Y2.5788    
   X3.5320       Y2.5770    
   X3.1858    
   X3.1722       Y2.5788    
   X3.1633       Y2.5825    
   X3.1556       Y2.5884    
   X3.1497       Y2.5960    
   X3.1460       Y2.6050    
   X3.1448       Y2.6145    
   X3.1460       Y2.6241    
G0   Z0.2500    
(Pass: 1)
   X3.6558       Y2.1713    
G1   Z0.1094     F60  
   X3.6614       Y2.1786    
   X3.6687       Y2.1842    
   X3.6773       Y2.1878    
   X3.6864       Y2.1890    
   X3.6956       Y2.1878    
   X3.7041       Y2.1842    
   X3.7114       Y2.1786    
   X3.7171       Y2.1713    
   X3.7206       Y2.1627    
   X3.7218       Y2.1536    
   X3.7206       Y2.1444    
   X3.7171       Y2.1359    
   X3.7114       Y2.1286    
   X3.7041       Y2.1229    
   X3.6956       Y2.1194    
   X3.6864       Y2.1182    
   X3.6773       Y2.1194    
   X3.6687       Y2.1229    
   X3.6614       Y2.1286    
   X3.6558       Y2.1359    
   X3.6522       Y2.1444    
   X3.6510       Y2.1536    
   X3.6522       Y2.1627    
   X3.6558       Y2.1713    
(Pass: 2)
   Z0.0938    
   X3.6614       Y2.1786    
   X3.6687       Y2.1842    
   X3.6773       Y2.1878    
   X3.6864       Y2.1890    
   X3.6956       Y2.1878    
   X3.7041       Y2.1842    
   X3.7114       Y2.1786    
   X3.7171       Y2.1713    
   X3.7206       Y2.1627    
   X3.7218       Y2.1536    
   X3.7206       Y2.1444    
   X3.7171       Y2.1359    
   X3.7114       Y2.1286    
   X3.7041       Y2.1229    
   X3.6956       Y2.1194    
   X3.6864       Y2.1182    
   X3.6773       Y2.1194    
   X3.6687       Y2.1229    
   X3.6614       Y2.1286    
   X3.6558       Y2.1359    
   X3.6522       Y2.1444    
   X3.6510       Y2.1536    
   X3.6522       Y2.1627    
   X3.6558       Y2.1713    
(Pass: 3)
   Z0.0781    
   X3.6614       Y2.1786    
   X3.6687       Y2.1842    
   X3.6773       Y2.1878    
   X3.6864       Y2.1890    
   X3.6956       Y2.1878    
   X3.7041       Y2.1842    
   X3.7114       Y2.1786    
   X3.7171       Y2.1713    
   X3.7206       Y2.1627    
   X3.7218       Y2.1536    
   X3.7206       Y2.1444    
   X3.7171       Y2.1359    
   X3.7114       Y2.1286    
   X3.7041       Y2.1229    
   X3.6956       Y2.1194    
   X3.6864       Y2.1182    
   X3.6773       Y2.1194    
   X3.6687       Y2.1229    
   X3.6614       Y2.1286    
   X3.6558       Y2.1359    
   X3.6522       Y2.1444    
   X3.6510       Y2.1536    
   X3.6522       Y2.1627    
   X3.6558       Y2.1713    
(Pass: 4)
   Z0.0625    
   X3.6614       Y2.1786    
   X3.6687       Y2.1842    
   X3.6773       Y2.1878    
   X3.6864       Y2.1890    
   X3.6956       Y2.1878    
   X3.7041       Y2.1842    
   X3.7114       Y2.1786    
   X3.7171       Y2.1713    
   X3.7206       Y2.1627    
   X3.7218       Y2.1536    
   X3.7206       Y2.1444    
   X3.7171       Y2.1359    
   X3.7114       Y2.1286    
   X3.7041       Y2.1229    
   X3.6956       Y2.1194    
   X3.6864       Y2.1182    
   X3.6773       Y2.1194    
   X3.6687       Y2.1229    
   X3.6614       Y2.1286    
   X3.6558       Y2.1359    
   X3.6522       Y2.1444    
   X3.6510       Y2.1536    
   X3.6522       Y2.1627    
   X3.6558       Y2.1713    
(Pass: 5)
   Z0.0469    
   X3.6614       Y2.1786    
   X3.6687       Y2.1842    
   X3.6773       Y2.1878    
   X3.6864       Y2.1890    
   X3.6956       Y2.1878    
   X3.7041       Y2.1842    
   X3.7114       Y2.1786    
   X3.7171       Y2.1713    
   X3.7206       Y2.1627    
   X3.7218       Y2.1536    
   X3.7206       Y2.1444    
   X3.7171       Y2.1359    
   X3.7114       Y2.1286    
   X3.7041       Y2.1229    
   X3.6956       Y2.1194    
   X3.6864       Y2.1182    
   X3.6773       Y2.1194    
   X3.6687       Y2.1229    
   X3.6614       Y2.1286    
   X3.6558       Y2.1359    
   X3.6522       Y2.1444    
   X3.6510       Y2.1536    
   X3.6522       Y2.1627    
   X3.6558       Y2.1713    
(Pass: 6)
   Z0.0312    
   X3.6614       Y2.1786    
   X3.6687       Y2.1842    
   X3.6773       Y2.1878    
   X3.6864       Y2.1890    
   X3.6956       Y2.1878    
   X3.7041       Y2.1842    
   X3.7114       Y2.1786    
   X3.7171       Y2.1713    
   X3.7206       Y2.1627    
   X3.7218       Y2.1536    
   X3.7206       Y2.1444    
   X3.7171       Y2.1359    
   X3.7114       Y2.1286    
   X3.7041       Y2.1229    
   X3.6956       Y2.1194    
   X3.6864       Y2.1182    
   X3.6773       Y2.1194    
   X3.6687       Y2.1229    
   X3.6614       Y2.1286    
   X3.6558       Y2.1359    
   X3.6522       Y2.1444    
   X3.6510       Y2.1536    
   X3.6522       Y2.1627    
   X3.6558       Y2.1713    
(Pass: 7)
   Z0.0156    
   X3.6614       Y2.1786    
   X3.6687       Y2.1842    
   X3.6773       Y2.1878    
   X3.6864       Y2.1890    
   X3.6956       Y2.1878    
   X3.7041       Y2.1842    
   X3.7114       Y2.1786    
   X3.7171       Y2.1713    
   X3.7206       Y2.1627    
   X3.7218       Y2.1536    
   X3.7206       Y2.1444    
   X3.7171       Y2.1359    
   X3.7114       Y2.1286    
   X3.7041       Y2.1229    
   X3.6956       Y2.1194    
   X3.6864       Y2.1182    
   X3.6773       Y2.1194    
   X3.6687       Y2.1229    
   X3.6614       Y2.1286    
   X3.6558       Y2.1359    
   X3.6522       Y2.1444    
   X3.6510       Y2.1536    
   X3.6522       Y2.1627    
   X3.6558       Y2.1713    
(Pass: 8)
   Z0.0000    
   X3.6614       Y2.1786    
   X3.6687       Y2.1842    
   X3.6773       Y2.1878    
   X3.6864       Y2.1890    
   X3.6956       Y2.1878    
   X3.7041       Y2.1842    
   X3.7114       Y2.1786    
   X3.7171       Y2.1713    
   X3.7206       Y2.1627    
   X3.7218       Y2.1536    
   X3.7206       Y2.1444    
   X3.7171       Y2.1359    
   X3.7114       Y2.1286    
   X3.7041       Y2.1229    
   X3.6956       Y2.1194    
   X3.6864       Y2.1182    
   X3.6773       Y2.1194    
   X3.6687       Y2.1229    
   X3.6614       Y2.1286    
   X3.6558       Y2.1359    
   X3.6522       Y2.1444    
   X3.6510       Y2.1536    
   X3.6522       Y2.1627    
   X3.6558       Y2.1713    
G0   Z0.2500    
(Pass: 1)
   X4.2916       Y1.3518    
G1   Z0.1094     F60  
   X4.2989       Y1.3574    
   X4.3075       Y1.3610    
   X4.3166       Y1.3622    
   X4.3258       Y1.3610    
   X4.3343       Y1.3574    
   X4.3416       Y1.3518    
   X4.3473       Y1.3445    
   X4.3508       Y1.3360    
   X4.3520       Y1.3268    
   X4.3508       Y1.3176    
   X4.3473       Y1.3091    
   X4.3416       Y1.3018    
   X4.3343       Y1.2962    
   X4.3258       Y1.2926    
   X4.3166       Y1.2914    
   X4.3075       Y1.2926    
   X4.2989       Y1.2962    
   X4.2916       Y1.3018    
   X4.2860       Y1.3091    
   X4.2824       Y1.3176    
   X4.2812       Y1.3268    
   X4.2824       Y1.3360    
   X4.2860       Y1.3445    
   X4.2916       Y1.3518    
(Pass: 2)
   Z0.0938    
   X4.2989       Y1.3574    
   X4.3075       Y1.3610    
   X4.3166       Y1.3622    
   X4.3258       Y1.3610    
   X4.3343       Y1.3574    
   X4.3416       Y1.3518    
   X4.3473       Y1.3445    
   X4.3508       Y1.3360    
   X4.3520       Y1.3268    
   X4.3508       Y1.3176    
   X4.3473       Y1.3091    
   X4.3416       Y1.3018    
   X4.3343       Y1.2962    
   X4.3258       Y1.2926    
   X4.3166       Y1.2914    
   X4.3075       Y1.2926    
   X4.2989       Y1.2962    
   X4.2916       Y1.3018    
   X4.2860       Y1.3091    
   X4.2824       Y1.3176    
   X4.2812       Y1.3268    
   X4.2824       Y1.3360    
   X4.2860       Y1.3445    
   X4.2916       Y1.3518    
(Pass: 3)
   Z0.0781    
   X4.2989       Y1.3574    
   X4.3075       Y1.3610    
   X4.3166       Y1.3622    
   X4.3258       Y1.3610    
   X4.3343       Y1.3574    
   X4.3416       Y1.3518    
   X4.3473       Y1.3445    
   X4.3508       Y1.3360    
   X4.3520       Y1.3268    
   X4.3508       Y1.3176    
   X4.3473       Y1.3091    
   X4.3416       Y1.3018    
   X4.3343       Y1.2962    
   X4.3258       Y1.2926    
   X4.3166       Y1.2914    
   X4.3075       Y1.2926    
   X4.2989       Y1.2962    
   X4.2916       Y1.3018    
   X4.2860       Y1.3091    
   X4.2824       Y1.3176    
   X4.2812       Y1.3268    
   X4.2824       Y1.3360    
   X4.2860       Y1.3445    
   X4.2916       Y1.3518    
(Pass: 4)
   Z0.0625    
   X4.2989       Y1.3574    
   X4.3075       Y1.3610    
   X4.3166       Y1.3622    
   X4.3258       Y1.3610    
   X4.3343       Y1.3574    
   X4.3416       Y1.3518    
   X4.3473       Y1.3445    
   X4.3508       Y1.3360    
   X4.3520       Y1.3268    
   X4.3508       Y1.3176    
   X4.3473       Y1.3091    
   X4.3416       Y1.3018    
   X4.3343       Y1.2962    
   X4.3258       Y1.2926    
   X4.3166       Y1.2914    
   X4.3075       Y1.2926    
   X4.2989       Y1.2962    
   X4.2916       Y1.3018    
   X4.2860       Y1.3091    
   X4.2824       Y1.3176    
   X4.2812       Y1.3268    
   X4.2824       Y1.3360    
   X4.2860       Y1.3445    
   X4.2916       Y1.3518    
(Pass: 5)
   Z0.0469    
   X4.2989       Y1.3574    
   X4.3075       Y1.3610    
   X4.3166       Y1.3622    
   X4.3258       Y1.3610    
   X4.3343       Y1.3574    
   X4.3416       Y1.3518    
   X4.3473       Y1.3445    
   X4.3508       Y1.3360    
   X4.3520       Y1.3268    
   X4.3508       Y1.3176    
   X4.3473       Y1.3091    
   X4.3416       Y1.3018    
   X4.3343       Y1.2962    
   X4.3258       Y1.2926    
   X4.3166       Y1.2914    
   X4.3075       Y1.2926    
   X4.2989       Y1.2962    
   X4.2916       Y1.3018    
   X4.2860       Y1.3091    
   X4.2824       Y1.3176    
   X4.2812       Y1.3268    
   X4.2824       Y1.3360    
   X4.2860       Y1.3445    
   X4.2916       Y1.3518    
(Pass: 6)
   Z0.0312    
   X4.2989       Y1.3574    
   X4.3075       Y1.3610    
   X4.3166       Y1.3622    
   X4.3258       Y1.3610    
   X4.3343       Y1.3574    
   X4.3416       Y1.3518    
   X4.3473       Y1.3445    
   X4.3508       Y1.3360    
   X4.3520       Y1.3268    
   X4.3508       Y1.3176    
   X4.3473       Y1.3091    
   X4.3416       Y1.3018    
   X4.3343       Y1.2962    
   X4.3258       Y1.2926    
   X4.3166       Y1.2914    
   X4.3075       Y1.2926    
   X4.2989       Y1.2962    
   X4.2916       Y1.3018    
   X4.2860       Y1.3091    
   X4.2824       Y1.3176    
   X4.2812       Y1.3268    
   X4.2824       Y1.3360    
   X4.2860       Y1.3445    
   X4.2916       Y1.3518    
(Pass: 7)
   Z0.0156    
   X4.2989       Y1.3574    
   X4.3075       Y1.3610    
   X4.3166       Y1.3622    
   X4.3258       Y1.3610    
   X4.3343       Y1.3574    
   X4.3416       Y1.3518    
   X4.3473       Y1.3445    
   X4.3508       Y1.3360    
   X4.3520       Y1.3268    
   X4.3508       Y1.3176    
   X4.3473       Y1.3091    
   X4.3416       Y1.3018    
   X4.3343       Y1.2962    
   X4.3258       Y1.2926    
   X4.3166       Y1.2914    
   X4.3075       Y1.2926    
   X4.2989       Y1.2962    
   X4.2916       Y1.3018    
   X4.2860       Y1.3091    
   X4.2824       Y1.3176    
   X4.2812       Y1.3268    
   X4.2824       Y1.3360    
   X4.2860       Y1.3445    
   X4.2916       Y1.3518    
(Pass: 8)
   Z0.0000    
   X4.2989       Y1.3574    
   X4.3075       Y1.3610    
   X4.3166       Y1.3622    
   X4.3258       Y1.3610    
   X4.3343       Y1.3574    
   X4.3416       Y1.3518    
   X4.3473       Y1.3445    
   X4.3508       Y1.3360    
   X4.3520       Y1.3268    
   X4.3508       Y1.3176    
   X4.3473       Y1.3091    
   X4.3416       Y1.3018    
   X4.3343       Y1.2962    
   X4.3258       Y1.2926    
   X4.3166       Y1.2914    
   X4.3075       Y1.2926    
   X4.2989       Y1.2962    
   X4.2916       Y1.3018    
   X4.2860       Y1.3091    
   X4.2824       Y1.3176    
   X4.2812       Y1.3268    
   X4.2824       Y1.3360    
   X4.2860       Y1.3445    
   X4.2916       Y1.3518    
G0   Z0.2500    
(Pass: 1)
   X4.9497       Y1.4905    
G1   Z0.1094     F60  
   X4.9485       Y1.4997    
   X4.9497       Y1.5088    
   X4.9532       Y1.5173    
   X4.9588       Y1.5247    
   X4.9662       Y1.5303    
   X4.9747       Y1.5338    
   X4.9838       Y1.5350    
   X4.9930       Y1.5338    
   X5.0015       Y1.5303    
   X5.0089       Y1.5247    
   X5.0145       Y1.5173    
   X5.0180       Y1.5088    
   X5.0192       Y1.4997    
   X5.0180       Y1.4905    
   X5.0145       Y1.4820    
   X5.0089       Y1.4746    
   X5.0015       Y1.4690    
   X4.9930       Y1.4655    
   X4.9838       Y1.4643    
   X4.9747       Y1.4655    
   X4.9662       Y1.4690    
   X4.9588       Y1.4746    
   X4.9532       Y1.4820    
   X4.9497       Y1.4905    
(Pass: 2)
   Z0.0938    
   X4.9485       Y1.4997    
   X4.9497       Y1.5088    
   X4.9532       Y1.5173    
   X4.9588       Y1.5247    
   X4.9662       Y1.5303    
   X4.9747       Y1.5338    
   X4.9838       Y1.5350    
   X4.9930       Y1.5338    
   X5.0015       Y1.5303    
   X5.0089       Y1.5247    
   X5.0145       Y1.5173    
   X5.0180       Y1.5088    
   X5.0192       Y1.4997    
   X5.0180       Y1.4905    
   X5.0145       Y1.4820    
   X5.0089       Y1.4746    
   X5.0015       Y1.4690    
   X4.9930       Y1.4655    
   X4.9838       Y1.4643    
   X4.9747       Y1.4655    
   X4.9662       Y1.4690    
   X4.9588       Y1.4746    
   X4.9532       Y1.4820    
   X4.9497       Y1.4905    
(Pass: 3)
   Z0.0781    
   X4.9485       Y1.4997    
   X4.9497       Y1.5088    
   X4.9532       Y1.5173    
   X4.9588       Y1.5247    
   X4.9662       Y1.5303    
   X4.9747       Y1.5338    
   X4.9838       Y1.5350    
   X4.9930       Y1.5338    
   X5.0015       Y1.5303    
   X5.0089       Y1.5247    
   X5.0145       Y1.5173    
   X5.0180       Y1.5088    
   X5.0192       Y1.4997    
   X5.0180       Y1.4905    
   X5.0145       Y1.4820    
   X5.0089       Y1.4746    
   X5.0015       Y1.4690    
   X4.9930       Y1.4655    
   X4.9838       Y1.4643    
   X4.9747       Y1.4655    
   X4.9662       Y1.4690    
   X4.9588       Y1.4746    
   X4.9532       Y1.4820    
   X4.9497       Y1.4905    
(Pass: 4)
   Z0.0625    
   X4.9485       Y1.4997    
   X4.9497       Y1.5088    
   X4.9532       Y1.5173    
   X4.9588       Y1.5247    
   X4.9662       Y1.5303    
   X4.9747       Y1.5338    
   X4.9838       Y1.5350    
   X4.9930       Y1.5338    
   X5.0015       Y1.5303    
   X5.0089       Y1.5247    
   X5.0145       Y1.5173    
   X5.0180       Y1.5088    
   X5.0192       Y1.4997    
   X5.0180       Y1.4905    
   X5.0145       Y1.4820    
   X5.0089       Y1.4746    
   X5.0015       Y1.4690    
   X4.9930       Y1.4655    
   X4.9838       Y1.4643    
   X4.9747       Y1.4655    
   X4.9662       Y1.4690    
   X4.9588       Y1.4746    
   X4.9532       Y1.4820    
   X4.9497       Y1.4905    
(Pass: 5)
   Z0.0469    
   X4.9485       Y1.4997    
   X4.9497       Y1.5088    
   X4.9532       Y1.5173    
   X4.9588       Y1.5247    
   X4.9662       Y1.5303    
   X4.9747       Y1.5338    
   X4.9838       Y1.5350    
   X4.9930       Y1.5338    
   X5.0015       Y1.5303    
   X5.0089       Y1.5247    
   X5.0145       Y1.5173    
   X5.0180       Y1.5088    
   X5.0192       Y1.4997    
   X5.0180       Y1.4905    
   X5.0145       Y1.4820    
   X5.0089       Y1.4746    
   X5.0015       Y1.4690    
   X4.9930       Y1.4655    
   X4.9838       Y1.4643    
   X4.9747       Y1.4655    
   X4.9662       Y1.4690    
   X4.9588       Y1.4746    
   X4.9532       Y1.4820    
   X4.9497       Y1.4905    
(Pass: 6)
   Z0.0312    
   X4.9485       Y1.4997    
   X4.9497       Y1.5088    
   X4.9532       Y1.5173    
   X4.9588       Y1.5247    
   X4.9662       Y1.5303    
   X4.9747       Y1.5338    
   X4.9838       Y1.5350    
   X4.9930       Y1.5338    
   X5.0015       Y1.5303    
   X5.0089       Y1.5247    
   X5.0145       Y1.5173    
   X5.0180       Y1.5088    
   X5.0192       Y1.4997    
   X5.0180       Y1.4905    
   X5.0145       Y1.4820    
   X5.0089       Y1.4746    
   X5.0015       Y1.4690    
   X4.9930       Y1.4655    
   X4.9838       Y1.4643    
   X4.9747       Y1.4655    
   X4.9662       Y1.4690    
   X4.9588       Y1.4746    
   X4.9532       Y1.4820    
   X4.9497       Y1.4905    
(Pass: 7)
   Z0.0156    
   X4.9485       Y1.4997    
   X4.9497       Y1.5088    
   X4.9532       Y1.5173    
   X4.9588       Y1.5247    
   X4.9662       Y1.5303    
   X4.9747       Y1.5338    
   X4.9838       Y1.5350    
   X4.9930       Y1.5338    
   X5.0015       Y1.5303    
   X5.0089       Y1.5247    
   X5.0145       Y1.5173    
   X5.0180       Y1.5088    
   X5.0192       Y1.4997    
   X5.0180       Y1.4905    
   X5.0145       Y1.4820    
   X5.0089       Y1.4746    
   X5.0015       Y1.4690    
   X4.9930       Y1.4655    
   X4.9838       Y1.4643    
   X4.9747       Y1.4655    
   X4.9662       Y1.4690    
   X4.9588       Y1.4746    
   X4.9532       Y1.4820    
   X4.9497       Y1.4905    
(Pass: 8)
   Z0.0000    
   X4.9485       Y1.4997    
   X4.9497       Y1.5088    
   X4.9532       Y1.5173    
   X4.9588       Y1.5247    
   X4.9662       Y1.5303    
   X4.9747       Y1.5338    
   X4.9838       Y1.5350    
   X4.9930       Y1.5338    
   X5.0015       Y1.5303    
   X5.0089       Y1.5247    
   X5.0145       Y1.5173    
   X5.0180       Y1.5088    
   X5.0192       Y1.4997    
   X5.0180       Y1.4905    
   X5.0145       Y1.4820    
   X5.0089       Y1.4746    
   X5.0015       Y1.4690    
   X4.9930       Y1.4655    
   X4.9838       Y1.4643    
   X4.9747       Y1.4655    
   X4.9662       Y1.4690    
   X4.9588       Y1.4746    
   X4.9532       Y1.4820    
   X4.9497       Y1.4905    
G0   Z0.2500    
(Pass: 1)
   X4.9747       Y0.6917    
G1   Z0.1094     F60  
   X4.9838       Y0.6929    
   X4.9930       Y0.6917    
   X5.0015       Y0.6882    
   X5.0089       Y0.6825    
   X5.0145       Y0.6752    
   X5.0180       Y0.6667    
   X5.0192       Y0.6575    
   X5.0180       Y0.6484    
   X5.0145       Y0.6398    
   X5.0089       Y0.6325    
   X5.0015       Y0.6269    
   X4.9930       Y0.6233    
   X4.9838       Y0.6221    
   X4.9747       Y0.6233    
   X4.9662       Y0.6269    
   X4.9588       Y0.6325    
   X4.9532       Y0.6398    
   X4.9497       Y0.6484    
   X4.9485       Y0.6575    
   X4.9497       Y0.6667    
   X4.9532       Y0.6752    
   X4.9588       Y0.6825    
   X4.9662       Y0.6882    
   X4.9747       Y0.6917    
(Pass: 2)
   Z0.0938    
   X4.9838       Y0.6929    
   X4.9930       Y0.6917    
   X5.0015       Y0.6882    
   X5.0089       Y0.6825    
   X5.0145       Y0.6752    
   X5.0180       Y0.6667    
   X5.0192       Y0.6575    
   X5.0180       Y0.6484    
   X5.0145       Y0.6398    
   X5.0089       Y0.6325    
   X5.0015       Y0.6269    
   X4.9930       Y0.6233    
   X4.9838       Y0.6221    
   X4.9747       Y0.6233    
   X4.9662       Y0.6269    
   X4.9588       Y0.6325    
   X4.9532       Y0.6398    
   X4.9497       Y0.6484    
   X4.9485       Y0.6575    
   X4.9497       Y0.6667    
   X4.9532       Y0.6752    
   X4.9588       Y0.6825    
   X4.9662       Y0.6882    
   X4.9747       Y0.6917    
(Pass: 3)
   Z0.0781    
   X4.9838       Y0.6929    
   X4.9930       Y0.6917    
   X5.0015       Y0.6882    
   X5.0089       Y0.6825    
   X5.0145       Y0.6752    
   X5.0180       Y0.6667    
   X5.0192       Y0.6575    
   X5.0180       Y0.6484    
   X5.0145       Y0.6398    
   X5.0089       Y0.6325    
   X5.0015       Y0.6269    
   X4.9930       Y0.6233    
   X4.9838       Y0.6221    
   X4.9747       Y0.6233    
   X4.9662       Y0.6269    
   X4.9588       Y0.6325    
   X4.9532       Y0.6398    
   X4.9497       Y0.6484    
   X4.9485       Y0.6575    
   X4.9497       Y0.6667    
   X4.9532       Y0.6752    
   X4.9588       Y0.6825    
   X4.9662       Y0.6882    
   X4.9747       Y0.6917    
(Pass: 4)
   Z0.0625    
   X4.9838       Y0.6929    
   X4.9930       Y0.6917    
   X5.0015       Y0.6882    
   X5.0089       Y0.6825    
   X5.0145       Y0.6752    
   X5.0180       Y0.6667    
   X5.0192       Y0.6575    
   X5.0180       Y0.6484    
   X5.0145       Y0.6398    
   X5.0089       Y0.6325    
   X5.0015       Y0.6269    
   X4.9930       Y0.6233    
   X4.9838       Y0.6221    
   X4.9747       Y0.6233    
   X4.9662       Y0.6269    
   X4.9588       Y0.6325    
   X4.9532       Y0.6398    
   X4.9497       Y0.6484    
   X4.9485       Y0.6575    
   X4.9497       Y0.6667    
   X4.9532       Y0.6752    
   X4.9588       Y0.6825    
   X4.9662       Y0.6882    
   X4.9747       Y0.6917    
(Pass: 5)
   Z0.0469    
   X4.9838       Y0.6929    
   X4.9930       Y0.6917    
   X5.0015       Y0.6882    
   X5.0089       Y0.6825    
   X5.0145       Y0.6752    
   X5.0180       Y0.6667    
   X5.0192       Y0.6575    
   X5.0180       Y0.6484    
   X5.0145       Y0.6398    
   X5.0089       Y0.6325    
   X5.0015       Y0.6269    
   X4.9930       Y0.6233    
   X4.9838       Y0.6221    
   X4.9747       Y0.6233    
   X4.9662       Y0.6269    
   X4.9588       Y0.6325    
   X4.9532       Y0.6398    
   X4.9497       Y0.6484    
   X4.9485       Y0.6575    
   X4.9497       Y0.6667    
   X4.9532       Y0.6752    
   X4.9588       Y0.6825    
   X4.9662       Y0.6882    
   X4.9747       Y0.6917    
(Pass: 6)
   Z0.0312    
   X4.9838       Y0.6929    
   X4.9930       Y0.6917    
   X5.0015       Y0.6882    
   X5.0089       Y0.6825    
   X5.0145       Y0.6752    
   X5.0180       Y0.6667    
   X5.0192       Y0.6575    
   X5.0180       Y0.6484    
   X5.0145       Y0.6398    
   X5.0089       Y0.6325    
   X5.0015       Y0.6269    
   X4.9930       Y0.6233    
   X4.9838       Y0.6221    
   X4.9747       Y0.6233    
   X4.9662       Y0.6269    
   X4.9588       Y0.6325    
   X4.9532       Y0.6398    
   X4.9497       Y0.6484    
   X4.9485       Y0.6575    
   X4.9497       Y0.6667    
   X4.9532       Y0.6752    
   X4.9588       Y0.6825    
   X4.9662       Y0.6882    
   X4.9747       Y0.6917    
(Pass: 7)
   Z0.0156    
   X4.9838       Y0.6929    
   X4.9930       Y0.6917    
   X5.0015       Y0.6882    
   X5.0089       Y0.6825    
   X5.0145       Y0.6752    
   X5.0180       Y0.6667    
   X5.0192       Y0.6575    
   X5.0180       Y0.6484    
   X5.0145       Y0.6398    
   X5.0089       Y0.6325    
   X5.0015       Y0.6269    
   X4.9930       Y0.6233    
   X4.9838       Y0.6221    
   X4.9747       Y0.6233    
   X4.9662       Y0.6269    
   X4.9588       Y0.6325    
   X4.9532       Y0.6398    
   X4.9497       Y0.6484    
   X4.9485       Y0.6575    
   X4.9497       Y0.6667    
   X4.9532       Y0.6752    
   X4.9588       Y0.6825    
   X4.9662       Y0.6882    
   X4.9747       Y0.6917    
(Pass: 8)
   Z0.0000    
   X4.9838       Y0.6929    
   X4.9930       Y0.6917    
   X5.0015       Y0.6882    
   X5.0089       Y0.6825    
   X5.0145       Y0.6752    
   X5.0180       Y0.6667    
   X5.0192       Y0.6575    
   X5.0180       Y0.6484    
   X5.0145       Y0.6398    
   X5.0089       Y0.6325    
   X5.0015       Y0.6269    
   X4.9930       Y0.6233    
   X4.9838       Y0.6221    
   X4.9747       Y0.6233    
   X4.9662       Y0.6269    
   X4.9588       Y0.6325    
   X4.9532       Y0.6398    
   X4.9497       Y0.6484    
   X4.9485       Y0.6575    
   X4.9497       Y0.6667    
   X4.9532       Y0.6752    
   X4.9588       Y0.6825    
   X4.9662       Y0.6882    
   X4.9747       Y0.6917    
G0   Z0.2500    
(Pass: 1)
   X5.7359       Y0.6575    
G1   Z0.1094     F60  
   X5.7371       Y0.6667    
   X5.7406       Y0.6752    
   X5.7462       Y0.6825    
   X5.7536       Y0.6882    
   X5.7621       Y0.6917    
   X5.7712       Y0.6929    
   X5.7804       Y0.6917    
   X5.7889       Y0.6882    
   X5.7963       Y0.6825    
   X5.8019       Y0.6752    
   X5.8054       Y0.6667    
   X5.8066       Y0.6575    
   X5.8054       Y0.6484    
   X5.8019       Y0.6398    
   X5.7963       Y0.6325    
   X5.7889       Y0.6269    
   X5.7804       Y0.6233    
   X5.7712       Y0.6221    
   X5.7621       Y0.6233    
   X5.7536       Y0.6269    
   X5.7462       Y0.6325    
   X5.7406       Y0.6398    
   X5.7371       Y0.6484    
   X5.7359       Y0.6575    
(Pass: 2)
   Z0.0938    
   X5.7371       Y0.6667    
   X5.7406       Y0.6752    
   X5.7462       Y0.6825    
   X5.7536       Y0.6882    
   X5.7621       Y0.6917    
   X5.7712       Y0.6929    
   X5.7804       Y0.6917    
   X5.7889       Y0.6882    
   X5.7963       Y0.6825    
   X5.8019       Y0.6752    
   X5.8054       Y0.6667    
   X5.8066       Y0.6575    
   X5.8054       Y0.6484    
   X5.8019       Y0.6398    
   X5.7963       Y0.6325    
   X5.7889       Y0.6269    
   X5.7804       Y0.6233    
   X5.7712       Y0.6221    
   X5.7621       Y0.6233    
   X5.7536       Y0.6269    
   X5.7462       Y0.6325    
   X5.7406       Y0.6398    
   X5.7371       Y0.6484    
   X5.7359       Y0.6575    
(Pass: 3)
   Z0.0781    
   X5.7371       Y0.6667    
   X5.7406       Y0.6752    
   X5.7462       Y0.6825    
   X5.7536       Y0.6882    
   X5.7621       Y0.6917    
   X5.7712       Y0.6929    
   X5.7804       Y0.6917    
   X5.7889       Y0.6882    
   X5.7963       Y0.6825    
   X5.8019       Y0.6752    
   X5.8054       Y0.6667    
   X5.8066       Y0.6575    
   X5.8054       Y0.6484    
   X5.8019       Y0.6398    
   X5.7963       Y0.6325    
   X5.7889       Y0.6269    
   X5.7804       Y0.6233    
   X5.7712       Y0.6221    
   X5.7621       Y0.6233    
   X5.7536       Y0.6269    
   X5.7462       Y0.6325    
   X5.7406       Y0.6398    
   X5.7371       Y0.6484    
   X5.7359       Y0.6575    
(Pass: 4)
   Z0.0625    
   X5.7371       Y0.6667    
   X5.7406       Y0.6752    
   X5.7462       Y0.6825    
   X5.7536       Y0.6882    
   X5.7621       Y0.6917    
   X5.7712       Y0.6929    
   X5.7804       Y0.6917    
   X5.7889       Y0.6882    
   X5.7963       Y0.6825    
   X5.8019       Y0.6752    
   X5.8054       Y0.6667    
   X5.8066       Y0.6575    
   X5.8054       Y0.6484    
   X5.8019       Y0.6398    
   X5.7963       Y0.6325    
   X5.7889       Y0.6269    
   X5.7804       Y0.6233    
   X5.7712       Y0.6221    
   X5.7621       Y0.6233    
   X5.7536       Y0.6269    
   X5.7462       Y0.6325    
   X5.7406       Y0.6398    
   X5.7371       Y0.6484    
   X5.7359       Y0.6575    
(Pass: 5)
   Z0.0469    
   X5.7371       Y0.6667    
   X5.7406       Y0.6752    
   X5.7462       Y0.6825    
   X5.7536       Y0.6882    
   X5.7621       Y0.6917    
   X5.7712       Y0.6929    
   X5.7804       Y0.6917    
   X5.7889       Y0.6882    
   X5.7963       Y0.6825    
   X5.8019       Y0.6752    
   X5.8054       Y0.6667    
   X5.8066       Y0.6575    
   X5.8054       Y0.6484    
   X5.8019       Y0.6398    
   X5.7963       Y0.6325    
   X5.7889       Y0.6269    
   X5.7804       Y0.6233    
   X5.7712       Y0.6221    
   X5.7621       Y0.6233    
   X5.7536       Y0.6269    
   X5.7462       Y0.6325    
   X5.7406       Y0.6398    
   X5.7371       Y0.6484    
   X5.7359       Y0.6575    
(Pass: 6)
   Z0.0312    
   X5.7371       Y0.6667    
   X5.7406       Y0.6752    
   X5.7462       Y0.6825    
   X5.7536       Y0.6882    
   X5.7621       Y0.6917    
   X5.7712       Y0.6929    
   X5.7804       Y0.6917    
   X5.7889       Y0.6882    
   X5.7963       Y0.6825    
   X5.8019       Y0.6752    
   X5.8054       Y0.6667    
   X5.8066       Y0.6575    
   X5.8054       Y0.6484    
   X5.8019       Y0.6398    
   X5.7963       Y0.6325    
   X5.7889       Y0.6269    
   X5.7804       Y0.6233    
   X5.7712       Y0.6221    
   X5.7621       Y0.6233    
   X5.7536       Y0.6269    
   X5.7462       Y0.6325    
   X5.7406       Y0.6398    
   X5.7371       Y0.6484    
   X5.7359       Y0.6575    
(Pass: 7)
   Z0.0156    
   X5.7371       Y0.6667    
   X5.7406       Y0.6752    
   X5.7462       Y0.6825    
   X5.7536       Y0.6882    
   X5.7621       Y0.6917    
   X5.7712       Y0.6929    
   X5.7804       Y0.6917    
   X5.7889       Y0.6882    
   X5.7963       Y0.6825    
   X5.8019       Y0.6752    
   X5.8054       Y0.6667    
   X5.8066       Y0.6575    
   X5.8054       Y0.6484    
   X5.8019       Y0.6398    
   X5.7963       Y0.6325    
   X5.7889       Y0.6269    
   X5.7804       Y0.6233    
   X5.7712       Y0.6221    
   X5.7621       Y0.6233    
   X5.7536       Y0.6269    
   X5.7462       Y0.6325    
   X5.7406       Y0.6398    
   X5.7371       Y0.6484    
   X5.7359       Y0.6575    
(Pass: 8)
   Z0.0000    
   X5.7371       Y0.6667    
   X5.7406       Y0.6752    
   X5.7462       Y0.6825    
   X5.7536       Y0.6882    
   X5.7621       Y0.6917    
   X5.7712       Y0.6929    
   X5.7804       Y0.6917    
   X5.7889       Y0.6882    
   X5.7963       Y0.6825    
   X5.8019       Y0.6752    
   X5.8054       Y0.6667    
   X5.8066       Y0.6575    
   X5.8054       Y0.6484    
   X5.8019       Y0.6398    
   X5.7963       Y0.6325    
   X5.7889       Y0.6269    
   X5.7804       Y0.6233    
   X5.7712       Y0.6221    
   X5.7621       Y0.6233    
   X5.7536       Y0.6269    
   X5.7462       Y0.6325    
   X5.7406       Y0.6398    
   X5.7371       Y0.6484    
   X5.7359       Y0.6575    
G0   Z0.2500    
(Pass: 1)
   X6.0814       Y0.6532    
G1   Z0.1094     F60  
   X6.0826       Y0.6624    
   X6.0861       Y0.6709    
   X6.0917       Y0.6782    
   X6.0991       Y0.6839    
   X6.1076       Y0.6874    
   X6.1422       Y0.6920    
   X6.2270       Y0.7598    
   Y0.8830    
   Y0.8890    
   X6.2342       Y0.8903    
   X6.7323    
   X6.7370       Y0.8890    
   Y0.8830    
   Y0.4376    
   X6.3239       Y0.4365    
   X6.2286    
   X6.2273       Y0.5468    
   X6.1421       Y0.6145    
   X6.1076       Y0.6190    
   X6.0991       Y0.6226    
   X6.0918       Y0.6282    
   X6.0861       Y0.6355    
   X6.0826       Y0.6440    
   X6.0814       Y0.6532    
(Pass: 2)
   Z0.0938    
   X6.0826       Y0.6624    
   X6.0861       Y0.6709    
   X6.0917       Y0.6782    
   X6.0991       Y0.6839    
   X6.1076       Y0.6874    
   X6.1422       Y0.6920    
   X6.2270       Y0.7598    
   Y0.8830    
   Y0.8890    
   X6.2342       Y0.8903    
   X6.7323    
   X6.7370       Y0.8890    
   Y0.8830    
   Y0.4376    
   X6.3239       Y0.4365    
   X6.2286    
   X6.2273       Y0.5468    
   X6.1421       Y0.6145    
   X6.1076       Y0.6190    
   X6.0991       Y0.6226    
   X6.0918       Y0.6282    
   X6.0861       Y0.6355    
   X6.0826       Y0.6440    
   X6.0814       Y0.6532    
(Pass: 3)
   Z0.0781    
   X6.0826       Y0.6624    
   X6.0861       Y0.6709    
   X6.0917       Y0.6782    
   X6.0991       Y0.6839    
   X6.1076       Y0.6874    
   X6.1422       Y0.6920    
   X6.2270       Y0.7598    
   Y0.8830    
   Y0.8890    
   X6.2342       Y0.8903    
   X6.7323    
   X6.7370       Y0.8890    
   Y0.8830    
   Y0.4376    
   X6.3239       Y0.4365    
   X6.2286    
   X6.2273       Y0.5468    
   X6.1421       Y0.6145    
   X6.1076       Y0.6190    
   X6.0991       Y0.6226    
   X6.0918       Y0.6282    
   X6.0861       Y0.6355    
   X6.0826       Y0.6440    
   X6.0814       Y0.6532    
(Pass: 4)
   Z0.0625    
   X6.0826       Y0.6624    
   X6.0861       Y0.6709    
   X6.0917       Y0.6782    
   X6.0991       Y0.6839    
   X6.1076       Y0.6874    
   X6.1422       Y0.6920    
   X6.2270       Y0.7598    
   Y0.8830    
   Y0.8890    
   X6.2342       Y0.8903    
   X6.7323    
   X6.7370       Y0.8890    
   Y0.8830    
   Y0.4376    
   X6.3239       Y0.4365    
   X6.2286    
   X6.2273       Y0.5468    
   X6.1421       Y0.6145    
   X6.1076       Y0.6190    
   X6.0991       Y0.6226    
   X6.0918       Y0.6282    
   X6.0861       Y0.6355    
   X6.0826       Y0.6440    
   X6.0814       Y0.6532    
(Pass: 5)
   Z0.0469    
   X6.0826       Y0.6624    
   X6.0861       Y0.6709    
   X6.0917       Y0.6782    
   X6.0991       Y0.6839    
   X6.1076       Y0.6874    
   X6.1422       Y0.6920    
   X6.2270       Y0.7598    
   Y0.8830    
   Y0.8890    
   X6.2342       Y0.8903    
   X6.7323    
   X6.7370       Y0.8890    
   Y0.8830    
   Y0.4376    
   X6.3239       Y0.4365    
   X6.2286    
   X6.2273       Y0.5468    
   X6.1421       Y0.6145    
   X6.1076       Y0.6190    
   X6.0991       Y0.6226    
   X6.0918       Y0.6282    
   X6.0861       Y0.6355    
   X6.0826       Y0.6440    
   X6.0814       Y0.6532    
(Pass: 6)
   Z0.0312    
   X6.0826       Y0.6624    
   X6.0861       Y0.6709    
   X6.0917       Y0.6782    
   X6.0991       Y0.6839    
   X6.1076       Y0.6874    
   X6.1422       Y0.6920    
   X6.2270       Y0.7598    
   Y0.8830    
   Y0.8890    
   X6.2342       Y0.8903    
   X6.7323    
   X6.7370       Y0.8890    
   Y0.8830    
   Y0.4376    
   X6.3239       Y0.4365    
   X6.2286    
   X6.2273       Y0.5468    
   X6.1421       Y0.6145    
   X6.1076       Y0.6190    
   X6.0991       Y0.6226    
   X6.0918       Y0.6282    
   X6.0861       Y0.6355    
   X6.0826       Y0.6440    
   X6.0814       Y0.6532    
(Pass: 7)
   Z0.0156    
   X6.0826       Y0.6624    
   X6.0861       Y0.6709    
   X6.0917       Y0.6782    
   X6.0991       Y0.6839    
   X6.1076       Y0.6874    
   X6.1422       Y0.6920    
   X6.2270       Y0.7598    
   Y0.8830    
   Y0.8890    
   X6.2342       Y0.8903    
   X6.7323    
   X6.7370       Y0.8890    
   Y0.8830    
   Y0.4376    
   X6.3239       Y0.4365    
   X6.2286    
   X6.2273       Y0.5468    
   X6.1421       Y0.6145    
   X6.1076       Y0.6190    
   X6.0991       Y0.6226    
   X6.0918       Y0.6282    
   X6.0861       Y0.6355    
   X6.0826       Y0.6440    
   X6.0814       Y0.6532    
(Pass: 8)
   Z0.0000    
   X6.0826       Y0.6624    
   X6.0861       Y0.6709    
   X6.0917       Y0.6782    
   X6.0991       Y0.6839    
   X6.1076       Y0.6874    
   X6.1422       Y0.6920    
   X6.2270       Y0.7598    
   Y0.8830    
   Y0.8890    
   X6.2342       Y0.8903    
   X6.7323    
   X6.7370       Y0.8890    
   Y0.8830    
   Y0.4376    
   X6.3239       Y0.4365    
   X6.2286    
   X6.2273       Y0.5468    
   X6.1421       Y0.6145    
   X6.1076       Y0.6190    
   X6.0991       Y0.6226    
   X6.0918       Y0.6282    
   X6.0861       Y0.6355    
   X6.0826       Y0.6440    
   X6.0814       Y0.6532    
G0   Z0.2500    
(Pass: 1)
   X6.6968       Y1.4093    
G1   Z0.1094     F60  
   X6.6895       Y1.4149    
   X6.6839       Y1.4223    
   X6.6803       Y1.4308    
   X6.6791       Y1.4400    
   X6.6803       Y1.4491    
   X6.6839       Y1.4577    
   X6.6895       Y1.4650    
   X6.6968       Y1.4706    
   X6.7054       Y1.4741    
   X6.7145       Y1.4754    
   X6.7237       Y1.4741    
   X6.7322       Y1.4706    
   X6.7395       Y1.4650    
   X6.7452       Y1.4577    
   X6.7487       Y1.4491    
   X6.7499       Y1.4400    
   X6.7487       Y1.4308    
   X6.7452       Y1.4223    
   X6.7395       Y1.4149    
   X6.7322       Y1.4093    
   X6.7237       Y1.4058    
   X6.7145       Y1.4046    
   X6.7054       Y1.4058    
   X6.6968       Y1.4093    
(Pass: 2)
   Z0.0938    
   X6.6895       Y1.4149    
   X6.6839       Y1.4223    
   X6.6803       Y1.4308    
   X6.6791       Y1.4400    
   X6.6803       Y1.4491    
   X6.6839       Y1.4577    
   X6.6895       Y1.4650    
   X6.6968       Y1.4706    
   X6.7054       Y1.4741    
   X6.7145       Y1.4754    
   X6.7237       Y1.4741    
   X6.7322       Y1.4706    
   X6.7395       Y1.4650    
   X6.7452       Y1.4577    
   X6.7487       Y1.4491    
   X6.7499       Y1.4400    
   X6.7487       Y1.4308    
   X6.7452       Y1.4223    
   X6.7395       Y1.4149    
   X6.7322       Y1.4093    
   X6.7237       Y1.4058    
   X6.7145       Y1.4046    
   X6.7054       Y1.4058    
   X6.6968       Y1.4093    
(Pass: 3)
   Z0.0781    
   X6.6895       Y1.4149    
   X6.6839       Y1.4223    
   X6.6803       Y1.4308    
   X6.6791       Y1.4400    
   X6.6803       Y1.4491    
   X6.6839       Y1.4577    
   X6.6895       Y1.4650    
   X6.6968       Y1.4706    
   X6.7054       Y1.4741    
   X6.7145       Y1.4754    
   X6.7237       Y1.4741    
   X6.7322       Y1.4706    
   X6.7395       Y1.4650    
   X6.7452       Y1.4577    
   X6.7487       Y1.4491    
   X6.7499       Y1.4400    
   X6.7487       Y1.4308    
   X6.7452       Y1.4223    
   X6.7395       Y1.4149    
   X6.7322       Y1.4093    
   X6.7237       Y1.4058    
   X6.7145       Y1.4046    
   X6.7054       Y1.4058    
   X6.6968       Y1.4093    
(Pass: 4)
   Z0.0625    
   X6.6895       Y1.4149    
   X6.6839       Y1.4223    
   X6.6803       Y1.4308    
   X6.6791       Y1.4400    
   X6.6803       Y1.4491    
   X6.6839       Y1.4577    
   X6.6895       Y1.4650    
   X6.6968       Y1.4706    
   X6.7054       Y1.4741    
   X6.7145       Y1.4754    
   X6.7237       Y1.4741    
   X6.7322       Y1.4706    
   X6.7395       Y1.4650    
   X6.7452       Y1.4577    
   X6.7487       Y1.4491    
   X6.7499       Y1.4400    
   X6.7487       Y1.4308    
   X6.7452       Y1.4223    
   X6.7395       Y1.4149    
   X6.7322       Y1.4093    
   X6.7237       Y1.4058    
   X6.7145       Y1.4046    
   X6.7054       Y1.4058    
   X6.6968       Y1.4093    
(Pass: 5)
   Z0.0469    
   X6.6895       Y1.4149    
   X6.6839       Y1.4223    
   X6.6803       Y1.4308    
   X6.6791       Y1.4400    
   X6.6803       Y1.4491    
   X6.6839       Y1.4577    
   X6.6895       Y1.4650    
   X6.6968       Y1.4706    
   X6.7054       Y1.4741    
   X6.7145       Y1.4754    
   X6.7237       Y1.4741    
   X6.7322       Y1.4706    
   X6.7395       Y1.4650    
   X6.7452       Y1.4577    
   X6.7487       Y1.4491    
   X6.7499       Y1.4400    
   X6.7487       Y1.4308    
   X6.7452       Y1.4223    
   X6.7395       Y1.4149    
   X6.7322       Y1.4093    
   X6.7237       Y1.4058    
   X6.7145       Y1.4046    
   X6.7054       Y1.4058    
   X6.6968       Y1.4093    
(Pass: 6)
   Z0.0312    
   X6.6895       Y1.4149    
   X6.6839       Y1.4223    
   X6.6803       Y1.4308    
   X6.6791       Y1.4400    
   X6.6803       Y1.4491    
   X6.6839       Y1.4577    
   X6.6895       Y1.4650    
   X6.6968       Y1.4706    
   X6.7054       Y1.4741    
   X6.7145       Y1.4754    
   X6.7237       Y1.4741    
   X6.7322       Y1.4706    
   X6.7395       Y1.4650    
   X6.7452       Y1.4577    
   X6.7487       Y1.4491    
   X6.7499       Y1.4400    
   X6.7487       Y1.4308    
   X6.7452       Y1.4223    
   X6.7395       Y1.4149    
   X6.7322       Y1.4093    
   X6.7237       Y1.4058    
   X6.7145       Y1.4046    
   X6.7054       Y1.4058    
   X6.6968       Y1.4093    
(Pass: 7)
   Z0.0156    
   X6.6895       Y1.4149    
   X6.6839       Y1.4223    
   X6.6803       Y1.4308    
   X6.6791       Y1.4400    
   X6.6803       Y1.4491    
   X6.6839       Y1.4577    
   X6.6895       Y1.4650    
   X6.6968       Y1.4706    
   X6.7054       Y1.4741    
   X6.7145       Y1.4754    
   X6.7237       Y1.4741    
   X6.7322       Y1.4706    
   X6.7395       Y1.4650    
   X6.7452       Y1.4577    
   X6.7487       Y1.4491    
   X6.7499       Y1.4400    
   X6.7487       Y1.4308    
   X6.7452       Y1.4223    
   X6.7395       Y1.4149    
   X6.7322       Y1.4093    
   X6.7237       Y1.4058    
   X6.7145       Y1.4046    
   X6.7054       Y1.4058    
   X6.6968       Y1.4093    
(Pass: 8)
   Z0.0000    
   X6.6895       Y1.4149    
   X6.6839       Y1.4223    
   X6.6803       Y1.4308    
   X6.6791       Y1.4400    
   X6.6803       Y1.4491    
   X6.6839       Y1.4577    
   X6.6895       Y1.4650    
   X6.6968       Y1.4706    
   X6.7054       Y1.4741    
   X6.7145       Y1.4754    
   X6.7237       Y1.4741    
   X6.7322       Y1.4706    
   X6.7395       Y1.4650    
   X6.7452       Y1.4577    
   X6.7487       Y1.4491    
   X6.7499       Y1.4400    
   X6.7487       Y1.4308    
   X6.7452       Y1.4223    
   X6.7395       Y1.4149    
   X6.7322       Y1.4093    
   X6.7237       Y1.4058    
   X6.7145       Y1.4046    
   X6.7054       Y1.4058    
   X6.6968       Y1.4093    
G0   Z0.2500    
(Pass: 1)
   X6.7175       Y2.2069    
G1   Z0.1094     F60  
   X6.7083       Y2.2081    
   X6.6998       Y2.2116    
   X6.6924       Y2.2172    
   X6.6868       Y2.2245    
   X6.6833       Y2.2331    
   X6.6815       Y2.2463    
   Y3.0649    
   X6.6833       Y3.0782    
   X6.6868       Y3.0867    
   X6.6924       Y3.0940    
   X6.6998       Y3.0997    
   X6.7083       Y3.1032    
   X6.7175       Y3.1044    
   X6.7266       Y3.1032    
   X6.7352       Y3.0997    
   X6.7425       Y3.0940    
   X6.7481       Y3.0867    
   X6.7517       Y3.0782    
   X6.7534       Y3.0649    
   Y2.2463    
   X6.7517       Y2.2331    
   X6.7481       Y2.2245    
   X6.7425       Y2.2172    
   X6.7352       Y2.2116    
   X6.7266       Y2.2081    
   X6.7175       Y2.2069    
(Pass: 2)
   Z0.0938    
   X6.7083       Y2.2081    
   X6.6998       Y2.2116    
   X6.6924       Y2.2172    
   X6.6868       Y2.2245    
   X6.6833       Y2.2331    
   X6.6815       Y2.2463    
   Y3.0649    
   X6.6833       Y3.0782    
   X6.6868       Y3.0867    
   X6.6924       Y3.0940    
   X6.6998       Y3.0997    
   X6.7083       Y3.1032    
   X6.7175       Y3.1044    
   X6.7266       Y3.1032    
   X6.7352       Y3.0997    
   X6.7425       Y3.0940    
   X6.7481       Y3.0867    
   X6.7517       Y3.0782    
   X6.7534       Y3.0649    
   Y2.2463    
   X6.7517       Y2.2331    
   X6.7481       Y2.2245    
   X6.7425       Y2.2172    
   X6.7352       Y2.2116    
   X6.7266       Y2.2081    
   X6.7175       Y2.2069    
(Pass: 3)
   Z0.0781    
   X6.7083       Y2.2081    
   X6.6998       Y2.2116    
   X6.6924       Y2.2172    
   X6.6868       Y2.2245    
   X6.6833       Y2.2331    
   X6.6815       Y2.2463    
   Y3.0649    
   X6.6833       Y3.0782    
   X6.6868       Y3.0867    
   X6.6924       Y3.0940    
   X6.6998       Y3.0997    
   X6.7083       Y3.1032    
   X6.7175       Y3.1044    
   X6.7266       Y3.1032    
   X6.7352       Y3.0997    
   X6.7425       Y3.0940    
   X6.7481       Y3.0867    
   X6.7517       Y3.0782    
   X6.7534       Y3.0649    
   Y2.2463    
   X6.7517       Y2.2331    
   X6.7481       Y2.2245    
   X6.7425       Y2.2172    
   X6.7352       Y2.2116    
   X6.7266       Y2.2081    
   X6.7175       Y2.2069    
(Pass: 4)
   Z0.0625    
   X6.7083       Y2.2081    
   X6.6998       Y2.2116    
   X6.6924       Y2.2172    
   X6.6868       Y2.2245    
   X6.6833       Y2.2331    
   X6.6815       Y2.2463    
   Y3.0649    
   X6.6833       Y3.0782    
   X6.6868       Y3.0867    
   X6.6924       Y3.0940    
   X6.6998       Y3.0997    
   X6.7083       Y3.1032    
   X6.7175       Y3.1044    
   X6.7266       Y3.1032    
   X6.7352       Y3.0997    
   X6.7425       Y3.0940    
   X6.7481       Y3.0867    
   X6.7517       Y3.0782    
   X6.7534       Y3.0649    
   Y2.2463    
   X6.7517       Y2.2331    
   X6.7481       Y2.2245    
   X6.7425       Y2.2172    
   X6.7352       Y2.2116    
   X6.7266       Y2.2081    
   X6.7175       Y2.2069    
(Pass: 5)
   Z0.0469    
   X6.7083       Y2.2081    
   X6.6998       Y2.2116    
   X6.6924       Y2.2172    
   X6.6868       Y2.2245    
   X6.6833       Y2.2331    
   X6.6815       Y2.2463    
   Y3.0649    
   X6.6833       Y3.0782    
   X6.6868       Y3.0867    
   X6.6924       Y3.0940    
   X6.6998       Y3.0997    
   X6.7083       Y3.1032    
   X6.7175       Y3.1044    
   X6.7266       Y3.1032    
   X6.7352       Y3.0997    
   X6.7425       Y3.0940    
   X6.7481       Y3.0867    
   X6.7517       Y3.0782    
   X6.7534       Y3.0649    
   Y2.2463    
   X6.7517       Y2.2331    
   X6.7481       Y2.2245    
   X6.7425       Y2.2172    
   X6.7352       Y2.2116    
   X6.7266       Y2.2081    
   X6.7175       Y2.2069    
(Pass: 6)
   Z0.0312    
   X6.7083       Y2.2081    
   X6.6998       Y2.2116    
   X6.6924       Y2.2172    
   X6.6868       Y2.2245    
   X6.6833       Y2.2331    
   X6.6815       Y2.2463    
   Y3.0649    
   X6.6833       Y3.0782    
   X6.6868       Y3.0867    
   X6.6924       Y3.0940    
   X6.6998       Y3.0997    
   X6.7083       Y3.1032    
   X6.7175       Y3.1044    
   X6.7266       Y3.1032    
   X6.7352       Y3.0997    
   X6.7425       Y3.0940    
   X6.7481       Y3.0867    
   X6.7517       Y3.0782    
   X6.7534       Y3.0649    
   Y2.2463    
   X6.7517       Y2.2331    
   X6.7481       Y2.2245    
   X6.7425       Y2.2172    
   X6.7352       Y2.2116    
   X6.7266       Y2.2081    
   X6.7175       Y2.2069    
(Pass: 7)
   Z0.0156    
   X6.7083       Y2.2081    
   X6.6998       Y2.2116    
   X6.6924       Y2.2172    
   X6.6868       Y2.2245    
   X6.6833       Y2.2331    
   X6.6815       Y2.2463    
   Y3.0649    
   X6.6833       Y3.0782    
   X6.6868       Y3.0867    
   X6.6924       Y3.0940    
   X6.6998       Y3.0997    
   X6.7083       Y3.1032    
   X6.7175       Y3.1044    
   X6.7266       Y3.1032    
   X6.7352       Y3.0997    
   X6.7425       Y3.0940    
   X6.7481       Y3.0867    
   X6.7517       Y3.0782    
   X6.7534       Y3.0649    
   Y2.2463    
   X6.7517       Y2.2331    
   X6.7481       Y2.2245    
   X6.7425       Y2.2172    
   X6.7352       Y2.2116    
   X6.7266       Y2.2081    
   X6.7175       Y2.2069    
(Pass: 8)
   Z0.0000    
   X6.7083       Y2.2081    
   X6.6998       Y2.2116    
   X6.6924       Y2.2172    
   X6.6868       Y2.2245    
   X6.6833       Y2.2331    
   X6.6815       Y2.2463    
   Y3.0649    
   X6.6833       Y3.0782    
   X6.6868       Y3.0867    
   X6.6924       Y3.0940    
   X6.6998       Y3.0997    
   X6.7083       Y3.1032    
   X6.7175       Y3.1044    
   X6.7266       Y3.1032    
   X6.7352       Y3.0997    
   X6.7425       Y3.0940    
   X6.7481       Y3.0867    
   X6.7517       Y3.0782    
   X6.7534       Y3.0649    
   Y2.2463    
   X6.7517       Y2.2331    
   X6.7481       Y2.2245    
   X6.7425       Y2.2172    
   X6.7352       Y2.2116    
   X6.7266       Y2.2081    
   X6.7175       Y2.2069    
G0   Z0.2500    
(Pass: 1)
   X7.4689       Y2.2463    
G1   Z0.1094     F60  
   Y3.0649    
   X7.4707       Y3.0782    
   X7.4742       Y3.0867    
   X7.4799       Y3.0940    
   X7.4872       Y3.0997    
   X7.4957       Y3.1032    
   X7.5049       Y3.1044    
   X7.5140       Y3.1032    
   X7.5226       Y3.0997    
   X7.5299       Y3.0940    
   X7.5355       Y3.0867    
   X7.5391       Y3.0782    
   X7.5408       Y3.0649    
   Y2.2463    
   X7.5391       Y2.2331    
   X7.5355       Y2.2245    
   X7.5299       Y2.2172    
   X7.5226       Y2.2116    
   X7.5140       Y2.2081    
   X7.5049       Y2.2069    
   X7.4957       Y2.2081    
   X7.4872       Y2.2116    
   X7.4799       Y2.2172    
   X7.4742       Y2.2245    
   X7.4707       Y2.2331    
   X7.4689       Y2.2463    
(Pass: 2)
   Z0.0938    
   Y3.0649    
   X7.4707       Y3.0782    
   X7.4742       Y3.0867    
   X7.4799       Y3.0940    
   X7.4872       Y3.0997    
   X7.4957       Y3.1032    
   X7.5049       Y3.1044    
   X7.5140       Y3.1032    
   X7.5226       Y3.0997    
   X7.5299       Y3.0940    
   X7.5355       Y3.0867    
   X7.5391       Y3.0782    
   X7.5408       Y3.0649    
   Y2.2463    
   X7.5391       Y2.2331    
   X7.5355       Y2.2245    
   X7.5299       Y2.2172    
   X7.5226       Y2.2116    
   X7.5140       Y2.2081    
   X7.5049       Y2.2069    
   X7.4957       Y2.2081    
   X7.4872       Y2.2116    
   X7.4799       Y2.2172    
   X7.4742       Y2.2245    
   X7.4707       Y2.2331    
   X7.4689       Y2.2463    
(Pass: 3)
   Z0.0781    
   Y3.0649    
   X7.4707       Y3.0782    
   X7.4742       Y3.0867    
   X7.4799       Y3.0940    
   X7.4872       Y3.0997    
   X7.4957       Y3.1032    
   X7.5049       Y3.1044    
   X7.5140       Y3.1032    
   X7.5226       Y3.0997    
   X7.5299       Y3.0940    
   X7.5355       Y3.0867    
   X7.5391       Y3.0782    
   X7.5408       Y3.0649    
   Y2.2463    
   X7.5391       Y2.2331    
   X7.5355       Y2.2245    
   X7.5299       Y2.2172    
   X7.5226       Y2.2116    
   X7.5140       Y2.2081    
   X7.5049       Y2.2069    
   X7.4957       Y2.2081    
   X7.4872       Y2.2116    
   X7.4799       Y2.2172    
   X7.4742       Y2.2245    
   X7.4707       Y2.2331    
   X7.4689       Y2.2463    
(Pass: 4)
   Z0.0625    
   Y3.0649    
   X7.4707       Y3.0782    
   X7.4742       Y3.0867    
   X7.4799       Y3.0940    
   X7.4872       Y3.0997    
   X7.4957       Y3.1032    
   X7.5049       Y3.1044    
   X7.5140       Y3.1032    
   X7.5226       Y3.0997    
   X7.5299       Y3.0940    
   X7.5355       Y3.0867    
   X7.5391       Y3.0782    
   X7.5408       Y3.0649    
   Y2.2463    
   X7.5391       Y2.2331    
   X7.5355       Y2.2245    
   X7.5299       Y2.2172    
   X7.5226       Y2.2116    
   X7.5140       Y2.2081    
   X7.5049       Y2.2069    
   X7.4957       Y2.2081    
   X7.4872       Y2.2116    
   X7.4799       Y2.2172    
   X7.4742       Y2.2245    
   X7.4707       Y2.2331    
   X7.4689       Y2.2463    
(Pass: 5)
   Z0.0469    
   Y3.0649    
   X7.4707       Y3.0782    
   X7.4742       Y3.0867    
   X7.4799       Y3.0940    
   X7.4872       Y3.0997    
   X7.4957       Y3.1032    
   X7.5049       Y3.1044    
   X7.5140       Y3.1032    
   X7.5226       Y3.0997    
   X7.5299       Y3.0940    
   X7.5355       Y3.0867    
   X7.5391       Y3.0782    
   X7.5408       Y3.0649    
   Y2.2463    
   X7.5391       Y2.2331    
   X7.5355       Y2.2245    
   X7.5299       Y2.2172    
   X7.5226       Y2.2116    
   X7.5140       Y2.2081    
   X7.5049       Y2.2069    
   X7.4957       Y2.2081    
   X7.4872       Y2.2116    
   X7.4799       Y2.2172    
   X7.4742       Y2.2245    
   X7.4707       Y2.2331    
   X7.4689       Y2.2463    
(Pass: 6)
   Z0.0312    
   Y3.0649    
   X7.4707       Y3.0782    
   X7.4742       Y3.0867    
   X7.4799       Y3.0940    
   X7.4872       Y3.0997    
   X7.4957       Y3.1032    
   X7.5049       Y3.1044    
   X7.5140       Y3.1032    
   X7.5226       Y3.0997    
   X7.5299       Y3.0940    
   X7.5355       Y3.0867    
   X7.5391       Y3.0782    
   X7.5408       Y3.0649    
   Y2.2463    
   X7.5391       Y2.2331    
   X7.5355       Y2.2245    
   X7.5299       Y2.2172    
   X7.5226       Y2.2116    
   X7.5140       Y2.2081    
   X7.5049       Y2.2069    
   X7.4957       Y2.2081    
   X7.4872       Y2.2116    
   X7.4799       Y2.2172    
   X7.4742       Y2.2245    
   X7.4707       Y2.2331    
   X7.4689       Y2.2463    
(Pass: 7)
   Z0.0156    
   Y3.0649    
   X7.4707       Y3.0782    
   X7.4742       Y3.0867    
   X7.4799       Y3.0940    
   X7.4872       Y3.0997    
   X7.4957       Y3.1032    
   X7.5049       Y3.1044    
   X7.5140       Y3.1032    
   X7.5226       Y3.0997    
   X7.5299       Y3.0940    
   X7.5355       Y3.0867    
   X7.5391       Y3.0782    
   X7.5408       Y3.0649    
   Y2.2463    
   X7.5391       Y2.2331    
   X7.5355       Y2.2245    
   X7.5299       Y2.2172    
   X7.5226       Y2.2116    
   X7.5140       Y2.2081    
   X7.5049       Y2.2069    
   X7.4957       Y2.2081    
   X7.4872       Y2.2116    
   X7.4799       Y2.2172    
   X7.4742       Y2.2245    
   X7.4707       Y2.2331    
   X7.4689       Y2.2463    
(Pass: 8)
   Z0.0000    
   Y3.0649    
   X7.4707       Y3.0782    
   X7.4742       Y3.0867    
   X7.4799       Y3.0940    
   X7.4872       Y3.0997    
   X7.4957       Y3.1032    
   X7.5049       Y3.1044    
   X7.5140       Y3.1032    
   X7.5226       Y3.0997    
   X7.5299       Y3.0940    
   X7.5355       Y3.0867    
   X7.5391       Y3.0782    
   X7.5408       Y3.0649    
   Y2.2463    
   X7.5391       Y2.2331    
   X7.5355       Y2.2245    
   X7.5299       Y2.2172    
   X7.5226       Y2.2116    
   X7.5140       Y2.2081    
   X7.5049       Y2.2069    
   X7.4957       Y2.2081    
   X7.4872       Y2.2116    
   X7.4799       Y2.2172    
   X7.4742       Y2.2245    
   X7.4707       Y2.2331    
   X7.4689       Y2.2463    
G0   Z0.2500    
(Pass: 1)
   X5.9660    
G1   Z0.1094     F60  
   X5.9643       Y2.2331    
   X5.9607       Y2.2245    
   X5.9551       Y2.2172    
   X5.9478       Y2.2116    
   X5.9392       Y2.2081    
   X5.9301       Y2.2069    
   X5.9209       Y2.2081    
   X5.9124       Y2.2116    
   X5.9051       Y2.2172    
   X5.8994       Y2.2245    
   X5.8959       Y2.2331    
   X5.8941       Y2.2463    
   Y3.0649    
   X5.8959       Y3.0782    
   X5.8994       Y3.0867    
   X5.9051       Y3.0940    
   X5.9124       Y3.0997    
   X5.9209       Y3.1032    
   X5.9301       Y3.1044    
   X5.9392       Y3.1032    
   X5.9478       Y3.0997    
   X5.9551       Y3.0940    
   X5.9607       Y3.0867    
   X5.9643       Y3.0782    
   X5.9660       Y3.0649    
   Y2.2463    
(Pass: 2)
   Z0.0938    
   X5.9643       Y2.2331    
   X5.9607       Y2.2245    
   X5.9551       Y2.2172    
   X5.9478       Y2.2116    
   X5.9392       Y2.2081    
   X5.9301       Y2.2069    
   X5.9209       Y2.2081    
   X5.9124       Y2.2116    
   X5.9051       Y2.2172    
   X5.8994       Y2.2245    
   X5.8959       Y2.2331    
   X5.8941       Y2.2463    
   Y3.0649    
   X5.8959       Y3.0782    
   X5.8994       Y3.0867    
   X5.9051       Y3.0940    
   X5.9124       Y3.0997    
   X5.9209       Y3.1032    
   X5.9301       Y3.1044    
   X5.9392       Y3.1032    
   X5.9478       Y3.0997    
   X5.9551       Y3.0940    
   X5.9607       Y3.0867    
   X5.9643       Y3.0782    
   X5.9660       Y3.0649    
   Y2.2463    
(Pass: 3)
   Z0.0781    
   X5.9643       Y2.2331    
   X5.9607       Y2.2245    
   X5.9551       Y2.2172    
   X5.9478       Y2.2116    
   X5.9392       Y2.2081    
   X5.9301       Y2.2069    
   X5.9209       Y2.2081    
   X5.9124       Y2.2116    
   X5.9051       Y2.2172    
   X5.8994       Y2.2245    
   X5.8959       Y2.2331    
   X5.8941       Y2.2463    
   Y3.0649    
   X5.8959       Y3.0782    
   X5.8994       Y3.0867    
   X5.9051       Y3.0940    
   X5.9124       Y3.0997    
   X5.9209       Y3.1032    
   X5.9301       Y3.1044    
   X5.9392       Y3.1032    
   X5.9478       Y3.0997    
   X5.9551       Y3.0940    
   X5.9607       Y3.0867    
   X5.9643       Y3.0782    
   X5.9660       Y3.0649    
   Y2.2463    
(Pass: 4)
   Z0.0625    
   X5.9643       Y2.2331    
   X5.9607       Y2.2245    
   X5.9551       Y2.2172    
   X5.9478       Y2.2116    
   X5.9392       Y2.2081    
   X5.9301       Y2.2069    
   X5.9209       Y2.2081    
   X5.9124       Y2.2116    
   X5.9051       Y2.2172    
   X5.8994       Y2.2245    
   X5.8959       Y2.2331    
   X5.8941       Y2.2463    
   Y3.0649    
   X5.8959       Y3.0782    
   X5.8994       Y3.0867    
   X5.9051       Y3.0940    
   X5.9124       Y3.0997    
   X5.9209       Y3.1032    
   X5.9301       Y3.1044    
   X5.9392       Y3.1032    
   X5.9478       Y3.0997    
   X5.9551       Y3.0940    
   X5.9607       Y3.0867    
   X5.9643       Y3.0782    
   X5.9660       Y3.0649    
   Y2.2463    
(Pass: 5)
   Z0.0469    
   X5.9643       Y2.2331    
   X5.9607       Y2.2245    
   X5.9551       Y2.2172    
   X5.9478       Y2.2116    
   X5.9392       Y2.2081    
   X5.9301       Y2.2069    
   X5.9209       Y2.2081    
   X5.9124       Y2.2116    
   X5.9051       Y2.2172    
   X5.8994       Y2.2245    
   X5.8959       Y2.2331    
   X5.8941       Y2.2463    
   Y3.0649    
   X5.8959       Y3.0782    
   X5.8994       Y3.0867    
   X5.9051       Y3.0940    
   X5.9124       Y3.0997    
   X5.9209       Y3.1032    
   X5.9301       Y3.1044    
   X5.9392       Y3.1032    
   X5.9478       Y3.0997    
   X5.9551       Y3.0940    
   X5.9607       Y3.0867    
   X5.9643       Y3.0782    
   X5.9660       Y3.0649    
   Y2.2463    
(Pass: 6)
   Z0.0312    
   X5.9643       Y2.2331    
   X5.9607       Y2.2245    
   X5.9551       Y2.2172    
   X5.9478       Y2.2116    
   X5.9392       Y2.2081    
   X5.9301       Y2.2069    
   X5.9209       Y2.2081    
   X5.9124       Y2.2116    
   X5.9051       Y2.2172    
   X5.8994       Y2.2245    
   X5.8959       Y2.2331    
   X5.8941       Y2.2463    
   Y3.0649    
   X5.8959       Y3.0782    
   X5.8994       Y3.0867    
   X5.9051       Y3.0940    
   X5.9124       Y3.0997    
   X5.9209       Y3.1032    
   X5.9301       Y3.1044    
   X5.9392       Y3.1032    
   X5.9478       Y3.0997    
   X5.9551       Y3.0940    
   X5.9607       Y3.0867    
   X5.9643       Y3.0782    
   X5.9660       Y3.0649    
   Y2.2463    
(Pass: 7)
   Z0.0156    
   X5.9643       Y2.2331    
   X5.9607       Y2.2245    
   X5.9551       Y2.2172    
   X5.9478       Y2.2116    
   X5.9392       Y2.2081    
   X5.9301       Y2.2069    
   X5.9209       Y2.2081    
   X5.9124       Y2.2116    
   X5.9051       Y2.2172    
   X5.8994       Y2.2245    
   X5.8959       Y2.2331    
   X5.8941       Y2.2463    
   Y3.0649    
   X5.8959       Y3.0782    
   X5.8994       Y3.0867    
   X5.9051       Y3.0940    
   X5.9124       Y3.0997    
   X5.9209       Y3.1032    
   X5.9301       Y3.1044    
   X5.9392       Y3.1032    
   X5.9478       Y3.0997    
   X5.9551       Y3.0940    
   X5.9607       Y3.0867    
   X5.9643       Y3.0782    
   X5.9660       Y3.0649    
   Y2.2463    
(Pass: 8)
   Z0.0000    
   X5.9643       Y2.2331    
   X5.9607       Y2.2245    
   X5.9551       Y2.2172    
   X5.9478       Y2.2116    
   X5.9392       Y2.2081    
   X5.9301       Y2.2069    
   X5.9209       Y2.2081    
   X5.9124       Y2.2116    
   X5.9051       Y2.2172    
   X5.8994       Y2.2245    
   X5.8959       Y2.2331    
   X5.8941       Y2.2463    
   Y3.0649    
   X5.8959       Y3.0782    
   X5.8994       Y3.0867    
   X5.9051       Y3.0940    
   X5.9124       Y3.0997    
   X5.9209       Y3.1032    
   X5.9301       Y3.1044    
   X5.9392       Y3.1032    
   X5.9478       Y3.0997    
   X5.9551       Y3.0940    
   X5.9607       Y3.0867    
   X5.9643       Y3.0782    
   X5.9660       Y3.0649    
   Y2.2463    
G0   Z0.2500    
(Pass: 1)
   X5.4281       Y2.5960    
G1   Z0.1094     F60  
   X5.4222       Y2.5884    
   X5.4145       Y2.5825    
   X5.4056       Y2.5788    
   X5.3920       Y2.5770    
   X5.0458    
   X5.0322       Y2.5788    
   X5.0232       Y2.5825    
   X5.0156       Y2.5884    
   X5.0097       Y2.5960    
   X5.0060       Y2.6050    
   X5.0048       Y2.6145    
   X5.0060       Y2.6241    
   X5.0097       Y2.6330    
   X5.0156       Y2.6407    
   X5.0232       Y2.6465    
   X5.0322       Y2.6502    
   X5.0458       Y2.6520    
   X5.3920    
   X5.4056       Y2.6502    
   X5.4145       Y2.6465    
   X5.4222       Y2.6407    
   X5.4281       Y2.6330    
   X5.4318       Y2.6241    
   X5.4330       Y2.6145    
   X5.4318       Y2.6050    
   X5.4281       Y2.5960    
(Pass: 2)
   Z0.0938    
   X5.4222       Y2.5884    
   X5.4145       Y2.5825    
   X5.4056       Y2.5788    
   X5.3920       Y2.5770    
   X5.0458    
   X5.0322       Y2.5788    
   X5.0232       Y2.5825    
   X5.0156       Y2.5884    
   X5.0097       Y2.5960    
   X5.0060       Y2.6050    
   X5.0048       Y2.6145    
   X5.0060       Y2.6241    
   X5.0097       Y2.6330    
   X5.0156       Y2.6407    
   X5.0232       Y2.6465    
   X5.0322       Y2.6502    
   X5.0458       Y2.6520    
   X5.3920    
   X5.4056       Y2.6502    
   X5.4145       Y2.6465    
   X5.4222       Y2.6407    
   X5.4281       Y2.6330    
   X5.4318       Y2.6241    
   X5.4330       Y2.6145    
   X5.4318       Y2.6050    
   X5.4281       Y2.5960    
(Pass: 3)
   Z0.0781    
   X5.4222       Y2.5884    
   X5.4145       Y2.5825    
   X5.4056       Y2.5788    
   X5.3920       Y2.5770    
   X5.0458    
   X5.0322       Y2.5788    
   X5.0232       Y2.5825    
   X5.0156       Y2.5884    
   X5.0097       Y2.5960    
   X5.0060       Y2.6050    
   X5.0048       Y2.6145    
   X5.0060       Y2.6241    
   X5.0097       Y2.6330    
   X5.0156       Y2.6407    
   X5.0232       Y2.6465    
   X5.0322       Y2.6502    
   X5.0458       Y2.6520    
   X5.3920    
   X5.4056       Y2.6502    
   X5.4145       Y2.6465    
   X5.4222       Y2.6407    
   X5.4281       Y2.6330    
   X5.4318       Y2.6241    
   X5.4330       Y2.6145    
   X5.4318       Y2.6050    
   X5.4281       Y2.5960    
(Pass: 4)
   Z0.0625    
   X5.4222       Y2.5884    
   X5.4145       Y2.5825    
   X5.4056       Y2.5788    
   X5.3920       Y2.5770    
   X5.0458    
   X5.0322       Y2.5788    
   X5.0232       Y2.5825    
   X5.0156       Y2.5884    
   X5.0097       Y2.5960    
   X5.0060       Y2.6050    
   X5.0048       Y2.6145    
   X5.0060       Y2.6241    
   X5.0097       Y2.6330    
   X5.0156       Y2.6407    
   X5.0232       Y2.6465    
   X5.0322       Y2.6502    
   X5.0458       Y2.6520    
   X5.3920    
   X5.4056       Y2.6502    
   X5.4145       Y2.6465    
   X5.4222       Y2.6407    
   X5.4281       Y2.6330    
   X5.4318       Y2.6241    
   X5.4330       Y2.6145    
   X5.4318       Y2.6050    
   X5.4281       Y2.5960    
(Pass: 5)
   Z0.0469    
   X5.4222       Y2.5884    
   X5.4145       Y2.5825    
   X5.4056       Y2.5788    
   X5.3920       Y2.5770    
   X5.0458    
   X5.0322       Y2.5788    
   X5.0232       Y2.5825    
   X5.0156       Y2.5884    
   X5.0097       Y2.5960    
   X5.0060       Y2.6050    
   X5.0048       Y2.6145    
   X5.0060       Y2.6241    
   X5.0097       Y2.6330    
   X5.0156       Y2.6407    
   X5.0232       Y2.6465    
   X5.0322       Y2.6502    
   X5.0458       Y2.6520    
   X5.3920    
   X5.4056       Y2.6502    
   X5.4145       Y2.6465    
   X5.4222       Y2.6407    
   X5.4281       Y2.6330    
   X5.4318       Y2.6241    
   X5.4330       Y2.6145    
   X5.4318       Y2.6050    
   X5.4281       Y2.5960    
(Pass: 6)
   Z0.0312    
   X5.4222       Y2.5884    
   X5.4145       Y2.5825    
   X5.4056       Y2.5788    
   X5.3920       Y2.5770    
   X5.0458    
   X5.0322       Y2.5788    
   X5.0232       Y2.5825    
   X5.0156       Y2.5884    
   X5.0097       Y2.5960    
   X5.0060       Y2.6050    
   X5.0048       Y2.6145    
   X5.0060       Y2.6241    
   X5.0097       Y2.6330    
   X5.0156       Y2.6407    
   X5.0232       Y2.6465    
   X5.0322       Y2.6502    
   X5.0458       Y2.6520    
   X5.3920    
   X5.4056       Y2.6502    
   X5.4145       Y2.6465    
   X5.4222       Y2.6407    
   X5.4281       Y2.6330    
   X5.4318       Y2.6241    
   X5.4330       Y2.6145    
   X5.4318       Y2.6050    
   X5.4281       Y2.5960    
(Pass: 7)
   Z0.0156    
   X5.4222       Y2.5884    
   X5.4145       Y2.5825    
   X5.4056       Y2.5788    
   X5.3920       Y2.5770    
   X5.0458    
   X5.0322       Y2.5788    
   X5.0232       Y2.5825    
   X5.0156       Y2.5884    
   X5.0097       Y2.5960    
   X5.0060       Y2.6050    
   X5.0048       Y2.6145    
   X5.0060       Y2.6241    
   X5.0097       Y2.6330    
   X5.0156       Y2.6407    
   X5.0232       Y2.6465    
   X5.0322       Y2.6502    
   X5.0458       Y2.6520    
   X5.3920    
   X5.4056       Y2.6502    
   X5.4145       Y2.6465    
   X5.4222       Y2.6407    
   X5.4281       Y2.6330    
   X5.4318       Y2.6241    
   X5.4330       Y2.6145    
   X5.4318       Y2.6050    
   X5.4281       Y2.5960    
(Pass: 8)
   Z0.0000    
   X5.4222       Y2.5884    
   X5.4145       Y2.5825    
   X5.4056       Y2.5788    
   X5.3920       Y2.5770    
   X5.0458    
   X5.0322       Y2.5788    
   X5.0232       Y2.5825    
   X5.0156       Y2.5884    
   X5.0097       Y2.5960    
   X5.0060       Y2.6050    
   X5.0048       Y2.6145    
   X5.0060       Y2.6241    
   X5.0097       Y2.6330    
   X5.0156       Y2.6407    
   X5.0232       Y2.6465    
   X5.0322       Y2.6502    
   X5.0458       Y2.6520    
   X5.3920    
   X5.4056       Y2.6502    
   X5.4145       Y2.6465    
   X5.4222       Y2.6407    
   X5.4281       Y2.6330    
   X5.4318       Y2.6241    
   X5.4330       Y2.6145    
   X5.4318       Y2.6050    
   X5.4281       Y2.5960    
G0   Z0.2500    
(Pass: 1)
   X4.7888       Y3.2415    
G1   Z0.1094     F60  
   X4.7000       Y3.1733    
   X4.5965       Y3.1304    
   X4.4813       Y3.1153    
   X4.0958    
   X3.9807       Y3.1304    
   X3.8772       Y3.1733    
   X3.7883       Y3.2415    
   X3.7201       Y3.3304    
   X3.6773       Y3.4339    
   X3.6626       Y3.5449    
   X3.6773       Y3.6560    
   X3.7201       Y3.7595    
   X3.7883       Y3.8483    
   X3.8772       Y3.9165    
   X3.9807       Y3.9594    
   X4.0958       Y3.9745    
   X4.4813    
   X4.5965       Y3.9594    
   X4.7000       Y3.9165    
   X4.7888       Y3.8483    
   X4.8570       Y3.7595    
   X4.8999       Y3.6560    
   X4.9145       Y3.5449    
   X4.8999       Y3.4339    
   X4.8570       Y3.3304    
   X4.7888       Y3.2415    
(Pass: 2)
   Z0.0938    
   X4.7000       Y3.1733    
   X4.5965       Y3.1304    
   X4.4813       Y3.1153    
   X4.0958    
   X3.9807       Y3.1304    
   X3.8772       Y3.1733    
   X3.7883       Y3.2415    
   X3.7201       Y3.3304    
   X3.6773       Y3.4339    
   X3.6626       Y3.5449    
   X3.6773       Y3.6560    
   X3.7201       Y3.7595    
   X3.7883       Y3.8483    
   X3.8772       Y3.9165    
   X3.9807       Y3.9594    
   X4.0958       Y3.9745    
   X4.4813    
   X4.5965       Y3.9594    
   X4.7000       Y3.9165    
   X4.7888       Y3.8483    
   X4.8570       Y3.7595    
   X4.8999       Y3.6560    
   X4.9145       Y3.5449    
   X4.8999       Y3.4339    
   X4.8570       Y3.3304    
   X4.7888       Y3.2415    
(Pass: 3)
   Z0.0781    
   X4.7000       Y3.1733    
   X4.5965       Y3.1304    
   X4.4813       Y3.1153    
   X4.0958    
   X3.9807       Y3.1304    
   X3.8772       Y3.1733    
   X3.7883       Y3.2415    
   X3.7201       Y3.3304    
   X3.6773       Y3.4339    
   X3.6626       Y3.5449    
   X3.6773       Y3.6560    
   X3.7201       Y3.7595    
   X3.7883       Y3.8483    
   X3.8772       Y3.9165    
   X3.9807       Y3.9594    
   X4.0958       Y3.9745    
   X4.4813    
   X4.5965       Y3.9594    
   X4.7000       Y3.9165    
   X4.7888       Y3.8483    
   X4.8570       Y3.7595    
   X4.8999       Y3.6560    
   X4.9145       Y3.5449    
   X4.8999       Y3.4339    
   X4.8570       Y3.3304    
   X4.7888       Y3.2415    
(Pass: 4)
   Z0.0625    
   X4.7000       Y3.1733    
   X4.5965       Y3.1304    
   X4.4813       Y3.1153    
   X4.0958    
   X3.9807       Y3.1304    
   X3.8772       Y3.1733    
   X3.7883       Y3.2415    
   X3.7201       Y3.3304    
   X3.6773       Y3.4339    
   X3.6626       Y3.5449    
   X3.6773       Y3.6560    
   X3.7201       Y3.7595    
   X3.7883       Y3.8483    
   X3.8772       Y3.9165    
   X3.9807       Y3.9594    
   X4.0958       Y3.9745    
   X4.4813    
   X4.5965       Y3.9594    
   X4.7000       Y3.9165    
   X4.7888       Y3.8483    
   X4.8570       Y3.7595    
   X4.8999       Y3.6560    
   X4.9145       Y3.5449    
   X4.8999       Y3.4339    
   X4.8570       Y3.3304    
   X4.7888       Y3.2415    
(Pass: 5)
   Z0.0469    
   X4.7000       Y3.1733    
   X4.5965       Y3.1304    
   X4.4813       Y3.1153    
   X4.0958    
   X3.9807       Y3.1304    
   X3.8772       Y3.1733    
   X3.7883       Y3.2415    
   X3.7201       Y3.3304    
   X3.6773       Y3.4339    
   X3.6626       Y3.5449    
   X3.6773       Y3.6560    
   X3.7201       Y3.7595    
   X3.7883       Y3.8483    
   X3.8772       Y3.9165    
   X3.9807       Y3.9594    
   X4.0958       Y3.9745    
   X4.4813    
   X4.5965       Y3.9594    
   X4.7000       Y3.9165    
   X4.7888       Y3.8483    
   X4.8570       Y3.7595    
   X4.8999       Y3.6560    
   X4.9145       Y3.5449    
   X4.8999       Y3.4339    
   X4.8570       Y3.3304    
   X4.7888       Y3.2415    
(Pass: 6)
   Z0.0312    
   X4.7000       Y3.1733    
   X4.5965       Y3.1304    
   X4.4813       Y3.1153    
   X4.0958    
   X3.9807       Y3.1304    
   X3.8772       Y3.1733    
   X3.7883       Y3.2415    
   X3.7201       Y3.3304    
   X3.6773       Y3.4339    
   X3.6626       Y3.5449    
   X3.6773       Y3.6560    
   X3.7201       Y3.7595    
   X3.7883       Y3.8483    
   X3.8772       Y3.9165    
   X3.9807       Y3.9594    
   X4.0958       Y3.9745    
   X4.4813    
   X4.5965       Y3.9594    
   X4.7000       Y3.9165    
   X4.7888       Y3.8483    
   X4.8570       Y3.7595    
   X4.8999       Y3.6560    
   X4.9145       Y3.5449    
   X4.8999       Y3.4339    
   X4.8570       Y3.3304    
   X4.7888       Y3.2415    
(Pass: 7)
   Z0.0156    
   X4.7000       Y3.1733    
   X4.5965       Y3.1304    
   X4.4813       Y3.1153    
   X4.0958    
   X3.9807       Y3.1304    
   X3.8772       Y3.1733    
   X3.7883       Y3.2415    
   X3.7201       Y3.3304    
   X3.6773       Y3.4339    
   X3.6626       Y3.5449    
   X3.6773       Y3.6560    
   X3.7201       Y3.7595    
   X3.7883       Y3.8483    
   X3.8772       Y3.9165    
   X3.9807       Y3.9594    
   X4.0958       Y3.9745    
   X4.4813    
   X4.5965       Y3.9594    
   X4.7000       Y3.9165    
   X4.7888       Y3.8483    
   X4.8570       Y3.7595    
   X4.8999       Y3.6560    
   X4.9145       Y3.5449    
   X4.8999       Y3.4339    
   X4.8570       Y3.3304    
   X4.7888       Y3.2415    
(Pass: 8)
   Z0.0000    
   X4.7000       Y3.1733    
   X4.5965       Y3.1304    
   X4.4813       Y3.1153    
   X4.0958    
   X3.9807       Y3.1304    
   X3.8772       Y3.1733    
   X3.7883       Y3.2415    
   X3.7201       Y3.3304    
   X3.6773       Y3.4339    
   X3.6626       Y3.5449    
   X3.6773       Y3.6560    
   X3.7201       Y3.7595    
   X3.7883       Y3.8483    
   X3.8772       Y3.9165    
   X3.9807       Y3.9594    
   X4.0958       Y3.9745    
   X4.4813    
   X4.5965       Y3.9594    
   X4.7000       Y3.9165    
   X4.7888       Y3.8483    
   X4.8570       Y3.7595    
   X4.8999       Y3.6560    
   X4.9145       Y3.5449    
   X4.8999       Y3.4339    
   X4.8570       Y3.3304    
   X4.7888       Y3.2415    
G0   Z0.2500    
(Pass: 1)
   X3.5622       Y4.4484    
G1   Z0.1094     F60  
   X3.5545       Y4.4425    
   X3.5456       Y4.4388    
   X3.5320       Y4.4370    
   X3.1858    
   X3.1722       Y4.4388    
   X3.1633       Y4.4425    
   X3.1556       Y4.4484    
   X3.1497       Y4.4560    
   X3.1460       Y4.4649    
   X3.1448       Y4.4745    
   X3.1460       Y4.4841    
   X3.1497       Y4.4930    
   X3.1556       Y4.5007    
   X3.1633       Y4.5065    
   X3.1722       Y4.5102    
   X3.1858       Y4.5120    
   X3.5320    
   X3.5456       Y4.5102    
   X3.5545       Y4.5065    
   X3.5622       Y4.5007    
   X3.5681       Y4.4930    
   X3.5718       Y4.4841    
   X3.5730       Y4.4745    
   X3.5718       Y4.4649    
   X3.5681       Y4.4560    
   X3.5622       Y4.4484    
(Pass: 2)
   Z0.0938    
   X3.5545       Y4.4425    
   X3.5456       Y4.4388    
   X3.5320       Y4.4370    
   X3.1858    
   X3.1722       Y4.4388    
   X3.1633       Y4.4425    
   X3.1556       Y4.4484    
   X3.1497       Y4.4560    
   X3.1460       Y4.4649    
   X3.1448       Y4.4745    
   X3.1460       Y4.4841    
   X3.1497       Y4.4930    
   X3.1556       Y4.5007    
   X3.1633       Y4.5065    
   X3.1722       Y4.5102    
   X3.1858       Y4.5120    
   X3.5320    
   X3.5456       Y4.5102    
   X3.5545       Y4.5065    
   X3.5622       Y4.5007    
   X3.5681       Y4.4930    
   X3.5718       Y4.4841    
   X3.5730       Y4.4745    
   X3.5718       Y4.4649    
   X3.5681       Y4.4560    
   X3.5622       Y4.4484    
(Pass: 3)
   Z0.0781    
   X3.5545       Y4.4425    
   X3.5456       Y4.4388    
   X3.5320       Y4.4370    
   X3.1858    
   X3.1722       Y4.4388    
   X3.1633       Y4.4425    
   X3.1556       Y4.4484    
   X3.1497       Y4.4560    
   X3.1460       Y4.4649    
   X3.1448       Y4.4745    
   X3.1460       Y4.4841    
   X3.1497       Y4.4930    
   X3.1556       Y4.5007    
   X3.1633       Y4.5065    
   X3.1722       Y4.5102    
   X3.1858       Y4.5120    
   X3.5320    
   X3.5456       Y4.5102    
   X3.5545       Y4.5065    
   X3.5622       Y4.5007    
   X3.5681       Y4.4930    
   X3.5718       Y4.4841    
   X3.5730       Y4.4745    
   X3.5718       Y4.4649    
   X3.5681       Y4.4560    
   X3.5622       Y4.4484    
(Pass: 4)
   Z0.0625    
   X3.5545       Y4.4425    
   X3.5456       Y4.4388    
   X3.5320       Y4.4370    
   X3.1858    
   X3.1722       Y4.4388    
   X3.1633       Y4.4425    
   X3.1556       Y4.4484    
   X3.1497       Y4.4560    
   X3.1460       Y4.4649    
   X3.1448       Y4.4745    
   X3.1460       Y4.4841    
   X3.1497       Y4.4930    
   X3.1556       Y4.5007    
   X3.1633       Y4.5065    
   X3.1722       Y4.5102    
   X3.1858       Y4.5120    
   X3.5320    
   X3.5456       Y4.5102    
   X3.5545       Y4.5065    
   X3.5622       Y4.5007    
   X3.5681       Y4.4930    
   X3.5718       Y4.4841    
   X3.5730       Y4.4745    
   X3.5718       Y4.4649    
   X3.5681       Y4.4560    
   X3.5622       Y4.4484    
(Pass: 5)
   Z0.0469    
   X3.5545       Y4.4425    
   X3.5456       Y4.4388    
   X3.5320       Y4.4370    
   X3.1858    
   X3.1722       Y4.4388    
   X3.1633       Y4.4425    
   X3.1556       Y4.4484    
   X3.1497       Y4.4560    
   X3.1460       Y4.4649    
   X3.1448       Y4.4745    
   X3.1460       Y4.4841    
   X3.1497       Y4.4930    
   X3.1556       Y4.5007    
   X3.1633       Y4.5065    
   X3.1722       Y4.5102    
   X3.1858       Y4.5120    
   X3.5320    
   X3.5456       Y4.5102    
   X3.5545       Y4.5065    
   X3.5622       Y4.5007    
   X3.5681       Y4.4930    
   X3.5718       Y4.4841    
   X3.5730       Y4.4745    
   X3.5718       Y4.4649    
   X3.5681       Y4.4560    
   X3.5622       Y4.4484    
(Pass: 6)
   Z0.0312    
   X3.5545       Y4.4425    
   X3.5456       Y4.4388    
   X3.5320       Y4.4370    
   X3.1858    
   X3.1722       Y4.4388    
   X3.1633       Y4.4425    
   X3.1556       Y4.4484    
   X3.1497       Y4.4560    
   X3.1460       Y4.4649    
   X3.1448       Y4.4745    
   X3.1460       Y4.4841    
   X3.1497       Y4.4930    
   X3.1556       Y4.5007    
   X3.1633       Y4.5065    
   X3.1722       Y4.5102    
   X3.1858       Y4.5120    
   X3.5320    
   X3.5456       Y4.5102    
   X3.5545       Y4.5065    
   X3.5622       Y4.5007    
   X3.5681       Y4.4930    
   X3.5718       Y4.4841    
   X3.5730       Y4.4745    
   X3.5718       Y4.4649    
   X3.5681       Y4.4560    
   X3.5622       Y4.4484    
(Pass: 7)
   Z0.0156    
   X3.5545       Y4.4425    
   X3.5456       Y4.4388    
   X3.5320       Y4.4370    
   X3.1858    
   X3.1722       Y4.4388    
   X3.1633       Y4.4425    
   X3.1556       Y4.4484    
   X3.1497       Y4.4560    
   X3.1460       Y4.4649    
   X3.1448       Y4.4745    
   X3.1460       Y4.4841    
   X3.1497       Y4.4930    
   X3.1556       Y4.5007    
   X3.1633       Y4.5065    
   X3.1722       Y4.5102    
   X3.1858       Y4.5120    
   X3.5320    
   X3.5456       Y4.5102    
   X3.5545       Y4.5065    
   X3.5622       Y4.5007    
   X3.5681       Y4.4930    
   X3.5718       Y4.4841    
   X3.5730       Y4.4745    
   X3.5718       Y4.4649    
   X3.5681       Y4.4560    
   X3.5622       Y4.4484    
(Pass: 8)
   Z0.0000    
   X3.5545       Y4.4425    
   X3.5456       Y4.4388    
   X3.5320       Y4.4370    
   X3.1858    
   X3.1722       Y4.4388    
   X3.1633       Y4.4425    
   X3.1556       Y4.4484    
   X3.1497       Y4.4560    
   X3.1460       Y4.4649    
   X3.1448       Y4.4745    
   X3.1460       Y4.4841    
   X3.1497       Y4.4930    
   X3.1556       Y4.5007    
   X3.1633       Y4.5065    
   X3.1722       Y4.5102    
   X3.1858       Y4.5120    
   X3.5320    
   X3.5456       Y4.5102    
   X3.5545       Y4.5065    
   X3.5622       Y4.5007    
   X3.5681       Y4.4930    
   X3.5718       Y4.4841    
   X3.5730       Y4.4745    
   X3.5718       Y4.4649    
   X3.5681       Y4.4560    
   X3.5622       Y4.4484    
G0   Z0.2500    
(Pass: 1)
   X3.6773       Y4.9005    
G1   Z0.1094     F60  
   X3.6687       Y4.9040    
   X3.6614       Y4.9097    
   X3.6558       Y4.9170    
   X3.6522       Y4.9255    
   X3.6510       Y4.9347    
   X3.6522       Y4.9438    
   X3.6558       Y4.9524    
   X3.6614       Y4.9597    
   X3.6687       Y4.9653    
   X3.6773       Y4.9689    
   X3.6864       Y4.9701    
   X3.6956       Y4.9689    
   X3.7041       Y4.9653    
   X3.7114       Y4.9597    
   X3.7171       Y4.9524    
   X3.7206       Y4.9438    
   X3.7218       Y4.9347    
   X3.7206       Y4.9255    
   X3.7171       Y4.9170    
   X3.7114       Y4.9097    
   X3.7041       Y4.9040    
   X3.6956       Y4.9005    
   X3.6864       Y4.8993    
   X3.6773       Y4.9005    
(Pass: 2)
   Z0.0938    
   X3.6687       Y4.9040    
   X3.6614       Y4.9097    
   X3.6558       Y4.9170    
   X3.6522       Y4.9255    
   X3.6510       Y4.9347    
   X3.6522       Y4.9438    
   X3.6558       Y4.9524    
   X3.6614       Y4.9597    
   X3.6687       Y4.9653    
   X3.6773       Y4.9689    
   X3.6864       Y4.9701    
   X3.6956       Y4.9689    
   X3.7041       Y4.9653    
   X3.7114       Y4.9597    
   X3.7171       Y4.9524    
   X3.7206       Y4.9438    
   X3.7218       Y4.9347    
   X3.7206       Y4.9255    
   X3.7171       Y4.9170    
   X3.7114       Y4.9097    
   X3.7041       Y4.9040    
   X3.6956       Y4.9005    
   X3.6864       Y4.8993    
   X3.6773       Y4.9005    
(Pass: 3)
   Z0.0781    
   X3.6687       Y4.9040    
   X3.6614       Y4.9097    
   X3.6558       Y4.9170    
   X3.6522       Y4.9255    
   X3.6510       Y4.9347    
   X3.6522       Y4.9438    
   X3.6558       Y4.9524    
   X3.6614       Y4.9597    
   X3.6687       Y4.9653    
   X3.6773       Y4.9689    
   X3.6864       Y4.9701    
   X3.6956       Y4.9689    
   X3.7041       Y4.9653    
   X3.7114       Y4.9597    
   X3.7171       Y4.9524    
   X3.7206       Y4.9438    
   X3.7218       Y4.9347    
   X3.7206       Y4.9255    
   X3.7171       Y4.9170    
   X3.7114       Y4.9097    
   X3.7041       Y4.9040    
   X3.6956       Y4.9005    
   X3.6864       Y4.8993    
   X3.6773       Y4.9005    
(Pass: 4)
   Z0.0625    
   X3.6687       Y4.9040    
   X3.6614       Y4.9097    
   X3.6558       Y4.9170    
   X3.6522       Y4.9255    
   X3.6510       Y4.9347    
   X3.6522       Y4.9438    
   X3.6558       Y4.9524    
   X3.6614       Y4.9597    
   X3.6687       Y4.9653    
   X3.6773       Y4.9689    
   X3.6864       Y4.9701    
   X3.6956       Y4.9689    
   X3.7041       Y4.9653    
   X3.7114       Y4.9597    
   X3.7171       Y4.9524    
   X3.7206       Y4.9438    
   X3.7218       Y4.9347    
   X3.7206       Y4.9255    
   X3.7171       Y4.9170    
   X3.7114       Y4.9097    
   X3.7041       Y4.9040    
   X3.6956       Y4.9005    
   X3.6864       Y4.8993    
   X3.6773       Y4.9005    
(Pass: 5)
   Z0.0469    
   X3.6687       Y4.9040    
   X3.6614       Y4.9097    
   X3.6558       Y4.9170    
   X3.6522       Y4.9255    
   X3.6510       Y4.9347    
   X3.6522       Y4.9438    
   X3.6558       Y4.9524    
   X3.6614       Y4.9597    
   X3.6687       Y4.9653    
   X3.6773       Y4.9689    
   X3.6864       Y4.9701    
   X3.6956       Y4.9689    
   X3.7041       Y4.9653    
   X3.7114       Y4.9597    
   X3.7171       Y4.9524    
   X3.7206       Y4.9438    
   X3.7218       Y4.9347    
   X3.7206       Y4.9255    
   X3.7171       Y4.9170    
   X3.7114       Y4.9097    
   X3.7041       Y4.9040    
   X3.6956       Y4.9005    
   X3.6864       Y4.8993    
   X3.6773       Y4.9005    
(Pass: 6)
   Z0.0312    
   X3.6687       Y4.9040    
   X3.6614       Y4.9097    
   X3.6558       Y4.9170    
   X3.6522       Y4.9255    
   X3.6510       Y4.9347    
   X3.6522       Y4.9438    
   X3.6558       Y4.9524    
   X3.6614       Y4.9597    
   X3.6687       Y4.9653    
   X3.6773       Y4.9689    
   X3.6864       Y4.9701    
   X3.6956       Y4.9689    
   X3.7041       Y4.9653    
   X3.7114       Y4.9597    
   X3.7171       Y4.9524    
   X3.7206       Y4.9438    
   X3.7218       Y4.9347    
   X3.7206       Y4.9255    
   X3.7171       Y4.9170    
   X3.7114       Y4.9097    
   X3.7041       Y4.9040    
   X3.6956       Y4.9005    
   X3.6864       Y4.8993    
   X3.6773       Y4.9005    
(Pass: 7)
   Z0.0156    
   X3.6687       Y4.9040    
   X3.6614       Y4.9097    
   X3.6558       Y4.9170    
   X3.6522       Y4.9255    
   X3.6510       Y4.9347    
   X3.6522       Y4.9438    
   X3.6558       Y4.9524    
   X3.6614       Y4.9597    
   X3.6687       Y4.9653    
   X3.6773       Y4.9689    
   X3.6864       Y4.9701    
   X3.6956       Y4.9689    
   X3.7041       Y4.9653    
   X3.7114       Y4.9597    
   X3.7171       Y4.9524    
   X3.7206       Y4.9438    
   X3.7218       Y4.9347    
   X3.7206       Y4.9255    
   X3.7171       Y4.9170    
   X3.7114       Y4.9097    
   X3.7041       Y4.9040    
   X3.6956       Y4.9005    
   X3.6864       Y4.8993    
   X3.6773       Y4.9005    
(Pass: 8)
   Z0.0000    
   X3.6687       Y4.9040    
   X3.6614       Y4.9097    
   X3.6558       Y4.9170    
   X3.6522       Y4.9255    
   X3.6510       Y4.9347    
   X3.6522       Y4.9438    
   X3.6558       Y4.9524    
   X3.6614       Y4.9597    
   X3.6687       Y4.9653    
   X3.6773       Y4.9689    
   X3.6864       Y4.9701    
   X3.6956       Y4.9689    
