%
(Generated by SketchUcam {1.2a})
(File: dual-side-one-sheet-20mmRail.skp)
(Bit diameter: 1/8")
(Feed rate: 80"/min)
(Plunge Feed rate: 60"/min)
(Material Thickness: 1/4")
(Material length: 15" X width: 25")
(Overhead Gantry: true)
(Retract feed rate NOT limited to plunge feed rate)
(Multipass enabled, Depth = 1/16")
(Optimization is ON)
(Z ZERO IS TABLETOP)
(www.PhlatBoyz.com)
G90 G20 G49 
M3 S15000
G0   Z0.3750    
(Pass: 1)
   X0.3845       Y0.6367    
G1   Z0.1875     F60  
   X0.3684       Y0.6490     F80  
   X0.4032       Y0.6289    
   X0.3845       Y0.6367    
   X0.4232       Y0.6263    
   X0.4032       Y0.6289    
   X0.4433    
   X0.4232       Y0.6263    
   X0.4619       Y0.6367    
   X0.4433       Y0.6289    
   X0.4780       Y0.6490    
   X0.4619       Y0.6367    
   X0.4903       Y0.6650    
   X0.4780       Y0.6490    
   X0.4980       Y0.6837    
   X0.4903       Y0.6650    
   X0.5007       Y0.7037    
   X0.4980       Y0.6837    
   Y0.7238    
   X0.5007       Y0.7037    
   X0.4903       Y0.7425    
   X0.4980       Y0.7238    
   X0.4780       Y0.7585    
   X0.4903       Y0.7425    
   X0.4619       Y0.7708    
   X0.4780       Y0.7585    
   X0.4433       Y0.7786    
   X0.4619       Y0.7708    
   X0.4232       Y0.7812    
   X0.4433       Y0.7786    
   X0.4032    
   X0.4232       Y0.7812    
   X0.3845       Y0.7708    
   X0.4032       Y0.7786    
   X0.3684       Y0.7585    
   X0.3845       Y0.7708    
   X0.3561       Y0.7425    
   X0.3684       Y0.7585    
   X0.3484       Y0.7238    
   X0.3561       Y0.7425    
   X0.3458       Y0.7037    
   X0.3484       Y0.7238    
   Y0.6837    
   X0.3458       Y0.7037    
   X0.3561       Y0.6650    
   X0.3484       Y0.6837    
   X0.3684       Y0.6490    
   X0.3561       Y0.6650    
(Pass: 2)
   X0.3845       Y0.6367    
   Z0.1250     F60  
   X0.3684       Y0.6490     F80  
   X0.4032       Y0.6289    
   X0.3845       Y0.6367    
   X0.4232       Y0.6263    
   X0.4032       Y0.6289    
   X0.4433    
   X0.4232       Y0.6263    
   X0.4619       Y0.6367    
   X0.4433       Y0.6289    
   X0.4780       Y0.6490    
   X0.4619       Y0.6367    
   X0.4903       Y0.6650    
   X0.4780       Y0.6490    
   X0.4980       Y0.6837    
   X0.4903       Y0.6650    
   X0.5007       Y0.7037    
   X0.4980       Y0.6837    
   Y0.7238    
   X0.5007       Y0.7037    
   X0.4903       Y0.7425    
   X0.4980       Y0.7238    
   X0.4780       Y0.7585    
   X0.4903       Y0.7425    
   X0.4619       Y0.7708    
   X0.4780       Y0.7585    
   X0.4433       Y0.7786    
   X0.4619       Y0.7708    
   X0.4232       Y0.7812    
   X0.4433       Y0.7786    
   X0.4032    
   X0.4232       Y0.7812    
   X0.3845       Y0.7708    
   X0.4032       Y0.7786    
   X0.3684       Y0.7585    
   X0.3845       Y0.7708    
   X0.3561       Y0.7425    
   X0.3684       Y0.7585    
   X0.3484       Y0.7238    
   X0.3561       Y0.7425    
   X0.3458       Y0.7037    
   X0.3484       Y0.7238    
   Y0.6837    
   X0.3458       Y0.7037    
   X0.3561       Y0.6650    
   X0.3484       Y0.6837    
   X0.3684       Y0.6490    
   X0.3561       Y0.6650    
(Pass: 3)
   X0.3845       Y0.6367    
   Z0.0625     F60  
   X0.3684       Y0.6490     F80  
   X0.4032       Y0.6289    
   X0.3845       Y0.6367    
   X0.4232       Y0.6263    
   X0.4032       Y0.6289    
   X0.4433    
   X0.4232       Y0.6263    
   X0.4619       Y0.6367    
   X0.4433       Y0.6289    
   X0.4780       Y0.6490    
   X0.4619       Y0.6367    
   X0.4903       Y0.6650    
   X0.4780       Y0.6490    
   X0.4980       Y0.6837    
   X0.4903       Y0.6650    
   X0.5007       Y0.7037    
   X0.4980       Y0.6837    
   Y0.7238    
   X0.5007       Y0.7037    
   X0.4903       Y0.7425    
   X0.4980       Y0.7238    
   X0.4780       Y0.7585    
   X0.4903       Y0.7425    
   X0.4619       Y0.7708    
   X0.4780       Y0.7585    
   X0.4433       Y0.7786    
   X0.4619       Y0.7708    
   X0.4232       Y0.7812    
   X0.4433       Y0.7786    
   X0.4032    
   X0.4232       Y0.7812    
   X0.3845       Y0.7708    
   X0.4032       Y0.7786    
   X0.3684       Y0.7585    
   X0.3845       Y0.7708    
   X0.3561       Y0.7425    
   X0.3684       Y0.7585    
   X0.3484       Y0.7238    
   X0.3561       Y0.7425    
   X0.3458       Y0.7037    
   X0.3484       Y0.7238    
   Y0.6837    
   X0.3458       Y0.7037    
   X0.3561       Y0.6650    
   X0.3484       Y0.6837    
   X0.3684       Y0.6490    
   X0.3561       Y0.6650    
(Pass: 4)
   X0.3845       Y0.6367    
   Z0.0000     F60  
   X0.3684       Y0.6490     F80  
   X0.4032       Y0.6289    
   X0.3845       Y0.6367    
   X0.4232       Y0.6263    
   X0.4032       Y0.6289    
   X0.4433    
   X0.4232       Y0.6263    
   X0.4619       Y0.6367    
   X0.4433       Y0.6289    
   X0.4780       Y0.6490    
   X0.4619       Y0.6367    
   X0.4903       Y0.6650    
   X0.4780       Y0.6490    
   X0.4980       Y0.6837    
   X0.4903       Y0.6650    
   X0.5007       Y0.7037    
   X0.4980       Y0.6837    
   Y0.7238    
   X0.5007       Y0.7037    
   X0.4903       Y0.7425    
   X0.4980       Y0.7238    
   X0.4780       Y0.7585    
   X0.4903       Y0.7425    
   X0.4619       Y0.7708    
   X0.4780       Y0.7585    
   X0.4433       Y0.7786    
   X0.4619       Y0.7708    
   X0.4232       Y0.7812    
   X0.4433       Y0.7786    
   X0.4032    
   X0.4232       Y0.7812    
   X0.3845       Y0.7708    
   X0.4032       Y0.7786    
   X0.3684       Y0.7585    
   X0.3845       Y0.7708    
   X0.3561       Y0.7425    
   X0.3684       Y0.7585    
   X0.3484       Y0.7238    
   X0.3561       Y0.7425    
   X0.3458       Y0.7037    
   X0.3484       Y0.7238    
   Y0.6837    
   X0.3458       Y0.7037    
   X0.3561       Y0.6650    
   X0.3484       Y0.6837    
   X0.3684       Y0.6490    
   X0.3561       Y0.6650    
G0   Z0.3750    
(Pass: 1)
   X0.4232       Y3.5916    
G1   Z0.1875     F60  
   X0.4032       Y3.5943     F80  
   X0.4433    
   X0.4232       Y3.5916    
   X0.4619       Y3.6020    
   X0.4433       Y3.5943    
   X0.4780       Y3.6143    
   X0.4619       Y3.6020    
   X0.4903       Y3.6304    
   X0.4780       Y3.6143    
   X0.4980       Y3.6491    
   X0.4903       Y3.6304    
   X0.5007       Y3.6691    
   X0.4980       Y3.6491    
   Y3.6891    
   X0.5007       Y3.6691    
   X0.4903       Y3.7078    
   X0.4980       Y3.6891    
   X0.4780       Y3.7239    
   X0.4903       Y3.7078    
   X0.4619       Y3.7362    
   X0.4780       Y3.7239    
   X0.4433       Y3.7439    
   X0.4619       Y3.7362    
   X0.4232       Y3.7466    
   X0.4433       Y3.7439    
   X0.4032    
   X0.4232       Y3.7466    
   X0.3845       Y3.7362    
   X0.4032       Y3.7439    
   X0.3684       Y3.7239    
   X0.3845       Y3.7362    
   X0.3561       Y3.7078    
   X0.3684       Y3.7239    
   X0.3484       Y3.6891    
   X0.3561       Y3.7078    
   X0.3458       Y3.6691    
   X0.3484       Y3.6891    
   Y3.6491    
   X0.3458       Y3.6691    
   X0.3561       Y3.6304    
   X0.3484       Y3.6491    
   X0.3684       Y3.6143    
   X0.3561       Y3.6304    
   X0.3845       Y3.6020    
   X0.3684       Y3.6143    
   X0.4032       Y3.5943    
   X0.3845       Y3.6020    
(Pass: 2)
   X0.4232       Y3.5916    
   Z0.1250     F60  
   X0.4032       Y3.5943     F80  
   X0.4433    
   X0.4232       Y3.5916    
   X0.4619       Y3.6020    
   X0.4433       Y3.5943    
   X0.4780       Y3.6143    
   X0.4619       Y3.6020    
   X0.4903       Y3.6304    
   X0.4780       Y3.6143    
   X0.4980       Y3.6491    
   X0.4903       Y3.6304    
   X0.5007       Y3.6691    
   X0.4980       Y3.6491    
   Y3.6891    
   X0.5007       Y3.6691    
   X0.4903       Y3.7078    
   X0.4980       Y3.6891    
   X0.4780       Y3.7239    
   X0.4903       Y3.7078    
   X0.4619       Y3.7362    
   X0.4780       Y3.7239    
   X0.4433       Y3.7439    
   X0.4619       Y3.7362    
   X0.4232       Y3.7466    
   X0.4433       Y3.7439    
   X0.4032    
   X0.4232       Y3.7466    
   X0.3845       Y3.7362    
   X0.4032       Y3.7439    
   X0.3684       Y3.7239    
   X0.3845       Y3.7362    
   X0.3561       Y3.7078    
   X0.3684       Y3.7239    
   X0.3484       Y3.6891    
   X0.3561       Y3.7078    
   X0.3458       Y3.6691    
   X0.3484       Y3.6891    
   Y3.6491    
   X0.3458       Y3.6691    
   X0.3561       Y3.6304    
   X0.3484       Y3.6491    
   X0.3684       Y3.6143    
   X0.3561       Y3.6304    
   X0.3845       Y3.6020    
   X0.3684       Y3.6143    
   X0.4032       Y3.5943    
   X0.3845       Y3.6020    
(Pass: 3)
   X0.4232       Y3.5916    
   Z0.0625     F60  
   X0.4032       Y3.5943     F80  
   X0.4433    
   X0.4232       Y3.5916    
   X0.4619       Y3.6020    
   X0.4433       Y3.5943    
   X0.4780       Y3.6143    
   X0.4619       Y3.6020    
   X0.4903       Y3.6304    
   X0.4780       Y3.6143    
   X0.4980       Y3.6491    
   X0.4903       Y3.6304    
   X0.5007       Y3.6691    
   X0.4980       Y3.6491    
   Y3.6891    
   X0.5007       Y3.6691    
   X0.4903       Y3.7078    
   X0.4980       Y3.6891    
   X0.4780       Y3.7239    
   X0.4903       Y3.7078    
   X0.4619       Y3.7362    
   X0.4780       Y3.7239    
   X0.4433       Y3.7439    
   X0.4619       Y3.7362    
   X0.4232       Y3.7466    
   X0.4433       Y3.7439    
   X0.4032    
   X0.4232       Y3.7466    
   X0.3845       Y3.7362    
   X0.4032       Y3.7439    
   X0.3684       Y3.7239    
   X0.3845       Y3.7362    
   X0.3561       Y3.7078    
   X0.3684       Y3.7239    
   X0.3484       Y3.6891    
   X0.3561       Y3.7078    
   X0.3458       Y3.6691    
   X0.3484       Y3.6891    
   Y3.6491    
   X0.3458       Y3.6691    
   X0.3561       Y3.6304    
   X0.3484       Y3.6491    
   X0.3684       Y3.6143    
   X0.3561       Y3.6304    
   X0.3845       Y3.6020    
   X0.3684       Y3.6143    
   X0.4032       Y3.5943    
   X0.3845       Y3.6020    
(Pass: 4)
   X0.4232       Y3.5916    
   Z0.0000     F60  
   X0.4032       Y3.5943     F80  
   X0.4433    
   X0.4232       Y3.5916    
   X0.4619       Y3.6020    
   X0.4433       Y3.5943    
   X0.4780       Y3.6143    
   X0.4619       Y3.6020    
   X0.4903       Y3.6304    
   X0.4780       Y3.6143    
   X0.4980       Y3.6491    
   X0.4903       Y3.6304    
   X0.5007       Y3.6691    
   X0.4980       Y3.6491    
   Y3.6891    
   X0.5007       Y3.6691    
   X0.4903       Y3.7078    
   X0.4980       Y3.6891    
   X0.4780       Y3.7239    
   X0.4903       Y3.7078    
   X0.4619       Y3.7362    
   X0.4780       Y3.7239    
   X0.4433       Y3.7439    
   X0.4619       Y3.7362    
   X0.4232       Y3.7466    
   X0.4433       Y3.7439    
   X0.4032    
   X0.4232       Y3.7466    
   X0.3845       Y3.7362    
   X0.4032       Y3.7439    
   X0.3684       Y3.7239    
   X0.3845       Y3.7362    
   X0.3561       Y3.7078    
   X0.3684       Y3.7239    
   X0.3484       Y3.6891    
   X0.3561       Y3.7078    
   X0.3458       Y3.6691    
   X0.3484       Y3.6891    
   Y3.6491    
   X0.3458       Y3.6691    
   X0.3561       Y3.6304    
   X0.3484       Y3.6491    
   X0.3684       Y3.6143    
   X0.3561       Y3.6304    
   X0.3845       Y3.6020    
   X0.3684       Y3.6143    
   X0.4032       Y3.5943    
   X0.3845       Y3.6020    
G0   Z0.3750    
(Pass: 1)
   X3.0110       Y2.7580    
G1   Z0.1875     F60  
   X3.0168       Y2.7656     F80  
   X3.0073       Y2.7491    
   X3.0110       Y2.7580    
   X3.0060       Y2.7395    
   X3.0073       Y2.7491    
   Y2.7299    
   X3.0060       Y2.7395    
   X3.0110       Y2.7210    
   X3.0073       Y2.7299    
   X3.0168       Y2.7134    
   X3.0110       Y2.7210    
   X3.0245       Y2.7075    
   X3.0168       Y2.7134    
   X3.0334       Y2.7038    
   X3.0245       Y2.7075    
   X3.0471       Y2.7020    
   X3.0334       Y2.7038    
   X3.3932       Y2.7020    
   X3.0471    
   X3.4069       Y2.7038    
   X3.3932       Y2.7020    
   X3.4158       Y2.7075    
   X3.4069       Y2.7038    
   X3.4234       Y2.7134    
   X3.4158       Y2.7075    
   X3.4293       Y2.7210    
   X3.4234       Y2.7134    
   X3.4330       Y2.7299    
   X3.4293       Y2.7210    
   X3.4343       Y2.7395    
   X3.4330       Y2.7299    
   Y2.7491    
   X3.4343       Y2.7395    
   X3.4293       Y2.7580    
   X3.4330       Y2.7491    
   X3.4234       Y2.7656    
   X3.4293       Y2.7580    
   X3.4158       Y2.7715    
   X3.4234       Y2.7656    
   X3.4069       Y2.7752    
   X3.4158       Y2.7715    
   X3.3932       Y2.7770    
   X3.4069       Y2.7752    
   X3.0471       Y2.7770    
   X3.3932    
   X3.0334       Y2.7752    
   X3.0471       Y2.7770    
   X3.0245       Y2.7715    
   X3.0334       Y2.7752    
   X3.0168       Y2.7656    
   X3.0245       Y2.7715    
(Pass: 2)
   X3.0110       Y2.7580    
   Z0.1250     F60  
   X3.0168       Y2.7656     F80  
   X3.0073       Y2.7491    
   X3.0110       Y2.7580    
   X3.0060       Y2.7395    
   X3.0073       Y2.7491    
   Y2.7299    
   X3.0060       Y2.7395    
   X3.0110       Y2.7210    
   X3.0073       Y2.7299    
   X3.0168       Y2.7134    
   X3.0110       Y2.7210    
   X3.0245       Y2.7075    
   X3.0168       Y2.7134    
   X3.0334       Y2.7038    
   X3.0245       Y2.7075    
   X3.0471       Y2.7020    
   X3.0334       Y2.7038    
   X3.3932       Y2.7020    
   X3.0471    
   X3.4069       Y2.7038    
   X3.3932       Y2.7020    
   X3.4158       Y2.7075    
   X3.4069       Y2.7038    
   X3.4234       Y2.7134    
   X3.4158       Y2.7075    
   X3.4293       Y2.7210    
   X3.4234       Y2.7134    
   X3.4330       Y2.7299    
   X3.4293       Y2.7210    
   X3.4343       Y2.7395    
   X3.4330       Y2.7299    
   Y2.7491    
   X3.4343       Y2.7395    
   X3.4293       Y2.7580    
   X3.4330       Y2.7491    
   X3.4234       Y2.7656    
   X3.4293       Y2.7580    
   X3.4158       Y2.7715    
   X3.4234       Y2.7656    
   X3.4069       Y2.7752    
   X3.4158       Y2.7715    
   X3.3932       Y2.7770    
   X3.4069       Y2.7752    
   X3.0471       Y2.7770    
   X3.3932    
   X3.0334       Y2.7752    
   X3.0471       Y2.7770    
   X3.0245       Y2.7715    
   X3.0334       Y2.7752    
   X3.0168       Y2.7656    
   X3.0245       Y2.7715    
(Pass: 3)
   X3.0110       Y2.7580    
   Z0.0625     F60  
   X3.0168       Y2.7656     F80  
   X3.0073       Y2.7491    
   X3.0110       Y2.7580    
   X3.0060       Y2.7395    
   X3.0073       Y2.7491    
   Y2.7299    
   X3.0060       Y2.7395    
   X3.0110       Y2.7210    
   X3.0073       Y2.7299    
   X3.0168       Y2.7134    
   X3.0110       Y2.7210    
   X3.0245       Y2.7075    
   X3.0168       Y2.7134    
   X3.0334       Y2.7038    
   X3.0245       Y2.7075    
   X3.0471       Y2.7020    
   X3.0334       Y2.7038    
   X3.3932       Y2.7020    
   X3.0471    
   X3.4069       Y2.7038    
   X3.3932       Y2.7020    
   X3.4158       Y2.7075    
   X3.4069       Y2.7038    
   X3.4234       Y2.7134    
   X3.4158       Y2.7075    
   X3.4293       Y2.7210    
   X3.4234       Y2.7134    
   X3.4330       Y2.7299    
   X3.4293       Y2.7210    
   X3.4343       Y2.7395    
   X3.4330       Y2.7299    
   Y2.7491    
   X3.4343       Y2.7395    
   X3.4293       Y2.7580    
   X3.4330       Y2.7491    
   X3.4234       Y2.7656    
   X3.4293       Y2.7580    
   X3.4158       Y2.7715    
   X3.4234       Y2.7656    
   X3.4069       Y2.7752    
   X3.4158       Y2.7715    
   X3.3932       Y2.7770    
   X3.4069       Y2.7752    
   X3.0471       Y2.7770    
   X3.3932    
   X3.0334       Y2.7752    
   X3.0471       Y2.7770    
   X3.0245       Y2.7715    
   X3.0334       Y2.7752    
   X3.0168       Y2.7656    
   X3.0245       Y2.7715    
(Pass: 4)
   X3.0110       Y2.7580    
   Z0.0000     F60  
   X3.0168       Y2.7656     F80  
   X3.0073       Y2.7491    
   X3.0110       Y2.7580    
   X3.0060       Y2.7395    
   X3.0073       Y2.7491    
   Y2.7299    
   X3.0060       Y2.7395    
   X3.0110       Y2.7210    
   X3.0073       Y2.7299    
   X3.0168       Y2.7134    
   X3.0110       Y2.7210    
   X3.0245       Y2.7075    
   X3.0168       Y2.7134    
   X3.0334       Y2.7038    
   X3.0245       Y2.7075    
   X3.0471       Y2.7020    
   X3.0334       Y2.7038    
   X3.3932       Y2.7020    
   X3.0471    
   X3.4069       Y2.7038    
   X3.3932       Y2.7020    
   X3.4158       Y2.7075    
   X3.4069       Y2.7038    
   X3.4234       Y2.7134    
   X3.4158       Y2.7075    
   X3.4293       Y2.7210    
   X3.4234       Y2.7134    
   X3.4330       Y2.7299    
   X3.4293       Y2.7210    
   X3.4343       Y2.7395    
   X3.4330       Y2.7299    
   Y2.7491    
   X3.4343       Y2.7395    
   X3.4293       Y2.7580    
   X3.4330       Y2.7491    
   X3.4234       Y2.7656    
   X3.4293       Y2.7580    
   X3.4158       Y2.7715    
   X3.4234       Y2.7656    
   X3.4069       Y2.7752    
   X3.4158       Y2.7715    
   X3.3932       Y2.7770    
   X3.4069       Y2.7752    
   X3.0471       Y2.7770    
   X3.3932    
   X3.0334       Y2.7752    
   X3.0471       Y2.7770    
   X3.0245       Y2.7715    
   X3.0334       Y2.7752    
   X3.0168       Y2.7656    
   X3.0245       Y2.7715    
G0   Z0.3750    
(Pass: 1)
   X3.5227       Y2.3036    
G1   Z0.1875     F60  
   X3.5300       Y2.3092     F80  
   X3.5170       Y2.2962    
   X3.5227       Y2.3036    
   X3.5135       Y2.2877    
   X3.5170       Y2.2962    
   X3.5123       Y2.2785    
   X3.5135       Y2.2877    
   Y2.2694    
   X3.5123       Y2.2785    
   X3.5170       Y2.2609    
   X3.5135       Y2.2694    
   X3.5227       Y2.2535    
   X3.5170       Y2.2609    
   X3.5300       Y2.2479    
   X3.5227       Y2.2535    
   X3.5385       Y2.2444    
   X3.5300       Y2.2479    
   X3.5477       Y2.2432    
   X3.5385       Y2.2444    
   X3.5568    
   X3.5477       Y2.2432    
   X3.5654       Y2.2479    
   X3.5568       Y2.2444    
   X3.5727       Y2.2535    
   X3.5654       Y2.2479    
   X3.5783       Y2.2609    
   X3.5727       Y2.2535    
   X3.5819       Y2.2694    
   X3.5783       Y2.2609    
   X3.5831       Y2.2785    
   X3.5819       Y2.2694    
   Y2.2877    
   X3.5831       Y2.2785    
   X3.5783       Y2.2962    
   X3.5819       Y2.2877    
   X3.5727       Y2.3036    
   X3.5783       Y2.2962    
   X3.5654       Y2.3092    
   X3.5727       Y2.3036    
   X3.5568       Y2.3127    
   X3.5654       Y2.3092    
   X3.5477       Y2.3139    
   X3.5568       Y2.3127    
   X3.5385    
   X3.5477       Y2.3139    
   X3.5300       Y2.3092    
   X3.5385       Y2.3127    
(Pass: 2)
   X3.5227       Y2.3036    
   Z0.1250     F60  
   X3.5300       Y2.3092     F80  
   X3.5170       Y2.2962    
   X3.5227       Y2.3036    
   X3.5135       Y2.2877    
   X3.5170       Y2.2962    
   X3.5123       Y2.2785    
   X3.5135       Y2.2877    
   Y2.2694    
   X3.5123       Y2.2785    
   X3.5170       Y2.2609    
   X3.5135       Y2.2694    
   X3.5227       Y2.2535    
   X3.5170       Y2.2609    
   X3.5300       Y2.2479    
   X3.5227       Y2.2535    
   X3.5385       Y2.2444    
   X3.5300       Y2.2479    
   X3.5477       Y2.2432    
   X3.5385       Y2.2444    
   X3.5568    
   X3.5477       Y2.2432    
   X3.5654       Y2.2479    
   X3.5568       Y2.2444    
   X3.5727       Y2.2535    
   X3.5654       Y2.2479    
   X3.5783       Y2.2609    
   X3.5727       Y2.2535    
   X3.5819       Y2.2694    
   X3.5783       Y2.2609    
   X3.5831       Y2.2785    
   X3.5819       Y2.2694    
   Y2.2877    
   X3.5831       Y2.2785    
   X3.5783       Y2.2962    
   X3.5819       Y2.2877    
   X3.5727       Y2.3036    
   X3.5783       Y2.2962    
   X3.5654       Y2.3092    
   X3.5727       Y2.3036    
   X3.5568       Y2.3127    
   X3.5654       Y2.3092    
   X3.5477       Y2.3139    
   X3.5568       Y2.3127    
   X3.5385    
   X3.5477       Y2.3139    
   X3.5300       Y2.3092    
   X3.5385       Y2.3127    
(Pass: 3)
   X3.5227       Y2.3036    
   Z0.0625     F60  
   X3.5300       Y2.3092     F80  
   X3.5170       Y2.2962    
   X3.5227       Y2.3036    
   X3.5135       Y2.2877    
   X3.5170       Y2.2962    
   X3.5123       Y2.2785    
   X3.5135       Y2.2877    
   Y2.2694    
   X3.5123       Y2.2785    
   X3.5170       Y2.2609    
   X3.5135       Y2.2694    
   X3.5227       Y2.2535    
   X3.5170       Y2.2609    
   X3.5300       Y2.2479    
   X3.5227       Y2.2535    
   X3.5385       Y2.2444    
   X3.5300       Y2.2479    
   X3.5477       Y2.2432    
   X3.5385       Y2.2444    
   X3.5568    
   X3.5477       Y2.2432    
   X3.5654       Y2.2479    
   X3.5568       Y2.2444    
   X3.5727       Y2.2535    
   X3.5654       Y2.2479    
   X3.5783       Y2.2609    
   X3.5727       Y2.2535    
   X3.5819       Y2.2694    
   X3.5783       Y2.2609    
   X3.5831       Y2.2785    
   X3.5819       Y2.2694    
   Y2.2877    
   X3.5831       Y2.2785    
   X3.5783       Y2.2962    
   X3.5819       Y2.2877    
   X3.5727       Y2.3036    
   X3.5783       Y2.2962    
   X3.5654       Y2.3092    
   X3.5727       Y2.3036    
   X3.5568       Y2.3127    
   X3.5654       Y2.3092    
   X3.5477       Y2.3139    
   X3.5568       Y2.3127    
   X3.5385    
   X3.5477       Y2.3139    
   X3.5300       Y2.3092    
   X3.5385       Y2.3127    
(Pass: 4)
   X3.5227       Y2.3036    
   Z0.0000     F60  
   X3.5300       Y2.3092     F80  
   X3.5170       Y2.2962    
   X3.5227       Y2.3036    
   X3.5135       Y2.2877    
   X3.5170       Y2.2962    
   X3.5123       Y2.2785    
   X3.5135       Y2.2877    
   Y2.2694    
   X3.5123       Y2.2785    
   X3.5170       Y2.2609    
   X3.5135       Y2.2694    
   X3.5227       Y2.2535    
   X3.5170       Y2.2609    
   X3.5300       Y2.2479    
   X3.5227       Y2.2535    
   X3.5385       Y2.2444    
   X3.5300       Y2.2479    
   X3.5477       Y2.2432    
   X3.5385       Y2.2444    
   X3.5568    
   X3.5477       Y2.2432    
   X3.5654       Y2.2479    
   X3.5568       Y2.2444    
   X3.5727       Y2.2535    
   X3.5654       Y2.2479    
   X3.5783       Y2.2609    
   X3.5727       Y2.2535    
   X3.5819       Y2.2694    
   X3.5783       Y2.2609    
   X3.5831       Y2.2785    
   X3.5819       Y2.2694    
   Y2.2877    
   X3.5831       Y2.2785    
   X3.5783       Y2.2962    
   X3.5819       Y2.2877    
   X3.5727       Y2.3036    
   X3.5783       Y2.2962    
   X3.5654       Y2.3092    
   X3.5727       Y2.3036    
   X3.5568       Y2.3127    
   X3.5654       Y2.3092    
   X3.5477       Y2.3139    
   X3.5568       Y2.3127    
   X3.5385    
   X3.5477       Y2.3139    
   X3.5300       Y2.3092    
   X3.5385       Y2.3127    
G0   Z0.3750    
(Pass: 1)
   X4.1602       Y1.4824    
G1   Z0.1875     F60  
   X4.1687       Y1.4860     F80  
   X4.1529       Y1.4768    
   X4.1602       Y1.4824    
   X4.1472       Y1.4695    
   X4.1529       Y1.4768    
   X4.1437       Y1.4609    
   X4.1472       Y1.4695    
   X4.1425       Y1.4518    
   X4.1437       Y1.4609    
   Y1.4426    
   X4.1425       Y1.4518    
   X4.1472       Y1.4341    
   X4.1437       Y1.4426    
   X4.1529       Y1.4268    
   X4.1472       Y1.4341    
   X4.1602       Y1.4211    
   X4.1529       Y1.4268    
   X4.1687       Y1.4176    
   X4.1602       Y1.4211    
   X4.1779       Y1.4164    
   X4.1687       Y1.4176    
   X4.1870    
   X4.1779       Y1.4164    
   X4.1956       Y1.4211    
   X4.1870       Y1.4176    
   X4.2029       Y1.4268    
   X4.1956       Y1.4211    
   X4.2085       Y1.4341    
   X4.2029       Y1.4268    
   X4.2121       Y1.4426    
   X4.2085       Y1.4341    
   X4.2133       Y1.4518    
   X4.2121       Y1.4426    
   Y1.4609    
   X4.2133       Y1.4518    
   X4.2085       Y1.4695    
   X4.2121       Y1.4609    
   X4.2029       Y1.4768    
   X4.2085       Y1.4695    
   X4.1956       Y1.4824    
   X4.2029       Y1.4768    
   X4.1870       Y1.4860    
   X4.1956       Y1.4824    
   X4.1779       Y1.4872    
   X4.1870       Y1.4860    
   X4.1687    
   X4.1779       Y1.4872    
(Pass: 2)
   X4.1602       Y1.4824    
   Z0.1250     F60  
   X4.1687       Y1.4860     F80  
   X4.1529       Y1.4768    
   X4.1602       Y1.4824    
   X4.1472       Y1.4695    
   X4.1529       Y1.4768    
   X4.1437       Y1.4609    
   X4.1472       Y1.4695    
   X4.1425       Y1.4518    
   X4.1437       Y1.4609    
   Y1.4426    
   X4.1425       Y1.4518    
   X4.1472       Y1.4341    
   X4.1437       Y1.4426    
   X4.1529       Y1.4268    
   X4.1472       Y1.4341    
   X4.1602       Y1.4211    
   X4.1529       Y1.4268    
   X4.1687       Y1.4176    
   X4.1602       Y1.4211    
   X4.1779       Y1.4164    
   X4.1687       Y1.4176    
   X4.1870    
   X4.1779       Y1.4164    
   X4.1956       Y1.4211    
   X4.1870       Y1.4176    
   X4.2029       Y1.4268    
   X4.1956       Y1.4211    
   X4.2085       Y1.4341    
   X4.2029       Y1.4268    
   X4.2121       Y1.4426    
   X4.2085       Y1.4341    
   X4.2133       Y1.4518    
   X4.2121       Y1.4426    
   Y1.4609    
   X4.2133       Y1.4518    
   X4.2085       Y1.4695    
   X4.2121       Y1.4609    
   X4.2029       Y1.4768    
   X4.2085       Y1.4695    
   X4.1956       Y1.4824    
   X4.2029       Y1.4768    
   X4.1870       Y1.4860    
   X4.1956       Y1.4824    
   X4.1779       Y1.4872    
   X4.1870       Y1.4860    
   X4.1687    
   X4.1779       Y1.4872    
(Pass: 3)
   X4.1602       Y1.4824    
   Z0.0625     F60  
   X4.1687       Y1.4860     F80  
   X4.1529       Y1.4768    
   X4.1602       Y1.4824    
   X4.1472       Y1.4695    
   X4.1529       Y1.4768    
   X4.1437       Y1.4609    
   X4.1472       Y1.4695    
   X4.1425       Y1.4518    
   X4.1437       Y1.4609    
   Y1.4426    
   X4.1425       Y1.4518    
   X4.1472       Y1.4341    
   X4.1437       Y1.4426    
   X4.1529       Y1.4268    
   X4.1472       Y1.4341    
   X4.1602       Y1.4211    
   X4.1529       Y1.4268    
   X4.1687       Y1.4176    
   X4.1602       Y1.4211    
   X4.1779       Y1.4164    
   X4.1687       Y1.4176    
   X4.1870    
   X4.1779       Y1.4164    
   X4.1956       Y1.4211    
   X4.1870       Y1.4176    
   X4.2029       Y1.4268    
   X4.1956       Y1.4211    
   X4.2085       Y1.4341    
   X4.2029       Y1.4268    
   X4.2121       Y1.4426    
   X4.2085       Y1.4341    
   X4.2133       Y1.4518    
   X4.2121       Y1.4426    
   Y1.4609    
   X4.2133       Y1.4518    
   X4.2085       Y1.4695    
   X4.2121       Y1.4609    
   X4.2029       Y1.4768    
   X4.2085       Y1.4695    
   X4.1956       Y1.4824    
   X4.2029       Y1.4768    
   X4.1870       Y1.4860    
   X4.1956       Y1.4824    
   X4.1779       Y1.4872    
   X4.1870       Y1.4860    
   X4.1687    
   X4.1779       Y1.4872    
(Pass: 4)
   X4.1602       Y1.4824    
   Z0.0000     F60  
   X4.1687       Y1.4860     F80  
   X4.1529       Y1.4768    
   X4.1602       Y1.4824    
   X4.1472       Y1.4695    
   X4.1529       Y1.4768    
   X4.1437       Y1.4609    
   X4.1472       Y1.4695    
   X4.1425       Y1.4518    
   X4.1437       Y1.4609    
   Y1.4426    
   X4.1425       Y1.4518    
   X4.1472       Y1.4341    
   X4.1437       Y1.4426    
   X4.1529       Y1.4268    
   X4.1472       Y1.4341    
   X4.1602       Y1.4211    
   X4.1529       Y1.4268    
   X4.1687       Y1.4176    
   X4.1602       Y1.4211    
   X4.1779       Y1.4164    
   X4.1687       Y1.4176    
   X4.1870    
   X4.1779       Y1.4164    
   X4.1956       Y1.4211    
   X4.1870       Y1.4176    
   X4.2029       Y1.4268    
   X4.1956       Y1.4211    
   X4.2085       Y1.4341    
   X4.2029       Y1.4268    
   X4.2121       Y1.4426    
   X4.2085       Y1.4341    
   X4.2133       Y1.4518    
   X4.2121       Y1.4426    
   Y1.4609    
   X4.2133       Y1.4518    
   X4.2085       Y1.4695    
   X4.2121       Y1.4609    
   X4.2029       Y1.4768    
   X4.2085       Y1.4695    
   X4.1956       Y1.4824    
   X4.2029       Y1.4768    
   X4.1870       Y1.4860    
   X4.1956       Y1.4824    
   X4.1779       Y1.4872    
   X4.1870       Y1.4860    
   X4.1687    
   X4.1779       Y1.4872    
G0   Z0.3750    
(Pass: 1)
   X4.8097       Y1.6246    
G1   Z0.1875     F60  
   X4.8109       Y1.6338     F80  
   Y1.6155    
   X4.8097       Y1.6246    
   X4.8144       Y1.6069    
   X4.8109       Y1.6155    
   X4.8201       Y1.5996    
   X4.8144       Y1.6069    
   X4.8274       Y1.5940    
   X4.8201       Y1.5996    
   X4.8359       Y1.5904    
   X4.8274       Y1.5940    
   X4.8451       Y1.5892    
   X4.8359       Y1.5904    
   X4.8543    
   X4.8451       Y1.5892    
   X4.8628       Y1.5940    
   X4.8543       Y1.5904    
   X4.8701       Y1.5996    
   X4.8628       Y1.5940    
   X4.8757       Y1.6069    
   X4.8701       Y1.5996    
   X4.8793       Y1.6155    
   X4.8757       Y1.6069    
   X4.8805       Y1.6246    
   X4.8793       Y1.6155    
   Y1.6338    
   X4.8805       Y1.6246    
   X4.8757       Y1.6423    
   X4.8793       Y1.6338    
   X4.8701       Y1.6497    
   X4.8757       Y1.6423    
   X4.8628       Y1.6553    
   X4.8701       Y1.6497    
   X4.8543       Y1.6588    
   X4.8628       Y1.6553    
   X4.8451       Y1.6600    
   X4.8543       Y1.6588    
   X4.8359    
   X4.8451       Y1.6600    
   X4.8274       Y1.6553    
   X4.8359       Y1.6588    
   X4.8201       Y1.6497    
   X4.8274       Y1.6553    
   X4.8144       Y1.6423    
   X4.8201       Y1.6497    
   X4.8109       Y1.6338    
   X4.8144       Y1.6423    
(Pass: 2)
   X4.8097       Y1.6246    
   Z0.1250     F60  
   X4.8109       Y1.6338     F80  
   Y1.6155    
   X4.8097       Y1.6246    
   X4.8144       Y1.6069    
   X4.8109       Y1.6155    
   X4.8201       Y1.5996    
   X4.8144       Y1.6069    
   X4.8274       Y1.5940    
   X4.8201       Y1.5996    
   X4.8359       Y1.5904    
   X4.8274       Y1.5940    
   X4.8451       Y1.5892    
   X4.8359       Y1.5904    
   X4.8543    
   X4.8451       Y1.5892    
   X4.8628       Y1.5940    
   X4.8543       Y1.5904    
   X4.8701       Y1.5996    
   X4.8628       Y1.5940    
   X4.8757       Y1.6069    
   X4.8701       Y1.5996    
   X4.8793       Y1.6155    
   X4.8757       Y1.6069    
   X4.8805       Y1.6246    
   X4.8793       Y1.6155    
   Y1.6338    
   X4.8805       Y1.6246    
   X4.8757       Y1.6423    
   X4.8793       Y1.6338    
   X4.8701       Y1.6497    
   X4.8757       Y1.6423    
   X4.8628       Y1.6553    
   X4.8701       Y1.6497    
   X4.8543       Y1.6588    
   X4.8628       Y1.6553    
   X4.8451       Y1.6600    
   X4.8543       Y1.6588    
   X4.8359    
   X4.8451       Y1.6600    
   X4.8274       Y1.6553    
   X4.8359       Y1.6588    
   X4.8201       Y1.6497    
   X4.8274       Y1.6553    
   X4.8144       Y1.6423    
   X4.8201       Y1.6497    
   X4.8109       Y1.6338    
   X4.8144       Y1.6423    
(Pass: 3)
   X4.8097       Y1.6246    
   Z0.0625     F60  
   X4.8109       Y1.6338     F80  
   Y1.6155    
   X4.8097       Y1.6246    
   X4.8144       Y1.6069    
   X4.8109       Y1.6155    
   X4.8201       Y1.5996    
   X4.8144       Y1.6069    
   X4.8274       Y1.5940    
   X4.8201       Y1.5996    
   X4.8359       Y1.5904    
   X4.8274       Y1.5940    
   X4.8451       Y1.5892    
   X4.8359       Y1.5904    
   X4.8543    
   X4.8451       Y1.5892    
   X4.8628       Y1.5940    
   X4.8543       Y1.5904    
   X4.8701       Y1.5996    
   X4.8628       Y1.5940    
   X4.8757       Y1.6069    
   X4.8701       Y1.5996    
   X4.8793       Y1.6155    
   X4.8757       Y1.6069    
   X4.8805       Y1.6246    
   X4.8793       Y1.6155    
   Y1.6338    
   X4.8805       Y1.6246    
   X4.8757       Y1.6423    
   X4.8793       Y1.6338    
   X4.8701       Y1.6497    
   X4.8757       Y1.6423    
   X4.8628       Y1.6553    
   X4.8701       Y1.6497    
   X4.8543       Y1.6588    
   X4.8628       Y1.6553    
   X4.8451       Y1.6600    
   X4.8543       Y1.6588    
   X4.8359    
   X4.8451       Y1.6600    
   X4.8274       Y1.6553    
   X4.8359       Y1.6588    
   X4.8201       Y1.6497    
   X4.8274       Y1.6553    
   X4.8144       Y1.6423    
   X4.8201       Y1.6497    
   X4.8109       Y1.6338    
   X4.8144       Y1.6423    
(Pass: 4)
   X4.8097       Y1.6246    
   Z0.0000     F60  
   X4.8109       Y1.6338     F80  
   Y1.6155    
   X4.8097       Y1.6246    
   X4.8144       Y1.6069    
   X4.8109       Y1.6155    
   X4.8201       Y1.5996    
   X4.8144       Y1.6069    
   X4.8274       Y1.5940    
   X4.8201       Y1.5996    
   X4.8359       Y1.5904    
   X4.8274       Y1.5940    
   X4.8451       Y1.5892    
   X4.8359       Y1.5904    
   X4.8543    
   X4.8451       Y1.5892    
   X4.8628       Y1.5940    
   X4.8543       Y1.5904    
   X4.8701       Y1.5996    
   X4.8628       Y1.5940    
   X4.8757       Y1.6069    
   X4.8701       Y1.5996    
   X4.8793       Y1.6155    
   X4.8757       Y1.6069    
   X4.8805       Y1.6246    
   X4.8793       Y1.6155    
   Y1.6338    
   X4.8805       Y1.6246    
   X4.8757       Y1.6423    
   X4.8793       Y1.6338    
   X4.8701       Y1.6497    
   X4.8757       Y1.6423    
   X4.8628       Y1.6553    
   X4.8701       Y1.6497    
   X4.8543       Y1.6588    
   X4.8628       Y1.6553    
   X4.8451       Y1.6600    
   X4.8543       Y1.6588    
   X4.8359    
   X4.8451       Y1.6600    
   X4.8274       Y1.6553    
   X4.8359       Y1.6588    
   X4.8201       Y1.6497    
   X4.8274       Y1.6553    
   X4.8144       Y1.6423    
   X4.8201       Y1.6497    
   X4.8109       Y1.6338    
   X4.8144       Y1.6423    
G0   Z0.3750    
(Pass: 1)
   X4.8451       Y0.8179    
G1   Z0.1875     F60  
   X4.8543       Y0.8167     F80  
   X4.8359    
   X4.8451       Y0.8179    
   X4.8274       Y0.8131    
   X4.8359       Y0.8167    
   X4.8201       Y0.8075    
   X4.8274       Y0.8131    
   X4.8144       Y0.8002    
   X4.8201       Y0.8075    
   X4.8109       Y0.7916    
   X4.8144       Y0.8002    
   X4.8097       Y0.7825    
   X4.8109       Y0.7916    
   Y0.7733    
   X4.8097       Y0.7825    
   X4.8144       Y0.7648    
   X4.8109       Y0.7733    
   X4.8201       Y0.7575    
   X4.8144       Y0.7648    
   X4.8274       Y0.7518    
   X4.8201       Y0.7575    
   X4.8359       Y0.7483    
   X4.8274       Y0.7518    
   X4.8451       Y0.7471    
   X4.8359       Y0.7483    
   X4.8543    
   X4.8451       Y0.7471    
   X4.8628       Y0.7518    
   X4.8543       Y0.7483    
   X4.8701       Y0.7575    
   X4.8628       Y0.7518    
   X4.8757       Y0.7648    
   X4.8701       Y0.7575    
   X4.8793       Y0.7733    
   X4.8757       Y0.7648    
   X4.8805       Y0.7825    
   X4.8793       Y0.7733    
   Y0.7916    
   X4.8805       Y0.7825    
   X4.8757       Y0.8002    
   X4.8793       Y0.7916    
   X4.8701       Y0.8075    
   X4.8757       Y0.8002    
   X4.8628       Y0.8131    
   X4.8701       Y0.8075    
   X4.8543       Y0.8167    
   X4.8628       Y0.8131    
(Pass: 2)
   X4.8451       Y0.8179    
   Z0.1250     F60  
   X4.8543       Y0.8167     F80  
   X4.8359    
   X4.8451       Y0.8179    
   X4.8274       Y0.8131    
   X4.8359       Y0.8167    
   X4.8201       Y0.8075    
   X4.8274       Y0.8131    
   X4.8144       Y0.8002    
   X4.8201       Y0.8075    
   X4.8109       Y0.7916    
   X4.8144       Y0.8002    
   X4.8097       Y0.7825    
   X4.8109       Y0.7916    
   Y0.7733    
   X4.8097       Y0.7825    
   X4.8144       Y0.7648    
   X4.8109       Y0.7733    
   X4.8201       Y0.7575    
   X4.8144       Y0.7648    
   X4.8274       Y0.7518    
   X4.8201       Y0.7575    
   X4.8359       Y0.7483    
   X4.8274       Y0.7518    
   X4.8451       Y0.7471    
   X4.8359       Y0.7483    
   X4.8543    
   X4.8451       Y0.7471    
   X4.8628       Y0.7518    
   X4.8543       Y0.7483    
   X4.8701       Y0.7575    
   X4.8628       Y0.7518    
   X4.8757       Y0.7648    
   X4.8701       Y0.7575    
   X4.8793       Y0.7733    
   X4.8757       Y0.7648    
   X4.8805       Y0.7825    
   X4.8793       Y0.7733    
   Y0.7916    
   X4.8805       Y0.7825    
   X4.8757       Y0.8002    
   X4.8793       Y0.7916    
   X4.8701       Y0.8075    
   X4.8757       Y0.8002    
   X4.8628       Y0.8131    
   X4.8701       Y0.8075    
   X4.8543       Y0.8167    
   X4.8628       Y0.8131    
(Pass: 3)
   X4.8451       Y0.8179    
   Z0.0625     F60  
   X4.8543       Y0.8167     F80  
   X4.8359    
   X4.8451       Y0.8179    
   X4.8274       Y0.8131    
   X4.8359       Y0.8167    
   X4.8201       Y0.8075    
   X4.8274       Y0.8131    
   X4.8144       Y0.8002    
   X4.8201       Y0.8075    
   X4.8109       Y0.7916    
   X4.8144       Y0.8002    
   X4.8097       Y0.7825    
   X4.8109       Y0.7916    
   Y0.7733    
   X4.8097       Y0.7825    
   X4.8144       Y0.7648    
   X4.8109       Y0.7733    
   X4.8201       Y0.7575    
   X4.8144       Y0.7648    
   X4.8274       Y0.7518    
   X4.8201       Y0.7575    
   X4.8359       Y0.7483    
   X4.8274       Y0.7518    
   X4.8451       Y0.7471    
   X4.8359       Y0.7483    
   X4.8543    
   X4.8451       Y0.7471    
   X4.8628       Y0.7518    
   X4.8543       Y0.7483    
   X4.8701       Y0.7575    
   X4.8628       Y0.7518    
   X4.8757       Y0.7648    
   X4.8701       Y0.7575    
   X4.8793       Y0.7733    
   X4.8757       Y0.7648    
   X4.8805       Y0.7825    
   X4.8793       Y0.7733    
   Y0.7916    
   X4.8805       Y0.7825    
   X4.8757       Y0.8002    
   X4.8793       Y0.7916    
   X4.8701       Y0.8075    
   X4.8757       Y0.8002    
   X4.8628       Y0.8131    
   X4.8701       Y0.8075    
   X4.8543       Y0.8167    
   X4.8628       Y0.8131    
(Pass: 4)
   X4.8451       Y0.8179    
   Z0.0000     F60  
   X4.8543       Y0.8167     F80  
   X4.8359    
   X4.8451       Y0.8179    
   X4.8274       Y0.8131    
   X4.8359       Y0.8167    
   X4.8201       Y0.8075    
   X4.8274       Y0.8131    
   X4.8144       Y0.8002    
   X4.8201       Y0.8075    
   X4.8109       Y0.7916    
   X4.8144       Y0.8002    
   X4.8097       Y0.7825    
   X4.8109       Y0.7916    
   Y0.7733    
   X4.8097       Y0.7825    
   X4.8144       Y0.7648    
   X4.8109       Y0.7733    
   X4.8201       Y0.7575    
   X4.8144       Y0.7648    
   X4.8274       Y0.7518    
   X4.8201       Y0.7575    
   X4.8359       Y0.7483    
   X4.8274       Y0.7518    
   X4.8451       Y0.7471    
   X4.8359       Y0.7483    
   X4.8543    
   X4.8451       Y0.7471    
   X4.8628       Y0.7518    
   X4.8543       Y0.7483    
   X4.8701       Y0.7575    
   X4.8628       Y0.7518    
   X4.8757       Y0.7648    
   X4.8701       Y0.7575    
   X4.8793       Y0.7733    
   X4.8757       Y0.7648    
   X4.8805       Y0.7825    
   X4.8793       Y0.7733    
   Y0.7916    
   X4.8805       Y0.7825    
   X4.8757       Y0.8002    
   X4.8793       Y0.7916    
   X4.8701       Y0.8075    
   X4.8757       Y0.8002    
   X4.8628       Y0.8131    
   X4.8701       Y0.8075    
   X4.8543       Y0.8167    
   X4.8628       Y0.8131    
G0   Z0.3750    
(Pass: 1)
   X5.5983       Y0.7916    
G1   Z0.1875     F60  
   X5.6019       Y0.8002     F80  
   X5.5971       Y0.7825    
   X5.5983       Y0.7916    
   Y0.7733    
   X5.5971       Y0.7825    
   X5.6019       Y0.7648    
   X5.5983       Y0.7733    
   X5.6075       Y0.7575    
   X5.6019       Y0.7648    
   X5.6148       Y0.7518    
   X5.6075       Y0.7575    
   X5.6233       Y0.7483    
   X5.6148       Y0.7518    
   X5.6325       Y0.7471    
   X5.6233       Y0.7483    
   X5.6417    
   X5.6325       Y0.7471    
   X5.6502       Y0.7518    
   X5.6417       Y0.7483    
   X5.6575       Y0.7575    
   X5.6502       Y0.7518    
   X5.6631       Y0.7648    
   X5.6575       Y0.7575    
   X5.6667       Y0.7733    
   X5.6631       Y0.7648    
   X5.6679       Y0.7825    
   X5.6667       Y0.7733    
   Y0.7916    
   X5.6679       Y0.7825    
   X5.6631       Y0.8002    
   X5.6667       Y0.7916    
   X5.6575       Y0.8075    
   X5.6631       Y0.8002    
   X5.6502       Y0.8131    
   X5.6575       Y0.8075    
   X5.6417       Y0.8167    
   X5.6502       Y0.8131    
   X5.6325       Y0.8179    
   X5.6417       Y0.8167    
   X5.6233    
   X5.6325       Y0.8179    
   X5.6148       Y0.8131    
   X5.6233       Y0.8167    
   X5.6075       Y0.8075    
   X5.6148       Y0.8131    
   X5.6019       Y0.8002    
   X5.6075       Y0.8075    
(Pass: 2)
   X5.5983       Y0.7916    
   Z0.1250     F60  
   X5.6019       Y0.8002     F80  
   X5.5971       Y0.7825    
   X5.5983       Y0.7916    
   Y0.7733    
   X5.5971       Y0.7825    
   X5.6019       Y0.7648    
   X5.5983       Y0.7733    
   X5.6075       Y0.7575    
   X5.6019       Y0.7648    
   X5.6148       Y0.7518    
   X5.6075       Y0.7575    
   X5.6233       Y0.7483    
   X5.6148       Y0.7518    
   X5.6325       Y0.7471    
   X5.6233       Y0.7483    
   X5.6417    
   X5.6325       Y0.7471    
   X5.6502       Y0.7518    
   X5.6417       Y0.7483    
   X5.6575       Y0.7575    
   X5.6502       Y0.7518    
   X5.6631       Y0.7648    
   X5.6575       Y0.7575    
   X5.6667       Y0.7733    
   X5.6631       Y0.7648    
   X5.6679       Y0.7825    
   X5.6667       Y0.7733    
   Y0.7916    
   X5.6679       Y0.7825    
   X5.6631       Y0.8002    
   X5.6667       Y0.7916    
   X5.6575       Y0.8075    
   X5.6631       Y0.8002    
   X5.6502       Y0.8131    
   X5.6575       Y0.8075    
   X5.6417       Y0.8167    
   X5.6502       Y0.8131    
   X5.6325       Y0.8179    
   X5.6417       Y0.8167    
   X5.6233    
   X5.6325       Y0.8179    
   X5.6148       Y0.8131    
   X5.6233       Y0.8167    
   X5.6075       Y0.8075    
   X5.6148       Y0.8131    
   X5.6019       Y0.8002    
   X5.6075       Y0.8075    
(Pass: 3)
   X5.5983       Y0.7916    
   Z0.0625     F60  
   X5.6019       Y0.8002     F80  
   X5.5971       Y0.7825    
   X5.5983       Y0.7916    
   Y0.7733    
   X5.5971       Y0.7825    
   X5.6019       Y0.7648    
   X5.5983       Y0.7733    
   X5.6075       Y0.7575    
   X5.6019       Y0.7648    
   X5.6148       Y0.7518    
   X5.6075       Y0.7575    
   X5.6233       Y0.7483    
   X5.6148       Y0.7518    
   X5.6325       Y0.7471    
   X5.6233       Y0.7483    
   X5.6417    
   X5.6325       Y0.7471    
   X5.6502       Y0.7518    
   X5.6417       Y0.7483    
   X5.6575       Y0.7575    
   X5.6502       Y0.7518    
   X5.6631       Y0.7648    
   X5.6575       Y0.7575    
   X5.6667       Y0.7733    
   X5.6631       Y0.7648    
   X5.6679       Y0.7825    
   X5.6667       Y0.7733    
   Y0.7916    
   X5.6679       Y0.7825    
   X5.6631       Y0.8002    
   X5.6667       Y0.7916    
   X5.6575       Y0.8075    
   X5.6631       Y0.8002    
   X5.6502       Y0.8131    
   X5.6575       Y0.8075    
   X5.6417       Y0.8167    
   X5.6502       Y0.8131    
   X5.6325       Y0.8179    
   X5.6417       Y0.8167    
   X5.6233    
   X5.6325       Y0.8179    
   X5.6148       Y0.8131    
   X5.6233       Y0.8167    
   X5.6075       Y0.8075    
   X5.6148       Y0.8131    
   X5.6019       Y0.8002    
   X5.6075       Y0.8075    
(Pass: 4)
   X5.5983       Y0.7916    
   Z0.0000     F60  
   X5.6019       Y0.8002     F80  
   X5.5971       Y0.7825    
   X5.5983       Y0.7916    
   Y0.7733    
   X5.5971       Y0.7825    
   X5.6019       Y0.7648    
   X5.5983       Y0.7733    
   X5.6075       Y0.7575    
   X5.6019       Y0.7648    
   X5.6148       Y0.7518    
   X5.6075       Y0.7575    
   X5.6233       Y0.7483    
   X5.6148       Y0.7518    
   X5.6325       Y0.7471    
   X5.6233       Y0.7483    
   X5.6417    
   X5.6325       Y0.7471    
   X5.6502       Y0.7518    
   X5.6417       Y0.7483    
   X5.6575       Y0.7575    
   X5.6502       Y0.7518    
   X5.6631       Y0.7648    
   X5.6575       Y0.7575    
   X5.6667       Y0.7733    
   X5.6631       Y0.7648    
   X5.6679       Y0.7825    
   X5.6667       Y0.7733    
   Y0.7916    
   X5.6679       Y0.7825    
   X5.6631       Y0.8002    
   X5.6667       Y0.7916    
   X5.6575       Y0.8075    
   X5.6631       Y0.8002    
   X5.6502       Y0.8131    
   X5.6575       Y0.8075    
   X5.6417       Y0.8167    
   X5.6502       Y0.8131    
   X5.6325       Y0.8179    
   X5.6417       Y0.8167    
   X5.6233    
   X5.6325       Y0.8179    
   X5.6148       Y0.8131    
   X5.6233       Y0.8167    
   X5.6075       Y0.8075    
   X5.6148       Y0.8131    
   X5.6019       Y0.8002    
   X5.6075       Y0.8075    
G0   Z0.3750    
(Pass: 1)
   X5.9438       Y0.7873    
G1   Z0.1875     F60  
   X5.9474       Y0.7959     F80  
   X5.9426       Y0.7782    
   X5.9438       Y0.7873    
   Y0.7690    
   X5.9426       Y0.7782    
   X5.9474       Y0.7605    
   X5.9439       Y0.7690    
   X5.9530       Y0.7532    
   X5.9474       Y0.7605    
   X5.9603       Y0.7475    
   X5.9530       Y0.7532    
   X5.9689       Y0.7440    
   X5.9603       Y0.7475    
   X6.0034       Y0.7395    
   X5.9689       Y0.7440    
   X6.0886       Y0.6718    
   X6.0034       Y0.7395    
   X6.0887       Y0.5626    
   Y0.6718    
   Y0.5617    
   X6.1851    
   X6.0895    
   X6.5974    
   X6.1851    
   X6.5983    
   Y1.0080    
   Y0.5622    
   Y1.0145    
   X6.5991       Y1.0080    
   X6.5935       Y1.0150    
   X6.5978    
   X6.0955    
   X6.5935    
   X6.0895    
   X6.0955    
   X6.0882       Y1.0080    
   X6.0895       Y1.0145    
   X6.0883       Y0.8848    
   Y1.0080    
   X6.0034       Y0.8169    
   X6.0883       Y0.8848    
   X5.9689       Y0.8124    
   X6.0034       Y0.8169    
   X5.9603       Y0.8088    
   X5.9689       Y0.8124    
   X5.9530       Y0.8032    
   X5.9603       Y0.8088    
   X5.9474       Y0.7959    
   X5.9530       Y0.8032    
(Pass: 2)
   X5.9438       Y0.7873    
   Z0.1250     F60  
   X5.9474       Y0.7959     F80  
   X5.9426       Y0.7782    
   X5.9438       Y0.7873    
   Y0.7690    
   X5.9426       Y0.7782    
   X5.9474       Y0.7605    
   X5.9439       Y0.7690    
   X5.9530       Y0.7532    
   X5.9474       Y0.7605    
   X5.9603       Y0.7475    
   X5.9530       Y0.7532    
   X5.9689       Y0.7440    
   X5.9603       Y0.7475    
   X6.0034       Y0.7395    
   X5.9689       Y0.7440    
   X6.0886       Y0.6718    
   X6.0034       Y0.7395    
   X6.0887       Y0.5626    
   Y0.6718    
   Y0.5617    
   X6.1851    
   X6.0895    
   X6.5974    
   X6.1851    
   X6.5983    
   Y1.0080    
   Y0.5622    
   Y1.0145    
   X6.5991       Y1.0080    
   X6.5935       Y1.0150    
   X6.5978    
   X6.0955    
   X6.5935    
   X6.0895    
   X6.0955    
   X6.0882       Y1.0080    
   X6.0895       Y1.0145    
   X6.0883       Y0.8848    
   Y1.0080    
   X6.0034       Y0.8169    
   X6.0883       Y0.8848    
   X5.9689       Y0.8124    
   X6.0034       Y0.8169    
   X5.9603       Y0.8088    
   X5.9689       Y0.8124    
   X5.9530       Y0.8032    
   X5.9603       Y0.8088    
   X5.9474       Y0.7959    
   X5.9530       Y0.8032    
(Pass: 3)
   X5.9438       Y0.7873    
   Z0.0625     F60  
   X5.9474       Y0.7959     F80  
   X5.9426       Y0.7782    
   X5.9438       Y0.7873    
   Y0.7690    
   X5.9426       Y0.7782    
   X5.9474       Y0.7605    
   X5.9439       Y0.7690    
   X5.9530       Y0.7532    
   X5.9474       Y0.7605    
   X5.9603       Y0.7475    
   X5.9530       Y0.7532    
   X5.9689       Y0.7440    
   X5.9603       Y0.7475    
   X6.0034       Y0.7395    
   X5.9689       Y0.7440    
   X6.0886       Y0.6718    
   X6.0034       Y0.7395    
   X6.0887       Y0.5626    
   Y0.6718    
   Y0.5617    
   X6.1851    
   X6.0895    
   X6.5974    
   X6.1851    
   X6.5983    
   Y1.0080    
   Y0.5622    
   Y1.0145    
   X6.5991       Y1.0080    
   X6.5935       Y1.0150    
   X6.5978    
   X6.0955    
   X6.5935    
   X6.0895    
   X6.0955    
   X6.0882       Y1.0080    
   X6.0895       Y1.0145    
   X6.0883       Y0.8848    
   Y1.0080    
   X6.0034       Y0.8169    
   X6.0883       Y0.8848    
   X5.9689       Y0.8124    
   X6.0034       Y0.8169    
   X5.9603       Y0.8088    
   X5.9689       Y0.8124    
   X5.9530       Y0.8032    
   X5.9603       Y0.8088    
   X5.9474       Y0.7959    
   X5.9530       Y0.8032    
(Pass: 4)
   X5.9438       Y0.7873    
   Z0.0000     F60  
   X5.9474       Y0.7959     F80  
   X5.9426       Y0.7782    
   X5.9438       Y0.7873    
   Y0.7690    
   X5.9426       Y0.7782    
   X5.9474       Y0.7605    
   X5.9439       Y0.7690    
   X5.9530       Y0.7532    
   X5.9474       Y0.7605    
   X5.9603       Y0.7475    
   X5.9530       Y0.7532    
   X5.9689       Y0.7440    
   X5.9603       Y0.7475    
   X6.0034       Y0.7395    
   X5.9689       Y0.7440    
   X6.0886       Y0.6718    
   X6.0034       Y0.7395    
   X6.0887       Y0.5626    
   Y0.6718    
   Y0.5617    
   X6.1851    
   X6.0895    
   X6.5974    
   X6.1851    
   X6.5983    
   Y1.0080    
   Y0.5622    
   Y1.0145    
   X6.5991       Y1.0080    
   X6.5935       Y1.0150    
   X6.5978    
   X6.0955    
   X6.5935    
   X6.0895    
   X6.0955    
   X6.0882       Y1.0080    
   X6.0895       Y1.0145    
   X6.0883       Y0.8848    
   Y1.0080    
   X6.0034       Y0.8169    
   X6.0883       Y0.8848    
   X5.9689       Y0.8124    
   X6.0034       Y0.8169    
   X5.9603       Y0.8088    
   X5.9689       Y0.8124    
   X5.9530       Y0.8032    
   X5.9603       Y0.8088    
   X5.9474       Y0.7959    
   X5.9530       Y0.8032    
G0   Z0.3750    
(Pass: 1)
   X6.5507       Y1.5399    
G1   Z0.1875     F60  
   X6.5451       Y1.5473     F80  
   X6.5581       Y1.5343    
   X6.5507       Y1.5399    
   X6.5666       Y1.5308    
   X6.5581       Y1.5343    
   X6.5758       Y1.5296    
   X6.5666       Y1.5308    
   X6.5849    
   X6.5758       Y1.5296    
   X6.5935       Y1.5343    
   X6.5849       Y1.5308    
   X6.6008       Y1.5399    
   X6.5935       Y1.5343    
   X6.6064       Y1.5473    
   X6.6008       Y1.5399    
   X6.6099       Y1.5558    
   X6.6064       Y1.5473    
   X6.6111       Y1.5649    
   X6.6099       Y1.5558    
   Y1.5741    
   X6.6111       Y1.5649    
   X6.6064       Y1.5826    
   X6.6099       Y1.5741    
   X6.6008       Y1.5900    
   X6.6064       Y1.5826    
   X6.5935       Y1.5956    
   X6.6008       Y1.5900    
   X6.5849       Y1.5991    
   X6.5935       Y1.5956    
   X6.5758       Y1.6003    
   X6.5849       Y1.5991    
   X6.5666    
   X6.5758       Y1.6003    
   X6.5581       Y1.5956    
   X6.5666       Y1.5991    
   X6.5507       Y1.5900    
   X6.5581       Y1.5956    
   X6.5451       Y1.5826    
   X6.5507       Y1.5900    
   X6.5416       Y1.5741    
   X6.5451       Y1.5826    
   X6.5404       Y1.5649    
   X6.5416       Y1.5741    
   Y1.5558    
   X6.5404       Y1.5649    
   X6.5451       Y1.5473    
   X6.5416       Y1.5558    
(Pass: 2)
   X6.5507       Y1.5399    
   Z0.1250     F60  
   X6.5451       Y1.5473     F80  
   X6.5581       Y1.5343    
   X6.5507       Y1.5399    
   X6.5666       Y1.5308    
   X6.5581       Y1.5343    
   X6.5758       Y1.5296    
   X6.5666       Y1.5308    
   X6.5849    
   X6.5758       Y1.5296    
   X6.5935       Y1.5343    
   X6.5849       Y1.5308    
   X6.6008       Y1.5399    
   X6.5935       Y1.5343    
   X6.6064       Y1.5473    
   X6.6008       Y1.5399    
   X6.6099       Y1.5558    
   X6.6064       Y1.5473    
   X6.6111       Y1.5649    
   X6.6099       Y1.5558    
   Y1.5741    
   X6.6111       Y1.5649    
   X6.6064       Y1.5826    
   X6.6099       Y1.5741    
   X6.6008       Y1.5900    
   X6.6064       Y1.5826    
   X6.5935       Y1.5956    
   X6.6008       Y1.5900    
   X6.5849       Y1.5991    
   X6.5935       Y1.5956    
   X6.5758       Y1.6003    
   X6.5849       Y1.5991    
   X6.5666    
   X6.5758       Y1.6003    
   X6.5581       Y1.5956    
   X6.5666       Y1.5991    
   X6.5507       Y1.5900    
   X6.5581       Y1.5956    
   X6.5451       Y1.5826    
   X6.5507       Y1.5900    
   X6.5416       Y1.5741    
   X6.5451       Y1.5826    
   X6.5404       Y1.5649    
   X6.5416       Y1.5741    
   Y1.5558    
   X6.5404       Y1.5649    
   X6.5451       Y1.5473    
   X6.5416       Y1.5558    
(Pass: 3)
   X6.5507       Y1.5399    
   Z0.0625     F60  
   X6.5451       Y1.5473     F80  
   X6.5581       Y1.5343    
   X6.5507       Y1.5399    
   X6.5666       Y1.5308    
   X6.5581       Y1.5343    
   X6.5758       Y1.5296    
   X6.5666       Y1.5308    
   X6.5849    
   X6.5758       Y1.5296    
   X6.5935       Y1.5343    
   X6.5849       Y1.5308    
   X6.6008       Y1.5399    
   X6.5935       Y1.5343    
   X6.6064       Y1.5473    
   X6.6008       Y1.5399    
   X6.6099       Y1.5558    
   X6.6064       Y1.5473    
   X6.6111       Y1.5649    
   X6.6099       Y1.5558    
   Y1.5741    
   X6.6111       Y1.5649    
   X6.6064       Y1.5826    
   X6.6099       Y1.5741    
   X6.6008       Y1.5900    
   X6.6064       Y1.5826    
   X6.5935       Y1.5956    
   X6.6008       Y1.5900    
   X6.5849       Y1.5991    
   X6.5935       Y1.5956    
   X6.5758       Y1.6003    
   X6.5849       Y1.5991    
   X6.5666    
   X6.5758       Y1.6003    
   X6.5581       Y1.5956    
   X6.5666       Y1.5991    
   X6.5507       Y1.5900    
   X6.5581       Y1.5956    
   X6.5451       Y1.5826    
   X6.5507       Y1.5900    
   X6.5416       Y1.5741    
   X6.5451       Y1.5826    
   X6.5404       Y1.5649    
   X6.5416       Y1.5741    
   Y1.5558    
   X6.5404       Y1.5649    
   X6.5451       Y1.5473    
   X6.5416       Y1.5558    
(Pass: 4)
   X6.5507       Y1.5399    
   Z0.0000     F60  
   X6.5451       Y1.5473     F80  
   X6.5581       Y1.5343    
   X6.5507       Y1.5399    
   X6.5666       Y1.5308    
   X6.5581       Y1.5343    
   X6.5758       Y1.5296    
   X6.5666       Y1.5308    
   X6.5849    
   X6.5758       Y1.5296    
   X6.5935       Y1.5343    
   X6.5849       Y1.5308    
   X6.6008       Y1.5399    
   X6.5935       Y1.5343    
   X6.6064       Y1.5473    
   X6.6008       Y1.5399    
   X6.6099       Y1.5558    
   X6.6064       Y1.5473    
   X6.6111       Y1.5649    
   X6.6099       Y1.5558    
   Y1.5741    
   X6.6111       Y1.5649    
   X6.6064       Y1.5826    
   X6.6099       Y1.5741    
   X6.6008       Y1.5900    
   X6.6064       Y1.5826    
   X6.5935       Y1.5956    
   X6.6008       Y1.5900    
   X6.5849       Y1.5991    
   X6.5935       Y1.5956    
   X6.5758       Y1.6003    
   X6.5849       Y1.5991    
   X6.5666    
   X6.5758       Y1.6003    
   X6.5581       Y1.5956    
   X6.5666       Y1.5991    
   X6.5507       Y1.5900    
   X6.5581       Y1.5956    
   X6.5451       Y1.5826    
   X6.5507       Y1.5900    
   X6.5416       Y1.5741    
   X6.5451       Y1.5826    
   X6.5404       Y1.5649    
   X6.5416       Y1.5741    
   Y1.5558    
   X6.5404       Y1.5649    
   X6.5451       Y1.5473    
   X6.5416       Y1.5558    
G0   Z0.3750    
(Pass: 1)
   X6.5696       Y2.3330    
G1   Z0.1875     F60  
   X6.5610       Y2.3366     F80  
   X6.5787       Y2.3318    
   X6.5696       Y2.3330    
   X6.5879    
   X6.5787       Y2.3318    
   X6.5964       Y2.3366    
   X6.5879       Y2.3330    
   X6.6037       Y2.3422    
   X6.5964       Y2.3366    
   X6.6094       Y2.3495    
   X6.6037       Y2.3422    
   X6.6129       Y2.3581    
   X6.6094       Y2.3495    
   X6.6146       Y2.3713    
   X6.6129       Y2.3581    
   X6.6146       Y3.1899    
   Y2.3713    
   X6.6129       Y3.2031    
   X6.6146       Y3.1899    
   X6.6094       Y3.2117    
   X6.6129       Y3.2031    
   X6.6037       Y3.2190    
   X6.6094       Y3.2117    
   X6.5964       Y3.2246    
   X6.6037       Y3.2190    
   X6.5879       Y3.2282    
   X6.5964       Y3.2246    
   X6.5787       Y3.2294    
   X6.5879       Y3.2282    
   X6.5696    
   X6.5787       Y3.2294    
   X6.5610       Y3.2246    
   X6.5696       Y3.2282    
   X6.5537       Y3.2190    
   X6.5610       Y3.2246    
   X6.5481       Y3.2117    
   X6.5537       Y3.2190    
   X6.5445       Y3.2031    
   X6.5481       Y3.2117    
   X6.5428       Y3.1899    
   X6.5445       Y3.2031    
   X6.5428       Y2.3713    
   Y3.1899    
   X6.5445       Y2.3581    
   X6.5428       Y2.3713    
   X6.5481       Y2.3495    
   X6.5445       Y2.3581    
   X6.5537       Y2.3422    
   X6.5481       Y2.3495    
   X6.5610       Y2.3366    
   X6.5537       Y2.3422    
(Pass: 2)
   X6.5696       Y2.3330    
   Z0.1250     F60  
   X6.5610       Y2.3366     F80  
   X6.5787       Y2.3318    
   X6.5696       Y2.3330    
   X6.5879    
   X6.5787       Y2.3318    
   X6.5964       Y2.3366    
   X6.5879       Y2.3330    
   X6.6037       Y2.3422    
   X6.5964       Y2.3366    
   X6.6094       Y2.3495    
   X6.6037       Y2.3422    
   X6.6129       Y2.3581    
   X6.6094       Y2.3495    
   X6.6146       Y2.3713    
   X6.6129       Y2.3581    
   X6.6146       Y3.1899    
   Y2.3713    
   X6.6129       Y3.2031    
   X6.6146       Y3.1899    
   X6.6094       Y3.2117    
   X6.6129       Y3.2031    
   X6.6037       Y3.2190    
   X6.6094       Y3.2117    
   X6.5964       Y3.2246    
   X6.6037       Y3.2190    
   X6.5879       Y3.2282    
   X6.5964       Y3.2246    
   X6.5787       Y3.2294    
   X6.5879       Y3.2282    
   X6.5696    
   X6.5787       Y3.2294    
   X6.5610       Y3.2246    
   X6.5696       Y3.2282    
   X6.5537       Y3.2190    
   X6.5610       Y3.2246    
   X6.5481       Y3.2117    
   X6.5537       Y3.2190    
   X6.5445       Y3.2031    
   X6.5481       Y3.2117    
   X6.5428       Y3.1899    
   X6.5445       Y3.2031    
   X6.5428       Y2.3713    
   Y3.1899    
   X6.5445       Y2.3581    
   X6.5428       Y2.3713    
   X6.5481       Y2.3495    
   X6.5445       Y2.3581    
   X6.5537       Y2.3422    
   X6.5481       Y2.3495    
   X6.5610       Y2.3366    
   X6.5537       Y2.3422    
(Pass: 3)
   X6.5696       Y2.3330    
   Z0.0625     F60  
   X6.5610       Y2.3366     F80  
   X6.5787       Y2.3318    
   X6.5696       Y2.3330    
   X6.5879    
   X6.5787       Y2.3318    
   X6.5964       Y2.3366    
   X6.5879       Y2.3330    
   X6.6037       Y2.3422    
   X6.5964       Y2.3366    
   X6.6094       Y2.3495    
   X6.6037       Y2.3422    
   X6.6129       Y2.3581    
   X6.6094       Y2.3495    
   X6.6146       Y2.3713    
   X6.6129       Y2.3581    
   X6.6146       Y3.1899    
   Y2.3713    
   X6.6129       Y3.2031    
   X6.6146       Y3.1899    
   X6.6094       Y3.2117    
   X6.6129       Y3.2031    
   X6.6037       Y3.2190    
   X6.6094       Y3.2117    
   X6.5964       Y3.2246    
   X6.6037       Y3.2190    
   X6.5879       Y3.2282    
   X6.5964       Y3.2246    
   X6.5787       Y3.2294    
   X6.5879       Y3.2282    
   X6.5696    
   X6.5787       Y3.2294    
   X6.5610       Y3.2246    
   X6.5696       Y3.2282    
   X6.5537       Y3.2190    
   X6.5610       Y3.2246    
   X6.5481       Y3.2117    
   X6.5537       Y3.2190    
   X6.5445       Y3.2031    
   X6.5481       Y3.2117    
   X6.5428       Y3.1899    
   X6.5445       Y3.2031    
   X6.5428       Y2.3713    
   Y3.1899    
   X6.5445       Y2.3581    
   X6.5428       Y2.3713    
   X6.5481       Y2.3495    
   X6.5445       Y2.3581    
   X6.5537       Y2.3422    
   X6.5481       Y2.3495    
   X6.5610       Y2.3366    
   X6.5537       Y2.3422    
(Pass: 4)
   X6.5696       Y2.3330    
   Z0.0000     F60  
   X6.5610       Y2.3366     F80  
   X6.5787       Y2.3318    
   X6.5696       Y2.3330    
   X6.5879    
   X6.5787       Y2.3318    
   X6.5964       Y2.3366    
   X6.5879       Y2.3330    
   X6.6037       Y2.3422    
   X6.5964       Y2.3366    
   X6.6094       Y2.3495    
   X6.6037       Y2.3422    
   X6.6129       Y2.3581    
   X6.6094       Y2.3495    
   X6.6146       Y2.3713    
   X6.6129       Y2.3581    
   X6.6146       Y3.1899    
   Y2.3713    
   X6.6129       Y3.2031    
   X6.6146       Y3.1899    
   X6.6094       Y3.2117    
   X6.6129       Y3.2031    
   X6.6037       Y3.2190    
   X6.6094       Y3.2117    
   X6.5964       Y3.2246    
   X6.6037       Y3.2190    
   X6.5879       Y3.2282    
   X6.5964       Y3.2246    
   X6.5787       Y3.2294    
   X6.5879       Y3.2282    
   X6.5696    
   X6.5787       Y3.2294    
   X6.5610       Y3.2246    
   X6.5696       Y3.2282    
   X6.5537       Y3.2190    
   X6.5610       Y3.2246    
   X6.5481       Y3.2117    
   X6.5537       Y3.2190    
   X6.5445       Y3.2031    
   X6.5481       Y3.2117    
   X6.5428       Y3.1899    
   X6.5445       Y3.2031    
   X6.5428       Y2.3713    
   Y3.1899    
   X6.5445       Y2.3581    
   X6.5428       Y2.3713    
   X6.5481       Y2.3495    
   X6.5445       Y2.3581    
   X6.5537       Y2.3422    
   X6.5481       Y2.3495    
   X6.5610       Y2.3366    
   X6.5537       Y2.3422    
G0   Z0.3750    
(Pass: 1)
   X7.3302       Y2.3713    
G1   Z0.1875     F60  
   Y3.1899     F80  
   X7.3319       Y2.3581    
   X7.3302       Y2.3713    
   X7.3355       Y2.3495    
   X7.3319       Y2.3581    
   X7.3411       Y2.3422    
   X7.3355       Y2.3495    
   X7.3484       Y2.3366    
   X7.3411       Y2.3422    
   X7.3570       Y2.3330    
   X7.3484       Y2.3366    
   X7.3661       Y2.3318    
   X7.3570       Y2.3330    
   X7.3753    
   X7.3661       Y2.3318    
   X7.3838       Y2.3366    
   X7.3753       Y2.3330    
   X7.3911       Y2.3422    
   X7.3838       Y2.3366    
   X7.3968       Y2.3495    
   X7.3911       Y2.3422    
   X7.4003       Y2.3581    
   X7.3968       Y2.3495    
   X7.4020       Y2.3713    
   X7.4003       Y2.3581    
   X7.4020       Y3.1899    
   Y2.3713    
   X7.4003       Y3.2031    
   X7.4020       Y3.1899    
   X7.3968       Y3.2117    
   X7.4003       Y3.2031    
   X7.3911       Y3.2190    
   X7.3968       Y3.2117    
   X7.3838       Y3.2246    
   X7.3911       Y3.2190    
   X7.3753       Y3.2282    
   X7.3838       Y3.2246    
   X7.3661       Y3.2294    
   X7.3753       Y3.2282    
   X7.3570    
   X7.3661       Y3.2294    
   X7.3484       Y3.2246    
   X7.3570       Y3.2282    
   X7.3411       Y3.2190    
   X7.3484       Y3.2246    
   X7.3355       Y3.2117    
   X7.3411       Y3.2190    
   X7.3319       Y3.2031    
   X7.3355       Y3.2117    
   X7.3302       Y3.1899    
   X7.3319       Y3.2031    
(Pass: 2)
   X7.3302       Y2.3713    
   Z0.1250     F60  
   Y3.1899     F80  
   X7.3319       Y2.3581    
   X7.3302       Y2.3713    
   X7.3355       Y2.3495    
   X7.3319       Y2.3581    
   X7.3411       Y2.3422    
   X7.3355       Y2.3495    
   X7.3484       Y2.3366    
   X7.3411       Y2.3422    
   X7.3570       Y2.3330    
   X7.3484       Y2.3366    
   X7.3661       Y2.3318    
   X7.3570       Y2.3330    
   X7.3753    
   X7.3661       Y2.3318    
   X7.3838       Y2.3366    
   X7.3753       Y2.3330    
   X7.3911       Y2.3422    
   X7.3838       Y2.3366    
   X7.3968       Y2.3495    
   X7.3911       Y2.3422    
   X7.4003       Y2.3581    
   X7.3968       Y2.3495    
   X7.4020       Y2.3713    
   X7.4003       Y2.3581    
   X7.4020       Y3.1899    
   Y2.3713    
   X7.4003       Y3.2031    
   X7.4020       Y3.1899    
   X7.3968       Y3.2117    
   X7.4003       Y3.2031    
   X7.3911       Y3.2190    
   X7.3968       Y3.2117    
   X7.3838       Y3.2246    
   X7.3911       Y3.2190    
   X7.3753       Y3.2282    
   X7.3838       Y3.2246    
   X7.3661       Y3.2294    
   X7.3753       Y3.2282    
   X7.3570    
   X7.3661       Y3.2294    
   X7.3484       Y3.2246    
   X7.3570       Y3.2282    
   X7.3411       Y3.2190    
   X7.3484       Y3.2246    
   X7.3355       Y3.2117    
   X7.3411       Y3.2190    
   X7.3319       Y3.2031    
   X7.3355       Y3.2117    
   X7.3302       Y3.1899    
   X7.3319       Y3.2031    
(Pass: 3)
   X7.3302       Y2.3713    
   Z0.0625     F60  
   Y3.1899     F80  
   X7.3319       Y2.3581    
   X7.3302       Y2.3713    
   X7.3355       Y2.3495    
   X7.3319       Y2.3581    
   X7.3411       Y2.3422    
   X7.3355       Y2.3495    
   X7.3484       Y2.3366    
   X7.3411       Y2.3422    
   X7.3570       Y2.3330    
   X7.3484       Y2.3366    
   X7.3661       Y2.3318    
   X7.3570       Y2.3330    
   X7.3753    
   X7.3661       Y2.3318    
   X7.3838       Y2.3366    
   X7.3753       Y2.3330    
   X7.3911       Y2.3422    
   X7.3838       Y2.3366    
   X7.3968       Y2.3495    
   X7.3911       Y2.3422    
   X7.4003       Y2.3581    
   X7.3968       Y2.3495    
   X7.4020       Y2.3713    
   X7.4003       Y2.3581    
   X7.4020       Y3.1899    
   Y2.3713    
   X7.4003       Y3.2031    
   X7.4020       Y3.1899    
   X7.3968       Y3.2117    
   X7.4003       Y3.2031    
   X7.3911       Y3.2190    
   X7.3968       Y3.2117    
   X7.3838       Y3.2246    
   X7.3911       Y3.2190    
   X7.3753       Y3.2282    
   X7.3838       Y3.2246    
   X7.3661       Y3.2294    
   X7.3753       Y3.2282    
   X7.3570    
   X7.3661       Y3.2294    
   X7.3484       Y3.2246    
   X7.3570       Y3.2282    
   X7.3411       Y3.2190    
   X7.3484       Y3.2246    
   X7.3355       Y3.2117    
   X7.3411       Y3.2190    
   X7.3319       Y3.2031    
   X7.3355       Y3.2117    
   X7.3302       Y3.1899    
   X7.3319       Y3.2031    
(Pass: 4)
   X7.3302       Y2.3713    
   Z0.0000     F60  
   Y3.1899     F80  
   X7.3319       Y2.3581    
   X7.3302       Y2.3713    
   X7.3355       Y2.3495    
   X7.3319       Y2.3581    
   X7.3411       Y2.3422    
   X7.3355       Y2.3495    
   X7.3484       Y2.3366    
   X7.3411       Y2.3422    
   X7.3570       Y2.3330    
   X7.3484       Y2.3366    
   X7.3661       Y2.3318    
   X7.3570       Y2.3330    
   X7.3753    
   X7.3661       Y2.3318    
   X7.3838       Y2.3366    
   X7.3753       Y2.3330    
   X7.3911       Y2.3422    
   X7.3838       Y2.3366    
   X7.3968       Y2.3495    
   X7.3911       Y2.3422    
   X7.4003       Y2.3581    
   X7.3968       Y2.3495    
   X7.4020       Y2.3713    
   X7.4003       Y2.3581    
   X7.4020       Y3.1899    
   Y2.3713    
   X7.4003       Y3.2031    
   X7.4020       Y3.1899    
   X7.3968       Y3.2117    
   X7.4003       Y3.2031    
   X7.3911       Y3.2190    
   X7.3968       Y3.2117    
   X7.3838       Y3.2246    
   X7.3911       Y3.2190    
   X7.3753       Y3.2282    
   X7.3838       Y3.2246    
   X7.3661       Y3.2294    
   X7.3753       Y3.2282    
   X7.3570    
   X7.3661       Y3.2294    
   X7.3484       Y3.2246    
   X7.3570       Y3.2282    
   X7.3411       Y3.2190    
   X7.3484       Y3.2246    
   X7.3355       Y3.2117    
   X7.3411       Y3.2190    
   X7.3319       Y3.2031    
   X7.3355       Y3.2117    
   X7.3302       Y3.1899    
   X7.3319       Y3.2031    
G0   Z0.3750    
(Pass: 1)
   X7.6458       Y2.5396    
G1   Z0.1875     F60  
   X7.6521       Y2.5409     F80  
   X7.6450       Y2.5337    
   Y2.5396    
   Y2.4996    
   Y2.5337    
   Y2.2265    
   Y2.4996    
   Y2.1952    
   Y2.2265    
   Y2.1943    
   X7.7161    
   X7.6464    
   X7.7169    
   Y2.5393    
   Y2.1948    
   Y2.5402    
   X7.6521    
   X7.7164    
(Pass: 2)
   X7.6458    
   Z0.1250     F60  
   X7.6521       Y2.5409     F80  
   X7.6450       Y2.5337    
   Y2.5396    
   Y2.4996    
   Y2.5337    
   Y2.2265    
   Y2.4996    
   Y2.1952    
   Y2.2265    
   Y2.1943    
   X7.7161    
   X7.6464    
   X7.7169    
   Y2.5393    
   Y2.1948    
   Y2.5402    
   X7.6521    
   X7.7164    
(Pass: 3)
   X7.6458    
   Z0.0625     F60  
   X7.6521       Y2.5409     F80  
   X7.6450       Y2.5337    
   Y2.5396    
   Y2.4996    
   Y2.5337    
   Y2.2265    
   Y2.4996    
   Y2.1952    
   Y2.2265    
   Y2.1943    
   X7.7161    
   X7.6464    
   X7.7169    
   Y2.5393    
   Y2.1948    
   Y2.5402    
   X7.6521    
   X7.7164    
(Pass: 4)
   X7.6458    
   Z0.0000     F60  
   X7.6521       Y2.5409     F80  
   X7.6450       Y2.5337    
   Y2.5396    
   Y2.4996    
   Y2.5337    
   Y2.2265    
   Y2.4996    
   Y2.1952    
   Y2.2265    
   Y2.1943    
   X7.7161    
   X7.6464    
   X7.7169    
   Y2.5393    
   Y2.1948    
   Y2.5402    
   X7.6521    
   X7.7164    
G0   Z0.3750    
(Pass: 1)
   X7.5724       Y1.7532    
G1   Z0.1875     F60  
   X7.5800       Y1.7506     F80  
   X7.5646       Y1.7547    
   X7.5724       Y1.7532    
   X7.5546       Y1.7554    
   X7.5646    
   X7.1768    
   X7.5546    
   X7.1668    
   X7.1768    
   X7.1590       Y1.7532    
   X7.1668       Y1.7547    
   X7.1515       Y1.7506    
   X7.1590       Y1.7532    
   X7.1443       Y1.7471    
   X7.1515       Y1.7506    
   X7.1377       Y1.7427    
   X7.1443       Y1.7471    
   X7.1317       Y1.7374    
   X7.1377       Y1.7427    
   X7.1265       Y1.7314    
   X7.1317       Y1.7374    
   X7.1221       Y1.7248    
   X7.1265       Y1.7314    
   X7.1186       Y1.7177    
   X7.1221       Y1.7248    
   X7.1160       Y1.7101    
   X7.1186       Y1.7177    
   X7.1144       Y1.7023    
   X7.1160       Y1.7101    
   X7.1138       Y1.6924    
   Y1.7023    
   Y0.6245    
   Y1.6924    
   Y0.6145    
   Y0.6245    
   X7.1160       Y0.6067    
   X7.1144       Y0.6145    
   X7.1186       Y0.5992    
   X7.1160       Y0.6067    
   X7.1221       Y0.5920    
   X7.1186       Y0.5992    
   X7.1265       Y0.5854    
   X7.1221       Y0.5920    
   X7.1317       Y0.5794    
   X7.1265       Y0.5854    
   X7.1377       Y0.5742    
   X7.1317       Y0.5794    
   X7.1443       Y0.5697    
   X7.1377       Y0.5742    
   X7.1515       Y0.5662    
   X7.1443       Y0.5697    
   X7.1590       Y0.5637    
   X7.1515       Y0.5662    
   X7.1668       Y0.5621    
   X7.1590       Y0.5637    
   X7.1768       Y0.5615    
   X7.1668    
   X7.4163    
   X7.1768    
   X7.4444       Y0.5633    
   X7.4163       Y0.5615    
   X7.4699       Y0.5684    
   X7.4444       Y0.5633    
   X7.4946       Y0.5768    
   X7.4699       Y0.5684    
   X7.5179       Y0.5883    
   X7.4946       Y0.5768    
   X7.5396       Y0.6028    
   X7.5179       Y0.5883    
   X7.5592       Y0.6199    
   X7.5396       Y0.6028    
   X7.5764       Y0.6395    
   X7.5592       Y0.6199    
   X7.5908       Y0.6612    
   X7.5764       Y0.6395    
   X7.6023       Y0.6845    
   X7.5908       Y0.6612    
   X7.6107       Y0.7092    
   X7.6023       Y0.6845    
   X7.6158       Y0.7347    
   X7.6107       Y0.7092    
   X7.6176       Y0.7628    
   X7.6158       Y0.7347    
   X7.6176       Y1.6924    
   Y0.7628    
   Y1.7023    
   Y1.6924    
   X7.6154       Y1.7101    
   X7.6170       Y1.7023    
   X7.6129       Y1.7177    
   X7.6154       Y1.7101    
   X7.6094       Y1.7248    
   X7.6129       Y1.7177    
   X7.6049       Y1.7314    
   X7.6094       Y1.7248    
   X7.5997       Y1.7374    
   X7.6049       Y1.7314    
   X7.5937       Y1.7427    
   X7.5997       Y1.7374    
   X7.5871       Y1.7471    
   X7.5937       Y1.7427    
   X7.5800       Y1.7506    
   X7.5871       Y1.7471    
(Pass: 2)
   X7.5724       Y1.7532    
   Z0.1250     F60  
   X7.5800       Y1.7506     F80  
   X7.5646       Y1.7547    
   X7.5724       Y1.7532    
   X7.5546       Y1.7554    
   X7.5646    
   X7.1768    
   X7.5546    
   X7.1668    
   X7.1768    
   X7.1590       Y1.7532    
   X7.1668       Y1.7547    
   X7.1515       Y1.7506    
   X7.1590       Y1.7532    
   X7.1443       Y1.7471    
   X7.1515       Y1.7506    
   X7.1377       Y1.7427    
   X7.1443       Y1.7471    
   X7.1317       Y1.7374    
   X7.1377       Y1.7427    
   X7.1265       Y1.7314    
   X7.1317       Y1.7374    
   X7.1221       Y1.7248    
   X7.1265       Y1.7314    
   X7.1186       Y1.7177    
   X7.1221       Y1.7248    
   X7.1160       Y1.7101    
   X7.1186       Y1.7177    
   X7.1144       Y1.7023    
   X7.1160       Y1.7101    
   X7.1138       Y1.6924    
   Y1.7023    
   Y0.6245    
   Y1.6924    
   Y0.6145    
   Y0.6245    
   X7.1160       Y0.6067    
   X7.1144       Y0.6145    
   X7.1186       Y0.5992    
   X7.1160       Y0.6067    
   X7.1221       Y0.5920    
   X7.1186       Y0.5992    
   X7.1265       Y0.5854    
   X7.1221       Y0.5920    
   X7.1317       Y0.5794    
   X7.1265       Y0.5854    
   X7.1377       Y0.5742    
   X7.1317       Y0.5794    
   X7.1443       Y0.5697    
   X7.1377       Y0.5742    
   X7.1515       Y0.5662    
   X7.1443       Y0.5697    
   X7.1590       Y0.5637    
   X7.1515       Y0.5662    
   X7.1668       Y0.5621    
   X7.1590       Y0.5637    
   X7.1768       Y0.5615    
   X7.1668    
   X7.4163    
   X7.1768    
   X7.4444       Y0.5633    
   X7.4163       Y0.5615    
   X7.4699       Y0.5684    
   X7.4444       Y0.5633    
   X7.4946       Y0.5768    
   X7.4699       Y0.5684    
   X7.5179       Y0.5883    
   X7.4946       Y0.5768    
   X7.5396       Y0.6028    
   X7.5179       Y0.5883    
   X7.5592       Y0.6199    
   X7.5396       Y0.6028    
   X7.5764       Y0.6395    
   X7.5592       Y0.6199    
   X7.5908       Y0.6612    
   X7.5764       Y0.6395    
   X7.6023       Y0.6845    
   X7.5908       Y0.6612    
   X7.6107       Y0.7092    
   X7.6023       Y0.6845    
   X7.6158       Y0.7347    
   X7.6107       Y0.7092    
   X7.6176       Y0.7628    
   X7.6158       Y0.7347    
   X7.6176       Y1.6924    
   Y0.7628    
   Y1.7023    
   Y1.6924    
   X7.6154       Y1.7101    
   X7.6170       Y1.7023    
   X7.6129       Y1.7177    
   X7.6154       Y1.7101    
   X7.6094       Y1.7248    
   X7.6129       Y1.7177    
   X7.6049       Y1.7314    
   X7.6094       Y1.7248    
   X7.5997       Y1.7374    
   X7.6049       Y1.7314    
   X7.5937       Y1.7427    
   X7.5997       Y1.7374    
   X7.5871       Y1.7471    
   X7.5937       Y1.7427    
   X7.5800       Y1.7506    
   X7.5871       Y1.7471    
(Pass: 3)
   X7.5724       Y1.7532    
   Z0.0625     F60  
   X7.5800       Y1.7506     F80  
   X7.5646       Y1.7547    
   X7.5724       Y1.7532    
   X7.5546       Y1.7554    
   X7.5646    
   X7.1768    
   X7.5546    
   X7.1668    
   X7.1768    
   X7.1590       Y1.7532    
   X7.1668       Y1.7547    
   X7.1515       Y1.7506    
   X7.1590       Y1.7532    
   X7.1443       Y1.7471    
   X7.1515       Y1.7506    
   X7.1377       Y1.7427    
   X7.1443       Y1.7471    
   X7.1317       Y1.7374    
   X7.1377       Y1.7427    
   X7.1265       Y1.7314    
   X7.1317       Y1.7374    
   X7.1221       Y1.7248    
   X7.1265       Y1.7314    
   X7.1186       Y1.7177    
   X7.1221       Y1.7248    
   X7.1160       Y1.7101    
   X7.1186       Y1.7177    
   X7.1144       Y1.7023    
   X7.1160       Y1.7101    
   X7.1138       Y1.6924    
   Y1.7023    
   Y0.6245    
   Y1.6924    
   Y0.6145    
   Y0.6245    
   X7.1160       Y0.6067    
   X7.1144       Y0.6145    
   X7.1186       Y0.5992    
   X7.1160       Y0.6067    
   X7.1221       Y0.5920    
   X7.1186       Y0.5992    
   X7.1265       Y0.5854    
   X7.1221       Y0.5920    
   X7.1317       Y0.5794    
   X7.1265       Y0.5854    
   X7.1377       Y0.5742    
   X7.1317       Y0.5794    
   X7.1443       Y0.5697    
   X7.1377       Y0.5742    
   X7.1515       Y0.5662    
   X7.1443       Y0.5697    
   X7.1590       Y0.5637    
   X7.1515       Y0.5662    
   X7.1668       Y0.5621    
   X7.1590       Y0.5637    
   X7.1768       Y0.5615    
   X7.1668    
   X7.4163    
   X7.1768    
   X7.4444       Y0.5633    
   X7.4163       Y0.5615    
   X7.4699       Y0.5684    
   X7.4444       Y0.5633    
   X7.4946       Y0.5768    
   X7.4699       Y0.5684    
   X7.5179       Y0.5883    
   X7.4946       Y0.5768    
   X7.5396       Y0.6028    
   X7.5179       Y0.5883    
   X7.5592       Y0.6199    
   X7.5396       Y0.6028    
   X7.5764       Y0.6395    
   X7.5592       Y0.6199    
   X7.5908       Y0.6612    
   X7.5764       Y0.6395    
   X7.6023       Y0.6845    
   X7.5908       Y0.6612    
   X7.6107       Y0.7092    
   X7.6023       Y0.6845    
   X7.6158       Y0.7347    
   X7.6107       Y0.7092    
   X7.6176       Y0.7628    
   X7.6158       Y0.7347    
   X7.6176       Y1.6924    
   Y0.7628    
   Y1.7023    
   Y1.6924    
   X7.6154       Y1.7101    
   X7.6170       Y1.7023    
   X7.6129       Y1.7177    
   X7.6154       Y1.7101    
   X7.6094       Y1.7248    
   X7.6129       Y1.7177    
   X7.6049       Y1.7314    
   X7.6094       Y1.7248    
   X7.5997       Y1.7374    
   X7.6049       Y1.7314    
   X7.5937       Y1.7427    
   X7.5997       Y1.7374    
   X7.5871       Y1.7471    
   X7.5937       Y1.7427    
   X7.5800       Y1.7506    
   X7.5871       Y1.7471    
(Pass: 4)
   X7.5724       Y1.7532    
   Z0.0000     F60  
   X7.5800       Y1.7506     F80  
   X7.5646       Y1.7547    
   X7.5724       Y1.7532    
   X7.5546       Y1.7554    
   X7.5646    
   X7.1768    
   X7.5546    
   X7.1668    
   X7.1768    
   X7.1590       Y1.7532    
   X7.1668       Y1.7547    
   X7.1515       Y1.7506    
   X7.1590       Y1.7532    
   X7.1443       Y1.7471    
   X7.1515       Y1.7506    
   X7.1377       Y1.7427    
   X7.1443       Y1.7471    
   X7.1317       Y1.7374    
   X7.1377       Y1.7427    
   X7.1265       Y1.7314    
   X7.1317       Y1.7374    
   X7.1221       Y1.7248    
   X7.1265       Y1.7314    
   X7.1186       Y1.7177    
   X7.1221       Y1.7248    
   X7.1160       Y1.7101    
   X7.1186       Y1.7177    
   X7.1144       Y1.7023    
   X7.1160       Y1.7101    
   X7.1138       Y1.6924    
   Y1.7023    
   Y0.6245    
   Y1.6924    
   Y0.6145    
   Y0.6245    
   X7.1160       Y0.6067    
   X7.1144       Y0.6145    
   X7.1186       Y0.5992    
   X7.1160       Y0.6067    
   X7.1221       Y0.5920    
   X7.1186       Y0.5992    
   X7.1265       Y0.5854    
   X7.1221       Y0.5920    
   X7.1317       Y0.5794    
   X7.1265       Y0.5854    
   X7.1377       Y0.5742    
   X7.1317       Y0.5794    
   X7.1443       Y0.5697    
   X7.1377       Y0.5742    
   X7.1515       Y0.5662    
   X7.1443       Y0.5697    
   X7.1590       Y0.5637    
   X7.1515       Y0.5662    
   X7.1668       Y0.5621    
   X7.1590       Y0.5637    
   X7.1768       Y0.5615    
   X7.1668    
   X7.4163    
   X7.1768    
   X7.4444       Y0.5633    
   X7.4163       Y0.5615    
   X7.4699       Y0.5684    
   X7.4444       Y0.5633    
   X7.4946       Y0.5768    
   X7.4699       Y0.5684    
   X7.5179       Y0.5883    
   X7.4946       Y0.5768    
   X7.5396       Y0.6028    
   X7.5179       Y0.5883    
   X7.5592       Y0.6199    
   X7.5396       Y0.6028    
   X7.5764       Y0.6395    
   X7.5592       Y0.6199    
   X7.5908       Y0.6612    
   X7.5764       Y0.6395    
   X7.6023       Y0.6845    
   X7.5908       Y0.6612    
   X7.6107       Y0.7092    
   X7.6023       Y0.6845    
   X7.6158       Y0.7347    
   X7.6107       Y0.7092    
   X7.6176       Y0.7628    
   X7.6158       Y0.7347    
   X7.6176       Y1.6924    
   Y0.7628    
   Y1.7023    
   Y1.6924    
   X7.6154       Y1.7101    
   X7.6170       Y1.7023    
   X7.6129       Y1.7177    
   X7.6154       Y1.7101    
   X7.6094       Y1.7248    
   X7.6129       Y1.7177    
   X7.6049       Y1.7314    
   X7.6094       Y1.7248    
   X7.5997       Y1.7374    
   X7.6049       Y1.7314    
   X7.5937       Y1.7427    
   X7.5997       Y1.7374    
   X7.5871       Y1.7471    
   X7.5937       Y1.7427    
   X7.5800       Y1.7506    
   X7.5871       Y1.7471    
G0   Z0.3750    
(Pass: 1)
   X5.8220       Y2.3495    
G1   Z0.1875     F60  
   X5.8163       Y2.3422     F80  
   X5.8255       Y2.3581    
   X5.8220       Y2.3495    
   X5.8272       Y2.3713    
   X5.8255       Y2.3581    
   X5.8272       Y3.1899    
   Y2.3713    
   X5.8255       Y3.2031    
   X5.8272       Y3.1899    
   X5.8220       Y3.2117    
   X5.8255       Y3.2031    
   X5.8163       Y3.2190    
   X5.8220       Y3.2117    
   X5.8090       Y3.2246    
   X5.8163       Y3.2190    
   X5.8005       Y3.2282    
   X5.8090       Y3.2246    
   X5.7913       Y3.2294    
   X5.8005       Y3.2282    
   X5.7822    
   X5.7913       Y3.2294    
   X5.7736       Y3.2246    
   X5.7822       Y3.2282    
   X5.7663       Y3.2190    
   X5.7736       Y3.2246    
   X5.7607       Y3.2117    
   X5.7663       Y3.2190    
   X5.7571       Y3.2031    
   X5.7607       Y3.2117    
   X5.7554       Y3.1899    
   X5.7571       Y3.2031    
   X5.7554       Y2.3713    
   Y3.1899    
   X5.7571       Y2.3581    
   X5.7554       Y2.3713    
   X5.7607       Y2.3495    
   X5.7571       Y2.3581    
   X5.7663       Y2.3422    
   X5.7607       Y2.3495    
   X5.7736       Y2.3366    
   X5.7663       Y2.3422    
   X5.7822       Y2.3330    
   X5.7736       Y2.3366    
   X5.7913       Y2.3318    
   X5.7822       Y2.3330    
   X5.8005    
   X5.7913       Y2.3318    
   X5.8090       Y2.3366    
   X5.8005       Y2.3330    
   X5.8163       Y2.3422    
   X5.8090       Y2.3366    
(Pass: 2)
   X5.8220       Y2.3495    
   Z0.1250     F60  
   X5.8163       Y2.3422     F80  
   X5.8255       Y2.3581    
   X5.8220       Y2.3495    
   X5.8272       Y2.3713    
   X5.8255       Y2.3581    
   X5.8272       Y3.1899    
   Y2.3713    
   X5.8255       Y3.2031    
   X5.8272       Y3.1899    
   X5.8220       Y3.2117    
   X5.8255       Y3.2031    
   X5.8163       Y3.2190    
   X5.8220       Y3.2117    
   X5.8090       Y3.2246    
   X5.8163       Y3.2190    
   X5.8005       Y3.2282    
   X5.8090       Y3.2246    
   X5.7913       Y3.2294    
   X5.8005       Y3.2282    
   X5.7822    
   X5.7913       Y3.2294    
   X5.7736       Y3.2246    
   X5.7822       Y3.2282    
   X5.7663       Y3.2190    
   X5.7736       Y3.2246    
   X5.7607       Y3.2117    
   X5.7663       Y3.2190    
   X5.7571       Y3.2031    
   X5.7607       Y3.2117    
   X5.7554       Y3.1899    
   X5.7571       Y3.2031    
   X5.7554       Y2.3713    
   Y3.1899    
   X5.7571       Y2.3581    
   X5.7554       Y2.3713    
   X5.7607       Y2.3495    
   X5.7571       Y2.3581    
   X5.7663       Y2.3422    
   X5.7607       Y2.3495    
   X5.7736       Y2.3366    
   X5.7663       Y2.3422    
   X5.7822       Y2.3330    
   X5.7736       Y2.3366    
   X5.7913       Y2.3318    
   X5.7822       Y2.3330    
   X5.8005    
   X5.7913       Y2.3318    
   X5.8090       Y2.3366    
   X5.8005       Y2.3330    
   X5.8163       Y2.3422    
   X5.8090       Y2.3366    
(Pass: 3)
   X5.8220       Y2.3495    
   Z0.0625     F60  
   X5.8163       Y2.3422     F80  
   X5.8255       Y2.3581    
   X5.8220       Y2.3495    
   X5.8272       Y2.3713    
   X5.8255       Y2.3581    
   X5.8272       Y3.1899    
   Y2.3713    
   X5.8255       Y3.2031    
   X5.8272       Y3.1899    
   X5.8220       Y3.2117    
   X5.8255       Y3.2031    
   X5.8163       Y3.2190    
   X5.8220       Y3.2117    
   X5.8090       Y3.2246    
   X5.8163       Y3.2190    
   X5.8005       Y3.2282    
   X5.8090       Y3.2246    
   X5.7913       Y3.2294    
   X5.8005       Y3.2282    
   X5.7822    
   X5.7913       Y3.2294    
   X5.7736       Y3.2246    
   X5.7822       Y3.2282    
   X5.7663       Y3.2190    
   X5.7736       Y3.2246    
   X5.7607       Y3.2117    
   X5.7663       Y3.2190    
   X5.7571       Y3.2031    
   X5.7607       Y3.2117    
   X5.7554       Y3.1899    
   X5.7571       Y3.2031    
   X5.7554       Y2.3713    
   Y3.1899    
   X5.7571       Y2.3581    
   X5.7554       Y2.3713    
   X5.7607       Y2.3495    
   X5.7571       Y2.3581    
   X5.7663       Y2.3422    
   X5.7607       Y2.3495    
   X5.7736       Y2.3366    
   X5.7663       Y2.3422    
   X5.7822       Y2.3330    
   X5.7736       Y2.3366    
   X5.7913       Y2.3318    
   X5.7822       Y2.3330    
   X5.8005    
   X5.7913       Y2.3318    
   X5.8090       Y2.3366    
   X5.8005       Y2.3330    
   X5.8163       Y2.3422    
   X5.8090       Y2.3366    
(Pass: 4)
   X5.8220       Y2.3495    
   Z0.0000     F60  
   X5.8163       Y2.3422     F80  
   X5.8255       Y2.3581    
   X5.8220       Y2.3495    
   X5.8272       Y2.3713    
   X5.8255       Y2.3581    
   X5.8272       Y3.1899    
   Y2.3713    
   X5.8255       Y3.2031    
   X5.8272       Y3.1899    
   X5.8220       Y3.2117    
   X5.8255       Y3.2031    
   X5.8163       Y3.2190    
   X5.8220       Y3.2117    
   X5.8090       Y3.2246    
   X5.8163       Y3.2190    
   X5.8005       Y3.2282    
   X5.8090       Y3.2246    
   X5.7913       Y3.2294    
   X5.8005       Y3.2282    
   X5.7822    
   X5.7913       Y3.2294    
   X5.7736       Y3.2246    
   X5.7822       Y3.2282    
   X5.7663       Y3.2190    
   X5.7736       Y3.2246    
   X5.7607       Y3.2117    
   X5.7663       Y3.2190    
   X5.7571       Y3.2031    
   X5.7607       Y3.2117    
   X5.7554       Y3.1899    
   X5.7571       Y3.2031    
   X5.7554       Y2.3713    
   Y3.1899    
   X5.7571       Y2.3581    
   X5.7554       Y2.3713    
   X5.7607       Y2.3495    
   X5.7571       Y2.3581    
   X5.7663       Y2.3422    
   X5.7607       Y2.3495    
   X5.7736       Y2.3366    
   X5.7663       Y2.3422    
   X5.7822       Y2.3330    
   X5.7736       Y2.3366    
   X5.7913       Y2.3318    
   X5.7822       Y2.3330    
   X5.8005    
   X5.7913       Y2.3318    
   X5.8090       Y2.3366    
   X5.8005       Y2.3330    
   X5.8163       Y2.3422    
   X5.8090       Y2.3366    
G0   Z0.3750    
(Pass: 1)
   X5.2834       Y2.7134    
G1   Z0.1875     F60  
   X5.2758       Y2.7075     F80  
   X5.2893       Y2.7210    
   X5.2834       Y2.7134    
   X5.2930       Y2.7299    
   X5.2893       Y2.7210    
   X5.2943       Y2.7395    
   X5.2930       Y2.7299    
   Y2.7491    
   X5.2943       Y2.7395    
   X5.2893       Y2.7580    
   X5.2930       Y2.7491    
   X5.2834       Y2.7656    
   X5.2893       Y2.7580    
   X5.2758       Y2.7715    
   X5.2834       Y2.7656    
   X5.2669       Y2.7752    
   X5.2758       Y2.7715    
   X5.2532       Y2.7770    
   X5.2669       Y2.7752    
   X4.9071       Y2.7770    
   X5.2532    
   X4.8934       Y2.7752    
   X4.9071       Y2.7770    
   X4.8845       Y2.7715    
   X4.8934       Y2.7752    
   X4.8768       Y2.7656    
   X4.8845       Y2.7715    
   X4.8710       Y2.7580    
   X4.8768       Y2.7656    
   X4.8673       Y2.7491    
   X4.8710       Y2.7580    
   X4.8660       Y2.7395    
   X4.8673       Y2.7491    
   Y2.7299    
   X4.8660       Y2.7395    
   X4.8710       Y2.7210    
   X4.8673       Y2.7299    
   X4.8768       Y2.7134    
   X4.8710       Y2.7210    
   X4.8845       Y2.7075    
   X4.8768       Y2.7134    
   X4.8934       Y2.7038    
   X4.8845       Y2.7075    
   X4.9071       Y2.7020    
   X4.8934       Y2.7038    
   X5.2532       Y2.7020    
   X4.9071    
   X5.2669       Y2.7038    
   X5.2532       Y2.7020    
   X5.2758       Y2.7075    
   X5.2669       Y2.7038    
(Pass: 2)
   X5.2834       Y2.7134    
   Z0.1250     F60  
   X5.2758       Y2.7075     F80  
   X5.2893       Y2.7210    
   X5.2834       Y2.7134    
   X5.2930       Y2.7299    
   X5.2893       Y2.7210    
   X5.2943       Y2.7395    
   X5.2930       Y2.7299    
   Y2.7491    
   X5.2943       Y2.7395    
   X5.2893       Y2.7580    
   X5.2930       Y2.7491    
   X5.2834       Y2.7656    
   X5.2893       Y2.7580    
   X5.2758       Y2.7715    
   X5.2834       Y2.7656    
   X5.2669       Y2.7752    
   X5.2758       Y2.7715    
   X5.2532       Y2.7770    
   X5.2669       Y2.7752    
   X4.9071       Y2.7770    
   X5.2532    
   X4.8934       Y2.7752    
   X4.9071       Y2.7770    
   X4.8845       Y2.7715    
   X4.8934       Y2.7752    
   X4.8768       Y2.7656    
   X4.8845       Y2.7715    
   X4.8710       Y2.7580    
   X4.8768       Y2.7656    
   X4.8673       Y2.7491    
   X4.8710       Y2.7580    
   X4.8660       Y2.7395    
   X4.8673       Y2.7491    
   Y2.7299    
   X4.8660       Y2.7395    
   X4.8710       Y2.7210    
   X4.8673       Y2.7299    
   X4.8768       Y2.7134    
   X4.8710       Y2.7210    
   X4.8845       Y2.7075    
   X4.8768       Y2.7134    
   X4.8934       Y2.7038    
   X4.8845       Y2.7075    
   X4.9071       Y2.7020    
   X4.8934       Y2.7038    
   X5.2532       Y2.7020    
   X4.9071    
   X5.2669       Y2.7038    
   X5.2532       Y2.7020    
   X5.2758       Y2.7075    
   X5.2669       Y2.7038    
(Pass: 3)
   X5.2834       Y2.7134    
   Z0.0625     F60  
   X5.2758       Y2.7075     F80  
   X5.2893       Y2.7210    
   X5.2834       Y2.7134    
   X5.2930       Y2.7299    
   X5.2893       Y2.7210    
   X5.2943       Y2.7395    
   X5.2930       Y2.7299    
   Y2.7491    
   X5.2943       Y2.7395    
   X5.2893       Y2.7580    
   X5.2930       Y2.7491    
   X5.2834       Y2.7656    
   X5.2893       Y2.7580    
   X5.2758       Y2.7715    
   X5.2834       Y2.7656    
   X5.2669       Y2.7752    
   X5.2758       Y2.7715    
   X5.2532       Y2.7770    
   X5.2669       Y2.7752    
   X4.9071       Y2.7770    
   X5.2532    
   X4.8934       Y2.7752    
   X4.9071       Y2.7770    
   X4.8845       Y2.7715    
   X4.8934       Y2.7752    
   X4.8768       Y2.7656    
   X4.8845       Y2.7715    
   X4.8710       Y2.7580    
   X4.8768       Y2.7656    
   X4.8673       Y2.7491    
   X4.8710       Y2.7580    
   X4.8660       Y2.7395    
   X4.8673       Y2.7491    
   Y2.7299    
   X4.8660       Y2.7395    
   X4.8710       Y2.7210    
   X4.8673       Y2.7299    
   X4.8768       Y2.7134    
   X4.8710       Y2.7210    
   X4.8845       Y2.7075    
   X4.8768       Y2.7134    
   X4.8934       Y2.7038    
   X4.8845       Y2.7075    
   X4.9071       Y2.7020    
   X4.8934       Y2.7038    
   X5.2532       Y2.7020    
   X4.9071    
   X5.2669       Y2.7038    
   X5.2532       Y2.7020    
   X5.2758       Y2.7075    
   X5.2669       Y2.7038    
(Pass: 4)
   X5.2834       Y2.7134    
   Z0.0000     F60  
   X5.2758       Y2.7075     F80  
   X5.2893       Y2.7210    
   X5.2834       Y2.7134    
   X5.2930       Y2.7299    
   X5.2893       Y2.7210    
   X5.2943       Y2.7395    
   X5.2930       Y2.7299    
   Y2.7491    
   X5.2943       Y2.7395    
   X5.2893       Y2.7580    
   X5.2930       Y2.7491    
   X5.2834       Y2.7656    
   X5.2893       Y2.7580    
   X5.2758       Y2.7715    
   X5.2834       Y2.7656    
   X5.2669       Y2.7752    
   X5.2758       Y2.7715    
   X5.2532       Y2.7770    
   X5.2669       Y2.7752    
   X4.9071       Y2.7770    
   X5.2532    
   X4.8934       Y2.7752    
   X4.9071       Y2.7770    
   X4.8845       Y2.7715    
   X4.8934       Y2.7752    
   X4.8768       Y2.7656    
   X4.8845       Y2.7715    
   X4.8710       Y2.7580    
   X4.8768       Y2.7656    
   X4.8673       Y2.7491    
   X4.8710       Y2.7580    
   X4.8660       Y2.7395    
   X4.8673       Y2.7491    
   Y2.7299    
   X4.8660       Y2.7395    
   X4.8710       Y2.7210    
   X4.8673       Y2.7299    
   X4.8768       Y2.7134    
   X4.8710       Y2.7210    
   X4.8845       Y2.7075    
   X4.8768       Y2.7134    
   X4.8934       Y2.7038    
   X4.8845       Y2.7075    
   X4.9071       Y2.7020    
   X4.8934       Y2.7038    
   X5.2532       Y2.7020    
   X4.9071    
   X5.2669       Y2.7038    
   X5.2532       Y2.7020    
   X5.2758       Y2.7075    
   X5.2669       Y2.7038    
G0   Z0.3750    
(Pass: 1)
   X4.6501       Y3.3665    
G1   Z0.1875     F60  
   X4.5612       Y3.2983     F80  
   X4.7183       Y3.4553    
   X4.6501       Y3.3665    
   X4.7612       Y3.5588    
   X4.7183       Y3.4553    
   X4.7758       Y3.6699    
   X4.7612       Y3.5588    
   Y3.7809    
   X4.7758       Y3.6699    
   X4.7183       Y3.8844    
   X4.7612       Y3.7809    
   X4.6501       Y3.9733    
   X4.7183       Y3.8844    
   X4.5612       Y4.0415    
   X4.6501       Y3.9733    
   X4.4577       Y4.0844    
   X4.5612       Y4.0415    
   X4.3426       Y4.0995    
   X4.4577       Y4.0844    
   X3.9571       Y4.0995    
   X4.3426    
   X3.8419       Y4.0844    
   X3.9571       Y4.0995    
   X3.7384       Y4.0415    
   X3.8419       Y4.0844    
   X3.6496       Y3.9733    
   X3.7384       Y4.0415    
   X3.5814       Y3.8844    
   X3.6496       Y3.9733    
   X3.5385       Y3.7809    
   X3.5814       Y3.8844    
   X3.5239       Y3.6699    
   X3.5385       Y3.7809    
   Y3.5588    
   X3.5239       Y3.6699    
   X3.5814       Y3.4553    
   X3.5385       Y3.5588    
   X3.6496       Y3.3665    
   X3.5814       Y3.4553    
   X3.7384       Y3.2983    
   X3.6496       Y3.3665    
   X3.8419       Y3.2554    
   X3.7384       Y3.2983    
   X3.9571       Y3.2403    
   X3.8419       Y3.2554    
   X4.3426       Y3.2403    
   X3.9571    
   X4.4577       Y3.2554    
   X4.3426       Y3.2403    
   X4.5612       Y3.2983    
   X4.4577       Y3.2554    
(Pass: 2)
   X4.6501       Y3.3665    
   Z0.1250     F60  
   X4.5612       Y3.2983     F80  
   X4.7183       Y3.4553    
   X4.6501       Y3.3665    
   X4.7612       Y3.5588    
   X4.7183       Y3.4553    
   X4.7758       Y3.6699    
   X4.7612       Y3.5588    
   Y3.7809    
   X4.7758       Y3.6699    
   X4.7183       Y3.8844    
   X4.7612       Y3.7809    
   X4.6501       Y3.9733    
   X4.7183       Y3.8844    
   X4.5612       Y4.0415    
   X4.6501       Y3.9733    
   X4.4577       Y4.0844    
   X4.5612       Y4.0415    
   X4.3426       Y4.0995    
   X4.4577       Y4.0844    
   X3.9571       Y4.0995    
   X4.3426    
   X3.8419       Y4.0844    
   X3.9571       Y4.0995    
   X3.7384       Y4.0415    
   X3.8419       Y4.0844    
   X3.6496       Y3.9733    
   X3.7384       Y4.0415    
   X3.5814       Y3.8844    
   X3.6496       Y3.9733    
   X3.5385       Y3.7809    
   X3.5814       Y3.8844    
   X3.5239       Y3.6699    
   X3.5385       Y3.7809    
   Y3.5588    
   X3.5239       Y3.6699    
   X3.5814       Y3.4553    
   X3.5385       Y3.5588    
   X3.6496       Y3.3665    
   X3.5814       Y3.4553    
   X3.7384       Y3.2983    
   X3.6496       Y3.3665    
   X3.8419       Y3.2554    
   X3.7384       Y3.2983    
   X3.9571       Y3.2403    
   X3.8419       Y3.2554    
   X4.3426       Y3.2403    
   X3.9571    
   X4.4577       Y3.2554    
   X4.3426       Y3.2403    
   X4.5612       Y3.2983    
   X4.4577       Y3.2554    
(Pass: 3)
   X4.6501       Y3.3665    
   Z0.0625     F60  
   X4.5612       Y3.2983     F80  
   X4.7183       Y3.4553    
   X4.6501       Y3.3665    
   X4.7612       Y3.5588    
   X4.7183       Y3.4553    
   X4.7758       Y3.6699    
   X4.7612       Y3.5588    
   Y3.7809    
   X4.7758       Y3.6699    
   X4.7183       Y3.8844    
   X4.7612       Y3.7809    
   X4.6501       Y3.9733    
   X4.7183       Y3.8844    
   X4.5612       Y4.0415    
   X4.6501       Y3.9733    
   X4.4577       Y4.0844    
   X4.5612       Y4.0415    
   X4.3426       Y4.0995    
   X4.4577       Y4.0844    
   X3.9571       Y4.0995    
   X4.3426    
   X3.8419       Y4.0844    
   X3.9571       Y4.0995    
   X3.7384       Y4.0415    
   X3.8419       Y4.0844    
   X3.6496       Y3.9733    
   X3.7384       Y4.0415    
   X3.5814       Y3.8844    
   X3.6496       Y3.9733    
   X3.5385       Y3.7809    
   X3.5814       Y3.8844    
   X3.5239       Y3.6699    
   X3.5385       Y3.7809    
   Y3.5588    
   X3.5239       Y3.6699    
   X3.5814       Y3.4553    
   X3.5385       Y3.5588    
   X3.6496       Y3.3665    
   X3.5814       Y3.4553    
   X3.7384       Y3.2983    
   X3.6496       Y3.3665    
   X3.8419       Y3.2554    
   X3.7384       Y3.2983    
   X3.9571       Y3.2403    
   X3.8419       Y3.2554    
   X4.3426       Y3.2403    
   X3.9571    
   X4.4577       Y3.2554    
   X4.3426       Y3.2403    
   X4.5612       Y3.2983    
   X4.4577       Y3.2554    
(Pass: 4)
   X4.6501       Y3.3665    
   Z0.0000     F60  
   X4.5612       Y3.2983     F80  
   X4.7183       Y3.4553    
   X4.6501       Y3.3665    
   X4.7612       Y3.5588    
   X4.7183       Y3.4553    
   X4.7758       Y3.6699    
   X4.7612       Y3.5588    
   Y3.7809    
   X4.7758       Y3.6699    
   X4.7183       Y3.8844    
   X4.7612       Y3.7809    
   X4.6501       Y3.9733    
   X4.7183       Y3.8844    
   X4.5612       Y4.0415    
   X4.6501       Y3.9733    
   X4.4577       Y4.0844    
   X4.5612       Y4.0415    
   X4.3426       Y4.0995    
   X4.4577       Y4.0844    
   X3.9571       Y4.0995    
   X4.3426    
   X3.8419       Y4.0844    
   X3.9571       Y4.0995    
   X3.7384       Y4.0415    
   X3.8419       Y4.0844    
   X3.6496       Y3.9733    
   X3.7384       Y4.0415    
   X3.5814       Y3.8844    
   X3.6496       Y3.9733    
   X3.5385       Y3.7809    
   X3.5814       Y3.8844    
   X3.5239       Y3.6699    
   X3.5385       Y3.7809    
   Y3.5588    
   X3.5239       Y3.6699    
   X3.5814       Y3.4553    
   X3.5385       Y3.5588    
   X3.6496       Y3.3665    
   X3.5814       Y3.4553    
   X3.7384       Y3.2983    
   X3.6496       Y3.3665    
   X3.8419       Y3.2554    
   X3.7384       Y3.2983    
   X3.9571       Y3.2403    
   X3.8419       Y3.2554    
   X4.3426       Y3.2403    
   X3.9571    
   X4.4577       Y3.2554    
   X4.3426       Y3.2403    
   X4.5612       Y3.2983    
   X4.4577       Y3.2554    
G0   Z0.3750    
(Pass: 1)
   X3.4158       Y4.5675    
G1   Z0.1875     F60  
   X3.4069       Y4.5638     F80  
   X3.4234       Y4.5734    
   X3.4158       Y4.5675    
   X3.4293       Y4.5810    
   X3.4234       Y4.5734    
   X3.4330       Y4.5899    
   X3.4293       Y4.5810    
   X3.4343       Y4.5995    
   X3.4330       Y4.5899    
   Y4.6091    
   X3.4343       Y4.5995    
   X3.4293       Y4.6180    
   X3.4330       Y4.6091    
   X3.4234       Y4.6256    
   X3.4293       Y4.6180    
   X3.4158       Y4.6315    
   X3.4234       Y4.6256    
   X3.4069       Y4.6352    
   X3.4158       Y4.6315    
   X3.3932       Y4.6370    
   X3.4069       Y4.6352    
   X3.0471       Y4.6370    
   X3.3932    
   X3.0334       Y4.6352    
   X3.0471       Y4.6370    
   X3.0245       Y4.6315    
   X3.0334       Y4.6352    
   X3.0168       Y4.6256    
   X3.0245       Y4.6315    
   X3.0110       Y4.6180    
   X3.0168       Y4.6256    
   X3.0073       Y4.6091    
   X3.0110       Y4.6180    
   X3.0060       Y4.5995    
   X3.0073       Y4.6091    
   Y4.5899    
   X3.0060       Y4.5995    
   X3.0110       Y4.5810    
   X3.0073       Y4.5899    
   X3.0168       Y4.5734    
   X3.0110       Y4.5810    
   X3.0245       Y4.5675    
   X3.0168       Y4.5734    
   X3.0334       Y4.5638    
   X3.0245       Y4.5675    
   X3.0471       Y4.5620    
   X3.0334       Y4.5638    
   X3.3932       Y4.5620    
   X3.0471    
   X3.4069       Y4.5638    
   X3.3932       Y4.5620    
(Pass: 2)
   X3.4158       Y4.5675    
   Z0.1250     F60  
   X3.4069       Y4.5638     F80  
   X3.4234       Y4.5734    
   X3.4158       Y4.5675    
   X3.4293       Y4.5810    
   X3.4234       Y4.5734    
   X3.4330       Y4.5899    
   X3.4293       Y4.5810    
   X3.4343       Y4.5995    
   X3.4330       Y4.5899    
   Y4.6091    
