%
(Generated by SketchUcam {1.2a})
(File: Dule-side-one-sheet-20mm-raile.skp)
(Bit diameter: 1/8")
(Feed rate: 80"/min)
(Plunge Feed rate: 60"/min)
(Material Thickness: 1/4")
(Material length: 12" X width: 12")
(Overhead Gantry: false)
(Retract feed rate NOT limited to plunge feed rate)
(Multipass enabled, Depth = 1/64")
(Optimization is ON)
(Z ZERO IS TABLETOP)
(www.PhlatBoyz.com)
G90 G20 G49 
M3 S15000
G0   Z0.3750    
(Pass: 1)
   X0.3655       Y0.5240    
G1   Z0.2344     F60  
   X0.3532       Y0.5400     F80  
   X0.3816       Y0.5117    
   X0.3655       Y0.5240    
   X0.4002       Y0.5039    
   X0.3816       Y0.5117    
   X0.4203       Y0.5013    
   X0.4002       Y0.5039    
   X0.4403    
   X0.4203       Y0.5013    
   X0.4590       Y0.5117    
   X0.4403       Y0.5039    
   X0.4751       Y0.5240    
   X0.4590       Y0.5117    
   X0.4874       Y0.5400    
   X0.4751       Y0.5240    
   X0.4951       Y0.5587    
   X0.4874       Y0.5400    
   X0.4977       Y0.5787    
   X0.4951       Y0.5587    
   Y0.5988    
   X0.4977       Y0.5787    
   X0.4874       Y0.6175    
   X0.4951       Y0.5988    
   X0.4751       Y0.6335    
   X0.4874       Y0.6175    
   X0.4590       Y0.6458    
   X0.4751       Y0.6335    
   X0.4403       Y0.6536    
   X0.4590       Y0.6458    
   X0.4203       Y0.6562    
   X0.4403       Y0.6536    
   X0.4002    
   X0.4203       Y0.6562    
   X0.3816       Y0.6458    
   X0.4002       Y0.6536    
   X0.3655       Y0.6335    
   X0.3816       Y0.6458    
   X0.3532       Y0.6175    
   X0.3655       Y0.6335    
   X0.3455       Y0.5988    
   X0.3532       Y0.6175    
   X0.3428       Y0.5787    
   X0.3455       Y0.5988    
   Y0.5587    
   X0.3428       Y0.5787    
   X0.3532       Y0.5400    
   X0.3455       Y0.5587    
(Pass: 2)
   X0.3655       Y0.5240    
   Z0.2188     F60  
   X0.3532       Y0.5400     F80  
   X0.3816       Y0.5117    
   X0.3655       Y0.5240    
   X0.4002       Y0.5039    
   X0.3816       Y0.5117    
   X0.4203       Y0.5013    
   X0.4002       Y0.5039    
   X0.4403    
   X0.4203       Y0.5013    
   X0.4590       Y0.5117    
   X0.4403       Y0.5039    
   X0.4751       Y0.5240    
   X0.4590       Y0.5117    
   X0.4874       Y0.5400    
   X0.4751       Y0.5240    
   X0.4951       Y0.5587    
   X0.4874       Y0.5400    
   X0.4977       Y0.5787    
   X0.4951       Y0.5587    
   Y0.5988    
   X0.4977       Y0.5787    
   X0.4874       Y0.6175    
   X0.4951       Y0.5988    
   X0.4751       Y0.6335    
   X0.4874       Y0.6175    
   X0.4590       Y0.6458    
   X0.4751       Y0.6335    
   X0.4403       Y0.6536    
   X0.4590       Y0.6458    
   X0.4203       Y0.6562    
   X0.4403       Y0.6536    
   X0.4002    
   X0.4203       Y0.6562    
   X0.3816       Y0.6458    
   X0.4002       Y0.6536    
   X0.3655       Y0.6335    
   X0.3816       Y0.6458    
   X0.3532       Y0.6175    
   X0.3655       Y0.6335    
   X0.3455       Y0.5988    
   X0.3532       Y0.6175    
   X0.3428       Y0.5787    
   X0.3455       Y0.5988    
   Y0.5587    
   X0.3428       Y0.5787    
   X0.3532       Y0.5400    
   X0.3455       Y0.5587    
(Pass: 3)
   X0.3655       Y0.5240    
   Z0.2031     F60  
   X0.3532       Y0.5400     F80  
   X0.3816       Y0.5117    
   X0.3655       Y0.5240    
   X0.4002       Y0.5039    
   X0.3816       Y0.5117    
   X0.4203       Y0.5013    
   X0.4002       Y0.5039    
   X0.4403    
   X0.4203       Y0.5013    
   X0.4590       Y0.5117    
   X0.4403       Y0.5039    
   X0.4751       Y0.5240    
   X0.4590       Y0.5117    
   X0.4874       Y0.5400    
   X0.4751       Y0.5240    
   X0.4951       Y0.5587    
   X0.4874       Y0.5400    
   X0.4977       Y0.5787    
   X0.4951       Y0.5587    
   Y0.5988    
   X0.4977       Y0.5787    
   X0.4874       Y0.6175    
   X0.4951       Y0.5988    
   X0.4751       Y0.6335    
   X0.4874       Y0.6175    
   X0.4590       Y0.6458    
   X0.4751       Y0.6335    
   X0.4403       Y0.6536    
   X0.4590       Y0.6458    
   X0.4203       Y0.6562    
   X0.4403       Y0.6536    
   X0.4002    
   X0.4203       Y0.6562    
   X0.3816       Y0.6458    
   X0.4002       Y0.6536    
   X0.3655       Y0.6335    
   X0.3816       Y0.6458    
   X0.3532       Y0.6175    
   X0.3655       Y0.6335    
   X0.3455       Y0.5988    
   X0.3532       Y0.6175    
   X0.3428       Y0.5787    
   X0.3455       Y0.5988    
   Y0.5587    
   X0.3428       Y0.5787    
   X0.3532       Y0.5400    
   X0.3455       Y0.5587    
(Pass: 4)
   X0.3655       Y0.5240    
   Z0.1875     F60  
   X0.3532       Y0.5400     F80  
   X0.3816       Y0.5117    
   X0.3655       Y0.5240    
   X0.4002       Y0.5039    
   X0.3816       Y0.5117    
   X0.4203       Y0.5013    
   X0.4002       Y0.5039    
   X0.4403    
   X0.4203       Y0.5013    
   X0.4590       Y0.5117    
   X0.4403       Y0.5039    
   X0.4751       Y0.5240    
   X0.4590       Y0.5117    
   X0.4874       Y0.5400    
   X0.4751       Y0.5240    
   X0.4951       Y0.5587    
   X0.4874       Y0.5400    
   X0.4977       Y0.5787    
   X0.4951       Y0.5587    
   Y0.5988    
   X0.4977       Y0.5787    
   X0.4874       Y0.6175    
   X0.4951       Y0.5988    
   X0.4751       Y0.6335    
   X0.4874       Y0.6175    
   X0.4590       Y0.6458    
   X0.4751       Y0.6335    
   X0.4403       Y0.6536    
   X0.4590       Y0.6458    
   X0.4203       Y0.6562    
   X0.4403       Y0.6536    
   X0.4002    
   X0.4203       Y0.6562    
   X0.3816       Y0.6458    
   X0.4002       Y0.6536    
   X0.3655       Y0.6335    
   X0.3816       Y0.6458    
   X0.3532       Y0.6175    
   X0.3655       Y0.6335    
   X0.3455       Y0.5988    
   X0.3532       Y0.6175    
   X0.3428       Y0.5787    
   X0.3455       Y0.5988    
   Y0.5587    
   X0.3428       Y0.5787    
   X0.3532       Y0.5400    
   X0.3455       Y0.5587    
(Pass: 5)
   X0.3655       Y0.5240    
   Z0.1719     F60  
   X0.3532       Y0.5400     F80  
   X0.3816       Y0.5117    
   X0.3655       Y0.5240    
   X0.4002       Y0.5039    
   X0.3816       Y0.5117    
   X0.4203       Y0.5013    
   X0.4002       Y0.5039    
   X0.4403    
   X0.4203       Y0.5013    
   X0.4590       Y0.5117    
   X0.4403       Y0.5039    
   X0.4751       Y0.5240    
   X0.4590       Y0.5117    
   X0.4874       Y0.5400    
   X0.4751       Y0.5240    
   X0.4951       Y0.5587    
   X0.4874       Y0.5400    
   X0.4977       Y0.5787    
   X0.4951       Y0.5587    
   Y0.5988    
   X0.4977       Y0.5787    
   X0.4874       Y0.6175    
   X0.4951       Y0.5988    
   X0.4751       Y0.6335    
   X0.4874       Y0.6175    
   X0.4590       Y0.6458    
   X0.4751       Y0.6335    
   X0.4403       Y0.6536    
   X0.4590       Y0.6458    
   X0.4203       Y0.6562    
   X0.4403       Y0.6536    
   X0.4002    
   X0.4203       Y0.6562    
   X0.3816       Y0.6458    
   X0.4002       Y0.6536    
   X0.3655       Y0.6335    
   X0.3816       Y0.6458    
   X0.3532       Y0.6175    
   X0.3655       Y0.6335    
   X0.3455       Y0.5988    
   X0.3532       Y0.6175    
   X0.3428       Y0.5787    
   X0.3455       Y0.5988    
   Y0.5587    
   X0.3428       Y0.5787    
   X0.3532       Y0.5400    
   X0.3455       Y0.5587    
(Pass: 6)
   X0.3655       Y0.5240    
   Z0.1562     F60  
   X0.3532       Y0.5400     F80  
   X0.3816       Y0.5117    
   X0.3655       Y0.5240    
   X0.4002       Y0.5039    
   X0.3816       Y0.5117    
   X0.4203       Y0.5013    
   X0.4002       Y0.5039    
   X0.4403    
   X0.4203       Y0.5013    
   X0.4590       Y0.5117    
   X0.4403       Y0.5039    
   X0.4751       Y0.5240    
   X0.4590       Y0.5117    
   X0.4874       Y0.5400    
   X0.4751       Y0.5240    
   X0.4951       Y0.5587    
   X0.4874       Y0.5400    
   X0.4977       Y0.5787    
   X0.4951       Y0.5587    
   Y0.5988    
   X0.4977       Y0.5787    
   X0.4874       Y0.6175    
   X0.4951       Y0.5988    
   X0.4751       Y0.6335    
   X0.4874       Y0.6175    
   X0.4590       Y0.6458    
   X0.4751       Y0.6335    
   X0.4403       Y0.6536    
   X0.4590       Y0.6458    
   X0.4203       Y0.6562    
   X0.4403       Y0.6536    
   X0.4002    
   X0.4203       Y0.6562    
   X0.3816       Y0.6458    
   X0.4002       Y0.6536    
   X0.3655       Y0.6335    
   X0.3816       Y0.6458    
   X0.3532       Y0.6175    
   X0.3655       Y0.6335    
   X0.3455       Y0.5988    
   X0.3532       Y0.6175    
   X0.3428       Y0.5787    
   X0.3455       Y0.5988    
   Y0.5587    
   X0.3428       Y0.5787    
   X0.3532       Y0.5400    
   X0.3455       Y0.5587    
(Pass: 7)
   X0.3655       Y0.5240    
   Z0.1406     F60  
   X0.3532       Y0.5400     F80  
   X0.3816       Y0.5117    
   X0.3655       Y0.5240    
   X0.4002       Y0.5039    
   X0.3816       Y0.5117    
   X0.4203       Y0.5013    
   X0.4002       Y0.5039    
   X0.4403    
   X0.4203       Y0.5013    
   X0.4590       Y0.5117    
   X0.4403       Y0.5039    
   X0.4751       Y0.5240    
   X0.4590       Y0.5117    
   X0.4874       Y0.5400    
   X0.4751       Y0.5240    
   X0.4951       Y0.5587    
   X0.4874       Y0.5400    
   X0.4977       Y0.5787    
   X0.4951       Y0.5587    
   Y0.5988    
   X0.4977       Y0.5787    
   X0.4874       Y0.6175    
   X0.4951       Y0.5988    
   X0.4751       Y0.6335    
   X0.4874       Y0.6175    
   X0.4590       Y0.6458    
   X0.4751       Y0.6335    
   X0.4403       Y0.6536    
   X0.4590       Y0.6458    
   X0.4203       Y0.6562    
   X0.4403       Y0.6536    
   X0.4002    
   X0.4203       Y0.6562    
   X0.3816       Y0.6458    
   X0.4002       Y0.6536    
   X0.3655       Y0.6335    
   X0.3816       Y0.6458    
   X0.3532       Y0.6175    
   X0.3655       Y0.6335    
   X0.3455       Y0.5988    
   X0.3532       Y0.6175    
   X0.3428       Y0.5787    
   X0.3455       Y0.5988    
   Y0.5587    
   X0.3428       Y0.5787    
   X0.3532       Y0.5400    
   X0.3455       Y0.5587    
(Pass: 8)
   X0.3655       Y0.5240    
   Z0.1250     F60  
   X0.3532       Y0.5400     F80  
   X0.3816       Y0.5117    
   X0.3655       Y0.5240    
   X0.4002       Y0.5039    
   X0.3816       Y0.5117    
   X0.4203       Y0.5013    
   X0.4002       Y0.5039    
   X0.4403    
   X0.4203       Y0.5013    
   X0.4590       Y0.5117    
   X0.4403       Y0.5039    
   X0.4751       Y0.5240    
   X0.4590       Y0.5117    
   X0.4874       Y0.5400    
   X0.4751       Y0.5240    
   X0.4951       Y0.5587    
   X0.4874       Y0.5400    
   X0.4977       Y0.5787    
   X0.4951       Y0.5587    
   Y0.5988    
   X0.4977       Y0.5787    
   X0.4874       Y0.6175    
   X0.4951       Y0.5988    
   X0.4751       Y0.6335    
   X0.4874       Y0.6175    
   X0.4590       Y0.6458    
   X0.4751       Y0.6335    
   X0.4403       Y0.6536    
   X0.4590       Y0.6458    
   X0.4203       Y0.6562    
   X0.4403       Y0.6536    
   X0.4002    
   X0.4203       Y0.6562    
   X0.3816       Y0.6458    
   X0.4002       Y0.6536    
   X0.3655       Y0.6335    
   X0.3816       Y0.6458    
   X0.3532       Y0.6175    
   X0.3655       Y0.6335    
   X0.3455       Y0.5988    
   X0.3532       Y0.6175    
   X0.3428       Y0.5787    
   X0.3455       Y0.5988    
   Y0.5587    
   X0.3428       Y0.5787    
   X0.3532       Y0.5400    
   X0.3455       Y0.5587    
(Pass: 9)
   X0.3655       Y0.5240    
   Z0.1094     F60  
   X0.3532       Y0.5400     F80  
   X0.3816       Y0.5117    
   X0.3655       Y0.5240    
   X0.4002       Y0.5039    
   X0.3816       Y0.5117    
   X0.4203       Y0.5013    
   X0.4002       Y0.5039    
   X0.4403    
   X0.4203       Y0.5013    
   X0.4590       Y0.5117    
   X0.4403       Y0.5039    
   X0.4751       Y0.5240    
   X0.4590       Y0.5117    
   X0.4874       Y0.5400    
   X0.4751       Y0.5240    
   X0.4951       Y0.5587    
   X0.4874       Y0.5400    
   X0.4977       Y0.5787    
   X0.4951       Y0.5587    
   Y0.5988    
   X0.4977       Y0.5787    
   X0.4874       Y0.6175    
   X0.4951       Y0.5988    
   X0.4751       Y0.6335    
   X0.4874       Y0.6175    
   X0.4590       Y0.6458    
   X0.4751       Y0.6335    
   X0.4403       Y0.6536    
   X0.4590       Y0.6458    
   X0.4203       Y0.6562    
   X0.4403       Y0.6536    
   X0.4002    
   X0.4203       Y0.6562    
   X0.3816       Y0.6458    
   X0.4002       Y0.6536    
   X0.3655       Y0.6335    
   X0.3816       Y0.6458    
   X0.3532       Y0.6175    
   X0.3655       Y0.6335    
   X0.3455       Y0.5988    
   X0.3532       Y0.6175    
   X0.3428       Y0.5787    
   X0.3455       Y0.5988    
   Y0.5587    
   X0.3428       Y0.5787    
   X0.3532       Y0.5400    
   X0.3455       Y0.5587    
(Pass: 10)
   X0.3655       Y0.5240    
   Z0.0938     F60  
   X0.3532       Y0.5400     F80  
   X0.3816       Y0.5117    
   X0.3655       Y0.5240    
   X0.4002       Y0.5039    
   X0.3816       Y0.5117    
   X0.4203       Y0.5013    
   X0.4002       Y0.5039    
   X0.4403    
   X0.4203       Y0.5013    
   X0.4590       Y0.5117    
   X0.4403       Y0.5039    
   X0.4751       Y0.5240    
   X0.4590       Y0.5117    
   X0.4874       Y0.5400    
   X0.4751       Y0.5240    
   X0.4951       Y0.5587    
   X0.4874       Y0.5400    
   X0.4977       Y0.5787    
   X0.4951       Y0.5587    
   Y0.5988    
   X0.4977       Y0.5787    
   X0.4874       Y0.6175    
   X0.4951       Y0.5988    
   X0.4751       Y0.6335    
   X0.4874       Y0.6175    
   X0.4590       Y0.6458    
   X0.4751       Y0.6335    
   X0.4403       Y0.6536    
   X0.4590       Y0.6458    
   X0.4203       Y0.6562    
   X0.4403       Y0.6536    
   X0.4002    
   X0.4203       Y0.6562    
   X0.3816       Y0.6458    
   X0.4002       Y0.6536    
   X0.3655       Y0.6335    
   X0.3816       Y0.6458    
   X0.3532       Y0.6175    
   X0.3655       Y0.6335    
   X0.3455       Y0.5988    
   X0.3532       Y0.6175    
   X0.3428       Y0.5787    
   X0.3455       Y0.5988    
   Y0.5587    
   X0.3428       Y0.5787    
   X0.3532       Y0.5400    
   X0.3455       Y0.5587    
(Pass: 11)
   X0.3655       Y0.5240    
   Z0.0781     F60  
   X0.3532       Y0.5400     F80  
   X0.3816       Y0.5117    
   X0.3655       Y0.5240    
   X0.4002       Y0.5039    
   X0.3816       Y0.5117    
   X0.4203       Y0.5013    
   X0.4002       Y0.5039    
   X0.4403    
   X0.4203       Y0.5013    
   X0.4590       Y0.5117    
   X0.4403       Y0.5039    
   X0.4751       Y0.5240    
   X0.4590       Y0.5117    
   X0.4874       Y0.5400    
   X0.4751       Y0.5240    
   X0.4951       Y0.5587    
   X0.4874       Y0.5400    
   X0.4977       Y0.5787    
   X0.4951       Y0.5587    
   Y0.5988    
   X0.4977       Y0.5787    
   X0.4874       Y0.6175    
   X0.4951       Y0.5988    
   X0.4751       Y0.6335    
   X0.4874       Y0.6175    
   X0.4590       Y0.6458    
   X0.4751       Y0.6335    
   X0.4403       Y0.6536    
   X0.4590       Y0.6458    
   X0.4203       Y0.6562    
   X0.4403       Y0.6536    
   X0.4002    
   X0.4203       Y0.6562    
   X0.3816       Y0.6458    
   X0.4002       Y0.6536    
   X0.3655       Y0.6335    
   X0.3816       Y0.6458    
   X0.3532       Y0.6175    
   X0.3655       Y0.6335    
   X0.3455       Y0.5988    
   X0.3532       Y0.6175    
   X0.3428       Y0.5787    
   X0.3455       Y0.5988    
   Y0.5587    
   X0.3428       Y0.5787    
   X0.3532       Y0.5400    
   X0.3455       Y0.5587    
(Pass: 12)
   X0.3655       Y0.5240    
   Z0.0625     F60  
   X0.3532       Y0.5400     F80  
   X0.3816       Y0.5117    
   X0.3655       Y0.5240    
   X0.4002       Y0.5039    
   X0.3816       Y0.5117    
   X0.4203       Y0.5013    
   X0.4002       Y0.5039    
   X0.4403    
   X0.4203       Y0.5013    
   X0.4590       Y0.5117    
   X0.4403       Y0.5039    
   X0.4751       Y0.5240    
   X0.4590       Y0.5117    
   X0.4874       Y0.5400    
   X0.4751       Y0.5240    
   X0.4951       Y0.5587    
   X0.4874       Y0.5400    
   X0.4977       Y0.5787    
   X0.4951       Y0.5587    
   Y0.5988    
   X0.4977       Y0.5787    
   X0.4874       Y0.6175    
   X0.4951       Y0.5988    
   X0.4751       Y0.6335    
   X0.4874       Y0.6175    
   X0.4590       Y0.6458    
   X0.4751       Y0.6335    
   X0.4403       Y0.6536    
   X0.4590       Y0.6458    
   X0.4203       Y0.6562    
   X0.4403       Y0.6536    
   X0.4002    
   X0.4203       Y0.6562    
   X0.3816       Y0.6458    
   X0.4002       Y0.6536    
   X0.3655       Y0.6335    
   X0.3816       Y0.6458    
   X0.3532       Y0.6175    
   X0.3655       Y0.6335    
   X0.3455       Y0.5988    
   X0.3532       Y0.6175    
   X0.3428       Y0.5787    
   X0.3455       Y0.5988    
   Y0.5587    
   X0.3428       Y0.5787    
   X0.3532       Y0.5400    
   X0.3455       Y0.5587    
(Pass: 13)
   X0.3655       Y0.5240    
   Z0.0469     F60  
   X0.3532       Y0.5400     F80  
   X0.3816       Y0.5117    
   X0.3655       Y0.5240    
   X0.4002       Y0.5039    
   X0.3816       Y0.5117    
   X0.4203       Y0.5013    
   X0.4002       Y0.5039    
   X0.4403    
   X0.4203       Y0.5013    
   X0.4590       Y0.5117    
   X0.4403       Y0.5039    
   X0.4751       Y0.5240    
   X0.4590       Y0.5117    
   X0.4874       Y0.5400    
   X0.4751       Y0.5240    
   X0.4951       Y0.5587    
   X0.4874       Y0.5400    
   X0.4977       Y0.5787    
   X0.4951       Y0.5587    
   Y0.5988    
   X0.4977       Y0.5787    
   X0.4874       Y0.6175    
   X0.4951       Y0.5988    
   X0.4751       Y0.6335    
   X0.4874       Y0.6175    
   X0.4590       Y0.6458    
   X0.4751       Y0.6335    
   X0.4403       Y0.6536    
   X0.4590       Y0.6458    
   X0.4203       Y0.6562    
   X0.4403       Y0.6536    
   X0.4002    
   X0.4203       Y0.6562    
   X0.3816       Y0.6458    
   X0.4002       Y0.6536    
   X0.3655       Y0.6335    
   X0.3816       Y0.6458    
   X0.3532       Y0.6175    
   X0.3655       Y0.6335    
   X0.3455       Y0.5988    
   X0.3532       Y0.6175    
   X0.3428       Y0.5787    
   X0.3455       Y0.5988    
   Y0.5587    
   X0.3428       Y0.5787    
   X0.3532       Y0.5400    
   X0.3455       Y0.5587    
(Pass: 14)
   X0.3655       Y0.5240    
   Z0.0312     F60  
   X0.3532       Y0.5400     F80  
   X0.3816       Y0.5117    
   X0.3655       Y0.5240    
   X0.4002       Y0.5039    
   X0.3816       Y0.5117    
   X0.4203       Y0.5013    
   X0.4002       Y0.5039    
   X0.4403    
   X0.4203       Y0.5013    
   X0.4590       Y0.5117    
   X0.4403       Y0.5039    
   X0.4751       Y0.5240    
   X0.4590       Y0.5117    
   X0.4874       Y0.5400    
   X0.4751       Y0.5240    
   X0.4951       Y0.5587    
   X0.4874       Y0.5400    
   X0.4977       Y0.5787    
   X0.4951       Y0.5587    
   Y0.5988    
   X0.4977       Y0.5787    
   X0.4874       Y0.6175    
   X0.4951       Y0.5988    
   X0.4751       Y0.6335    
   X0.4874       Y0.6175    
   X0.4590       Y0.6458    
   X0.4751       Y0.6335    
   X0.4403       Y0.6536    
   X0.4590       Y0.6458    
   X0.4203       Y0.6562    
   X0.4403       Y0.6536    
   X0.4002    
   X0.4203       Y0.6562    
   X0.3816       Y0.6458    
   X0.4002       Y0.6536    
   X0.3655       Y0.6335    
   X0.3816       Y0.6458    
   X0.3532       Y0.6175    
   X0.3655       Y0.6335    
   X0.3455       Y0.5988    
   X0.3532       Y0.6175    
   X0.3428       Y0.5787    
   X0.3455       Y0.5988    
   Y0.5587    
   X0.3428       Y0.5787    
   X0.3532       Y0.5400    
   X0.3455       Y0.5587    
(Pass: 15)
   X0.3655       Y0.5240    
   Z0.0156     F60  
   X0.3532       Y0.5400     F80  
   X0.3816       Y0.5117    
   X0.3655       Y0.5240    
   X0.4002       Y0.5039    
   X0.3816       Y0.5117    
   X0.4203       Y0.5013    
   X0.4002       Y0.5039    
   X0.4403    
   X0.4203       Y0.5013    
   X0.4590       Y0.5117    
   X0.4403       Y0.5039    
   X0.4751       Y0.5240    
   X0.4590       Y0.5117    
   X0.4874       Y0.5400    
   X0.4751       Y0.5240    
   X0.4951       Y0.5587    
   X0.4874       Y0.5400    
   X0.4977       Y0.5787    
   X0.4951       Y0.5587    
   Y0.5988    
   X0.4977       Y0.5787    
   X0.4874       Y0.6175    
   X0.4951       Y0.5988    
   X0.4751       Y0.6335    
   X0.4874       Y0.6175    
   X0.4590       Y0.6458    
   X0.4751       Y0.6335    
   X0.4403       Y0.6536    
   X0.4590       Y0.6458    
   X0.4203       Y0.6562    
   X0.4403       Y0.6536    
   X0.4002    
   X0.4203       Y0.6562    
   X0.3816       Y0.6458    
   X0.4002       Y0.6536    
   X0.3655       Y0.6335    
   X0.3816       Y0.6458    
   X0.3532       Y0.6175    
   X0.3655       Y0.6335    
   X0.3455       Y0.5988    
   X0.3532       Y0.6175    
   X0.3428       Y0.5787    
   X0.3455       Y0.5988    
   Y0.5587    
   X0.3428       Y0.5787    
   X0.3532       Y0.5400    
   X0.3455       Y0.5587    
(Pass: 16)
   X0.3655       Y0.5240    
   Z0.0000     F60  
   X0.3532       Y0.5400     F80  
   X0.3816       Y0.5117    
   X0.3655       Y0.5240    
   X0.4002       Y0.5039    
   X0.3816       Y0.5117    
   X0.4203       Y0.5013    
   X0.4002       Y0.5039    
   X0.4403    
   X0.4203       Y0.5013    
   X0.4590       Y0.5117    
   X0.4403       Y0.5039    
   X0.4751       Y0.5240    
   X0.4590       Y0.5117    
   X0.4874       Y0.5400    
   X0.4751       Y0.5240    
   X0.4951       Y0.5587    
   X0.4874       Y0.5400    
   X0.4977       Y0.5787    
   X0.4951       Y0.5587    
   Y0.5988    
   X0.4977       Y0.5787    
   X0.4874       Y0.6175    
   X0.4951       Y0.5988    
   X0.4751       Y0.6335    
   X0.4874       Y0.6175    
   X0.4590       Y0.6458    
   X0.4751       Y0.6335    
   X0.4403       Y0.6536    
   X0.4590       Y0.6458    
   X0.4203       Y0.6562    
   X0.4403       Y0.6536    
   X0.4002    
   X0.4203       Y0.6562    
   X0.3816       Y0.6458    
   X0.4002       Y0.6536    
   X0.3655       Y0.6335    
   X0.3816       Y0.6458    
   X0.3532       Y0.6175    
   X0.3655       Y0.6335    
   X0.3455       Y0.5988    
   X0.3532       Y0.6175    
   X0.3428       Y0.5787    
   X0.3455       Y0.5988    
   Y0.5587    
   X0.3428       Y0.5787    
   X0.3532       Y0.5400    
   X0.3455       Y0.5587    
G0   Z0.3750    
(Pass: 1)
   X0.4203       Y3.4666    
G1   Z0.2344     F60  
   X0.4002       Y3.4693     F80  
   X0.4403    
   X0.4203       Y3.4666    
   X0.4590       Y3.4770    
   X0.4403       Y3.4693    
   X0.4751       Y3.4893    
   X0.4590       Y3.4770    
   X0.4874       Y3.5054    
   X0.4751       Y3.4893    
   X0.4951       Y3.5241    
   X0.4874       Y3.5054    
   X0.4977       Y3.5441    
   X0.4951       Y3.5241    
   Y3.5641    
   X0.4977       Y3.5441    
   X0.4874       Y3.5828    
   X0.4951       Y3.5641    
   X0.4751       Y3.5989    
   X0.4874       Y3.5828    
   X0.4590       Y3.6112    
   X0.4751       Y3.5989    
   X0.4403       Y3.6189    
   X0.4590       Y3.6112    
   X0.4203       Y3.6216    
   X0.4403       Y3.6189    
   X0.4002    
   X0.4203       Y3.6216    
   X0.3816       Y3.6112    
   X0.4002       Y3.6189    
   X0.3655       Y3.5989    
   X0.3816       Y3.6112    
   X0.3532       Y3.5828    
   X0.3655       Y3.5989    
   X0.3455       Y3.5641    
   X0.3532       Y3.5828    
   X0.3428       Y3.5441    
   X0.3455       Y3.5641    
   Y3.5241    
   X0.3428       Y3.5441    
   X0.3532       Y3.5054    
   X0.3455       Y3.5241    
   X0.3655       Y3.4893    
   X0.3532       Y3.5054    
   X0.3816       Y3.4770    
   X0.3655       Y3.4893    
   X0.4002       Y3.4693    
   X0.3816       Y3.4770    
(Pass: 2)
   X0.4203       Y3.4666    
   Z0.2188     F60  
   X0.4002       Y3.4693     F80  
   X0.4403    
   X0.4203       Y3.4666    
   X0.4590       Y3.4770    
   X0.4403       Y3.4693    
   X0.4751       Y3.4893    
   X0.4590       Y3.4770    
   X0.4874       Y3.5054    
   X0.4751       Y3.4893    
   X0.4951       Y3.5241    
   X0.4874       Y3.5054    
   X0.4977       Y3.5441    
   X0.4951       Y3.5241    
   Y3.5641    
   X0.4977       Y3.5441    
   X0.4874       Y3.5828    
   X0.4951       Y3.5641    
   X0.4751       Y3.5989    
   X0.4874       Y3.5828    
   X0.4590       Y3.6112    
   X0.4751       Y3.5989    
   X0.4403       Y3.6189    
   X0.4590       Y3.6112    
   X0.4203       Y3.6216    
   X0.4403       Y3.6189    
   X0.4002    
   X0.4203       Y3.6216    
   X0.3816       Y3.6112    
   X0.4002       Y3.6189    
   X0.3655       Y3.5989    
   X0.3816       Y3.6112    
   X0.3532       Y3.5828    
   X0.3655       Y3.5989    
   X0.3455       Y3.5641    
   X0.3532       Y3.5828    
   X0.3428       Y3.5441    
   X0.3455       Y3.5641    
   Y3.5241    
   X0.3428       Y3.5441    
   X0.3532       Y3.5054    
   X0.3455       Y3.5241    
   X0.3655       Y3.4893    
   X0.3532       Y3.5054    
   X0.3816       Y3.4770    
   X0.3655       Y3.4893    
   X0.4002       Y3.4693    
   X0.3816       Y3.4770    
(Pass: 3)
   X0.4203       Y3.4666    
   Z0.2031     F60  
   X0.4002       Y3.4693     F80  
   X0.4403    
   X0.4203       Y3.4666    
   X0.4590       Y3.4770    
   X0.4403       Y3.4693    
   X0.4751       Y3.4893    
   X0.4590       Y3.4770    
   X0.4874       Y3.5054    
   X0.4751       Y3.4893    
   X0.4951       Y3.5241    
   X0.4874       Y3.5054    
   X0.4977       Y3.5441    
   X0.4951       Y3.5241    
   Y3.5641    
   X0.4977       Y3.5441    
   X0.4874       Y3.5828    
   X0.4951       Y3.5641    
   X0.4751       Y3.5989    
   X0.4874       Y3.5828    
   X0.4590       Y3.6112    
   X0.4751       Y3.5989    
   X0.4403       Y3.6189    
   X0.4590       Y3.6112    
   X0.4203       Y3.6216    
   X0.4403       Y3.6189    
   X0.4002    
   X0.4203       Y3.6216    
   X0.3816       Y3.6112    
   X0.4002       Y3.6189    
   X0.3655       Y3.5989    
   X0.3816       Y3.6112    
   X0.3532       Y3.5828    
   X0.3655       Y3.5989    
   X0.3455       Y3.5641    
   X0.3532       Y3.5828    
   X0.3428       Y3.5441    
   X0.3455       Y3.5641    
   Y3.5241    
   X0.3428       Y3.5441    
   X0.3532       Y3.5054    
   X0.3455       Y3.5241    
   X0.3655       Y3.4893    
   X0.3532       Y3.5054    
   X0.3816       Y3.4770    
   X0.3655       Y3.4893    
   X0.4002       Y3.4693    
   X0.3816       Y3.4770    
(Pass: 4)
   X0.4203       Y3.4666    
   Z0.1875     F60  
   X0.4002       Y3.4693     F80  
   X0.4403    
   X0.4203       Y3.4666    
   X0.4590       Y3.4770    
   X0.4403       Y3.4693    
   X0.4751       Y3.4893    
   X0.4590       Y3.4770    
   X0.4874       Y3.5054    
   X0.4751       Y3.4893    
   X0.4951       Y3.5241    
   X0.4874       Y3.5054    
   X0.4977       Y3.5441    
   X0.4951       Y3.5241    
   Y3.5641    
   X0.4977       Y3.5441    
   X0.4874       Y3.5828    
   X0.4951       Y3.5641    
   X0.4751       Y3.5989    
   X0.4874       Y3.5828    
   X0.4590       Y3.6112    
   X0.4751       Y3.5989    
   X0.4403       Y3.6189    
   X0.4590       Y3.6112    
   X0.4203       Y3.6216    
   X0.4403       Y3.6189    
   X0.4002    
   X0.4203       Y3.6216    
   X0.3816       Y3.6112    
   X0.4002       Y3.6189    
   X0.3655       Y3.5989    
   X0.3816       Y3.6112    
   X0.3532       Y3.5828    
   X0.3655       Y3.5989    
   X0.3455       Y3.5641    
   X0.3532       Y3.5828    
   X0.3428       Y3.5441    
   X0.3455       Y3.5641    
   Y3.5241    
   X0.3428       Y3.5441    
   X0.3532       Y3.5054    
   X0.3455       Y3.5241    
   X0.3655       Y3.4893    
   X0.3532       Y3.5054    
   X0.3816       Y3.4770    
   X0.3655       Y3.4893    
   X0.4002       Y3.4693    
   X0.3816       Y3.4770    
(Pass: 5)
   X0.4203       Y3.4666    
   Z0.1719     F60  
   X0.4002       Y3.4693     F80  
   X0.4403    
   X0.4203       Y3.4666    
   X0.4590       Y3.4770    
   X0.4403       Y3.4693    
   X0.4751       Y3.4893    
   X0.4590       Y3.4770    
   X0.4874       Y3.5054    
   X0.4751       Y3.4893    
   X0.4951       Y3.5241    
   X0.4874       Y3.5054    
   X0.4977       Y3.5441    
   X0.4951       Y3.5241    
   Y3.5641    
   X0.4977       Y3.5441    
   X0.4874       Y3.5828    
   X0.4951       Y3.5641    
   X0.4751       Y3.5989    
   X0.4874       Y3.5828    
   X0.4590       Y3.6112    
   X0.4751       Y3.5989    
   X0.4403       Y3.6189    
   X0.4590       Y3.6112    
   X0.4203       Y3.6216    
   X0.4403       Y3.6189    
   X0.4002    
   X0.4203       Y3.6216    
   X0.3816       Y3.6112    
   X0.4002       Y3.6189    
   X0.3655       Y3.5989    
   X0.3816       Y3.6112    
   X0.3532       Y3.5828    
   X0.3655       Y3.5989    
   X0.3455       Y3.5641    
   X0.3532       Y3.5828    
   X0.3428       Y3.5441    
   X0.3455       Y3.5641    
   Y3.5241    
   X0.3428       Y3.5441    
   X0.3532       Y3.5054    
   X0.3455       Y3.5241    
   X0.3655       Y3.4893    
   X0.3532       Y3.5054    
   X0.3816       Y3.4770    
   X0.3655       Y3.4893    
   X0.4002       Y3.4693    
   X0.3816       Y3.4770    
(Pass: 6)
   X0.4203       Y3.4666    
   Z0.1562     F60  
   X0.4002       Y3.4693     F80  
   X0.4403    
   X0.4203       Y3.4666    
   X0.4590       Y3.4770    
   X0.4403       Y3.4693    
   X0.4751       Y3.4893    
   X0.4590       Y3.4770    
   X0.4874       Y3.5054    
   X0.4751       Y3.4893    
   X0.4951       Y3.5241    
   X0.4874       Y3.5054    
   X0.4977       Y3.5441    
   X0.4951       Y3.5241    
   Y3.5641    
   X0.4977       Y3.5441    
   X0.4874       Y3.5828    
   X0.4951       Y3.5641    
   X0.4751       Y3.5989    
   X0.4874       Y3.5828    
   X0.4590       Y3.6112    
   X0.4751       Y3.5989    
   X0.4403       Y3.6189    
   X0.4590       Y3.6112    
   X0.4203       Y3.6216    
   X0.4403       Y3.6189    
   X0.4002    
   X0.4203       Y3.6216    
   X0.3816       Y3.6112    
   X0.4002       Y3.6189    
   X0.3655       Y3.5989    
   X0.3816       Y3.6112    
   X0.3532       Y3.5828    
   X0.3655       Y3.5989    
   X0.3455       Y3.5641    
   X0.3532       Y3.5828    
   X0.3428       Y3.5441    
   X0.3455       Y3.5641    
   Y3.5241    
   X0.3428       Y3.5441    
   X0.3532       Y3.5054    
   X0.3455       Y3.5241    
   X0.3655       Y3.4893    
   X0.3532       Y3.5054    
   X0.3816       Y3.4770    
   X0.3655       Y3.4893    
   X0.4002       Y3.4693    
   X0.3816       Y3.4770    
(Pass: 7)
   X0.4203       Y3.4666    
   Z0.1406     F60  
   X0.4002       Y3.4693     F80  
   X0.4403    
   X0.4203       Y3.4666    
   X0.4590       Y3.4770    
   X0.4403       Y3.4693    
   X0.4751       Y3.4893    
   X0.4590       Y3.4770    
   X0.4874       Y3.5054    
   X0.4751       Y3.4893    
   X0.4951       Y3.5241    
   X0.4874       Y3.5054    
   X0.4977       Y3.5441    
   X0.4951       Y3.5241    
   Y3.5641    
   X0.4977       Y3.5441    
   X0.4874       Y3.5828    
   X0.4951       Y3.5641    
   X0.4751       Y3.5989    
   X0.4874       Y3.5828    
   X0.4590       Y3.6112    
   X0.4751       Y3.5989    
   X0.4403       Y3.6189    
   X0.4590       Y3.6112    
   X0.4203       Y3.6216    
   X0.4403       Y3.6189    
   X0.4002    
   X0.4203       Y3.6216    
   X0.3816       Y3.6112    
   X0.4002       Y3.6189    
   X0.3655       Y3.5989    
   X0.3816       Y3.6112    
   X0.3532       Y3.5828    
   X0.3655       Y3.5989    
   X0.3455       Y3.5641    
   X0.3532       Y3.5828    
   X0.3428       Y3.5441    
   X0.3455       Y3.5641    
   Y3.5241    
   X0.3428       Y3.5441    
   X0.3532       Y3.5054    
   X0.3455       Y3.5241    
   X0.3655       Y3.4893    
   X0.3532       Y3.5054    
   X0.3816       Y3.4770    
   X0.3655       Y3.4893    
   X0.4002       Y3.4693    
   X0.3816       Y3.4770    
(Pass: 8)
   X0.4203       Y3.4666    
   Z0.1250     F60  
   X0.4002       Y3.4693     F80  
   X0.4403    
   X0.4203       Y3.4666    
   X0.4590       Y3.4770    
   X0.4403       Y3.4693    
   X0.4751       Y3.4893    
   X0.4590       Y3.4770    
   X0.4874       Y3.5054    
   X0.4751       Y3.4893    
   X0.4951       Y3.5241    
   X0.4874       Y3.5054    
   X0.4977       Y3.5441    
   X0.4951       Y3.5241    
   Y3.5641    
   X0.4977       Y3.5441    
   X0.4874       Y3.5828    
   X0.4951       Y3.5641    
   X0.4751       Y3.5989    
   X0.4874       Y3.5828    
   X0.4590       Y3.6112    
   X0.4751       Y3.5989    
   X0.4403       Y3.6189    
   X0.4590       Y3.6112    
   X0.4203       Y3.6216    
   X0.4403       Y3.6189    
   X0.4002    
   X0.4203       Y3.6216    
   X0.3816       Y3.6112    
   X0.4002       Y3.6189    
   X0.3655       Y3.5989    
   X0.3816       Y3.6112    
   X0.3532       Y3.5828    
   X0.3655       Y3.5989    
   X0.3455       Y3.5641    
   X0.3532       Y3.5828    
   X0.3428       Y3.5441    
   X0.3455       Y3.5641    
   Y3.5241    
   X0.3428       Y3.5441    
   X0.3532       Y3.5054    
   X0.3455       Y3.5241    
   X0.3655       Y3.4893    
   X0.3532       Y3.5054    
   X0.3816       Y3.4770    
   X0.3655       Y3.4893    
   X0.4002       Y3.4693    
   X0.3816       Y3.4770    
(Pass: 9)
   X0.4203       Y3.4666    
   Z0.1094     F60  
   X0.4002       Y3.4693     F80  
   X0.4403    
   X0.4203       Y3.4666    
   X0.4590       Y3.4770    
   X0.4403       Y3.4693    
   X0.4751       Y3.4893    
   X0.4590       Y3.4770    
   X0.4874       Y3.5054    
   X0.4751       Y3.4893    
   X0.4951       Y3.5241    
   X0.4874       Y3.5054    
   X0.4977       Y3.5441    
   X0.4951       Y3.5241    
   Y3.5641    
   X0.4977       Y3.5441    
   X0.4874       Y3.5828    
   X0.4951       Y3.5641    
   X0.4751       Y3.5989    
   X0.4874       Y3.5828    
   X0.4590       Y3.6112    
   X0.4751       Y3.5989    
   X0.4403       Y3.6189    
   X0.4590       Y3.6112    
   X0.4203       Y3.6216    
   X0.4403       Y3.6189    
   X0.4002    
   X0.4203       Y3.6216    
   X0.3816       Y3.6112    
   X0.4002       Y3.6189    
   X0.3655       Y3.5989    
   X0.3816       Y3.6112    
   X0.3532       Y3.5828    
   X0.3655       Y3.5989    
   X0.3455       Y3.5641    
   X0.3532       Y3.5828    
   X0.3428       Y3.5441    
   X0.3455       Y3.5641    
   Y3.5241    
   X0.3428       Y3.5441    
   X0.3532       Y3.5054    
   X0.3455       Y3.5241    
   X0.3655       Y3.4893    
   X0.3532       Y3.5054    
   X0.3816       Y3.4770    
   X0.3655       Y3.4893    
   X0.4002       Y3.4693    
   X0.3816       Y3.4770    
(Pass: 10)
   X0.4203       Y3.4666    
   Z0.0938     F60  
   X0.4002       Y3.4693     F80  
   X0.4403    
   X0.4203       Y3.4666    
   X0.4590       Y3.4770    
   X0.4403       Y3.4693    
   X0.4751       Y3.4893    
   X0.4590       Y3.4770    
   X0.4874       Y3.5054    
   X0.4751       Y3.4893    
   X0.4951       Y3.5241    
   X0.4874       Y3.5054    
   X0.4977       Y3.5441    
   X0.4951       Y3.5241    
   Y3.5641    
   X0.4977       Y3.5441    
   X0.4874       Y3.5828    
   X0.4951       Y3.5641    
   X0.4751       Y3.5989    
   X0.4874       Y3.5828    
   X0.4590       Y3.6112    
   X0.4751       Y3.5989    
   X0.4403       Y3.6189    
   X0.4590       Y3.6112    
   X0.4203       Y3.6216    
   X0.4403       Y3.6189    
   X0.4002    
   X0.4203       Y3.6216    
   X0.3816       Y3.6112    
   X0.4002       Y3.6189    
   X0.3655       Y3.5989    
   X0.3816       Y3.6112    
   X0.3532       Y3.5828    
   X0.3655       Y3.5989    
   X0.3455       Y3.5641    
   X0.3532       Y3.5828    
   X0.3428       Y3.5441    
   X0.3455       Y3.5641    
   Y3.5241    
   X0.3428       Y3.5441    
   X0.3532       Y3.5054    
   X0.3455       Y3.5241    
   X0.3655       Y3.4893    
   X0.3532       Y3.5054    
   X0.3816       Y3.4770    
   X0.3655       Y3.4893    
   X0.4002       Y3.4693    
   X0.3816       Y3.4770    
(Pass: 11)
   X0.4203       Y3.4666    
   Z0.0781     F60  
   X0.4002       Y3.4693     F80  
   X0.4403    
   X0.4203       Y3.4666    
   X0.4590       Y3.4770    
   X0.4403       Y3.4693    
   X0.4751       Y3.4893    
   X0.4590       Y3.4770    
   X0.4874       Y3.5054    
   X0.4751       Y3.4893    
   X0.4951       Y3.5241    
   X0.4874       Y3.5054    
   X0.4977       Y3.5441    
   X0.4951       Y3.5241    
   Y3.5641    
   X0.4977       Y3.5441    
   X0.4874       Y3.5828    
   X0.4951       Y3.5641    
   X0.4751       Y3.5989    
   X0.4874       Y3.5828    
   X0.4590       Y3.6112    
   X0.4751       Y3.5989    
   X0.4403       Y3.6189    
   X0.4590       Y3.6112    
   X0.4203       Y3.6216    
   X0.4403       Y3.6189    
   X0.4002    
   X0.4203       Y3.6216    
   X0.3816       Y3.6112    
   X0.4002       Y3.6189    
   X0.3655       Y3.5989    
   X0.3816       Y3.6112    
   X0.3532       Y3.5828    
   X0.3655       Y3.5989    
   X0.3455       Y3.5641    
   X0.3532       Y3.5828    
   X0.3428       Y3.5441    
   X0.3455       Y3.5641    
   Y3.5241    
   X0.3428       Y3.5441    
   X0.3532       Y3.5054    
   X0.3455       Y3.5241    
   X0.3655       Y3.4893    
   X0.3532       Y3.5054    
   X0.3816       Y3.4770    
   X0.3655       Y3.4893    
   X0.4002       Y3.4693    
   X0.3816       Y3.4770    
(Pass: 12)
   X0.4203       Y3.4666    
   Z0.0625     F60  
   X0.4002       Y3.4693     F80  
   X0.4403    
   X0.4203       Y3.4666    
   X0.4590       Y3.4770    
   X0.4403       Y3.4693    
   X0.4751       Y3.4893    
   X0.4590       Y3.4770    
   X0.4874       Y3.5054    
   X0.4751       Y3.4893    
   X0.4951       Y3.5241    
   X0.4874       Y3.5054    
   X0.4977       Y3.5441    
   X0.4951       Y3.5241    
   Y3.5641    
   X0.4977       Y3.5441    
   X0.4874       Y3.5828    
   X0.4951       Y3.5641    
   X0.4751       Y3.5989    
   X0.4874       Y3.5828    
   X0.4590       Y3.6112    
   X0.4751       Y3.5989    
   X0.4403       Y3.6189    
   X0.4590       Y3.6112    
   X0.4203       Y3.6216    
   X0.4403       Y3.6189    
   X0.4002    
   X0.4203       Y3.6216    
   X0.3816       Y3.6112    
   X0.4002       Y3.6189    
   X0.3655       Y3.5989    
   X0.3816       Y3.6112    
   X0.3532       Y3.5828    
   X0.3655       Y3.5989    
   X0.3455       Y3.5641    
   X0.3532       Y3.5828    
   X0.3428       Y3.5441    
   X0.3455       Y3.5641    
   Y3.5241    
   X0.3428       Y3.5441    
   X0.3532       Y3.5054    
   X0.3455       Y3.5241    
   X0.3655       Y3.4893    
   X0.3532       Y3.5054    
   X0.3816       Y3.4770    
   X0.3655       Y3.4893    
   X0.4002       Y3.4693    
   X0.3816       Y3.4770    
(Pass: 13)
   X0.4203       Y3.4666    
   Z0.0469     F60  
   X0.4002       Y3.4693     F80  
   X0.4403    
   X0.4203       Y3.4666    
   X0.4590       Y3.4770    
   X0.4403       Y3.4693    
   X0.4751       Y3.4893    
   X0.4590       Y3.4770    
   X0.4874       Y3.5054    
   X0.4751       Y3.4893    
   X0.4951       Y3.5241    
   X0.4874       Y3.5054    
   X0.4977       Y3.5441    
   X0.4951       Y3.5241    
   Y3.5641    
   X0.4977       Y3.5441    
   X0.4874       Y3.5828    
   X0.4951       Y3.5641    
   X0.4751       Y3.5989    
   X0.4874       Y3.5828    
   X0.4590       Y3.6112    
   X0.4751       Y3.5989    
   X0.4403       Y3.6189    
   X0.4590       Y3.6112    
   X0.4203       Y3.6216    
   X0.4403       Y3.6189    
   X0.4002    
   X0.4203       Y3.6216    
   X0.3816       Y3.6112    
   X0.4002       Y3.6189    
   X0.3655       Y3.5989    
   X0.3816       Y3.6112    
   X0.3532       Y3.5828    
   X0.3655       Y3.5989    
   X0.3455       Y3.5641    
   X0.3532       Y3.5828    
   X0.3428       Y3.5441    
   X0.3455       Y3.5641    
   Y3.5241    
   X0.3428       Y3.5441    
   X0.3532       Y3.5054    
   X0.3455       Y3.5241    
   X0.3655       Y3.4893    
   X0.3532       Y3.5054    
   X0.3816       Y3.4770    
   X0.3655       Y3.4893    
   X0.4002       Y3.4693    
   X0.3816       Y3.4770    
(Pass: 14)
   X0.4203       Y3.4666    
   Z0.0312     F60  
   X0.4002       Y3.4693     F80  
   X0.4403    
   X0.4203       Y3.4666    
   X0.4590       Y3.4770    
   X0.4403       Y3.4693    
   X0.4751       Y3.4893    
   X0.4590       Y3.4770    
   X0.4874       Y3.5054    
   X0.4751       Y3.4893    
   X0.4951       Y3.5241    
   X0.4874       Y3.5054    
   X0.4977       Y3.5441    
   X0.4951       Y3.5241    
   Y3.5641    
   X0.4977       Y3.5441    
   X0.4874       Y3.5828    
   X0.4951       Y3.5641    
   X0.4751       Y3.5989    
   X0.4874       Y3.5828    
   X0.4590       Y3.6112    
   X0.4751       Y3.5989    
   X0.4403       Y3.6189    
   X0.4590       Y3.6112    
   X0.4203       Y3.6216    
   X0.4403       Y3.6189    
   X0.4002    
   X0.4203       Y3.6216    
   X0.3816       Y3.6112    
   X0.4002       Y3.6189    
   X0.3655       Y3.5989    
   X0.3816       Y3.6112    
   X0.3532       Y3.5828    
   X0.3655       Y3.5989    
   X0.3455       Y3.5641    
   X0.3532       Y3.5828    
   X0.3428       Y3.5441    
   X0.3455       Y3.5641    
   Y3.5241    
   X0.3428       Y3.5441    
   X0.3532       Y3.5054    
   X0.3455       Y3.5241    
   X0.3655       Y3.4893    
   X0.3532       Y3.5054    
   X0.3816       Y3.4770    
   X0.3655       Y3.4893    
   X0.4002       Y3.4693    
   X0.3816       Y3.4770    
(Pass: 15)
   X0.4203       Y3.4666    
   Z0.0156     F60  
   X0.4002       Y3.4693     F80  
   X0.4403    
   X0.4203       Y3.4666    
   X0.4590       Y3.4770    
   X0.4403       Y3.4693    
   X0.4751       Y3.4893    
   X0.4590       Y3.4770    
   X0.4874       Y3.5054    
   X0.4751       Y3.4893    
   X0.4951       Y3.5241    
   X0.4874       Y3.5054    
   X0.4977       Y3.5441    
   X0.4951       Y3.5241    
   Y3.5641    
   X0.4977       Y3.5441    
   X0.4874       Y3.5828    
   X0.4951       Y3.5641    
   X0.4751       Y3.5989    
   X0.4874       Y3.5828    
   X0.4590       Y3.6112    
   X0.4751       Y3.5989    
   X0.4403       Y3.6189    
   X0.4590       Y3.6112    
   X0.4203       Y3.6216    
   X0.4403       Y3.6189    
   X0.4002    
   X0.4203       Y3.6216    
   X0.3816       Y3.6112    
   X0.4002       Y3.6189    
   X0.3655       Y3.5989    
   X0.3816       Y3.6112    
   X0.3532       Y3.5828    
   X0.3655       Y3.5989    
   X0.3455       Y3.5641    
   X0.3532       Y3.5828    
   X0.3428       Y3.5441    
   X0.3455       Y3.5641    
   Y3.5241    
   X0.3428       Y3.5441    
   X0.3532       Y3.5054    
   X0.3455       Y3.5241    
   X0.3655       Y3.4893    
   X0.3532       Y3.5054    
   X0.3816       Y3.4770    
   X0.3655       Y3.4893    
   X0.4002       Y3.4693    
   X0.3816       Y3.4770    
(Pass: 16)
   X0.4203       Y3.4666    
   Z0.0000     F60  
   X0.4002       Y3.4693     F80  
   X0.4403    
   X0.4203       Y3.4666    
   X0.4590       Y3.4770    
   X0.4403       Y3.4693    
   X0.4751       Y3.4893    
   X0.4590       Y3.4770    
   X0.4874       Y3.5054    
   X0.4751       Y3.4893    
   X0.4951       Y3.5241    
   X0.4874       Y3.5054    
   X0.4977       Y3.5441    
   X0.4951       Y3.5241    
   Y3.5641    
   X0.4977       Y3.5441    
   X0.4874       Y3.5828    
   X0.4951       Y3.5641    
   X0.4751       Y3.5989    
   X0.4874       Y3.5828    
   X0.4590       Y3.6112    
   X0.4751       Y3.5989    
   X0.4403       Y3.6189    
   X0.4590       Y3.6112    
   X0.4203       Y3.6216    
   X0.4403       Y3.6189    
   X0.4002    
   X0.4203       Y3.6216    
   X0.3816       Y3.6112    
   X0.4002       Y3.6189    
   X0.3655       Y3.5989    
   X0.3816       Y3.6112    
   X0.3532       Y3.5828    
   X0.3655       Y3.5989    
   X0.3455       Y3.5641    
   X0.3532       Y3.5828    
   X0.3428       Y3.5441    
   X0.3455       Y3.5641    
   Y3.5241    
   X0.3428       Y3.5441    
   X0.3532       Y3.5054    
   X0.3455       Y3.5241    
   X0.3655       Y3.4893    
   X0.3532       Y3.5054    
   X0.3816       Y3.4770    
   X0.3655       Y3.4893    
   X0.4002       Y3.4693    
   X0.3816       Y3.4770    
G0   Z0.3750    
(Pass: 1)
   X3.0080       Y2.6330    
G1   Z0.2344     F60  
   X3.0139       Y2.6406     F80  
   X3.0044       Y2.6241    
   X3.0080       Y2.6330    
   X3.0031       Y2.6145    
   X3.0044       Y2.6241    
   Y2.6049    
   X3.0031       Y2.6145    
   X3.0080       Y2.5960    
   X3.0044       Y2.6049    
   X3.0139       Y2.5884    
   X3.0080       Y2.5960    
   X3.0216       Y2.5825    
   X3.0139       Y2.5884    
   X3.0305       Y2.5788    
   X3.0216       Y2.5825    
   X3.0442       Y2.5770    
   X3.0305       Y2.5788    
   X3.3903       Y2.5770    
   X3.0442    
   X3.4040       Y2.5788    
   X3.3903       Y2.5770    
   X3.4129       Y2.5825    
   X3.4040       Y2.5788    
   X3.4205       Y2.5884    
   X3.4129       Y2.5825    
   X3.4264       Y2.5960    
   X3.4205       Y2.5884    
   X3.4301       Y2.6049    
   X3.4264       Y2.5960    
   X3.4313       Y2.6145    
   X3.4301       Y2.6049    
   Y2.6241    
   X3.4313       Y2.6145    
   X3.4264       Y2.6330    
   X3.4301       Y2.6241    
   X3.4205       Y2.6406    
   X3.4264       Y2.6330    
   X3.4129       Y2.6465    
   X3.4205       Y2.6406    
   X3.4040       Y2.6502    
   X3.4129       Y2.6465    
   X3.3903       Y2.6520    
   X3.4040       Y2.6502    
   X3.0442       Y2.6520    
   X3.3903    
   X3.0305       Y2.6502    
   X3.0442       Y2.6520    
   X3.0216       Y2.6465    
   X3.0305       Y2.6502    
   X3.0139       Y2.6406    
   X3.0216       Y2.6465    
(Pass: 2)
   X3.0080       Y2.6330    
   Z0.2188     F60  
   X3.0139       Y2.6406     F80  
   X3.0044       Y2.6241    
   X3.0080       Y2.6330    
   X3.0031       Y2.6145    
   X3.0044       Y2.6241    
   Y2.6049    
   X3.0031       Y2.6145    
   X3.0080       Y2.5960    
   X3.0044       Y2.6049    
   X3.0139       Y2.5884    
   X3.0080       Y2.5960    
   X3.0216       Y2.5825    
   X3.0139       Y2.5884    
   X3.0305       Y2.5788    
   X3.0216       Y2.5825    
   X3.0442       Y2.5770    
   X3.0305       Y2.5788    
   X3.3903       Y2.5770    
   X3.0442    
   X3.4040       Y2.5788    
   X3.3903       Y2.5770    
   X3.4129       Y2.5825    
   X3.4040       Y2.5788    
   X3.4205       Y2.5884    
   X3.4129       Y2.5825    
   X3.4264       Y2.5960    
   X3.4205       Y2.5884    
   X3.4301       Y2.6049    
   X3.4264       Y2.5960    
   X3.4313       Y2.6145    
   X3.4301       Y2.6049    
   Y2.6241    
   X3.4313       Y2.6145    
   X3.4264       Y2.6330    
   X3.4301       Y2.6241    
   X3.4205       Y2.6406    
   X3.4264       Y2.6330    
   X3.4129       Y2.6465    
   X3.4205       Y2.6406    
   X3.4040       Y2.6502    
   X3.4129       Y2.6465    
   X3.3903       Y2.6520    
   X3.4040       Y2.6502    
   X3.0442       Y2.6520    
   X3.3903    
   X3.0305       Y2.6502    
   X3.0442       Y2.6520    
   X3.0216       Y2.6465    
   X3.0305       Y2.6502    
   X3.0139       Y2.6406    
   X3.0216       Y2.6465    
(Pass: 3)
   X3.0080       Y2.6330    
   Z0.2031     F60  
   X3.0139       Y2.6406     F80  
   X3.0044       Y2.6241    
   X3.0080       Y2.6330    
   X3.0031       Y2.6145    
   X3.0044       Y2.6241    
   Y2.6049    
   X3.0031       Y2.6145    
   X3.0080       Y2.5960    
   X3.0044       Y2.6049    
   X3.0139       Y2.5884    
   X3.0080       Y2.5960    
   X3.0216       Y2.5825    
   X3.0139       Y2.5884    
   X3.0305       Y2.5788    
   X3.0216       Y2.5825    
   X3.0442       Y2.5770    
   X3.0305       Y2.5788    
   X3.3903       Y2.5770    
   X3.0442    
   X3.4040       Y2.5788    
   X3.3903       Y2.5770    
   X3.4129       Y2.5825    
   X3.4040       Y2.5788    
   X3.4205       Y2.5884    
   X3.4129       Y2.5825    
   X3.4264       Y2.5960    
   X3.4205       Y2.5884    
   X3.4301       Y2.6049    
   X3.4264       Y2.5960    
   X3.4313       Y2.6145    
   X3.4301       Y2.6049    
   Y2.6241    
   X3.4313       Y2.6145    
   X3.4264       Y2.6330    
   X3.4301       Y2.6241    
   X3.4205       Y2.6406    
   X3.4264       Y2.6330    
   X3.4129       Y2.6465    
   X3.4205       Y2.6406    
   X3.4040       Y2.6502    
   X3.4129       Y2.6465    
   X3.3903       Y2.6520    
   X3.4040       Y2.6502    
   X3.0442       Y2.6520    
   X3.3903    
   X3.0305       Y2.6502    
   X3.0442       Y2.6520    
   X3.0216       Y2.6465    
   X3.0305       Y2.6502    
   X3.0139       Y2.6406    
   X3.0216       Y2.6465    
(Pass: 4)
   X3.0080       Y2.6330    
   Z0.1875     F60  
   X3.0139       Y2.6406     F80  
   X3.0044       Y2.6241    
   X3.0080       Y2.6330    
   X3.0031       Y2.6145    
   X3.0044       Y2.6241    
   Y2.6049    
   X3.0031       Y2.6145    
   X3.0080       Y2.5960    
   X3.0044       Y2.6049    
   X3.0139       Y2.5884    
   X3.0080       Y2.5960    
   X3.0216       Y2.5825    
   X3.0139       Y2.5884    
   X3.0305       Y2.5788    
   X3.0216       Y2.5825    
   X3.0442       Y2.5770    
   X3.0305       Y2.5788    
   X3.3903       Y2.5770    
   X3.0442    
   X3.4040       Y2.5788    
   X3.3903       Y2.5770    
   X3.4129       Y2.5825    
   X3.4040       Y2.5788    
   X3.4205       Y2.5884    
   X3.4129       Y2.5825    
   X3.4264       Y2.5960    
   X3.4205       Y2.5884    
   X3.4301       Y2.6049    
   X3.4264       Y2.5960    
   X3.4313       Y2.6145    
   X3.4301       Y2.6049    
   Y2.6241    
   X3.4313       Y2.6145    
   X3.4264       Y2.6330    
   X3.4301       Y2.6241    
   X3.4205       Y2.6406    
   X3.4264       Y2.6330    
   X3.4129       Y2.6465    
   X3.4205       Y2.6406    
   X3.4040       Y2.6502    
   X3.4129       Y2.6465    
   X3.3903       Y2.6520    
   X3.4040       Y2.6502    
   X3.0442       Y2.6520    
   X3.3903    
   X3.0305       Y2.6502    
   X3.0442       Y2.6520    
   X3.0216       Y2.6465    
   X3.0305       Y2.6502    
   X3.0139       Y2.6406    
   X3.0216       Y2.6465    
(Pass: 5)
   X3.0080       Y2.6330    
   Z0.1719     F60  
   X3.0139       Y2.6406     F80  
   X3.0044       Y2.6241    
   X3.0080       Y2.6330    
   X3.0031       Y2.6145    
   X3.0044       Y2.6241    
   Y2.6049    
   X3.0031       Y2.6145    
   X3.0080       Y2.5960    
   X3.0044       Y2.6049    
   X3.0139       Y2.5884    
   X3.0080       Y2.5960    
   X3.0216       Y2.5825    
   X3.0139       Y2.5884    
   X3.0305       Y2.5788    
   X3.0216       Y2.5825    
   X3.0442       Y2.5770    
   X3.0305       Y2.5788    
   X3.3903       Y2.5770    
   X3.0442    
   X3.4040       Y2.5788    
   X3.3903       Y2.5770    
   X3.4129       Y2.5825    
   X3.4040       Y2.5788    
   X3.4205       Y2.5884    
   X3.4129       Y2.5825    
   X3.4264       Y2.5960    
   X3.4205       Y2.5884    
   X3.4301       Y2.6049    
   X3.4264       Y2.5960    
   X3.4313       Y2.6145    
   X3.4301       Y2.6049    
   Y2.6241    
   X3.4313       Y2.6145    
   X3.4264       Y2.6330    
   X3.4301       Y2.6241    
   X3.4205       Y2.6406    
   X3.4264       Y2.6330    
   X3.4129       Y2.6465    
   X3.4205       Y2.6406    
   X3.4040       Y2.6502    
   X3.4129       Y2.6465    
   X3.3903       Y2.6520    
   X3.4040       Y2.6502    
   X3.0442       Y2.6520    
   X3.3903    
   X3.0305       Y2.6502    
   X3.0442       Y2.6520    
   X3.0216       Y2.6465    
   X3.0305       Y2.6502    
   X3.0139       Y2.6406    
   X3.0216       Y2.6465    
(Pass: 6)
   X3.0080       Y2.6330    
   Z0.1562     F60  
   X3.0139       Y2.6406     F80  
   X3.0044       Y2.6241    
   X3.0080       Y2.6330    
   X3.0031       Y2.6145    
   X3.0044       Y2.6241    
   Y2.6049    
   X3.0031       Y2.6145    
   X3.0080       Y2.5960    
   X3.0044       Y2.6049    
   X3.0139       Y2.5884    
   X3.0080       Y2.5960    
   X3.0216       Y2.5825    
   X3.0139       Y2.5884    
   X3.0305       Y2.5788    
   X3.0216       Y2.5825    
   X3.0442       Y2.5770    
   X3.0305       Y2.5788    
   X3.3903       Y2.5770    
   X3.0442    
   X3.4040       Y2.5788    
   X3.3903       Y2.5770    
   X3.4129       Y2.5825    
   X3.4040       Y2.5788    
   X3.4205       Y2.5884    
   X3.4129       Y2.5825    
   X3.4264       Y2.5960    
   X3.4205       Y2.5884    
   X3.4301       Y2.6049    
   X3.4264       Y2.5960    
   X3.4313       Y2.6145    
   X3.4301       Y2.6049    
   Y2.6241    
   X3.4313       Y2.6145    
   X3.4264       Y2.6330    
   X3.4301       Y2.6241    
   X3.4205       Y2.6406    
   X3.4264       Y2.6330    
   X3.4129       Y2.6465    
   X3.4205       Y2.6406    
   X3.4040       Y2.6502    
   X3.4129       Y2.6465    
   X3.3903       Y2.6520    
   X3.4040       Y2.6502    
   X3.0442       Y2.6520    
   X3.3903    
   X3.0305       Y2.6502    
   X3.0442       Y2.6520    
   X3.0216       Y2.6465    
   X3.0305       Y2.6502    
   X3.0139       Y2.6406    
   X3.0216       Y2.6465    
(Pass: 7)
   X3.0080       Y2.6330    
   Z0.1406     F60  
   X3.0139       Y2.6406     F80  
   X3.0044       Y2.6241    
   X3.0080       Y2.6330    
   X3.0031       Y2.6145    
   X3.0044       Y2.6241    
   Y2.6049    
   X3.0031       Y2.6145    
   X3.0080       Y2.5960    
   X3.0044       Y2.6049    
   X3.0139       Y2.5884    
   X3.0080       Y2.5960    
   X3.0216       Y2.5825    
   X3.0139       Y2.5884    
   X3.0305       Y2.5788    
   X3.0216       Y2.5825    
   X3.0442       Y2.5770    
   X3.0305       Y2.5788    
   X3.3903       Y2.5770    
   X3.0442    
   X3.4040       Y2.5788    
   X3.3903       Y2.5770    
   X3.4129       Y2.5825    
   X3.4040       Y2.5788    
   X3.4205       Y2.5884    
   X3.4129       Y2.5825    
   X3.4264       Y2.5960    
   X3.4205       Y2.5884    
   X3.4301       Y2.6049    
   X3.4264       Y2.5960    
   X3.4313       Y2.6145    
   X3.4301       Y2.6049    
   Y2.6241    
   X3.4313       Y2.6145    
   X3.4264       Y2.6330    
   X3.4301       Y2.6241    
   X3.4205       Y2.6406    
   X3.4264       Y2.6330    
   X3.4129       Y2.6465    
   X3.4205       Y2.6406    
   X3.4040       Y2.6502    
   X3.4129       Y2.6465    
   X3.3903       Y2.6520    
   X3.4040       Y2.6502    
   X3.0442       Y2.6520    
   X3.3903    
   X3.0305       Y2.6502    
   X3.0442       Y2.6520    
   X3.0216       Y2.6465    
   X3.0305       Y2.6502    
   X3.0139       Y2.6406    
   X3.0216       Y2.6465    
(Pass: 8)
   X3.0080       Y2.6330    
   Z0.1250     F60  
   X3.0139       Y2.6406     F80  
   X3.0044       Y2.6241    
   X3.0080       Y2.6330    
   X3.0031       Y2.6145    
   X3.0044       Y2.6241    
   Y2.6049    
   X3.0031       Y2.6145    
   X3.0080       Y2.5960    
   X3.0044       Y2.6049    
   X3.0139       Y2.5884    
   X3.0080       Y2.5960    
   X3.0216       Y2.5825    
   X3.0139       Y2.5884    
   X3.0305       Y2.5788    
   X3.0216       Y2.5825    
   X3.0442       Y2.5770    
   X3.0305       Y2.5788    
   X3.3903       Y2.5770    
   X3.0442    
   X3.4040       Y2.5788    
   X3.3903       Y2.5770    
   X3.4129       Y2.5825    
   X3.4040       Y2.5788    
   X3.4205       Y2.5884    
   X3.4129       Y2.5825    
   X3.4264       Y2.5960    
   X3.4205       Y2.5884    
   X3.4301       Y2.6049    
   X3.4264       Y2.5960    
   X3.4313       Y2.6145    
   X3.4301       Y2.6049    
   Y2.6241    
   X3.4313       Y2.6145    
   X3.4264       Y2.6330    
   X3.4301       Y2.6241    
   X3.4205       Y2.6406    
   X3.4264       Y2.6330    
   X3.4129       Y2.6465    
   X3.4205       Y2.6406    
   X3.4040       Y2.6502    
   X3.4129       Y2.6465    
   X3.3903       Y2.6520    
   X3.4040       Y2.6502    
   X3.0442       Y2.6520    
   X3.3903    
   X3.0305       Y2.6502    
   X3.0442       Y2.6520    
   X3.0216       Y2.6465    
   X3.0305       Y2.6502    
   X3.0139       Y2.6406    
   X3.0216       Y2.6465    
(Pass: 9)
   X3.0080       Y2.6330    
   Z0.1094     F60  
   X3.0139       Y2.6406     F80  
   X3.0044       Y2.6241    
   X3.0080       Y2.6330    
   X3.0031       Y2.6145    
   X3.0044       Y2.6241    
   Y2.6049    
   X3.0031       Y2.6145    
   X3.0080       Y2.5960    
   X3.0044       Y2.6049    
   X3.0139       Y2.5884    
   X3.0080       Y2.5960    
   X3.0216       Y2.5825    
   X3.0139       Y2.5884    
   X3.0305       Y2.5788    
   X3.0216       Y2.5825    
   X3.0442       Y2.5770    
   X3.0305       Y2.5788    
   X3.3903       Y2.5770    
   X3.0442    
   X3.4040       Y2.5788    
   X3.3903       Y2.5770    
   X3.4129       Y2.5825    
   X3.4040       Y2.5788    
   X3.4205       Y2.5884    
   X3.4129       Y2.5825    
   X3.4264       Y2.5960    
   X3.4205       Y2.5884    
   X3.4301       Y2.6049    
   X3.4264       Y2.5960    
   X3.4313       Y2.6145    
   X3.4301       Y2.6049    
   Y2.6241    
   X3.4313       Y2.6145    
   X3.4264       Y2.6330    
   X3.4301       Y2.6241    
   X3.4205       Y2.6406    
   X3.4264       Y2.6330    
   X3.4129       Y2.6465    
   X3.4205       Y2.6406    
   X3.4040       Y2.6502    
   X3.4129       Y2.6465    
   X3.3903       Y2.6520    
   X3.4040       Y2.6502    
   X3.0442       Y2.6520    
   X3.3903    
   X3.0305       Y2.6502    
   X3.0442       Y2.6520    
   X3.0216       Y2.6465    
   X3.0305       Y2.6502    
   X3.0139       Y2.6406    
   X3.0216       Y2.6465    
(Pass: 10)
   X3.0080       Y2.6330    
   Z0.0938     F60  
   X3.0139       Y2.6406     F80  
   X3.0044       Y2.6241    
   X3.0080       Y2.6330    
   X3.0031       Y2.6145    
   X3.0044       Y2.6241    
   Y2.6049    
   X3.0031       Y2.6145    
   X3.0080       Y2.5960    
   X3.0044       Y2.6049    
   X3.0139       Y2.5884    
   X3.0080       Y2.5960    
   X3.0216       Y2.5825    
   X3.0139       Y2.5884    
   X3.0305       Y2.5788    
   X3.0216       Y2.5825    
   X3.0442       Y2.5770    
   X3.0305       Y2.5788    
   X3.3903       Y2.5770    
   X3.0442    
   X3.4040       Y2.5788    
   X3.3903       Y2.5770    
   X3.4129       Y2.5825    
   X3.4040       Y2.5788    
   X3.4205       Y2.5884    
   X3.4129       Y2.5825    
   X3.4264       Y2.5960    
   X3.4205       Y2.5884    
   X3.4301       Y2.6049    
   X3.4264       Y2.5960    
   X3.4313       Y2.6145    
   X3.4301       Y2.6049    
   Y2.6241    
   X3.4313       Y2.6145    
   X3.4264       Y2.6330    
   X3.4301       Y2.6241    
   X3.4205       Y2.6406    
   X3.4264       Y2.6330    
   X3.4129       Y2.6465    
   X3.4205       Y2.6406    
   X3.4040       Y2.6502    
   X3.4129       Y2.6465    
   X3.3903       Y2.6520    
   X3.4040       Y2.6502    
   X3.0442       Y2.6520    
   X3.3903    
   X3.0305       Y2.6502    
   X3.0442       Y2.6520    
   X3.0216       Y2.6465    
   X3.0305       Y2.6502    
   X3.0139       Y2.6406    
   X3.0216       Y2.6465    
(Pass: 11)
   X3.0080       Y2.6330    
   Z0.0781     F60  
   X3.0139       Y2.6406     F80  
   X3.0044       Y2.6241    
   X3.0080       Y2.6330    
   X3.0031       Y2.6145    
   X3.0044       Y2.6241    
   Y2.6049    
   X3.0031       Y2.6145    
   X3.0080       Y2.5960    
   X3.0044       Y2.6049    
   X3.0139       Y2.5884    
   X3.0080       Y2.5960    
   X3.0216       Y2.5825    
   X3.0139       Y2.5884    
   X3.0305       Y2.5788    
   X3.0216       Y2.5825    
   X3.0442       Y2.5770    
   X3.0305       Y2.5788    
   X3.3903       Y2.5770    
   X3.0442    
   X3.4040       Y2.5788    
   X3.3903       Y2.5770    
   X3.4129       Y2.5825    
   X3.4040       Y2.5788    
   X3.4205       Y2.5884    
   X3.4129       Y2.5825    
   X3.4264       Y2.5960    
   X3.4205       Y2.5884    
   X3.4301       Y2.6049    
   X3.4264       Y2.5960    
   X3.4313       Y2.6145    
   X3.4301       Y2.6049    
   Y2.6241    
   X3.4313       Y2.6145    
   X3.4264       Y2.6330    
   X3.4301       Y2.6241    
   X3.4205       Y2.6406    
   X3.4264       Y2.6330    
   X3.4129       Y2.6465    
   X3.4205       Y2.6406    
   X3.4040       Y2.6502    
   X3.4129       Y2.6465    
   X3.3903       Y2.6520    
   X3.4040       Y2.6502    
   X3.0442       Y2.6520    
   X3.3903    
   X3.0305       Y2.6502    
   X3.0442       Y2.6520    
   X3.0216       Y2.6465    
   X3.0305       Y2.6502    
   X3.0139       Y2.6406    
   X3.0216       Y2.6465    
(Pass: 12)
   X3.0080       Y2.6330    
   Z0.0625     F60  
   X3.0139       Y2.6406     F80  
   X3.0044       Y2.6241    
   X3.0080       Y2.6330    
   X3.0031       Y2.6145    
   X3.0044       Y2.6241    
   Y2.6049    
   X3.0031       Y2.6145    
   X3.0080       Y2.5960    
   X3.0044       Y2.6049    
   X3.0139       Y2.5884    
   X3.0080       Y2.5960    
   X3.0216       Y2.5825    
   X3.0139       Y2.5884    
   X3.0305       Y2.5788    
   X3.0216       Y2.5825    
   X3.0442       Y2.5770    
   X3.0305       Y2.5788    
   X3.3903       Y2.5770    
   X3.0442    
   X3.4040       Y2.5788    
   X3.3903       Y2.5770    
   X3.4129       Y2.5825    
   X3.4040       Y2.5788    
   X3.4205       Y2.5884    
   X3.4129       Y2.5825    
   X3.4264       Y2.5960    
   X3.4205       Y2.5884    
   X3.4301       Y2.6049    
   X3.4264       Y2.5960    
   X3.4313       Y2.6145    
   X3.4301       Y2.6049    
   Y2.6241    
   X3.4313       Y2.6145    
   X3.4264       Y2.6330    
   X3.4301       Y2.6241    
   X3.4205       Y2.6406    
   X3.4264       Y2.6330    
   X3.4129       Y2.6465    
   X3.4205       Y2.6406    
   X3.4040       Y2.6502    
   X3.4129       Y2.6465    
   X3.3903       Y2.6520    
   X3.4040       Y2.6502    
   X3.0442       Y2.6520    
   X3.3903    
   X3.0305       Y2.6502    
   X3.0442       Y2.6520    
   X3.0216       Y2.6465    
   X3.0305       Y2.6502    
   X3.0139       Y2.6406    
   X3.0216       Y2.6465    
(Pass: 13)
   X3.0080       Y2.6330    
   Z0.0469     F60  
   X3.0139       Y2.6406     F80  
   X3.0044       Y2.6241    
   X3.0080       Y2.6330    
   X3.0031       Y2.6145    
   X3.0044       Y2.6241    
   Y2.6049    
   X3.0031       Y2.6145    
   X3.0080       Y2.5960    
   X3.0044       Y2.6049    
   X3.0139       Y2.5884    
   X3.0080       Y2.5960    
   X3.0216       Y2.5825    
   X3.0139       Y2.5884    
   X3.0305       Y2.5788    
   X3.0216       Y2.5825    
   X3.0442       Y2.5770    
   X3.0305       Y2.5788    
   X3.3903       Y2.5770    
   X3.0442    
   X3.4040       Y2.5788    
   X3.3903       Y2.5770    
   X3.4129       Y2.5825    
   X3.4040       Y2.5788    
   X3.4205       Y2.5884    
   X3.4129       Y2.5825    
   X3.4264       Y2.5960    
   X3.4205       Y2.5884    
   X3.4301       Y2.6049    
   X3.4264       Y2.5960    
   X3.4313       Y2.6145    
   X3.4301       Y2.6049    
   Y2.6241    
   X3.4313       Y2.6145    
   X3.4264       Y2.6330    
   X3.4301       Y2.6241    
   X3.4205       Y2.6406    
   X3.4264       Y2.6330    
   X3.4129       Y2.6465    
   X3.4205       Y2.6406    
   X3.4040       Y2.6502    
   X3.4129       Y2.6465    
   X3.3903       Y2.6520    
   X3.4040       Y2.6502    
   X3.0442       Y2.6520    
   X3.3903    
   X3.0305       Y2.6502    
   X3.0442       Y2.6520    
   X3.0216       Y2.6465    
   X3.0305       Y2.6502    
   X3.0139       Y2.6406    
   X3.0216       Y2.6465    
(Pass: 14)
   X3.0080       Y2.6330    
   Z0.0312     F60  
   X3.0139       Y2.6406     F80  
   X3.0044       Y2.6241    
   X3.0080       Y2.6330    
   X3.0031       Y2.6145    
   X3.0044       Y2.6241    
   Y2.6049    
   X3.0031       Y2.6145    
   X3.0080       Y2.5960    
   X3.0044       Y2.6049    
   X3.0139       Y2.5884    
   X3.0080       Y2.5960    
   X3.0216       Y2.5825    
   X3.0139       Y2.5884    
   X3.0305       Y2.5788    
   X3.0216       Y2.5825    
   X3.0442       Y2.5770    
   X3.0305       Y2.5788    
   X3.3903       Y2.5770    
   X3.0442    
   X3.4040       Y2.5788    
   X3.3903       Y2.5770    
   X3.4129       Y2.5825    
   X3.4040       Y2.5788    
   X3.4205       Y2.5884    
   X3.4129       Y2.5825    
   X3.4264       Y2.5960    
   X3.4205       Y2.5884    
   X3.4301       Y2.6049    
   X3.4264       Y2.5960    
   X3.4313       Y2.6145    
   X3.4301       Y2.6049    
   Y2.6241    
   X3.4313       Y2.6145    
   X3.4264       Y2.6330    
   X3.4301       Y2.6241    
   X3.4205       Y2.6406    
   X3.4264       Y2.6330    
   X3.4129       Y2.6465    
   X3.4205       Y2.6406    
   X3.4040       Y2.6502    
   X3.4129       Y2.6465    
   X3.3903       Y2.6520    
   X3.4040       Y2.6502    
   X3.0442       Y2.6520    
   X3.3903    
   X3.0305       Y2.6502    
   X3.0442       Y2.6520    
   X3.0216       Y2.6465    
   X3.0305       Y2.6502    
   X3.0139       Y2.6406    
   X3.0216       Y2.6465    
(Pass: 15)
   X3.0080       Y2.6330    
   Z0.0156     F60  
   X3.0139       Y2.6406     F80  
   X3.0044       Y2.6241    
   X3.0080       Y2.6330    
   X3.0031       Y2.6145    
   X3.0044       Y2.6241    
   Y2.6049    
   X3.0031       Y2.6145    
   X3.0080       Y2.5960    
   X3.0044       Y2.6049    
   X3.0139       Y2.5884    
   X3.0080       Y2.5960    
   X3.0216       Y2.5825    
   X3.0139       Y2.5884    
   X3.0305       Y2.5788    
   X3.0216       Y2.5825    
   X3.0442       Y2.5770    
   X3.0305       Y2.5788    
   X3.3903       Y2.5770    
   X3.0442    
   X3.4040       Y2.5788    
   X3.3903       Y2.5770    
   X3.4129       Y2.5825    
   X3.4040       Y2.5788    
   X3.4205       Y2.5884    
   X3.4129       Y2.5825    
   X3.4264       Y2.5960    
   X3.4205       Y2.5884    
   X3.4301       Y2.6049    
   X3.4264       Y2.5960    
   X3.4313       Y2.6145    
   X3.4301       Y2.6049    
   Y2.6241    
   X3.4313       Y2.6145    
   X3.4264       Y2.6330    
   X3.4301       Y2.6241    
   X3.4205       Y2.6406    
   X3.4264       Y2.6330    
   X3.4129       Y2.6465    
   X3.4205       Y2.6406    
   X3.4040       Y2.6502    
   X3.4129       Y2.6465    
   X3.3903       Y2.6520    
   X3.4040       Y2.6502    
   X3.0442       Y2.6520    
   X3.3903    
   X3.0305       Y2.6502    
   X3.0442       Y2.6520    
   X3.0216       Y2.6465    
   X3.0305       Y2.6502    
   X3.0139       Y2.6406    
   X3.0216       Y2.6465    
(Pass: 16)
   X3.0080       Y2.6330    
   Z0.0000     F60  
   X3.0139       Y2.6406     F80  
   X3.0044       Y2.6241    
   X3.0080       Y2.6330    
   X3.0031       Y2.6145    
   X3.0044       Y2.6241    
   Y2.6049    
   X3.0031       Y2.6145    
   X3.0080       Y2.5960    
   X3.0044       Y2.6049    
   X3.0139       Y2.5884    
   X3.0080       Y2.5960    
   X3.0216       Y2.5825    
   X3.0139       Y2.5884    
   X3.0305       Y2.5788    
   X3.0216       Y2.5825    
   X3.0442       Y2.5770    
   X3.0305       Y2.5788    
   X3.3903       Y2.5770    
   X3.0442    
   X3.4040       Y2.5788    
   X3.3903       Y2.5770    
   X3.4129       Y2.5825    
   X3.4040       Y2.5788    
   X3.4205       Y2.5884    
   X3.4129       Y2.5825    
   X3.4264       Y2.5960    
   X3.4205       Y2.5884    
   X3.4301       Y2.6049    
   X3.4264       Y2.5960    
   X3.4313       Y2.6145    
   X3.4301       Y2.6049    
   Y2.6241    
   X3.4313       Y2.6145    
   X3.4264       Y2.6330    
   X3.4301       Y2.6241    
   X3.4205       Y2.6406    
   X3.4264       Y2.6330    
   X3.4129       Y2.6465    
   X3.4205       Y2.6406    
   X3.4040       Y2.6502    
   X3.4129       Y2.6465    
   X3.3903       Y2.6520    
   X3.4040       Y2.6502    
   X3.0442       Y2.6520    
   X3.3903    
   X3.0305       Y2.6502    
   X3.0442       Y2.6520    
   X3.0216       Y2.6465    
   X3.0305       Y2.6502    
   X3.0139       Y2.6406    
   X3.0216       Y2.6465    
G0   Z0.3750    
(Pass: 1)
   X3.5197       Y2.1786    
G1   Z0.2344     F60  
   X3.5271       Y2.1842     F80  
   X3.5141       Y2.1712    
   X3.5197       Y2.1786    
   X3.5106       Y2.1627    
   X3.5141       Y2.1712    
   X3.5094       Y2.1535    
   X3.5106       Y2.1627    
   Y2.1444    
   X3.5094       Y2.1535    
   X3.5141       Y2.1359    
   X3.5106       Y2.1444    
   X3.5197       Y2.1285    
   X3.5141       Y2.1359    
   X3.5271       Y2.1229    
   X3.5197       Y2.1285    
   X3.5356       Y2.1194    
   X3.5271       Y2.1229    
   X3.5448       Y2.1182    
   X3.5356       Y2.1194    
   X3.5539    
   X3.5448       Y2.1182    
   X3.5624       Y2.1229    
   X3.5539       Y2.1194    
   X3.5698       Y2.1285    
   X3.5624       Y2.1229    
   X3.5754       Y2.1359    
   X3.5698       Y2.1285    
   X3.5789       Y2.1444    
   X3.5754       Y2.1359    
   X3.5801       Y2.1535    
   X3.5789       Y2.1444    
   Y2.1627    
   X3.5801       Y2.1535    
   X3.5754       Y2.1712    
   X3.5789       Y2.1627    
   X3.5698       Y2.1786    
   X3.5754       Y2.1712    
   X3.5624       Y2.1842    
   X3.5698       Y2.1786    
   X3.5539       Y2.1877    
   X3.5624       Y2.1842    
   X3.5448       Y2.1889    
   X3.5539       Y2.1877    
   X3.5356    
   X3.5448       Y2.1889    
   X3.5271       Y2.1842    
   X3.5356       Y2.1877    
(Pass: 2)
   X3.5197       Y2.1786    
   Z0.2188     F60  
   X3.5271       Y2.1842     F80  
   X3.5141       Y2.1712    
   X3.5197       Y2.1786    
   X3.5106       Y2.1627    
   X3.5141       Y2.1712    
   X3.5094       Y2.1535    
   X3.5106       Y2.1627    
   Y2.1444    
   X3.5094       Y2.1535    
   X3.5141       Y2.1359    
   X3.5106       Y2.1444    
   X3.5197       Y2.1285    
   X3.5141       Y2.1359    
   X3.5271       Y2.1229    
   X3.5197       Y2.1285    
   X3.5356       Y2.1194    
   X3.5271       Y2.1229    
   X3.5448       Y2.1182    
   X3.5356       Y2.1194    
   X3.5539    
   X3.5448       Y2.1182    
   X3.5624       Y2.1229    
   X3.5539       Y2.1194    
   X3.5698       Y2.1285    
   X3.5624       Y2.1229    
   X3.5754       Y2.1359    
   X3.5698       Y2.1285    
   X3.5789       Y2.1444    
   X3.5754       Y2.1359    
   X3.5801       Y2.1535    
   X3.5789       Y2.1444    
   Y2.1627    
   X3.5801       Y2.1535    
   X3.5754       Y2.1712    
   X3.5789       Y2.1627    
   X3.5698       Y2.1786    
   X3.5754       Y2.1712    
   X3.5624       Y2.1842    
   X3.5698       Y2.1786    
   X3.5539       Y2.1877    
   X3.5624       Y2.1842    
   X3.5448       Y2.1889    
   X3.5539       Y2.1877    
   X3.5356    
   X3.5448       Y2.1889    
   X3.5271       Y2.1842    
   X3.5356       Y2.1877    
(Pass: 3)
   X3.5197       Y2.1786    
   Z0.2031     F60  
   X3.5271       Y2.1842     F80  
   X3.5141       Y2.1712    
   X3.5197       Y2.1786    
   X3.5106       Y2.1627    
   X3.5141       Y2.1712    
   X3.5094       Y2.1535    
   X3.5106       Y2.1627    
   Y2.1444    
   X3.5094       Y2.1535    
   X3.5141       Y2.1359    
   X3.5106       Y2.1444    
   X3.5197       Y2.1285    
   X3.5141       Y2.1359    
   X3.5271       Y2.1229    
   X3.5197       Y2.1285    
   X3.5356       Y2.1194    
   X3.5271       Y2.1229    
   X3.5448       Y2.1182    
   X3.5356       Y2.1194    
   X3.5539    
   X3.5448       Y2.1182    
   X3.5624       Y2.1229    
   X3.5539       Y2.1194    
   X3.5698       Y2.1285    
   X3.5624       Y2.1229    
   X3.5754       Y2.1359    
   X3.5698       Y2.1285    
   X3.5789       Y2.1444    
   X3.5754       Y2.1359    
   X3.5801       Y2.1535    
   X3.5789       Y2.1444    
   Y2.1627    
   X3.5801       Y2.1535    
   X3.5754       Y2.1712    
   X3.5789       Y2.1627    
   X3.5698       Y2.1786    
   X3.5754       Y2.1712    
   X3.5624       Y2.1842    
   X3.5698       Y2.1786    
   X3.5539       Y2.1877    
   X3.5624       Y2.1842    
   X3.5448       Y2.1889    
   X3.5539       Y2.1877    
   X3.5356    
   X3.5448       Y2.1889    
   X3.5271       Y2.1842    
   X3.5356       Y2.1877    
(Pass: 4)
   X3.5197       Y2.1786    
   Z0.1875     F60  
   X3.5271       Y2.1842     F80  
   X3.5141       Y2.1712    
   X3.5197       Y2.1786    
   X3.5106       Y2.1627    
   X3.5141       Y2.1712    
   X3.5094       Y2.1535    
   X3.5106       Y2.1627    
   Y2.1444    
   X3.5094       Y2.1535    
   X3.5141       Y2.1359    
   X3.5106       Y2.1444    
   X3.5197       Y2.1285    
   X3.5141       Y2.1359    
   X3.5271       Y2.1229    
   X3.5197       Y2.1285    
   X3.5356       Y2.1194    
   X3.5271       Y2.1229    
   X3.5448       Y2.1182    
   X3.5356       Y2.1194    
   X3.5539    
   X3.5448       Y2.1182    
   X3.5624       Y2.1229    
   X3.5539       Y2.1194    
   X3.5698       Y2.1285    
   X3.5624       Y2.1229    
   X3.5754       Y2.1359    
   X3.5698       Y2.1285    
   X3.5789       Y2.1444    
   X3.5754       Y2.1359    
   X3.5801       Y2.1535    
   X3.5789       Y2.1444    
   Y2.1627    
   X3.5801       Y2.1535    
   X3.5754       Y2.1712    
   X3.5789       Y2.1627    
   X3.5698       Y2.1786    
   X3.5754       Y2.1712    
   X3.5624       Y2.1842    
   X3.5698       Y2.1786    
   X3.5539       Y2.1877    
   X3.5624       Y2.1842    
   X3.5448       Y2.1889    
   X3.5539       Y2.1877    
   X3.5356    
   X3.5448       Y2.1889    
   X3.5271       Y2.1842    
   X3.5356       Y2.1877    
(Pass: 5)
   X3.5197       Y2.1786    
   Z0.1719     F60  
   X3.5271       Y2.1842     F80  
   X3.5141       Y2.1712    
   X3.5197       Y2.1786    
   X3.5106       Y2.1627    
   X3.5141       Y2.1712    
   X3.5094       Y2.1535    
   X3.5106       Y2.1627    
   Y2.1444    
   X3.5094       Y2.1535    
   X3.5141       Y2.1359    
   X3.5106       Y2.1444    
   X3.5197       Y2.1285    
   X3.5141       Y2.1359    
   X3.5271       Y2.1229    
   X3.5197       Y2.1285    
   X3.5356       Y2.1194    
   X3.5271       Y2.1229    
   X3.5448       Y2.1182    
   X3.5356       Y2.1194    
   X3.5539    
   X3.5448       Y2.1182    
   X3.5624       Y2.1229    
   X3.5539       Y2.1194    
   X3.5698       Y2.1285    
   X3.5624       Y2.1229    
   X3.5754       Y2.1359    
   X3.5698       Y2.1285    
   X3.5789       Y2.1444    
   X3.5754       Y2.1359    
   X3.5801       Y2.1535    
   X3.5789       Y2.1444    
   Y2.1627    
   X3.5801       Y2.1535    
   X3.5754       Y2.1712    
   X3.5789       Y2.1627    
   X3.5698       Y2.1786    
   X3.5754       Y2.1712    
   X3.5624       Y2.1842    
   X3.5698       Y2.1786    
   X3.5539       Y2.1877    
   X3.5624       Y2.1842    
   X3.5448       Y2.1889    
   X3.5539       Y2.1877    
   X3.5356    
   X3.5448       Y2.1889    
   X3.5271       Y2.1842    
   X3.5356       Y2.1877    
(Pass: 6)
   X3.5197       Y2.1786    
   Z0.1562     F60  
   X3.5271       Y2.1842     F80  
   X3.5141       Y2.1712    
   X3.5197       Y2.1786    
   X3.5106       Y2.1627    
   X3.5141       Y2.1712    
   X3.5094       Y2.1535    
   X3.5106       Y2.1627    
   Y2.1444    
   X3.5094       Y2.1535    
   X3.5141       Y2.1359    
   X3.5106       Y2.1444    
   X3.5197       Y2.1285    
   X3.5141       Y2.1359    
   X3.5271       Y2.1229    
   X3.5197       Y2.1285    
   X3.5356       Y2.1194    
   X3.5271       Y2.1229    
   X3.5448       Y2.1182    
   X3.5356       Y2.1194    
   X3.5539    
   X3.5448       Y2.1182    
   X3.5624       Y2.1229    
   X3.5539       Y2.1194    
   X3.5698       Y2.1285    
   X3.5624       Y2.1229    
   X3.5754       Y2.1359    
   X3.5698       Y2.1285    
   X3.5789       Y2.1444    
   X3.5754       Y2.1359    
   X3.5801       Y2.1535    
   X3.5789       Y2.1444    
   Y2.1627    
   X3.5801       Y2.1535    
   X3.5754       Y2.1712    
   X3.5789       Y2.1627    
   X3.5698       Y2.1786    
   X3.5754       Y2.1712    
   X3.5624       Y2.1842    
   X3.5698       Y2.1786    
   X3.5539       Y2.1877    
   X3.5624       Y2.1842    
   X3.5448       Y2.1889    
   X3.5539       Y2.1877    
   X3.5356    
   X3.5448       Y2.1889    
   X3.5271       Y2.1842    
   X3.5356       Y2.1877    
(Pass: 7)
   X3.5197       Y2.1786    
   Z0.1406     F60  
   X3.5271       Y2.1842     F80  
   X3.5141       Y2.1712    
   X3.5197       Y2.1786    
   X3.5106       Y2.1627    
   X3.5141       Y2.1712    
   X3.5094       Y2.1535    
   X3.5106       Y2.1627    
   Y2.1444    
   X3.5094       Y2.1535    
   X3.5141       Y2.1359    
   X3.5106       Y2.1444    
   X3.5197       Y2.1285    
   X3.5141       Y2.1359    
   X3.5271       Y2.1229    
   X3.5197       Y2.1285    
   X3.5356       Y2.1194    
   X3.5271       Y2.1229    
   X3.5448       Y2.1182    
   X3.5356       Y2.1194    
   X3.5539    
   X3.5448       Y2.1182    
   X3.5624       Y2.1229    
   X3.5539       Y2.1194    
   X3.5698       Y2.1285    
   X3.5624       Y2.1229    
   X3.5754       Y2.1359    
   X3.5698       Y2.1285    
   X3.5789       Y2.1444    
   X3.5754       Y2.1359    
   X3.5801       Y2.1535    
   X3.5789       Y2.1444    
   Y2.1627    
   X3.5801       Y2.1535    
   X3.5754       Y2.1712    
   X3.5789       Y2.1627    
   X3.5698       Y2.1786    
   X3.5754       Y2.1712    
   X3.5624       Y2.1842    
   X3.5698       Y2.1786    
   X3.5539       Y2.1877    
   X3.5624       Y2.1842    
   X3.5448       Y2.1889    
   X3.5539       Y2.1877    
   X3.5356    
   X3.5448       Y2.1889    
   X3.5271       Y2.1842    
   X3.5356       Y2.1877    
(Pass: 8)
   X3.5197       Y2.1786    
   Z0.1250     F60  
   X3.5271       Y2.1842     F80  
   X3.5141       Y2.1712    
   X3.5197       Y2.1786    
   X3.5106       Y2.1627    
   X3.5141       Y2.1712    
   X3.5094       Y2.1535    
   X3.5106       Y2.1627    
   Y2.1444    
   X3.5094       Y2.1535    
   X3.5141       Y2.1359    
   X3.5106       Y2.1444    
   X3.5197       Y2.1285    
   X3.5141       Y2.1359    
   X3.5271       Y2.1229    
   X3.5197       Y2.1285    
   X3.5356       Y2.1194    
   X3.5271       Y2.1229    
   X3.5448       Y2.1182    
   X3.5356       Y2.1194    
   X3.5539    
   X3.5448       Y2.1182    
   X3.5624       Y2.1229    
   X3.5539       Y2.1194    
   X3.5698       Y2.1285    
   X3.5624       Y2.1229    
   X3.5754       Y2.1359    
   X3.5698       Y2.1285    
   X3.5789       Y2.1444    
   X3.5754       Y2.1359    
   X3.5801       Y2.1535    
   X3.5789       Y2.1444    
   Y2.1627    
   X3.5801       Y2.1535    
   X3.5754       Y2.1712    
   X3.5789       Y2.1627    
   X3.5698       Y2.1786    
   X3.5754       Y2.1712    
   X3.5624       Y2.1842    
   X3.5698       Y2.1786    
   X3.5539       Y2.1877    
   X3.5624       Y2.1842    
   X3.5448       Y2.1889    
   X3.5539       Y2.1877    
   X3.5356    
   X3.5448       Y2.1889    
   X3.5271       Y2.1842    
   X3.5356       Y2.1877    
(Pass: 9)
   X3.5197       Y2.1786    
   Z0.1094     F60  
   X3.5271       Y2.1842     F80  
   X3.5141       Y2.1712    
   X3.5197       Y2.1786    
   X3.5106       Y2.1627    
   X3.5141       Y2.1712    
   X3.5094       Y2.1535    
   X3.5106       Y2.1627    
   Y2.1444    
   X3.5094       Y2.1535    
   X3.5141       Y2.1359    
   X3.5106       Y2.1444    
   X3.5197       Y2.1285    
   X3.5141       Y2.1359    
   X3.5271       Y2.1229    
   X3.5197       Y2.1285    
   X3.5356       Y2.1194    
   X3.5271       Y2.1229    
   X3.5448       Y2.1182    
   X3.5356       Y2.1194    
   X3.5539    
   X3.5448       Y2.1182    
   X3.5624       Y2.1229    
   X3.5539       Y2.1194    
   X3.5698       Y2.1285    
   X3.5624       Y2.1229    
   X3.5754       Y2.1359    
   X3.5698       Y2.1285    
   X3.5789       Y2.1444    
   X3.5754       Y2.1359    
   X3.5801       Y2.1535    
   X3.5789       Y2.1444    
   Y2.1627    
   X3.5801       Y2.1535    
   X3.5754       Y2.1712    
   X3.5789       Y2.1627    
   X3.5698       Y2.1786    
   X3.5754       Y2.1712    
   X3.5624       Y2.1842    
   X3.5698       Y2.1786    
   X3.5539       Y2.1877    
   X3.5624       Y2.1842    
   X3.5448       Y2.1889    
   X3.5539       Y2.1877    
   X3.5356    
   X3.5448       Y2.1889    
   X3.5271       Y2.1842    
   X3.5356       Y2.1877    
(Pass: 10)
   X3.5197       Y2.1786    
   Z0.0938     F60  
   X3.5271       Y2.1842     F80  
   X3.5141       Y2.1712    
   X3.5197       Y2.1786    
   X3.5106       Y2.1627    
   X3.5141       Y2.1712    
   X3.5094       Y2.1535    
   X3.5106       Y2.1627    
   Y2.1444    
   X3.5094       Y2.1535    
   X3.5141       Y2.1359    
   X3.5106       Y2.1444    
   X3.5197       Y2.1285    
   X3.5141       Y2.1359    
   X3.5271       Y2.1229    
   X3.5197       Y2.1285    
   X3.5356       Y2.1194    
   X3.5271       Y2.1229    
   X3.5448       Y2.1182    
   X3.5356       Y2.1194    
   X3.5539    
   X3.5448       Y2.1182    
   X3.5624       Y2.1229    
   X3.5539       Y2.1194    
   X3.5698       Y2.1285    
   X3.5624       Y2.1229    
   X3.5754       Y2.1359    
   X3.5698       Y2.1285    
   X3.5789       Y2.1444    
   X3.5754       Y2.1359    
   X3.5801       Y2.1535    
   X3.5789       Y2.1444    
   Y2.1627    
   X3.5801       Y2.1535    
   X3.5754       Y2.1712    
   X3.5789       Y2.1627    
   X3.5698       Y2.1786    
   X3.5754       Y2.1712    
   X3.5624       Y2.1842    
   X3.5698       Y2.1786    
   X3.5539       Y2.1877    
   X3.5624       Y2.1842    
   X3.5448       Y2.1889    
   X3.5539       Y2.1877    
   X3.5356    
   X3.5448       Y2.1889    
   X3.5271       Y2.1842    
   X3.5356       Y2.1877    
(Pass: 11)
   X3.5197       Y2.1786    
   Z0.0781     F60  
   X3.5271       Y2.1842     F80  
   X3.5141       Y2.1712    
   X3.5197       Y2.1786    
   X3.5106       Y2.1627    
   X3.5141       Y2.1712    
   X3.5094       Y2.1535    
   X3.5106       Y2.1627    
   Y2.1444    
   X3.5094       Y2.1535    
   X3.5141       Y2.1359    
   X3.5106       Y2.1444    
   X3.5197       Y2.1285    
   X3.5141       Y2.1359    
   X3.5271       Y2.1229    
   X3.5197       Y2.1285    
   X3.5356       Y2.1194    
   X3.5271       Y2.1229    
   X3.5448       Y2.1182    
   X3.5356       Y2.1194    
   X3.5539    
   X3.5448       Y2.1182    
   X3.5624       Y2.1229    
   X3.5539       Y2.1194    
   X3.5698       Y2.1285    
   X3.5624       Y2.1229    
   X3.5754       Y2.1359    
   X3.5698       Y2.1285    
   X3.5789       Y2.1444    
   X3.5754       Y2.1359    
   X3.5801       Y2.1535    
   X3.5789       Y2.1444    
   Y2.1627    
   X3.5801       Y2.1535    
   X3.5754       Y2.1712    
   X3.5789       Y2.1627    
   X3.5698       Y2.1786    
   X3.5754       Y2.1712    
   X3.5624       Y2.1842    
   X3.5698       Y2.1786    
   X3.5539       Y2.1877    
   X3.5624       Y2.1842    
   X3.5448       Y2.1889    
   X3.5539       Y2.1877    
   X3.5356    
   X3.5448       Y2.1889    
   X3.5271       Y2.1842    
   X3.5356       Y2.1877    
(Pass: 12)
   X3.5197       Y2.1786    
   Z0.0625     F60  
   X3.5271       Y2.1842     F80  
   X3.5141       Y2.1712    
   X3.5197       Y2.1786    
   X3.5106       Y2.1627    
   X3.5141       Y2.1712    
   X3.5094       Y2.1535    
   X3.5106       Y2.1627    
   Y2.1444    
   X3.5094       Y2.1535    
   X3.5141       Y2.1359    
   X3.5106       Y2.1444    
   X3.5197       Y2.1285    
   X3.5141       Y2.1359    
   X3.5271       Y2.1229    
   X3.5197       Y2.1285    
   X3.5356       Y2.1194    
   X3.5271       Y2.1229    
   X3.5448       Y2.1182    
   X3.5356       Y2.1194    
   X3.5539    
   X3.5448       Y2.1182    
   X3.5624       Y2.1229    
   X3.5539       Y2.1194    
   X3.5698       Y2.1285    
   X3.5624       Y2.1229    
   X3.5754       Y2.1359    
   X3.5698       Y2.1285    
   X3.5789       Y2.1444    
   X3.5754       Y2.1359    
   X3.5801       Y2.1535    
   X3.5789       Y2.1444    
   Y2.1627    
   X3.5801       Y2.1535    
   X3.5754       Y2.1712    
   X3.5789       Y2.1627    
   X3.5698       Y2.1786    
   X3.5754       Y2.1712    
   X3.5624       Y2.1842    
   X3.5698       Y2.1786    
   X3.5539       Y2.1877    
   X3.5624       Y2.1842    
   X3.5448       Y2.1889    
   X3.5539       Y2.1877    
   X3.5356    
   X3.5448       Y2.1889    
   X3.5271       Y2.1842    
   X3.5356       Y2.1877    
(Pass: 13)
   X3.5197       Y2.1786    
   Z0.0469     F60  
   X3.5271       Y2.1842     F80  
   X3.5141       Y2.1712    
   X3.5197       Y2.1786    
   X3.5106       Y2.1627    
   X3.5141       Y2.1712    
   X3.5094       Y2.1535    
   X3.5106       Y2.1627    
   Y2.1444    
   X3.5094       Y2.1535    
   X3.5141       Y2.1359    
   X3.5106       Y2.1444    
   X3.5197       Y2.1285    
   X3.5141       Y2.1359    
   X3.5271       Y2.1229    
   X3.5197       Y2.1285    
   X3.5356       Y2.1194    
   X3.5271       Y2.1229    
   X3.5448       Y2.1182    
   X3.5356       Y2.1194    
   X3.5539    
   X3.5448       Y2.1182    
   X3.5624       Y2.1229    
   X3.5539       Y2.1194    
   X3.5698       Y2.1285    
   X3.5624       Y2.1229    
   X3.5754       Y2.1359    
   X3.5698       Y2.1285    
   X3.5789       Y2.1444    
   X3.5754       Y2.1359    
   X3.5801       Y2.1535    
   X3.5789       Y2.1444    
   Y2.1627    
   X3.5801       Y2.1535    
   X3.5754       Y2.1712    
   X3.5789       Y2.1627    
   X3.5698       Y2.1786    
   X3.5754       Y2.1712    
   X3.5624       Y2.1842    
   X3.5698       Y2.1786    
   X3.5539       Y2.1877    
   X3.5624       Y2.1842    
   X3.5448       Y2.1889    
   X3.5539       Y2.1877    
   X3.5356    
   X3.5448       Y2.1889    
   X3.5271       Y2.1842    
   X3.5356       Y2.1877    
(Pass: 14)
   X3.5197       Y2.1786    
   Z0.0312     F60  
   X3.5271       Y2.1842     F80  
   X3.5141       Y2.1712    
   X3.5197       Y2.1786    
   X3.5106       Y2.1627    
   X3.5141       Y2.1712    
   X3.5094       Y2.1535    
   X3.5106       Y2.1627    
   Y2.1444    
   X3.5094       Y2.1535    
   X3.5141       Y2.1359    
   X3.5106       Y2.1444    
   X3.5197       Y2.1285    
   X3.5141       Y2.1359    
   X3.5271       Y2.1229    
   X3.5197       Y2.1285    
   X3.5356       Y2.1194    
   X3.5271       Y2.1229    
   X3.5448       Y2.1182    
   X3.5356       Y2.1194    
   X3.5539    
   X3.5448       Y2.1182    
   X3.5624       Y2.1229    
   X3.5539       Y2.1194    
   X3.5698       Y2.1285    
   X3.5624       Y2.1229    
   X3.5754       Y2.1359    
   X3.5698       Y2.1285    
   X3.5789       Y2.1444    
   X3.5754       Y2.1359    
   X3.5801       Y2.1535    
   X3.5789       Y2.1444    
   Y2.1627    
   X3.5801       Y2.1535    
   X3.5754       Y2.1712    
   X3.5789       Y2.1627    
   X3.5698       Y2.1786    
   X3.5754       Y2.1712    
   X3.5624       Y2.1842    
   X3.5698       Y2.1786    
   X3.5539       Y2.1877    
   X3.5624       Y2.1842    
   X3.5448       Y2.1889    
   X3.5539       Y2.1877    
   X3.5356    
   X3.5448       Y2.1889    
   X3.5271       Y2.1842    
   X3.5356       Y2.1877    
(Pass: 15)
   X3.5197       Y2.1786    
   Z0.0156     F60  
   X3.5271       Y2.1842     F80  
   X3.5141       Y2.1712    
   X3.5197       Y2.1786    
   X3.5106       Y2.1627    
   X3.5141       Y2.1712    
   X3.5094       Y2.1535    
   X3.5106       Y2.1627    
   Y2.1444    
   X3.5094       Y2.1535    
   X3.5141       Y2.1359    
   X3.5106       Y2.1444    
   X3.5197       Y2.1285    
   X3.5141       Y2.1359    
   X3.5271       Y2.1229    
   X3.5197       Y2.1285    
   X3.5356       Y2.1194    
   X3.5271       Y2.1229    
   X3.5448       Y2.1182    
   X3.5356       Y2.1194    
   X3.5539    
   X3.5448       Y2.1182    
   X3.5624       Y2.1229    
   X3.5539       Y2.1194    
   X3.5698       Y2.1285    
   X3.5624       Y2.1229    
   X3.5754       Y2.1359    
   X3.5698       Y2.1285    
   X3.5789       Y2.1444    
   X3.5754       Y2.1359    
   X3.5801       Y2.1535    
   X3.5789       Y2.1444    
   Y2.1627    
   X3.5801       Y2.1535    
   X3.5754       Y2.1712    
   X3.5789       Y2.1627    
   X3.5698       Y2.1786    
   X3.5754       Y2.1712    
   X3.5624       Y2.1842    
   X3.5698       Y2.1786    
   X3.5539       Y2.1877    
   X3.5624       Y2.1842    
   X3.5448       Y2.1889    
   X3.5539       Y2.1877    
   X3.5356    
   X3.5448       Y2.1889    
   X3.5271       Y2.1842    
   X3.5356       Y2.1877    
(Pass: 16)
   X3.5197       Y2.1786    
   Z0.0000     F60  
   X3.5271       Y2.1842     F80  
   X3.5141       Y2.1712    
   X3.5197       Y2.1786    
   X3.5106       Y2.1627    
   X3.5141       Y2.1712    
   X3.5094       Y2.1535    
   X3.5106       Y2.1627    
   Y2.1444    
   X3.5094       Y2.1535    
   X3.5141       Y2.1359    
   X3.5106       Y2.1444    
   X3.5197       Y2.1285    
   X3.5141       Y2.1359    
   X3.5271       Y2.1229    
   X3.5197       Y2.1285    
   X3.5356       Y2.1194    
   X3.5271       Y2.1229    
   X3.5448       Y2.1182    
   X3.5356       Y2.1194    
   X3.5539    
   X3.5448       Y2.1182    
   X3.5624       Y2.1229    
   X3.5539       Y2.1194    
   X3.5698       Y2.1285    
   X3.5624       Y2.1229    
   X3.5754       Y2.1359    
   X3.5698       Y2.1285    
   X3.5789       Y2.1444    
   X3.5754       Y2.1359    
   X3.5801       Y2.1535    
   X3.5789       Y2.1444    
   Y2.1627    
   X3.5801       Y2.1535    
   X3.5754       Y2.1712    
   X3.5789       Y2.1627    
   X3.5698       Y2.1786    
   X3.5754       Y2.1712    
   X3.5624       Y2.1842    
   X3.5698       Y2.1786    
   X3.5539       Y2.1877    
   X3.5624       Y2.1842    
   X3.5448       Y2.1889    
   X3.5539       Y2.1877    
   X3.5356    
   X3.5448       Y2.1889    
   X3.5271       Y2.1842    
   X3.5356       Y2.1877    
G0   Z0.3750    
(Pass: 1)
   X4.1573       Y1.3574    
G1   Z0.2344     F60  
   X4.1658       Y1.3610     F80  
   X4.1499       Y1.3518    
   X4.1573       Y1.3574    
   X4.1443       Y1.3445    
   X4.1499       Y1.3518    
   X4.1408       Y1.3359    
   X4.1443       Y1.3445    
   X4.1396       Y1.3268    
   X4.1408       Y1.3359    
   Y1.3176    
   X4.1396       Y1.3268    
   X4.1443       Y1.3091    
   X4.1408       Y1.3176    
   X4.1499       Y1.3018    
   X4.1443       Y1.3091    
   X4.1573       Y1.2961    
   X4.1499       Y1.3018    
   X4.1658       Y1.2926    
   X4.1573       Y1.2961    
   X4.1750       Y1.2914    
   X4.1658       Y1.2926    
   X4.1841    
   X4.1750       Y1.2914    
   X4.1926       Y1.2961    
   X4.1841       Y1.2926    
   X4.2000       Y1.3018    
   X4.1926       Y1.2961    
   X4.2056       Y1.3091    
   X4.2000       Y1.3018    
   X4.2091       Y1.3176    
   X4.2056       Y1.3091    
   X4.2103       Y1.3268    
   X4.2091       Y1.3176    
   Y1.3359    
   X4.2103       Y1.3268    
   X4.2056       Y1.3445    
   X4.2091       Y1.3359    
   X4.2000       Y1.3518    
   X4.2056       Y1.3445    
   X4.1926       Y1.3574    
   X4.2000       Y1.3518    
   X4.1841       Y1.3610    
   X4.1926       Y1.3574    
   X4.1750       Y1.3622    
   X4.1841       Y1.3610    
   X4.1658    
   X4.1750       Y1.3622    
(Pass: 2)
   X4.1573       Y1.3574    
   Z0.2188     F60  
   X4.1658       Y1.3610     F80  
   X4.1499       Y1.3518    
   X4.1573       Y1.3574    
   X4.1443       Y1.3445    
   X4.1499       Y1.3518    
   X4.1408       Y1.3359    
   X4.1443       Y1.3445    
   X4.1396       Y1.3268    
   X4.1408       Y1.3359    
   Y1.3176    
   X4.1396       Y1.3268    
   X4.1443       Y1.3091    
   X4.1408       Y1.3176    
   X4.1499       Y1.3018    
   X4.1443       Y1.3091    
   X4.1573       Y1.2961    
   X4.1499       Y1.3018    
   X4.1658       Y1.2926    
   X4.1573       Y1.2961    
   X4.1750       Y1.2914    
   X4.1658       Y1.2926    
   X4.1841    
   X4.1750       Y1.2914    
   X4.1926       Y1.2961    
   X4.1841       Y1.2926    
   X4.2000       Y1.3018    
   X4.1926       Y1.2961    
   X4.2056       Y1.3091    
   X4.2000       Y1.3018    
   X4.2091       Y1.3176    
   X4.2056       Y1.3091    
   X4.2103       Y1.3268    
   X4.2091       Y1.3176    
   Y1.3359    
   X4.2103       Y1.3268    
   X4.2056       Y1.3445    
   X4.2091       Y1.3359    
   X4.2000       Y1.3518    
   X4.2056       Y1.3445    
   X4.1926       Y1.3574    
   X4.2000       Y1.3518    
   X4.1841       Y1.3610    
   X4.1926       Y1.3574    
   X4.1750       Y1.3622    
   X4.1841       Y1.3610    
   X4.1658    
   X4.1750       Y1.3622    
(Pass: 3)
   X4.1573       Y1.3574    
   Z0.2031     F60  
   X4.1658       Y1.3610     F80  
   X4.1499       Y1.3518    
   X4.1573       Y1.3574    
   X4.1443       Y1.3445    
   X4.1499       Y1.3518    
   X4.1408       Y1.3359    
   X4.1443       Y1.3445    
   X4.1396       Y1.3268    
   X4.1408       Y1.3359    
   Y1.3176    
   X4.1396       Y1.3268    
   X4.1443       Y1.3091    
   X4.1408       Y1.3176    
   X4.1499       Y1.3018    
   X4.1443       Y1.3091    
   X4.1573       Y1.2961    
   X4.1499       Y1.3018    
   X4.1658       Y1.2926    
   X4.1573       Y1.2961    
   X4.1750       Y1.2914    
   X4.1658       Y1.2926    
   X4.1841    
   X4.1750       Y1.2914    
   X4.1926       Y1.2961    
   X4.1841       Y1.2926    
   X4.2000       Y1.3018    
   X4.1926       Y1.2961    
   X4.2056       Y1.3091    
   X4.2000       Y1.3018    
   X4.2091       Y1.3176    
   X4.2056       Y1.3091    
   X4.2103       Y1.3268    
   X4.2091       Y1.3176    
   Y1.3359    
   X4.2103       Y1.3268    
   X4.2056       Y1.3445    
   X4.2091       Y1.3359    
   X4.2000       Y1.3518    
   X4.2056       Y1.3445    
   X4.1926       Y1.3574    
   X4.2000       Y1.3518    
   X4.1841       Y1.3610    
   X4.1926       Y1.3574    
   X4.1750       Y1.3622    
   X4.1841       Y1.3610    
   X4.1658    
   X4.1750       Y1.3622    
(Pass: 4)
   X4.1573       Y1.3574    
   Z0.1875     F60  
   X4.1658       Y1.3610     F80  
   X4.1499       Y1.3518    
   X4.1573       Y1.3574    
   X4.1443       Y1.3445    
   X4.1499       Y1.3518    
   X4.1408       Y1.3359    
   X4.1443       Y1.3445    
   X4.1396       Y1.3268    
   X4.1408       Y1.3359    
   Y1.3176    
   X4.1396       Y1.3268    
   X4.1443       Y1.3091    
   X4.1408       Y1.3176    
   X4.1499       Y1.3018    
   X4.1443       Y1.3091    
   X4.1573       Y1.2961    
   X4.1499       Y1.3018    
   X4.1658       Y1.2926    
   X4.1573       Y1.2961    
   X4.1750       Y1.2914    
   X4.1658       Y1.2926    
   X4.1841    
   X4.1750       Y1.2914    
   X4.1926       Y1.2961    
   X4.1841       Y1.2926    
   X4.2000       Y1.3018    
   X4.1926       Y1.2961    
   X4.2056       Y1.3091    
   X4.2000       Y1.3018    
   X4.2091       Y1.3176    
   X4.2056       Y1.3091    
   X4.2103       Y1.3268    
   X4.2091       Y1.3176    
   Y1.3359    
   X4.2103       Y1.3268    
   X4.2056       Y1.3445    
   X4.2091       Y1.3359    
   X4.2000       Y1.3518    
   X4.2056       Y1.3445    
   X4.1926       Y1.3574    
   X4.2000       Y1.3518    
   X4.1841       Y1.3610    
   X4.1926       Y1.3574    
   X4.1750       Y1.3622    
   X4.1841       Y1.3610    
   X4.1658    
   X4.1750       Y1.3622    
(Pass: 5)
   X4.1573       Y1.3574    
   Z0.1719     F60  
   X4.1658       Y1.3610     F80  
   X4.1499       Y1.3518    
   X4.1573       Y1.3574    
   X4.1443       Y1.3445    
   X4.1499       Y1.3518    
   X4.1408       Y1.3359    
   X4.1443       Y1.3445    
   X4.1396       Y1.3268    
   X4.1408       Y1.3359    
   Y1.3176    
   X4.1396       Y1.3268    
   X4.1443       Y1.3091    
   X4.1408       Y1.3176    
   X4.1499       Y1.3018    
   X4.1443       Y1.3091    
   X4.1573       Y1.2961    
   X4.1499       Y1.3018    
   X4.1658       Y1.2926    
   X4.1573       Y1.2961    
   X4.1750       Y1.2914    
   X4.1658       Y1.2926    
   X4.1841    
   X4.1750       Y1.2914    
   X4.1926       Y1.2961    
   X4.1841       Y1.2926    
   X4.2000       Y1.3018    
   X4.1926       Y1.2961    
   X4.2056       Y1.3091    
   X4.2000       Y1.3018    
   X4.2091       Y1.3176    
   X4.2056       Y1.3091    
   X4.2103       Y1.3268    
   X4.2091       Y1.3176    
   Y1.3359    
   X4.2103       Y1.3268    
   X4.2056       Y1.3445    
   X4.2091       Y1.3359    
   X4.2000       Y1.3518    
   X4.2056       Y1.3445    
   X4.1926       Y1.3574    
   X4.2000       Y1.3518    
   X4.1841       Y1.3610    
   X4.1926       Y1.3574    
   X4.1750       Y1.3622    
   X4.1841       Y1.3610    
   X4.1658    
   X4.1750       Y1.3622    
(Pass: 6)
   X4.1573       Y1.3574    
   Z0.1562     F60  
   X4.1658       Y1.3610     F80  
   X4.1499       Y1.3518    
   X4.1573       Y1.3574    
   X4.1443       Y1.3445    
   X4.1499       Y1.3518    
   X4.1408       Y1.3359    
   X4.1443       Y1.3445    
   X4.1396       Y1.3268    
   X4.1408       Y1.3359    
   Y1.3176    
   X4.1396       Y1.3268    
   X4.1443       Y1.3091    
   X4.1408       Y1.3176    
   X4.1499       Y1.3018    
   X4.1443       Y1.3091    
   X4.1573       Y1.2961    
   X4.1499       Y1.3018    
   X4.1658       Y1.2926    
   X4.1573       Y1.2961    
   X4.1750       Y1.2914    
   X4.1658       Y1.2926    
   X4.1841    
   X4.1750       Y1.2914    
   X4.1926       Y1.2961    
   X4.1841       Y1.2926    
   X4.2000       Y1.3018    
   X4.1926       Y1.2961    
   X4.2056       Y1.3091    
   X4.2000       Y1.3018    
   X4.2091       Y1.3176    
   X4.2056       Y1.3091    
   X4.2103       Y1.3268    
   X4.2091       Y1.3176    
   Y1.3359    
   X4.2103       Y1.3268    
   X4.2056       Y1.3445    
   X4.2091       Y1.3359    
   X4.2000       Y1.3518    
   X4.2056       Y1.3445    
   X4.1926       Y1.3574    
   X4.2000       Y1.3518    
   X4.1841       Y1.3610    
   X4.1926       Y1.3574    
   X4.1750       Y1.3622    
   X4.1841       Y1.3610    
   X4.1658    
   X4.1750       Y1.3622    
(Pass: 7)
   X4.1573       Y1.3574    
   Z0.1406     F60  
   X4.1658       Y1.3610     F80  
   X4.1499       Y1.3518    
   X4.1573       Y1.3574    
   X4.1443       Y1.3445    
   X4.1499       Y1.3518    
   X4.1408       Y1.3359    
   X4.1443       Y1.3445    
   X4.1396       Y1.3268    
   X4.1408       Y1.3359    
   Y1.3176    
   X4.1396       Y1.3268    
   X4.1443       Y1.3091    
   X4.1408       Y1.3176    
   X4.1499       Y1.3018    
   X4.1443       Y1.3091    
   X4.1573       Y1.2961    
   X4.1499       Y1.3018    
   X4.1658       Y1.2926    
   X4.1573       Y1.2961    
   X4.1750       Y1.2914    
   X4.1658       Y1.2926    
   X4.1841    
   X4.1750       Y1.2914    
   X4.1926       Y1.2961    
   X4.1841       Y1.2926    
   X4.2000       Y1.3018    
   X4.1926       Y1.2961    
   X4.2056       Y1.3091    
   X4.2000       Y1.3018    
   X4.2091       Y1.3176    
   X4.2056       Y1.3091    
   X4.2103       Y1.3268    
   X4.2091       Y1.3176    
   Y1.3359    
   X4.2103       Y1.3268    
   X4.2056       Y1.3445    
   X4.2091       Y1.3359    
   X4.2000       Y1.3518    
   X4.2056       Y1.3445    
   X4.1926       Y1.3574    
   X4.2000       Y1.3518    
   X4.1841       Y1.3610    
   X4.1926       Y1.3574    
   X4.1750       Y1.3622    
   X4.1841       Y1.3610    
   X4.1658    
   X4.1750       Y1.3622    
(Pass: 8)
   X4.1573       Y1.3574    
   Z0.1250     F60  
   X4.1658       Y1.3610     F80  
   X4.1499       Y1.3518    
