%
(Generated by SketchUcam {1.2a})
(File: dual-side-one-sheet-20mmRail.skp)
(Bit diameter: 1/8")
(Feed rate: 80"/min)
(Plunge Feed rate: 60"/min)
(Material Thickness: 1/4")
(Material length: 15" X width: 25")
(Overhead Gantry: true)
(Retract feed rate NOT limited to plunge feed rate)
(Optimization is ON)
(Z ZERO IS TABLETOP)
(www.PhlatBoyz.com)
G90 G20 G49 
M3 S15000
G0   Z0.3750    
   X6.7242       Y7.3685    
G1   Z0.0000     F60  
   X6.7166       Y7.3744     F80  
   X6.7107       Y7.3820    
   X6.7070       Y7.3909    
   X6.7057       Y7.4005    
   X6.7070       Y7.4101    
   X6.7107       Y7.4190    
   X6.7166       Y7.4266    
   X6.7242       Y7.4325    
   X6.7331       Y7.4362    
   X6.7468       Y7.4380    
   X7.0929    
   X7.1066       Y7.4362    
   X7.1155       Y7.4325    
   X7.1232       Y7.4266    
   X7.1290       Y7.4190    
   X7.1327       Y7.4101    
   X7.1340       Y7.4005    
   X7.1327       Y7.3909    
   X7.1290       Y7.3820    
   X7.1232       Y7.3744    
   X7.1155       Y7.3685    
   X7.1066       Y7.3648    
   X7.0929       Y7.3630    
   X6.7468    
   X6.7331       Y7.3648    
   X6.7242       Y7.3685    
G0   Z0.3750    
   X7.3499       Y8.0267    
G1   Z0.0000     F60  
   X7.2817       Y8.1156     F80  
   X7.2388       Y8.2191    
   X7.2242       Y8.3301    
   X7.2388       Y8.4412    
   X7.2817       Y8.5447    
   X7.3499       Y8.6335    
   X7.4388       Y8.7017    
   X7.5423       Y8.7446    
   X7.6574       Y8.7597    
   X8.0429    
   X8.1581       Y8.7446    
   X8.2616       Y8.7017    
   X8.3504       Y8.6335    
   X8.4186       Y8.5447    
   X8.4615       Y8.4412    
   X8.4761       Y8.3301    
   X8.4615       Y8.2191    
   X8.4186       Y8.1156    
   X8.3504       Y8.0267    
   X8.2616       Y7.9585    
   X8.1581       Y7.9156    
   X8.0429       Y7.9005    
   X7.6574    
   X7.5423       Y7.9156    
   X7.4388       Y7.9585    
   X7.3499       Y8.0267    
G0   Z0.3750    
   X7.1066       Y9.2248    
G1   Z0.0000     F60  
   X7.0929       Y9.2230     F80  
   X6.7468    
   X6.7331       Y9.2248    
   X6.7242       Y9.2285    
   X6.7166       Y9.2344    
   X6.7107       Y9.2420    
   X6.7070       Y9.2509    
   X6.7057       Y9.2605    
   X6.7070       Y9.2701    
   X6.7107       Y9.2790    
   X6.7166       Y9.2866    
   X6.7242       Y9.2925    
   X6.7331       Y9.2962    
   X6.7468       Y9.2980    
   X7.0929    
   X7.1066       Y9.2962    
   X7.1155       Y9.2925    
   X7.1232       Y9.2866    
   X7.1290       Y9.2790    
   X7.1327       Y9.2701    
   X7.1340       Y9.2605    
   X7.1327       Y9.2509    
   X7.1290       Y9.2420    
   X7.1232       Y9.2344    
   X7.1155       Y9.2285    
   X7.1066       Y9.2248    
G0   Z0.3750    
   X8.5657       Y9.2605    
G1   Z0.0000     F60  
   X8.5670       Y9.2701     F80  
   X8.5707       Y9.2790    
   X8.5766       Y9.2866    
   X8.5842       Y9.2925    
   X8.5931       Y9.2962    
   X8.6068       Y9.2980    
   X8.9529    
   X8.9666       Y9.2962    
   X8.9755       Y9.2925    
   X8.9832       Y9.2866    
   X8.9890       Y9.2790    
   X8.9927       Y9.2701    
   X8.9940       Y9.2605    
   X8.9927       Y9.2509    
   X8.9890       Y9.2420    
   X8.9832       Y9.2344    
   X8.9755       Y9.2285    
   X8.9666       Y9.2248    
   X8.9529       Y9.2230    
   X8.6068    
   X8.5931       Y9.2248    
   X8.5842       Y9.2285    
   X8.5766       Y9.2344    
   X8.5707       Y9.2420    
   X8.5670       Y9.2509    
   X8.5657       Y9.2605    
G0   Z0.3750    
   X8.6068       Y7.4380    
G1   Z0.0000     F60  
   X8.9529     F80  
   X8.9666       Y7.4362    
   X8.9755       Y7.4325    
   X8.9832       Y7.4266    
   X8.9890       Y7.4190    
   X8.9927       Y7.4101    
   X8.9940       Y7.4005    
   X8.9927       Y7.3909    
   X8.9890       Y7.3820    
   X8.9832       Y7.3744    
   X8.9755       Y7.3685    
   X8.9666       Y7.3648    
   X8.9529       Y7.3630    
   X8.6068    
   X8.5931       Y7.3648    
   X8.5842       Y7.3685    
   X8.5766       Y7.3744    
   X8.5707       Y7.3820    
   X8.5670       Y7.3909    
   X8.5657       Y7.4005    
   X8.5670       Y7.4101    
   X8.5707       Y7.4190    
   X8.5766       Y7.4266    
   X8.5842       Y7.4325    
   X8.5931       Y7.4362    
   X8.6068       Y7.4380    
G0   Z0.3750    
G0 X0 Y0 (home)
M05
M30
%
