( Made using CamBam - http://www.cambam.co.uk )
( mermaid 6/19/2015 10:44:59 AM )
( T0 : 0.0 )
G20 G90 G64 G40
G0 Z0.125
( T0 : 0.0 )
T0 M6
( Engrave1 )
G17
M3 S1000
G0 X59.7079 Y21.4099
G1 F10.0 Z0.485
G2 F30.0 X59.233 Y21.5368 I9.4222 J36.2059
G2 X59.0104 Y21.5964 I4.1164 J15.8215
G2 X57.2871 Y22.0644 I95.5712 J355.3443
G2 X57.1257 Y22.1092 I1.8674 J7.043
G2 X56.9695 Y22.1527 I1.812 J6.8001
G2 X56.8182 Y22.1951 I1.7645 J6.5874
G2 X56.6716 Y22.2364 I1.7237 J6.4
G2 X56.5297 Y22.2766 I1.6886 J6.2343
G2 X54.3396 Y22.93 I20.9841 J74.3311
G2 X54.0673 Y23.0167 I3.3968 J11.1439
G2 X52.1749 Y23.6635 I14.8827 J46.6354
G2 X47.979 Y25.4419 I15.423 J42.2267
G1 X47.4676 Y25.6934
G2 X43.9789 Y27.6253 I21.398 J42.7579
G2 X43.6738 Y27.813 I7.0275 J11.7627
G2 X43.3796 Y27.997 I8.124 J13.3175
G2 X41.143 Y29.4895 I28.4347 J45.033
G2 X37.9228 Y31.9169 I37.8806 J53.6013
G2 X36.3663 Y33.1989 I50.366 J62.7404
G2 X36.2701 Y33.2803 I2.6884 J3.2761
G2 X34.8403 Y34.5169 I52.7841 J62.4709
G1 X34.3199 Y34.9791
G2 X34.1983 Y35.0879 I2.886 J3.3468
G2 X34.0788 Y35.1952 I3.0 J3.4626
G2 X33.9613 Y35.3009 I3.128 J3.5937
G2 X33.8457 Y35.4052 I3.2729 J3.7432
G2 X33.7321 Y35.508 I3.439 J3.9157
G2 X33.6204 Y35.6092 I3.6322 J4.1176
G2 X33.5106 Y35.7091 I3.8614 J4.3586
G2 X33.4026 Y35.8075 I4.1391 J4.6522
G2 X33.1902 Y36.0015 I6.6273 J7.4653
G2 X32.3711 Y36.7571 I66.9099 J73.3608
G2 X31.6581 Y37.4225 I71.6384 J77.4718
G1 X31.3471 Y37.7147
G1 X30.1846 Y38.8138
G1 X29.3148 Y39.6405
G1 X28.0101 Y40.8803
G1 X27.8468 Y41.0351
G1 X27.2744 Y41.576
G1 X27.1311 Y41.711
G1 X26.7008 Y42.1153
G1 X26.5547 Y42.252
G1 X25.9867 Y42.7792
G3 X25.8617 Y42.8937 I-4.6031 J-4.899
G3 X25.7402 Y43.0044 I-3.0261 J-3.2013
G3 X25.6222 Y43.1111 I-2.4158 J-2.552
G3 X25.5075 Y43.2142 I-2.068 J-2.1868
G3 X24.6033 Y43.9954 I-22.4224 J-25.0372
G3 X23.1753 Y45.0793 I-12.2513 J-14.6579
G3 X22.4194 Y45.5618 I-7.2355 J-10.5026
G3 X22.3226 Y45.6186 I-1.2295 J-1.9834
G3 X21.6316 Y45.9907 I-6.1393 J-10.5729
G3 X19.022 Y46.8841 I-4.6399 J-9.2947
G3 X16.2669 Y47.0183 I-1.8318 J-9.2635
G1 X16.0631 Y46.9962
G1 X15.6815 Y46.9476
G1 X15.3471 Y46.9029
G2 X15.3104 Y46.8981 I-0.0716 J0.4081
G2 X14.7313 Y46.8361 I-1.7161 J13.3014
G2 X14.2933 Y46.8198 I-0.3924 J4.6542
G2 X13.6389 Y46.8886 I-0.0034 J3.1149
G2 X13.0256 Y47.1267 I0.4389 J2.0398
G2 X12.4795 Y47.5807 I1.1293 J1.9136
G2 X12.1067 Y48.1853 I1.4649 J1.3205
G2 X12.0053 Y48.9415 I1.6572 J0.6072
G2 X12.1057 Y49.5005 I2.7657 J-0.2083
G2 X12.2376 Y49.9048 I4.3007 J-1.1789
G2 X12.2948 Y50.0536 I2.0654 J-0.7099
G1 X12.3475 Y50.1828
G1 X12.4439 Y50.407
G1 X12.5946 Y50.7408
G1 X12.6709 Y50.9073
G3 X12.69 Y50.9489 I-0.4339 J0.2237
G3 X12.7042 Y50.9802 I-0.3495 J0.1784
G3 X12.7255 Y51.027 I-0.397 J0.209
G3 X12.7468 Y51.0739 I-0.3686 J0.1952
G3 X12.9904 Y51.6289 I-22.4352 J10.1793
G1 X13.403 Y52.6068
G1 X13.4811 Y52.7901
G1 X13.6302 Y53.1325
G2 X14.2093 Y54.3046 I12.2592 J-5.3276
G1 X14.2912 Y54.4463
G2 X14.9479 Y55.3833 I5.766 J-3.3426
G2 X15.7529 Y56.1849 I5.1316 J-4.3479
G2 X17.1586 Y57.143 I5.603 J-6.7107
G1 X17.3461 Y57.2439
G2 X18.7098 Y57.8415 I4.9114 J-9.353
G2 X20.0673 Y58.2396 I3.939 J-10.92
G2 X20.5864 Y58.3486 I2.6858 J-11.5003
G2 X21.0438 Y58.4272 I3.4288 J-18.576
G2 X22.659 Y58.5914 I2.3878 J-15.459
G2 X22.7604 Y58.5965 I0.1638 J-2.2501
G2 X22.8555 Y58.6008 I0.144 J-2.1458
G2 X24.2823 Y58.6118 I0.893 J-23.271
G2 X26.3206 Y58.4842 I-0.6591 J-26.8861
G2 X26.5746 Y58.4581 I-2.0871 J-21.5319
G1 X27.0186 Y58.4076
G2 X27.3511 Y58.3658 I-1.4558 J-12.9479
G2 X28.3462 Y58.2231 I-4.2343 J-33.0519
G1 X28.7805 Y58.1526
G2 X29.1597 Y58.0846 I-13.7631 J-77.8641
G2 X29.8194 Y57.9441 I-2.0147 J-11.0805
G2 X30.7893 Y57.6553 I-1.9437 J-8.3019
G2 X31.706 Y57.2267 I-1.8805 J-5.2159
G2 X31.7695 Y57.1884 I-0.4237 J-0.7758
G2 X32.2441 Y56.8654 I-3.3999 J-5.505
G1 X32.3303 Y56.8011
G1 X32.6501 Y56.5547
G3 X33.1299 Y56.1856 I12.182 J15.3383
G3 X33.6273 Y55.8404 I4.6084 J6.1104
G3 X33.8197 Y55.7296 I1.2829 J2.0037
G3 X34.0327 Y55.6672 I0.2688 J0.5231
G3 X34.2253 Y55.7022 I0.0208 J0.4323
G3 X34.4722 Y55.8559 I-0.4052 J0.9265
G3 X34.528 Y55.9025 I-0.3921 J0.525
G1 X34.5689 Y55.9387
G3 X34.6885 Y56.0504 I-1.8532 J2.1043
G1 X34.9253 Y56.2804
G3 X35.6082 Y56.9979 I-11.9972 J12.1031
G1 X35.6805 Y57.0787
G1 X35.9514 Y57.3819
G1 X36.0027 Y57.4382
G2 X36.4035 Y57.8465 I4.8113 J-4.3211
G2 X36.849 Y58.2053 I2.6086 J-2.7838
G2 X37.5494 Y58.5648 I1.9577 J-2.952
G2 X38.303 Y58.793 I1.9978 J-5.2379
G2 X39.5111 Y58.9901 I2.1761 J-9.5407
G1 X39.816 Y59.0179
G2 X40.7327 Y59.0694 I1.7017 J-22.0853
G1 X41.2177 Y59.0848
G1 X41.6422 Y59.0922
G2 X41.8279 Y59.0935 I0.1417 J-7.2323
G2 X42.0021 Y59.0934 I0.0863 J-5.5086
G2 X42.1653 Y59.0923 I0.0491 J-4.6783
G2 X43.3887 Y59.0442 I-0.1026 J-18.1845
G2 X43.5414 Y59.0326 I-0.2635 J-4.4864
G2 X44.6057 Y58.9106 I-1.0943 J-14.2506
G2 X48.1091 Y57.8853 I-1.9932 J-13.3082
G1 X48.3119 Y57.7918
G2 X49.7797 Y56.9865 I-5.8843 J-12.4653
G2 X49.8682 Y56.9306 I-1.3068 J-2.1636
G2 X49.9507 Y56.8775 I-1.2069 J-1.9704
G2 X51.1477 Y56.0213 I-8.8301 J-13.6078
G2 X51.2155 Y55.9677 I-0.7833 J-1.0613
G3 X51.7268 Y55.5693 I10.5595 J13.0231
G3 X51.8587 Y55.475 I1.3359 J1.73
G3 X51.9595 Y55.4069 I1.7095 J2.4236
G1 X52.0363 Y55.3577
G3 X52.1535 Y55.2871 I1.0422 J1.5979
G1 X52.2734 Y55.2209
G3 X52.6835 Y55.0472 I1.2073 J2.2793
G3 X53.1242 Y54.9835 I0.4099 J1.2794
G3 X53.3412 Y55.0142 I-0.0596 J1.2034
G3 X53.6538 Y55.1141 I-0.5533 J2.2701
G1 X53.8061 Y55.1752
G1 X53.882 Y55.2063
G2 X53.92 Y55.2218 I0.2416 J-0.539
G2 X53.958 Y55.2371 I0.1778 J-0.3873
G2 X55.1281 Y55.5894 I2.6822 J-6.7894
G2 X56.3373 Y55.7657 I1.9838 J-9.3696
G2 X57.8791 Y55.8077 I1.1491 J-13.8481
G1 X58.0718 Y55.8011
G2 X59.4171 Y55.692 I-0.6734 J-16.651
G1 X59.7416 Y55.6504
G2 X60.3069 Y55.5589 I-2.2363 J-15.6153
G2 X61.142 Y55.3571 I-1.5419 J-8.2099
G2 X61.5485 Y55.2174 I-1.5404 J-5.1416
G2 X61.9428 Y55.046 I-1.7767 J-4.6281
G2 X62.4186 Y54.7844 I-2.5334 J-5.17
G2 X62.875 Y54.4903 I-6.0703 J-9.9211
G2 X63.8273 Y53.7846 I-6.1474 J-9.2904
G2 X64.2161 Y53.4395 I-5.2197 J-6.2739
G1 X64.4055 Y53.2614
G1 X64.5934 Y53.0818
G1 X65.6921 Y51.8991
G1 X66.5442 Y53.6128
G2 X66.6322 Y53.7448 I2.766 J-1.7477
G2 X66.6735 Y53.8066 I1.2083 J-0.7626
G2 X66.7136 Y53.8665 I1.0184 J-0.6393
G1 X66.8703 Y54.0975
G1 X67.0101 Y54.2979
G2 X67.2639 Y54.642 I8.1911 J-5.7751
G2 X67.6772 Y55.1327 I5.5552 J-4.2598
G1 X67.7885 Y55.2485
G2 X68.1443 Y55.5726 I2.8172 J-2.736
G2 X68.6727 Y55.9407 I2.7469 J-3.3795
G2 X69.5423 Y56.3584 I2.9731 J-5.0759
G2 X70.4642 Y56.6427 I2.6919 J-7.0915
G2 X70.5521 Y56.6636 I0.3619 J-1.3295
G2 X71.2399 Y56.7922 I1.94 J-8.4682
G2 X72.2871 Y56.8594 I0.9493 J-6.6041
G2 X73.33 Y56.743 I-0.0856 J-5.4986
G1 X73.5407 Y56.6942
G1 X73.7245 Y56.6484
G3 X73.8051 Y56.6285 I0.4137 J1.4992
G3 X73.8808 Y56.6103 I0.3189 J1.1575
G3 X74.1666 Y56.5505 I1.1127 J4.6072
G3 X74.603 Y56.5108 I0.4272 J2.277
G3 X75.0375 Y56.567 I-0.0163 J1.8326
G3 X75.3109 Y56.6674 I-0.3671 J1.4216
G1 X75.3751 Y56.7031
G3 X75.5364 Y56.8518 I-0.2484 J0.4313
G3 X75.5804 Y56.9813 I-0.2632 J0.1616
G3 X75.5502 Y57.2123 I-0.5821 J0.0415
G3 X75.4867 Y57.3742 I-1.2564 J-0.3992
G3 X75.3682 Y57.6063 I-2.7624 J-1.2649
G1 X75.2429 Y57.8349
G2 X74.8885 Y58.6537 I4.5549 J2.4575
G2 X74.6514 Y59.9675 I4.4733 J1.4852
G2 X74.6606 Y60.6356 I6.0829 J0.2506
G2 X74.6731 Y60.8022 I2.7155 J-0.1199
G2 X74.7286 Y61.3003 I8.2962 J-0.6728
G2 X74.7911 Y61.7147 I14.0568 J-1.9056
G2 X74.8575 Y62.0754 I8.8314 J-1.4409
G2 X75.1944 Y63.3136 I8.5898 J-1.6723
G2 X75.7375 Y64.4763 I5.8916 J-2.0438
G2 X76.2202 Y65.1551 I4.9263 J-2.9921
G2 X76.6389 Y65.6183 I5.4625 J-4.5174
G2 X76.9782 Y65.941 I5.9536 J-5.9186
G1 X77.1102 Y66.0569
G2 X78.09 Y66.7977 I6.5235 J-7.6102
G2 X78.1596 Y66.8441 I0.7404 J-1.0347
G2 X78.225 Y66.8873 I0.5708 J-0.7924
G3 X78.7108 Y67.2177 I-6.5029 J10.0849
G3 X78.7404 Y67.2396 I-0.2034 J0.3059
G3 X79.1545 Y67.6029 I-1.8417 J2.5167
G3 X79.522 Y68.1089 I-1.9863 J1.8292
G3 X79.7824 Y68.6775 I-3.1769 J1.7988
G3 X80.0046 Y69.4936 I-5.2514 J1.8679
G1 X80.0448 Y69.7012
G1 X80.0995 Y70.0136
G1 X80.1257 Y70.1701
G2 X80.1521 Y70.3265 I4.5918 J-0.6923
G2 X80.477 Y71.9604 I27.4757 J-4.614
G1 X80.5314 Y72.19
G2 X80.7385 Y72.9898 I29.4935 J-7.2086
G2 X80.7938 Y73.1889 I4.4964 J-1.1413
G2 X80.836 Y73.3379 I3.2904 J-0.8523
G1 X80.9665 Y73.7839
G2 X80.9973 Y73.8862 I2.0751 J-0.5676
G2 X81.0264 Y73.9821 I2.3652 J-0.6654
G2 X81.1383 Y74.3406 I18.6184 J-5.6155
G2 X81.5148 Y75.4023 I16.0893 J-5.1085
G1 X81.561 Y75.517
G1 X81.6493 Y75.7313
G1 X81.6881 Y75.825
G3 X81.9626 Y76.5344 I-9.7695 J4.1876
G3 X82.0204 Y76.7158 I-9.5465 J3.1416
G3 X82.1442 Y77.2732 I-3.6675 J1.1069
G3 X82.1627 Y77.9959 I-3.2587 J0.4451
G3 X82.1189 Y78.3551 I-3.4992 J-0.2442
G3 X82.1031 Y78.4442 I-1.2253 J-0.1717
G3 X82.09 Y78.5108 I-0.8421 J-0.131
G3 X82.0446 Y78.7093 I-3.9083 J-0.7893
G1 X82.0067 Y78.8502
G3 X81.9874 Y78.9159 I-0.7031 J-0.1706
G3 X81.8111 Y79.4154 I-5.4672 J-1.6486
G3 X81.4857 Y80.14 I-12.0182 J-4.9625
G1 X81.1369 Y80.8535
G2 X80.0901 Y83.5636 I16.7967 J8.0448
G2 X79.7334 Y84.9729 I16.3009 J4.8763
G2 X79.5994 Y85.6877 I16.9344 J3.5433
G1 X79.5707 Y85.8672
G1 X79.5312 Y86.137
G1 X79.4961 Y86.4073
G2 X79.4287 Y87.0715 I17.4021 J2.1011
G2 X79.4177 Y89.4061 I14.5973 J1.2361
G2 X79.8093 Y91.7078 I12.1016 J-0.8746
G2 X80.2417 Y92.9942 I11.894 J-3.283
G1 X80.3371 Y93.23
G1 X80.4299 Y93.4496
G1 X80.5197 Y93.6543
G2 X81.2608 Y95.1578 I22.5421 J-10.1765
G1 X81.3596 Y95.3426
G1 X81.4467 Y95.504
G1 X81.6007 Y95.7855
G1 X81.834 Y96.2064
G1 X82.0688 Y96.6265
G1 X83.7117 Y99.0093
G1 X82.6091 Y103.0052
G2 X82.5638 Y103.2603 I18.4315 J3.4014
G2 X82.5201 Y103.5074 I10.5277 J1.9918
G1 X82.3525 Y104.4654
G2 X82.3345 Y104.5702 I3.4866 J0.6531
G2 X82.3169 Y104.6735 I3.3548 J0.6269
G2 X82.2996 Y104.7751 I3.2367 J0.6031
G2 X82.2826 Y104.8752 I3.13 J0.5814
G2 X82.266 Y104.9737 I3.0333 J0.5614
G2 X82.2498 Y105.0707 I2.945 J0.543
G2 X82.2339 Y105.1662 I2.8641 J0.5258
G2 X82.2183 Y105.2602 I2.7896 J0.5098
G2 X82.2031 Y105.3528 I2.7207 J0.4949
G2 X82.1882 Y105.4439 I2.6568 J0.4808
G2 X82.1737 Y105.5336 I2.5975 J0.4676
G2 X82.1594 Y105.622 I2.5421 J0.455
G2 X81.779 Y108.4138 I52.2425 J8.541
G2 X81.7698 Y108.5015 I2.2511 J0.2794
G2 X81.6047 Y111.2261 I30.0447 J3.1884
G2 X81.6643 Y113.3166 I26.0186 J0.3039
G1 X81.6936 Y113.7076
G1 X81.7261 Y114.0739
G2 X82.1128 Y116.803 I31.216 J-3.0309
G1 X82.1777 Y117.1414
G1 X82.2374 Y117.437
G1 X82.2917 Y117.6953
G1 X82.3409 Y117.9209
G2 X82.5243 Y118.7078 I29.9207 J-6.5582
G1 X82.6224 Y119.0997
G1 X82.7247 Y119.4905
G1 X82.8498 Y119.9465
G1 X82.9726 Y120.3726
G2 X83.2189 Y121.1666 I30.6282 J-9.0659
G2 X83.7087 Y122.5368 I22.4384 J-7.2485
G2 X84.1337 Y123.5424 I18.201 J-7.0997
G2 X84.1763 Y123.6355 I1.6316 J-0.6918
G2 X84.5247 Y124.3483 I14.6044 J-6.6949
G2 X84.559 Y124.4143 I1.5002 J-0.7379
G2 X85.7757 Y126.3707 I13.0396 J-6.753
G2 X87.3335 Y128.117 I10.2048 J-7.5357
G2 X89.2032 Y129.5242 I7.5487 J-8.0836
G2 X91.1604 Y130.4263 I5.043 J-8.3672
G2 X92.2065 Y130.696 I2.5549 J-7.7442
G2 X93.2805 Y130.8132 I1.3173 J-7.0956
G2 X94.2347 Y130.7718 I0.1878 J-6.6979
G2 X95.6321 Y130.4644 I-0.8129 J-7.0251
G2 X96.9482 Y129.9028 I-2.5591 J-7.8194
G2 X97.1834 Y129.7709 I-1.643 J-3.2064
G2 X97.5126 Y129.5349 I-1.0918 J-1.8704
G2 X97.7675 Y129.2199 I-0.7663 J-0.8806
G2 X97.8839 Y128.8518 I-1.0362 J-0.5303
G2 X97.8923 Y128.4658 I-1.5441 J-0.2267
G2 X97.8234 Y128.1169 I-1.7634 J0.1672
G2 X97.631 Y127.6206 I-3.3727 J1.0219
G1 X97.5178 Y127.3797
G1 X97.4059 Y127.1382
G1 X97.3268 Y126.9518
G3 X97.2941 Y126.8694 I0.8894 J-0.4016
G3 X97.1801 Y126.5573 I5.4345 J-2.1612
G3 X97.1406 Y126.4391 I2.2069 J-0.8041
G3 X97.0128 Y126.0222 I8.9781 J-2.9793
G1 X96.8959 Y125.6022
G3 X96.6093 Y124.5028 I43.907 J-12.0322
G1 X96.4732 Y123.9513
G1 X96.341 Y123.3989
G1 X96.2038 Y122.804
G3 X96.1544 Y122.5805 I7.4736 J-1.772
G3 X96.1122 Y122.3846 I5.4675 J-1.2789
G3 X95.8615 Y121.0053 I22.2398 J-4.7553
G3 X95.6835 Y118.78 I17.3037 J-2.5036
G3 X95.7231 Y117.1066 I20.8499 J-0.3437
G3 X96.0215 Y114.6146 I23.1799 J1.5122
G3 X96.5627 Y112.1639 I26.8163 J4.6361
G3 X97.3956 Y109.5088 I32.7024 J8.8007
G3 X97.4398 Y109.386 I3.9286 J1.3442
G3 X98.1858 Y107.4724 I38.549 J13.926
G1 X98.3352 Y107.1175
G1 X98.4776 Y106.7858
G1 X98.7505 Y106.1664
G3 X99.7548 Y104.0208 I67.8031 J30.4311
G3 X100.8106 Y101.9001 I119.8341 J58.3362
G3 X102.465 Y98.6791 I346.1441 J175.7574
G3 X102.6214 Y98.3778 I13.2772 J6.6991
G1 X103.8353 Y96.0437
G1 X104.7435 Y94.2919
G1 X105.4202 Y92.9757
G2 X105.9238 Y91.9866 I-128.8079 J-66.206
G1 X106.1116 Y91.6151
G1 X106.2754 Y91.2898
G2 X107.4057 Y89.0048 I-157.5308 J-79.3464
G1 X107.5473 Y88.7126
G1 X107.8196 Y88.1455
G1 X108.0721 Y87.6124
G2 X108.3056 Y87.1111 I-209.74 J-98.0234
G2 X108.4139 Y86.8756 I-9.316 J-4.4262
G2 X108.518 Y86.647 I-7.2473 J-3.4402
G2 X108.6181 Y86.4253 I-6.1491 J-2.9092
G2 X108.998 Y85.5623 I-78.0433 J-34.8661
G2 X109.0387 Y85.4675 I-2.8653 J-1.2867
G2 X109.0786 Y85.3741 I-2.7921 J-1.2481
G2 X109.1177 Y85.2821 I-2.7253 J-1.2125
G2 X109.156 Y85.1915 I-2.6639 J-1.1796
G2 X109.1935 Y85.1022 I-2.6073 J-1.149
G2 X109.2303 Y85.0142 I-2.555 J-1.1204
G2 X110.2881 Y82.2045 I-36.2971 J-15.2693
G2 X110.7259 Y80.7681 I-26.2487 J-8.7838
G2 X111.0865 Y79.3105 I-23.3232 J-6.5445
G1 X111.1761 Y78.8791
G1 X111.2533 Y78.4733
G2 X111.6502 Y75.4021 I-31.3306 J-5.6106
G1 X111.6803 Y75.0161
G2 X111.7585 Y73.6633 I-41.1824 J-3.0577
G2 X111.7656 Y73.4941 I-7.4937 J-0.3974
G2 X111.7713 Y73.346 I-5.855 J-0.3007
G2 X111.776 Y73.2164 I-4.8556 J-0.2402
G2 X111.7798 Y73.1029 I-4.1606 J-0.1978
G2 X111.786 Y72.9045 I-4.9888 J-0.2546
G1 X111.8006 Y72.309
G2 X111.8025 Y72.2086 I-2.65 J-0.1008
G2 X111.8042 Y72.1098 I-2.6799 J-0.0967
G2 X111.8058 Y72.0125 I-2.7097 J-0.0927
G2 X111.8073 Y71.9167 I-2.7395 J-0.0887
G2 X111.8146 Y71.1628 I-39.0914 J-0.7564
G1 X111.8163 Y70.503
G1 X111.8085 Y68.1938
G3 X111.8228 Y65.8846 I91.4249 J-0.586
G1 X111.8299 Y65.5581
G1 X111.8638 Y64.3344
G2 X111.9007 Y62.4983 I-73.8937 J-2.4036
G2 X111.8578 Y60.6623 I-28.6802 J-0.2482
G2 X111.6078 Y58.3457 I-24.4121 J1.463
G2 X111.1554 Y56.0601 I-29.6218 J4.6749
G2 X110.4842 Y53.6726 I-30.2814 J7.2257
G2 X109.6051 Y51.3535 I-25.0974 J8.1874
G2 X109.5461 Y51.2191 I-2.3652 J0.9588
G2 X109.4881 Y51.0892 I-2.6209 J1.0914
G2 X109.4313 Y50.9637 I-2.9848 J1.2753
G2 X109.3757 Y50.8423 I-3.565 J1.5617
G2 X108.9266 Y49.9106 I-34.8605 J16.2281
G1 X108.8394 Y49.7374
G2 X108.506 Y49.0913 I-33.0948 J16.6664
G1 X108.2508 Y48.6093
G1 X108.0576 Y48.2488
G1 X107.7662 Y47.7089
G1 X107.4747 Y47.1692
G1 X107.1555 Y46.5756
G1 X106.8748 Y46.0568
G1 X106.6259 Y45.6045
G2 X106.4043 Y45.2109 I-13.9502 J7.5971
G1 X106.2063 Y44.8687
G2 X105.4715 Y43.6964 I-19.0385 J11.1175
G2 X105.0711 Y43.1319 I-11.3477 J7.6232
G2 X104.6425 Y42.5887 I-10.9183 J8.1741
G1 X104.5111 Y42.4344
G2 X104.4486 Y42.3627 I-0.9173 J0.7361
G1 X104.2035 Y42.088
G1 X104.0953 Y41.9686
G1 X104.0445 Y41.9126
G1 X103.9953 Y41.8584
G3 X103.2558 Y40.9986 I11.5637 J-10.6945
G3 X102.6214 Y40.0586 I5.8061 J-4.6027
G3 X102.4624 Y39.7487 I2.5159 J-1.4866
G3 X102.4004 Y39.5851 I1.0476 J-0.4905
G3 X102.3689 Y39.413 I0.6382 J-0.2055
G3 X102.5292 Y39.1301 I0.3063 J-0.0133
G3 X102.7759 Y39.039 I0.3863 J0.6661
G3 X103.23 Y38.9946 I0.4629 J2.394
G3 X103.5719 Y38.9993 I0.106 J4.7669
G1 X103.8279 Y39.0127
G1 X104.2114 Y39.0408
G2 X104.5948 Y39.0712 I1.7647 J-19.8162
G2 X105.8949 Y39.135 I1.8591 J-24.6062
G1 X106.1389 Y39.1386
G2 X107.968 Y39.0803 I0.1694 J-23.3734
G1 X108.4244 Y39.048
G1 X108.7665 Y39.0226
G1 X109.28 Y38.9864
G1 X109.3442 Y38.9823
G1 X109.569 Y38.9688
G1 X109.7938 Y38.9571
G1 X110.0877 Y38.9449
G3 X112.2939 Y38.9392 I1.2009 J37.6876
G1 X112.8452 Y38.9556
G1 X113.2586 Y38.9716
G1 X113.8785 Y39.0008
G1 X114.498 Y39.0359
G1 X114.9105 Y39.0625
G3 X115.2714 Y39.0883 I-1.1676 J18.7962
G3 X115.3503 Y39.0944 I-0.0226 J0.8118
G3 X115.9613 Y39.1472 I-1.5869 J21.9299
G1 X116.1901 Y39.17
G1 X116.5901 Y39.2147
G3 X117.7842 Y39.3925 I-2.1996 J18.8799
G1 X118.1562 Y39.4639
G3 X119.4463 Y39.7689 I-3.8894 J19.3297
G1 X119.6062 Y39.8123
G1 X119.8854 Y39.8907
G1 X120.0943 Y39.9514
G1 X120.4067 Y40.0453
G1 X120.7181 Y40.1424
G3 X123.9785 Y41.3562 I-10.9021 J34.2711
G3 X128.6083 Y43.7586 I-13.9064 J32.4626
G3 X132.8326 Y46.8184 I-18.3253 J29.7448
G3 X135.5218 Y49.3512 I-23.4716 J27.6157
G1 X135.7605 Y49.6021
G3 X137.5343 Y51.6159 I-29.1946 J27.5043
G3 X139.954 Y54.8316 I-36.2951 J29.8288
G3 X140.5164 Y55.666 I-31.6928 J21.9693
G1 X140.7232 Y55.9817
G1 X140.9023 Y56.2591
G3 X141.516 Y57.2384 I-53.0995 J33.9577
G3 X141.6662 Y57.4852 I-10.9661 J6.8478
G3 X141.7782 Y57.6708 I-8.1662 J5.0513
G3 X141.8617 Y57.8102 I-6.4588 J3.9613
G3 X141.9862 Y58.0198 I-7.218 J4.4292
G3 X142.1098 Y58.2299 I-6.6072 J4.0296
G3 X144.1613 Y62.0444 I-49.8449 J29.2668
G3 X145.5098 Y65.0003 I-50.5735 J24.8572
G3 X147.2021 Y69.5697 I-49.3909 J20.8905
G3 X148.4671 Y74.2752 I-48.4482 J15.5469
G3 X148.8411 Y76.1738 I-41.7194 J9.2038
G3 X149.2287 Y79.0503 I-34.9968 J6.1804
G3 X149.3532 Y81.9501 I-27.8302 J2.6478
G3 X149.251 Y84.0465 I-27.3525 J-0.2829
G3 X149.0751 Y85.6107 I-33.8904 J-3.0188
G3 X148.6733 Y87.9368 I-33.7319 J-4.6293
G3 X148.4181 Y89.0893 I-41.3857 J-8.5581
G3 X148.2785 Y89.6628 I-22.2087 J-5.1038
G3 X148.2059 Y89.9488 I-9.088 J-2.156
G3 X148.1688 Y90.0917 I-5.506 J-1.3504
G3 X148.1314 Y90.2344 I-5.0411 J-1.2469
G3 X146.7068 Y94.7026 I-44.7621 J-11.8101
G3 X146.6549 Y94.8397 I-5.0269 J-1.8237
G3 X144.821 Y98.9964 I-40.8138 J-15.5239
G3 X144.4918 Y99.6333 I-51.8635 J-26.4047
G1 X144.3446 Y99.9102
G1 X144.0637 Y100.4268
G1 X143.813 Y100.8762
G3 X142.9046 Y102.431 I-53.2923 J-30.0923
G3 X141.9586 Y103.9633 I-77.9155 J-47.0451
G3 X141.737 Y104.3133 I-16.6762 J-10.3105
G3 X141.5281 Y104.6407 I-14.1298 J-8.7877
G3 X141.3311 Y104.9468 I-12.5318 J-7.8469
G3 X139.8139 Y107.2169 I-65.7901 J-42.3295
G3 X139.6187 Y107.4969 I-10.6752 J-7.2323
G3 X138.2128 Y109.4285 I-49.0565 J-34.2286
G3 X136.6056 Y111.4602 I-52.0913 J-39.5561
G1 X136.1919 Y111.9584
G1 X135.8788 Y112.3297
G1 X135.405 Y112.8833
G1 X134.9265 Y113.4328
G3 X133.5179 Y115.0099 I-90.4212 J-79.3459
G3 X133.2517 Y115.3038 I-20.056 J-17.8936
G3 X133.002 Y115.5792 I-16.0086 J-14.2699
G3 X132.7678 Y115.8372 I-13.4802 J-12.0004
G2 X132.5482 Y116.0791 I11.5409 J10.6945
G2 X132.3424 Y116.3061 I10.316 J9.5612
G2 X132.1497 Y116.5189 I9.3991 J8.7048
G2 X131.9691 Y116.7187 I8.6922 J8.0378
G2 X131.8001 Y116.9061 I8.1347 J7.5061
G2 X131.6419 Y117.082 I7.688 J7.0752
G2 X130.4653 Y118.4102 I73.3852 J66.1921
G2 X130.3199 Y118.5777 I8.5474 J7.5655
G2 X130.0666 Y118.8718 I12.6433 J11.1436
G2 X129.317 Y119.7629 I64.7448 J55.2307
G2 X126.6893 Y123.1925 I47.1952 J38.88
G2 X124.2792 Y126.7783 I64.8315 J46.1787
G2 X123.2204 Y128.4887 I67.3429 J42.873
G2 X123.1232 Y128.6503 I8.6563 J5.3147
G2 X122.9359 Y128.9641 I12.2372 J7.5137
G2 X122.7617 Y129.2592 I12.3445 J7.4901
G2 X121.4978 Y131.496 I61.2336 J36.0755
G2 X120.3168 Y133.7777 I63.053 J34.0806
G2 X118.686 Y137.3889 I51.9576 J25.6389
G2 X117.3377 Y141.1146 I43.7714 J17.947
G2 X116.3678 Y144.7439 I41.5204 J13.0401
G2 X115.9971 Y146.5857 I46.1492 J10.2457
G2 X115.9561 Y146.8169 I10.3541 J1.9574
G2 X115.9211 Y147.0195 I9.2325 J1.6982
G2 X115.8913 Y147.1968 I8.3034 J1.4894
G2 X115.7013 Y148.4409 I41.106 J6.9114
G2 X115.6649 Y148.7085 I8.4194 J1.2822
G2 X115.6311 Y148.968 I9.3148 J1.3475
G2 X115.5996 Y149.2194 I10.4828 J1.4401
G2 X115.3965 Y151.1727 I61.5381 J7.386
G1 X115.3658 Y151.5396
G1 X115.3141 Y152.2281
G1 X115.2747 Y152.8309
G2 X115.1734 Y154.9426 I96.4034 J5.6799
G1 X115.1558 Y155.4709
G2 X115.1342 Y156.2635 I92.8707 J2.931
G2 X115.1253 Y156.6598 I20.5672 J0.6596
G2 X115.1213 Y156.858 I11.8708 J0.3393
G2 X115.1176 Y157.0561 I10.6672 J0.3002
G2 X115.1129 Y157.3267 I11.4941 J0.3346
G1 X115.0849 Y159.3555
G1 X115.0686 Y160.37
G3 X115.0662 Y160.4968 I-4.5185 J-0.0241
G1 X115.0451 Y161.3842
G1 X114.9903 Y163.1593
G1 X114.9804 Y163.6032
G1 X114.9755 Y163.9362
G2 X114.9792 Y164.9353 I28.116 J0.3953
G1 X114.9918 Y165.4371
G3 X114.9955 Y166.1902 I-15.4224 J0.453
G3 X114.934 Y166.9408 I-6.2914 J-0.1376
G3 X114.7142 Y167.852 I-5.5219 J-0.8499
G1 X114.6386 Y168.074
G1 X114.5776 Y168.2389
G3 X114.3773 Y168.7268 I-11.288 J-4.3511
G3 X114.3556 Y168.7761 I-0.8126 J-0.3283
G3 X113.9898 Y169.5407 I-16.2629 J-7.3098
G3 X113.9534 Y169.6114 I-1.6014 J-0.7806
G3 X113.3534 Y170.6867 I-18.4676 J-9.5992
G1 X113.1952 Y170.9508
G1 X112.9538 Y171.3445
G1 X112.709 Y171.7361
G3 X111.9979 Y172.8517 I-66.0069 J-41.294
G3 X111.7283 Y173.2682 I-22.0138 J-13.9532
G3 X111.6099 Y173.4502 I-8.4178 J-5.3455
G3 X111.4987 Y173.6206 I-6.8806 J-4.3651
G3 X111.3944 Y173.7803 I-5.9043 J-3.7446
G1 X110.6079 Y174.9755
G3 X110.5092 Y175.1248 I-3.3978 J-2.1391
G3 X110.4229 Y175.2553 I-3.0715 J-1.9377
G1 X110.1206 Y175.712
G2 X110.045 Y175.8262 I2.4734 J1.7194
G2 X109.9883 Y175.9119 I2.1074 J1.4565
G2 X109.9033 Y176.0403 I2.5241 J1.7628
G2 X109.8183 Y176.1688 I2.4688 J1.7257
G2 X107.6128 Y179.5242 I575.877 J380.9316
G2 X105.9755 Y182.0518 I282.618 J184.858
G1 X105.823 Y182.2894
G2 X103.4823 Y185.987 I314.3692 J201.5875
G1 X102.9051 Y186.9164
G1 X102.4744 Y187.6148
G1 X102.3939 Y187.7459
G1 X102.0925 Y188.2379
G1 X101.6424 Y188.9771
G1 X101.4183 Y189.3473
G1 X101.1948 Y189.7177
G2 X100.4259 Y191.004 I247.1136 J148.5864
G1 X100.259 Y191.2862
G1 X99.9373 Y191.834
G2 X99.8622 Y191.9626 I5.9869 J3.5803
G1 X99.5681 Y192.4698
G2 X98.4886 Y194.3849 I97.6871 J56.3248
G2 X98.439 Y194.4754 I1.187 J0.7095
G1 X98.245 Y194.8318
G2 X96.855 Y197.5393 I59.1557 J32.0818
G2 X96.215 Y198.9202 I44.3177 J21.3774
G1 X96.0623 Y199.2687
G2 X95.9499 Y199.531 I54.1941 J23.376
G1 X95.7849 Y199.9261
G2 X95.6246 Y200.3229 I36.6101 J15.0204
G2 X95.0227 Y201.9614 I31.8155 J12.6168
G2 X94.6251 Y203.2086 I42.9423 J14.3794
G2 X94.3525 Y204.1517 I39.757 J11.9989
G2 X93.6226 Y207.0046 I81.5277 J22.3807
G1 X93.614 Y207.0403
G3 X93.5419 Y207.3058 I-2.6418 J-0.5748
G3 X93.4892 Y207.4346 I-0.8179 J-0.2593
G3 X93.4021 Y207.5429 I-0.2586 J-0.119
G3 X93.2655 Y207.5634 I-0.0918 J-0.1459
G3 X93.1576 Y207.5219 I0.1187 J-0.4694
G3 X92.9914 Y207.4089 I0.6198 J-1.0904
G3 X92.768 Y207.2071 I1.6988 J-2.1053
G1 X92.5567 Y206.9927
G1 X92.1117 Y206.5333
G1 X90.7786 Y205.1536
G1 X90.5812 Y204.9481
G3 X89.8478 Y204.1711 I42.0475 J-40.4233
G1 X89.5772 Y203.8754
G3 X89.3433 Y203.6142 I20.545 J-18.6333
G3 X88.5511 Y202.6769 I19.8647 J-17.5943
G3 X87.814 Y201.6957 I15.8553 J-12.6769
G3 X87.4929 Y201.2107 I7.2585 J-5.1556
G3 X87.0938 Y200.4334 I4.1303 J-2.6112
G3 X86.9639 Y200.0145 I2.8672 J-1.1193
G3 X86.9084 Y199.5795 I2.0201 J-0.4788
G3 X86.9561 Y199.0596 I2.2656 J-0.054
G3 X87.1971 Y198.3168 I3.5326 J0.7356
G3 X87.5557 Y197.6232 I5.8069 J2.5626
G3 X88.1011 Y196.7924 I9.0134 J5.323
G1 X88.2477 Y196.5919
G3 X88.4727 Y196.2946 I16.5053 J12.2558
G1 X88.5867 Y196.1472
G1 X88.7014 Y196.0003
G3 X89.1927 Y195.3795 I54.1811 J42.3781
G3 X89.5656 Y194.9173 I32.9063 J26.1623
G1 X89.7064 Y194.7447
G1 X89.954 Y194.4439
G1 X90.3287 Y193.9952
G1 X90.7073 Y193.5499
G1 X91.0072 Y193.2029
G3 X91.0731 Y193.1272 I2.0527 J1.7207
G3 X91.137 Y193.0539 I2.0669 J1.7395
G3 X91.6349 Y192.4886 I36.6131 J31.7449
G1 X93.1393 Y190.8025
G1 X93.5467 Y190.3421
G1 X93.9266 Y189.9086
G1 X94.2805 Y189.5002
G1 X94.6101 Y189.1155
G1 X94.9168 Y188.7528
G2 X96.0436 Y187.3733 I-50.3532 J-42.2766
G2 X97.6407 Y185.2312 I-35.3615 J-28.0321
G2 X98.3844 Y184.121 I-31.371 J-21.8193
G2 X99.0832 Y182.9821 I-23.9544 J-15.4814
G2 X99.9395 Y181.3973 I-21.0416 J-12.3929
G2 X100.0137 Y181.2453 I-3.4438 J-1.775
G2 X100.5443 Y180.0474 I-16.0141 J-7.8095
G2 X101.1609 Y178.1817 I-14.1146 J-5.6995
G2 X101.4977 Y176.2458 I-11.6681 J-3.0276
G2 X101.3645 Y173.2926 I-11.1165 J-0.978
G2 X100.9969 Y171.8567 I-10.4806 J1.9178
G2 X100.4195 Y170.4915 I-9.1647 J3.0718
G2 X99.5726 Y169.1573 I-8.4624 J4.4355
G2 X98.5171 Y167.9809 I-7.7314 J5.875
G2 X97.9943 Y167.5207 I-5.9977 J6.2869
G2 X97.7887 Y167.3593 I-2.7693 J3.3152
G2 X97.0266 Y166.8541 I-4.0371 J5.2623
G2 X96.2002 Y166.4629 I-2.992 J5.2523
G2 X95.0782 Y166.1771 I-1.7488 J4.5202
G2 X94.4974 Y166.1526 I-0.4411 J3.5661
G2 X93.9219 Y166.2344 I0.1145 J2.8726
G2 X93.4151 Y166.4102 I0.7648 J3.0226
G2 X92.933 Y166.6452 I3.3428 J7.4695
G1 X92.7743 Y166.7306
G2 X91.6994 Y167.39 I6.4083 J11.6509
G2 X91.0847 Y167.8368 I7.0152 J10.2967
G1 X90.9342 Y167.9529
G1 X90.7103 Y168.1292
G1 X90.599 Y168.2182
G1 X90.4881 Y168.3076
G1 X90.3092 Y168.4535
G2 X90.1541 Y168.5828 I3.7822 J4.694
G2 X90.0868 Y168.6402 I0.9684 J1.2045
G2 X90.0241 Y168.6944 I0.7849 J0.9699
G2 X89.573 Y169.1218 I4.2384 J4.9255
G2 X89.1755 Y169.5993 I3.1943 J3.0639
G2 X88.5973 Y170.8496 I3.1423 J2.2119
G2 X88.5834 Y170.9054 I0.5939 J0.1771
G2 X88.4643 Y171.7868 I4.6344 J1.0752
G2 X88.468 Y172.6762 I9.6627 J0.4043
G2 X88.5127 Y173.3653 I11.3222 J-0.3874
G2 X88.6701 Y174.3893 I7.9869 J-0.7038
G2 X88.9955 Y175.3729 I5.0226 J-1.1161
G2 X89.6047 Y176.3591 I4.1215 J-1.8644
G2 X90.0072 Y176.7791 I2.9972 J-2.4692
G2 X90.4751 Y177.1247 I2.0682 J-2.311
G1 X90.6048 Y177.1979
G2 X90.7294 Y177.2606 I0.9287 J-1.6906
G2 X90.9697 Y177.3637 I1.5228 J-3.219
G2 X91.4047 Y177.5044 I1.3991 J-3.5823
G1 X91.4876 Y177.5261
G2 X92.1171 Y177.6546 I1.8875 J-7.6379
G1 X92.4345 Y177.704
G1 X92.7526 Y177.7493
G1 X94.3795
G1 X92.4285 Y176.4728
G3 X91.9741 Y176.1025 I12.1945 J-15.4296
G3 X91.3257 Y175.5077 I5.0853 J-6.1949
G3 X91.0344 Y175.1773 I3.5104 J-3.3875
G3 X90.9017 Y175.0014 I2.1144 J-1.7331
G3 X90.7796 Y174.8178 I1.8388 J-1.3558
G3 X90.3635 Y173.8613 I3.1039 J-1.9188
G3 X90.2161 Y172.8288 I3.9116 J-1.0855
G3 X90.7943 Y170.7044 I4.0088 J-0.0497
G3 X91.3967 Y169.9418 I3.5379 J2.1754
G3 X92.1471 Y169.3243 I3.5744 J3.5788
G3 X92.368 Y169.1834 I3.1428 J4.6854
G3 X93.1899 Y168.779 I2.7528 J4.5567
G3 X93.6228 Y168.6287 I1.9287 J4.8584
G3 X93.8433 Y168.5662 I1.2093 J3.8448
G1 X93.9543 Y168.538
G1 X94.0101 Y168.5247
G1 X94.0659 Y168.5118
G3 X94.2983 Y168.4641 I1.4651 J6.5447
G3 X95.1245 Y168.3868 I0.7996 J4.0917
G3 X95.3325 Y168.3965 I-0.0079 J2.405
G3 X95.9427 Y168.5245 I-0.1603 J2.2824
G3 X96.4463 Y168.7869 I-0.7543 J2.062
G3 X96.7784 Y169.0522 I-1.9224 J2.7469
G3 X97.212 Y169.5185 I-3.1043 J3.3217
G3 X97.5852 Y170.0344 I-5.671 J4.4945
G3 X98.3266 Y171.4389 I-7.3699 J4.7884
G3 X98.6097 Y172.1811 I-10.1821 J4.3091
G1 X98.6732 Y172.3693
G3 X98.85 Y172.9384 I-19.3563 J6.3229
G3 X99.0759 Y173.7823 I-17.848 J5.2314
G3 X99.3121 Y175.0715 I-10.7454 J2.6346
G3 X99.3645 Y176.3811 I-7.6899 J0.9637
G3 X99.2506 Y177.3462 I-7.0836 J-0.3472
G3 X98.854 Y178.7473 I-8.0675 J-1.5269
G3 X98.2284 Y180.0622 I-8.4101 J-3.1948
G3 X97.8982 Y180.5946 I-7.4652 J-4.2616
G3 X97.2503 Y181.4777 I-9.7853 J-6.4996
G1 X97.1208 Y181.6371
G1 X96.9975 Y181.785
G3 X96.0285 Y182.8547 I-17.36 J-14.7521
G1 X95.778 Y183.1144
G1 X95.019 Y183.8863
G1 X94.7097 Y184.2008
G1 X94.1313 Y184.7923
G1 X92.1154 Y186.8704
G1 X91.1052 Y187.9074
G1 X90.5978 Y188.4237
G1 X90.0883 Y188.9379
G3 X88.7936 Y190.1939 I-28.2657 J-27.8419
G3 X88.1149 Y190.7885 I-12.5813 J-13.6756
G1 X87.9405 Y190.9317
G1 X87.6749 Y191.1415
G1 X87.5403 Y191.2439
G1 X87.4044 Y191.3447
G1 X87.2617 Y191.4477
G1 X87.127 Y191.5428
G1 X86.6183 Y191.8947
G1 X86.428 Y192.0277
G2 X85.7801 Y192.5178 I5.2975 J7.6767
G2 X85.476 Y192.7875 I3.4546 J4.201
G2 X85.1941 Y193.0802 I2.6062 J2.7926
G2 X84.9708 Y193.3552 I4.0554 J3.5211
G2 X84.6672 Y193.7913 I6.4544 J4.8176
G1 X84.5952 Y193.9029
G1 X84.3838 Y194.2407
G1 X83.1252 Y193.4089
G3 X82.8349 Y192.7677 I65.2678 J-29.9411
G3 X82.6182 Y192.2864 I39.3508 J-18.0015
G3 X82.2968 Y191.5628 I66.6879 J-30.0538
G1 X82.1384 Y191.2
G1 X81.982 Y190.8362
G3 X80.9041 Y188.1238 I51.5266 J-22.0464
G3 X80.8017 Y187.8424 I12.6774 J-4.7717
G1 X80.6262 Y187.3486
G1 X80.4976 Y186.9773
G1 X80.3088 Y186.4188
G1 X80.1249 Y185.8587
G1 X79.904 Y185.1685
G1 X79.5231 Y183.9588
G2 X79.4513 Y183.732 I-8.1756 J2.4627
G2 X79.3837 Y183.5196 I-6.8798 J2.0726
G2 X79.3199 Y183.3205 I-6.0525 J1.8296
G2 X78.8217 Y181.8341 I-49.5418 J15.7765
G2 X78.7561 Y181.6494 I-4.9206 J1.6463
G2 X78.2658 Y180.3682 I-28.0665 J10.0048
G2 X77.1346 Y177.9447 I-28.1378 J11.6579
G1 X76.9791 Y177.6487
G2 X75.824 Y175.6133 I-39.2239 J20.9144
G2 X75.7603 Y175.5074 I-3.3111 J1.9198
G2 X74.7293 Y173.8555 I-57.1208 J34.5046
G2 X73.1151 Y171.4213 I-98.5692 J63.6127
G1 X72.2932 Y170.2141
G1 X71.4709 Y169.0072
G1 X71.079 Y168.428
G1 X70.3971 Y167.4114
G3 X70.1429 Y167.0292 I28.7754 J-19.4134
G3 X68.3909 Y164.336 I137.003 J-91.0384
G3 X68.2329 Y164.087 I11.6075 J-7.5456
G3 X65.9439 Y160.3028 I81.0486 J-51.6081
G3 X65.2629 Y159.0617 I30.061 J-17.3018
G3 X64.6596 Y157.7809 I14.5605 J-7.641
G1 X64.5796 Y157.585
G1 X64.445 Y157.2398
G1 X64.2499 Y156.7196
G2 X64.1524 Y156.4594 I-13.7287 J4.9997
G2 X64.103 Y156.3295 I-5.097 J1.8648
G2 X64.0529 Y156.1999 I-4.5768 J1.6931
G2 X63.9746 Y156.0018 I-6.2792 J2.3665
G2 X63.6871 Y155.314 I-22.8636 J9.1528
G1 X63.5366 Y154.9729
G1 X63.3823 Y154.6336
G2 X62.793 Y153.4209 I-29.6438 J13.6567
G1 X62.6511 Y153.1508
G1 X62.434 Y152.7478
G1 X62.2151 Y152.3458
G3 X62.0527 Y152.0456 I14.397 J-7.9793
G3 X61.5744 Y151.1403 I49.4129 J-26.6848
G2 X61.2961 Y150.6006 I-53.2183 J27.1084
G2 X61.1548 Y150.3319 I-16.3778 J8.4405
G1 X61.0097 Y150.0652
G1 X60.8389 Y149.7657
G1 X60.7066 Y149.5435
G2 X60.6053 Y149.378 I-4.5822 J2.6907
G2 X60.5283 Y149.2545 I-2.8593 J1.6981
G2 X60.47 Y149.1623 I-2.0878 J1.2555
G2 X60.426 Y149.0933 I-1.6267 J0.9898
G2 X60.3595 Y148.9901 I-1.8102 J1.0936
G2 X60.2925 Y148.8873 I-1.6362 J0.9928
G2 X59.2518 Y147.4121 I-20.9617 J13.6827
G1 X58.9701 Y147.0464
G1 X58.113 Y145.9589
G1 X57.7874 Y145.5398
G2 X57.2764 Y144.9293 I-7.9095 J6.101
G2 X56.7073 Y144.3725 I-4.7643 J4.3
G2 X56.3605 Y144.1088 I-1.7847 J1.9875
G2 X56.1611 Y144.0136 I-0.4719 J0.7317
G2 X55.9415 Y143.99 I-0.1583 J0.4385
G2 X55.74 Y144.0745 I0.0875 J0.4904
G2 X55.5051 Y144.2986 I0.6904 J0.9593
G2 X55.3136 Y144.5608 I2.5998 J2.0999
G1 X55.213 Y144.7175
G2 X54.9583 Y145.2138 I2.7435 J1.721
G2 X54.7732 Y145.9356 I2.4064 J1.0019
G2 X54.7982 Y146.5698 I2.3132 J0.2264
G2 X54.9151 Y147.0628 I5.8151 J-1.1186
G3 X54.956 Y147.2365 I-3.8069 J0.9875
G3 X54.9709 Y147.4144 I-0.7563 J0.1528
G3 X54.9534 Y147.5485 I-0.8213 J-0.0387
G3 X54.9199 Y147.6488 I-0.4727 J-0.102
G3 X54.787 Y147.7824 I-0.2305 J-0.0964
G3 X54.6308 Y147.7978 I-0.1091 J-0.3057
G3 X54.3594 Y147.7087 I0.1456 J-0.9003
G3 X54.1423 Y147.588 I0.9513 J-1.9682
G3 X53.9608 Y147.4687 I1.3997 J-2.3263
G3 X53.3553 Y147.0095 I6.1629 J-8.7542
G1 X53.0591 Y146.7715
G1 X52.9849 Y146.712
G2 X52.7614 Y146.5353 I-10.1788 J12.6457
G2 X51.8732 Y145.9021 I-7.2903 J9.2859
G2 X50.4355 Y145.1244 I-5.9838 J9.345
G1 X50.2491 Y145.0408
G1 X49.9215 Y144.8975
G3 X49.8599 Y144.8708 I0.2275 J-0.6075
G1 X49.6296 Y144.77
G3 X48.9473 Y144.4486 I5.7531 J-13.1013
G1 X48.7637 Y144.3525
G1 X48.5933 Y144.2595
G1 X48.4348 Y144.1701
G3 X47.2714 Y143.4563 I13.8275 J-23.8426
G1 X46.9844 Y143.2715
G1 X46.7694 Y143.1325
G1 X46.1234 Y142.7177
G1 X46.0043 Y142.6424
G3 X45.589 Y142.3767 I8.4458 J-13.6625
G1 X45.3844 Y142.2391
G3 X45.1835 Y142.0961 I2.2987 J-3.4427
G1 X45.1083 Y142.0406
G2 X45.0419 Y141.9924 I-0.487 J0.601
G2 X44.7951 Y141.8455 I-0.8248 J1.1052
G2 X44.5131 Y141.7914 I-0.2498 J0.5397
G2 X44.2574 Y141.8694 I0.0492 J0.6195
G2 X44.156 Y141.9715 I0.127 J0.2275
G2 X44.1398 Y142.0897 I0.1822 J0.0853
G2 X44.172 Y142.1914 I0.3175 J-0.0448
G2 X44.2793 Y142.3572 I0.7888 J-0.3927
G2 X44.5165 Y142.6063 I2.0274 J-1.6929
G2 X44.9098 Y142.9398 I4.3705 J-4.7565
G1 X45.3162 Y143.2571
G3 X45.9306 Y143.7474 I-29.0675 J37.0567
G1 X46.1579 Y143.9351
G1 X46.5525 Y144.2675
G1 X46.8471 Y144.5184
G2 X47.7501 Y145.2476 I11.0101 J-12.7116
G1 X47.9107 Y145.3648
G2 X48.5264 Y145.7846 I8.7778 J-12.2115
G2 X48.9983 Y146.084 I10.1084 J-15.4121
G2 X49.1769 Y146.1936 I2.619 J-4.0686
G2 X50.4456 Y146.9302 I20.5531 J-33.941
G1 X51.139 Y147.3137
G1 X51.3121 Y147.4101
G1 X51.5708 Y147.5561
G1 X51.828 Y147.7049
G3 X53.3977 Y148.7107 I-12.8631 J21.8012
G1 X53.7556 Y148.9604
G3 X54.0222 Y149.1503 I-9.8485 J14.1072
G3 X54.4196 Y149.4386 I-36.1329 J50.236
G1 X54.8149 Y149.73
G1 X54.9664 Y149.8425
G1 X55.099 Y149.9409
G1 X55.332 Y150.112
G2 X55.6852 Y150.3632 I16.7038 J-23.11
G2 X55.8646 Y150.485 I3.7563 J-5.3414
G1 X56.0464 Y150.6031
G1 X56.1789 Y150.6856
G2 X56.6513 Y150.9606 I8.4905 J-14.04
G2 X57.1293 Y151.2259 I14.9854 J-26.44
G2 X57.4623 Y151.3946 I1.5545 J-2.6546
G2 X57.6416 Y151.4511 I0.4517 J-1.1216
G2 X57.8292 Y151.4634 I0.1374 J-0.6577
G2 X58.0356 Y151.4065 I-0.0737 J-0.6703
G2 X58.2976 Y151.224 I-0.3898 J-0.839
G2 X58.4907 Y150.9698 I-0.7357 J-0.7589
G2 X58.5864 Y150.7069 I-0.8802 J-0.4695
G2 X58.6053 Y150.2899 I-1.3213 J-0.2686
G2 X58.5286 Y149.8796 I-2.7611 J0.304
G2 X58.3063 Y149.2848 I-2.7294 J0.681
G2 X57.9225 Y148.7789 I-1.5496 J0.7771
G1 X57.8715 Y148.7347
G3 X57.6953 Y148.5773 I1.3464 J-1.6839
G3 X57.5703 Y148.3767 I0.3898 J-0.382
G3 X57.5492 Y148.2723 I0.5129 J-0.1582
G3 X57.5679 Y148.1676 I0.1975 J-0.0187
G3 X57.6415 Y148.1096 I0.1159 J0.0713
G3 X57.778 Y148.0909 I0.1202 J0.3697
G3 X57.9148 Y148.1078 I-0.028 J0.7897
G3 X58.1656 Y148.2091 I-0.1593 J0.7555
G3 X58.375 Y148.3805 I-0.6919 J1.0586
G3 X58.6721 Y148.7215 I-2.5627 J2.5327
G3 X58.7391 Y148.8125 I-1.4889 J1.1678
G1 X58.8353 Y148.9524
G1 X58.9264 Y149.0955
G3 X58.999 Y149.2169 I-3.0216 J1.8887
G3 X59.2335 Y149.6527 I-8.7113 J4.9675
G3 X59.4498 Y150.0979 I-35.2686 J17.4114
G1 X59.5217 Y150.2488
G1 X59.6479 Y150.5127
G1 X59.8402 Y150.907
G1 X59.9386 Y151.1029
G1 X60.0392 Y151.2978
G2 X60.2088 Y151.6127 I11.8732 J-6.1892
G2 X60.764 Y152.5305 I11.4493 J-6.2995
G1 X60.9357 Y152.7829
G1 X61.2004 Y153.1566
G2 X61.334 Y153.3427 I6.8489 J-4.7761
G3 X61.4006 Y153.4357 I-3.0583 J2.2603
G3 X61.4671 Y153.529 I-2.657 J1.9627
G3 X61.5445 Y153.6387 I-2.8898 J2.1221
G3 X61.6781 Y153.8318 I-5.5699 J3.9949
G3 X62.0532 Y154.4283 I-6.9408 J4.7812
G3 X62.179 Y154.6618 I-3.3676 J1.965
G3 X62.4712 Y155.4007 I-3.476 J1.8018
G3 X62.5603 Y155.8165 I-4.7466 J1.2345
G1 X62.5954 Y156.0262
G2 X62.6307 Y156.2359 I6.5152 J-0.9885
G2 X62.9625 Y157.5599 I9.861 J-1.7675
G1 X63.0156 Y157.7222
G2 X63.4439 Y158.8373 I14.0117 J-4.7409
G2 X64.0223 Y160.066 I18.7681 J-8.0857
G2 X65.0143 Y161.8447 I26.9564 J-13.868
G1 X65.2777 Y162.2805
G1 X65.6795 Y162.93
G2 X65.8824 Y163.2535 I15.1139 J-9.2545
G2 X65.9841 Y163.4151 I6.1504 J-3.7607
G2 X66.086 Y163.5765 I5.0883 J-3.097
G1 X66.6758 Y164.5087
G1 X67.1937 Y165.3234
G1 X68.1036 Y166.7466
G1 X68.7891 Y167.812
G1 X69.8221 Y169.4071
G1 X70.8609 Y170.9984
G1 X71.277 Y171.6328
G1 X72.0036 Y172.7439
G1 X72.5442 Y173.5802
G1 X72.9452 Y174.2101
G1 X73.2428 Y174.6846
G1 X73.4639 Y175.0417
G1 X73.7915 Y175.58
G1 X74.1138 Y176.1214
G3 X75.1878 Y178.0519 I-37.8607 J22.3266
G3 X75.2513 Y178.1746 I-3.6943 J1.9897
G3 X75.3104 Y178.2898 I-3.5057 J1.8693
G3 X76.1346 Y180.0479 I-24.0847 J12.3637
G3 X76.9146 Y182.0819 I-32.6137 J13.674
G1 X77.0943 Y182.596
G1 X77.2273 Y182.9823
G1 X77.4256 Y183.562
G1 X77.6248 Y184.1413
G2 X79.4229 Y188.9285 I91.3782 J-31.5892
G2 X81.4852 Y193.6081 I81.2293 J-33.0047
G2 X86.6181 Y202.799 I74.6122 J-35.6401
G1 X86.7575 Y203.0145
G1 X87.0297 Y203.4307
G2 X88.0798 Y204.972 I44.6408 J-29.2837
G2 X89.7724 Y207.1997 I31.6982 J-22.329
G1 X89.9964 Y207.4684
G2 X90.8055 Y208.3875 I19.3257 J-16.1986
G2 X90.8575 Y208.4437 I1.1672 J-1.0261
G2 X90.9063 Y208.4963 I1.1297 J-1.0007
G2 X91.6571 Y209.2674 I16.8399 J-15.6442
G2 X91.7695 Y209.3769 I2.0476 J-1.9893
G1 X91.9827 Y209.5796
G1 X92.1726 Y209.7534
G2 X92.8683 Y210.3256 I6.717 J-7.4587
G2 X93.6224 Y210.8182 I4.3568 J-5.8455
G1 X93.6662 Y210.8428
G2 X94.0123 Y211.0191 I2.1897 J-3.8698
G2 X94.5619 Y211.2143 I1.2585 J-2.6729
G2 X95.1437 Y211.2575 I0.4149 J-1.6478
G2 X95.4877 Y211.1762 I-0.1723 J-1.4979
G2 X95.9616 Y210.9421 I-0.8612 J-2.3402
G2 X96.3915 Y210.6345 I-2.5925 J-4.077
G1 X96.4963 Y210.5489
G2 X96.8249 Y210.2076 I-1.1859 J-1.4705
G2 X97.0092 Y209.7712 I-0.8306 J-0.6079
G2 X97.0187 Y209.5005 I-0.9645 J-0.1693
G2 X96.9904 Y209.3662 I-0.6283 J0.0622
G2 X96.9223 Y209.2472 I-0.3022 J0.0938
G2 X96.7387 Y209.1721 I-0.1875 J0.1964
G2 X96.449 Y209.2083 I-0.026 J0.9676
G2 X96.1685 Y209.2898 I1.6595 J6.239
G1 X96.0329 Y209.3307
G3 X95.8241 Y209.3764 I-0.3759 J-1.2171
G3 X95.7156 Y209.3782 I-0.0626 J-0.4974
G3 X95.6128 Y209.3433 I0.0212 J-0.2308
G3 X95.52 Y209.2146 I0.1612 J-0.2141
G3 X95.4725 Y208.9844 I0.828 J-0.291
G3 X95.4628 Y208.7496 I2.0519 J-0.2024
G3 X95.5127 Y207.9952 I5.3604 J-0.024
G3 X95.6535 Y207.2523 I8.9416 J1.3098
G1 X95.704 Y207.0246
G3 X96.5944 Y203.5222 I57.8495 J12.8416
G1 X96.7214 Y203.0886
G1 X96.8358 Y202.7101
G1 X96.8868 Y202.5448
G3 X97.7303 Y200.0916 I37.9426 J11.6745
G3 X97.7569 Y200.0219 I1.0585 J0.3647
G3 X98.6736 Y197.8389 I34.8553 J13.3517
G3 X99.0496 Y197.0346 I45.1821 J20.6351
G1 X99.2191 Y196.685
G3 X99.2592 Y196.6033 I1.7902 J0.8283
G3 X99.2989 Y196.5229 I1.8018 J0.8389
G3 X100.6147 Y194.0261 I53.6462 J26.6768
G3 X100.7007 Y193.872 I6.0643 J3.2824
G3 X101.3561 Y192.7227 I64.7446 J36.1589
G1 X101.6899 Y192.1516
G1 X102.0268 Y191.5823
G1 X102.2345 Y191.2346
G1 X102.4366 Y190.8982
G3 X105.6717 Y185.7483 I149.118 J90.0816
G3 X107.3504 Y183.2128 I215.1824 J140.6431
G3 X107.5626 Y182.8974 I29.5715 J19.6709
G3 X107.7488 Y182.6217 I18.9374 J12.5831
G3 X107.9119 Y182.3807 I14.6107 J9.7138
G3 X108.0549 Y182.1699 I12.0673 J8.0328
G3 X109.0611 Y180.6987 I149.997 J101.5101
G1 X110.5336 Y178.5696
G1 X111.2676 Y177.5035
G2 X111.3589 Y177.3699 I-6.4498 J-4.5113
G2 X111.5186 Y177.1361 I-8.6517 J-6.0769
G2 X111.6381 Y176.9605 I-7.6758 J-5.3522
G2 X111.8168 Y176.6969 I-9.6588 J-6.7427
G2 X111.995 Y176.4329 I-10.1027 J-7.0118
G1 X113.1687 Y174.68
G3 X114.3696 Y172.9457 I54.404 J36.3863
G1 X114.7137 Y172.47
G1 X114.9693 Y172.1113
G2 X115.3371 Y171.5624 I-14.9163 J-10.3919
G2 X115.6706 Y170.9921 I-6.8433 J-4.3851
G2 X116.0869 Y170.0658 I-6.5917 J-3.519
G2 X116.3894 Y169.0964 I-8.6932 J-3.2446
G2 X116.4043 Y169.037 I-1.0181 J-0.286
G2 X116.5929 Y168.0925 I-12.0255 J-2.8927
G2 X116.7529 Y166.6576 I-17.8627 J-2.7189
G1 X116.7778 Y166.2974
G1 X116.8089 Y165.7569
G2 X116.8227 Y165.4865 I-11.3514 J-0.7153
G2 X116.8294 Y165.3513 I-4.0682 J-0.2695
G2 X116.836 Y165.2161 I-3.3134 J-0.2308
G1 X117.0226 Y161.4688
G1 X117.1132 Y159.5951
G1 X117.1981 Y157.721
G1 X117.2804 Y155.7539
G1 X117.3428 Y154.2786
G1 X117.3933 Y153.1723
G1 X117.4347 Y152.3427
G1 X117.4682 Y151.7206
G1 X117.495 Y151.2541
G1 X117.5383 Y150.5547
G1 X117.5857 Y149.8555
G1 X117.628 Y149.2849
G3 X117.6479 Y149.0353 I15.2571 J1.0899
G3 X117.8389 Y147.1677 I39.9016 J3.1378
G3 X117.854 Y147.0513 I3.0165 J0.3334
G3 X118.1443 Y145.3153 I24.3314 J3.1755
G3 X118.604 Y143.4804 I24.9694 J5.2805
G1 X118.7383 Y143.027
G1 X118.8429 Y142.688
G1 X119.005 Y142.1812
G1 X119.1722 Y141.6761
G3 X120.7037 Y137.5716 I60.6561 J20.2953
G3 X122.546 Y133.5967 I47.6872 J19.6875
G1 X122.8157 Y133.0833
G1 X123.0741 Y132.6048
G3 X124.0866 Y130.8349 I47.3499 J25.9116
G1 X124.2834 Y130.5073
G3 X125.8201 Y128.0868 I57.9013 J35.0625
G1 X126.2188 Y127.4911
G3 X127.4429 Y125.7231 I78.275 J52.8853
G3 X127.5532 Y125.5675 I5.6301 J3.8761
G3 X127.662 Y125.4146 I5.6828 J3.9294
G3 X129.4092 Y123.0311 I88.9878 J63.4003
G3 X129.5763 Y122.8101 I11.5686 J8.5684
G3 X132.2367 Y119.439 I83.5925 J63.235
G3 X135.0305 Y116.1777 I81.3979 J66.9021
G1 X135.3071 Y115.8691
G1 X135.8466 Y115.2743
G1 X136.3565 Y114.7207
G3 X140.3168 Y110.6982 I69.8195 J64.7788
G1 X140.8292 Y110.2128
G3 X144.5295 Y106.9409 I54.0307 J57.3753
G3 X144.6534 Y106.8383 I2.0811 J2.3876
G3 X145.143 Y106.4369 I59.541 J72.1142
G3 X145.2581 Y106.3432 I2.6357 J3.1237
G3 X146.1686 Y105.6105 I72.0741 J88.6133
G1 X146.5682 Y105.2914
G1 X147.3178 Y104.6938
G1 X147.6454 Y104.4318
G1 X147.9521 Y104.1856
G1 X148.5252 Y103.7217
G1 X149.0241 Y103.3124
G1 X149.4578 Y102.9511
G1 X149.8348 Y102.6319
G1 X150.1625 Y102.35
G2 X151.2899 Y101.341 I-31.8988 J-36.7758
G1 X151.4284 Y101.2121
G2 X151.908 Y100.7558 I-40.4724 J-43.0194
G1 X152.0266 Y100.6404
G1 X152.1153 Y100.5534
G2 X152.3792 Y100.2909 I-11.9029 J-12.229
G1 X152.469 Y100.2002
G1 X152.6449 Y100.0206
G2 X153.312 Y99.3105 I-19.0827 J-18.5961
G2 X154.41 Y98.0046 I-16.762 J-15.2088
G2 X155.1552 Y96.9621 I-13.3321 J-10.3173
G2 X156.0894 Y95.2822 I-10.4415 J-6.9063
G2 X156.4453 Y94.388 I-9.0557 J-4.1216
G2 X156.7062 Y93.4615 I-7.9312 J-2.7336
G2 X156.8608 Y92.5136 I-7.9921 J-1.7899
G2 X156.9154 Y91.676 I-9.1725 J-1.019
G1 X156.9173 Y91.5842
G2 X156.8541 Y90.1415 I-12.8716 J-0.159
G1 X156.8402 Y90.0068
G2 X156.6948 Y88.9681 I-17.2573 J1.8867
G1 X156.6608 Y88.7744
G2 X156.352 Y87.3324 I-24.7786 J4.5522
G1 X156.3078 Y87.1535
G2 X155.9726 Y85.9075 I-46.1355 J11.7422
G1 X155.8029 Y85.3247
G2 X155.1128 Y83.1559 I-55.4913 J16.4633
G2 X155.0786 Y83.0548 I-1.4582 J0.4375
G2 X155.0447 Y82.9554 I-1.4633 J0.4425
G2 X155.0113 Y82.8575 I-1.4683 J0.4475
G2 X154.9782 Y82.7613 I-1.4734 J0.4523
G2 X154.8468 Y82.3828 I-16.2048 J5.4149
G1 X154.7218 Y82.0285
G1 X154.4833 Y81.3658
G2 X153.615 Y79.059 I-106.538 J38.7858
G1 X153.1681 Y77.9104
G1 X153.0557 Y77.6235
G1 X152.7179 Y76.7631
G1 X151.1891 Y72.8654
G1 X150.9978 Y72.3782
G1 X150.3269 Y70.6738
G1 X149.653 Y68.9706
G1 X149.4612 Y68.4881
G1 X149.2749 Y68.0209
G1 X148.9121 Y67.1163
G1 X148.5688 Y66.2694
G2 X148.4066 Y65.8729 I-19.832 J7.8827
G2 X148.3277 Y65.681 I-10.6104 J4.2507
G2 X147.0473 Y62.6745 I-117.9047 J48.4363
G2 X146.9852 Y62.5344 I-4.2205 J1.7887
G2 X146.9238 Y62.3966 I-4.1342 J1.7595
G2 X146.8631 Y62.261 I-4.0536 J1.7324
G2 X146.8032 Y62.1277 I-3.9779 J1.7073
G2 X146.744 Y61.9965 I-3.9067 J1.684
G2 X146.6855 Y61.8675 I-3.8397 J1.6622
G2 X146.6278 Y61.7405 I-3.7764 J1.6419
G2 X145.6896 Y59.7556 I-62.8399 J28.487
G2 X145.6441 Y59.6632 I-3.0092 J1.4224
G2 X144.1362 Y56.7934 I-52.9765 J26.0057
G2 X142.4541 Y54.0221 I-40.8815 J22.9171
G2 X140.2907 Y51.0175 I-36.0051 J23.6448
G2 X136.597 Y46.8732 I-35.6204 J28.0282
G2 X132.4395 Y43.1943 I-34.1736 J34.4313
G1 X132.0902 Y42.9216
G1 X131.7495 Y42.6606
G2 X129.0252 Y40.7519 I-24.9473 J32.71
G2 X128.497 Y40.4193 I-11.793 J18.1423
G2 X127.4912 Y39.8203 I-17.2471 J27.8146
G2 X125.6827 Y38.858 I-16.7027 J29.2099
G1 X125.3367 Y38.6909
G2 X124.6821 Y38.39 I-15.0864 J31.9509
G2 X124.61 Y38.358 I-0.8206 J1.7555
G2 X122.2957 Y37.4625 I-10.5736 J23.8852
G2 X122.1483 Y37.414 I-1.2392 J3.5208
G2 X119.9029 Y36.8049 I-7.3402 J22.6173
G1 X119.6078 Y36.743
G1 X119.3303 Y36.6886
G2 X117.2331 Y36.3805 I-4.9235 J26.22
G2 X115.1195 Y36.2199 I-3.7462 J35.3224
G2 X114.3368 Y36.19 I-1.6112 J31.9561
G2 X114.1655 Y36.1854 I-0.2117 J4.6531
G2 X113.9996 Y36.1815 I-0.1956 J4.8494
G2 X111.4274 Y36.1979 I-0.9905 J46.5996
G2 X110.1425 Y36.2554 I1.6216 J50.5611
G1 X109.8215 Y36.2745
G1 X109.3402 Y36.3064
G1 X108.8592 Y36.3423
G2 X107.5342 Y36.4626 I4.4014 J55.8285
G2 X106.543 Y36.5792 I5.4846 J50.8895
G2 X105.064 Y36.8097 I3.4445 J26.9609
G2 X104.9719 Y36.8267 I0.4255 J2.5632
G2 X104.7996 Y36.8594 I0.5814 J3.531
G2 X104.1982 Y36.9836 I8.7343 J43.8188
G2 X104.0484 Y37.0171 I0.7775 J3.832
G2 X103.8241 Y37.0692 I1.0492 J5.0246
G2 X103.6004 Y37.1236 I1.2745 J5.7232
G2 X102.9351 Y37.3004 I5.5882 J22.3717
G1 X102.6458 Y37.384
G1 X102.3755 Y37.4656
G2 X100.3765 Y38.1625 I9.201 J29.6045
G2 X99.3936 Y38.5556 I18.8518 J48.5695
G1 X98.9055 Y38.7602
G1 X98.4192 Y38.9691
G1 X97.7332 Y39.2713
G2 X97.5835 Y39.3384 I3.2141 J7.3717
G2 X97.4387 Y39.4037 I2.478 J5.6873
G2 X95.2151 Y40.4615 I24.3091 J53.9657
G2 X95.1463 Y40.496 I0.7017 J1.4845
G2 X95.0796 Y40.5296 I0.6845 J1.4428
G2 X95.0151 Y40.5621 I0.6681 J1.4031
G2 X93.0393 Y41.6142 I21.8634 J43.4412
G2 X91.7256 Y42.378 I22.9427 J40.9728
G1 X91.4818 Y42.5253
G1 X91.0265 Y42.8047
G1 X90.828 Y42.9281
G1 X90.6423 Y43.0445
G1 X90.4686 Y43.1541
G1 X89.8199 Y43.5694
G1 X89.3359 Y43.8847
G1 X88.9741 Y44.1232
G1 X88.9064 Y44.168
G1 X88.3994 Y44.5059
G1 X87.8939 Y44.846
G1 X87.3419 Y45.2199
G2 X87.2901 Y45.255 I0.3636 J0.5912
G1 X86.8895 Y45.5273
G1 X86.2882 Y45.9352
G1 X85.9871 Y46.1385
G1 X85.8364 Y46.2398
G1 X85.6855 Y46.3408
G3 X84.0353 Y47.3323 I-9.6904 J-14.2602
G1 X83.8607 Y47.4242
G3 X83.5931 Y47.5535 I-2.6483 J-5.1387
G3 X83.5231 Y47.5825 I-0.351 J-0.7495
G1 X83.4963 Y47.5926
G1 X83.4486 Y47.6087
G3 X83.4118 Y47.6188 I-0.0844 J-0.2347
G3 X83.3543 Y47.6274 I-0.0563 J-0.181
G3 X83.3244 Y47.624 I-0.0061 J-0.0799
G3 X83.3006 Y47.6056 I0.0111 J-0.039
G3 X83.2978 Y47.563 I0.0609 J-0.0253
G3 X83.3605 Y47.4211 I0.5031 J0.1375
G3 X83.4887 Y47.2274 I2.5057 J1.5193
G1 X83.5229 Y47.1805
G1 X83.628 Y47.0416
G3 X84.1663 Y46.4125 I6.0798 J4.6572
G1 X84.2384 Y46.338
G1 X84.3666 Y46.2101
G1 X84.4154 Y46.1628
G3 X84.5882 Y45.9995 I3.6922 J3.7325
G1 X84.7625 Y45.8379
G1 X85.1867 Y45.4423
G1 X85.8212 Y44.8472
G1 X86.4585 Y44.2551
G1 X86.7705 Y43.97
G1 X87.0745 Y43.6958
G1 X87.3707 Y43.432
G3 X92.1732 Y39.5982 I38.957 J43.8761
G3 X97.3618 Y36.3056 I32.4723 J45.436
G1 X97.5285 Y36.2126
G3 X102.9356 Y33.587 I26.22 J47.1155
G1 X103.2831 Y33.4437
G3 X104.5959 Y32.9301 I17.2194 J42.0786
G3 X106.5921 Y32.2328 I17.1795 J45.9733
G3 X106.8438 Y32.1521 I3.0543 J9.0899
G3 X108.6185 Y31.6289 I14.5828 J46.197
G3 X114.5098 Y30.4592 I11.4121 J42.0554
G1 X114.8827 Y30.4132
G3 X120.5059 Y30.1097 I5.187 J43.8544
G3 X129.1525 Y31.0551 I-0.4413 J44.0511
G3 X131.2716 Y31.5591 I-8.2748 J39.4959
G3 X137.4335 Y33.7163 I-10.516 J39.9175
G3 X137.9391 Y33.944 I-7.9332 J18.2946
G3 X141.7456 Y35.9349 I-17.3036 J37.7168
G3 X147.0382 Y39.6033 I-22.6669 J38.3551
G3 X147.6614 Y40.1137 I-29.8579 J37.0959
G3 X149.7717 Y41.9829 I-30.2186 J36.241
G3 X151.7675 Y43.9739 I-33.456 J35.5324
G3 X154.933 Y47.6664 I-37.2455 J35.1337
G3 X157.0797 Y50.6151 I-44.0493 J34.3241
G3 X159.9569 Y55.2669 I-53.453 J36.2766
G3 X160.1238 Y55.5654 I-12.9333 J7.4287
G3 X162.4581 Y60.1312 I-64.8414 J36.0296
G3 X162.5194 Y60.2619 I-3.7594 J1.8429
G3 X162.9861 Y61.2782 I-67.6037 J31.6606
G3 X164.2888 Y64.3694 I-62.8403 J28.3021
G1 X164.4626 Y64.8192
G1 X164.6117 Y65.2138
G1 X164.74 Y65.56
G1 X164.9593 Y66.1677
G3 X165.5772 Y68.0047 I-61.2291 J21.6203
G3 X166.2604 Y70.2962 I-73.2727 J23.0941
G3 X166.8795 Y72.6059 I-112.6959 J31.4438
G1 X167.0207 Y73.1576
G3 X167.5291 Y75.2321 I-104.065 J26.6062
G3 X167.6202 Y75.6221 I-22.4573 J5.4499
G3 X167.7042 Y75.9881 I-20.2028 J4.8299
G3 X167.7817 Y76.3315 I-18.7849 J4.4191
G3 X168.3184 Y78.9161 I-77.8886 J17.5237
G1 X168.4389 Y79.565
G1 X168.5252 Y80.0525
G1 X168.5876 Y80.4184
G1 X168.6772 Y80.968
G1 X168.7619 Y81.5185
G3 X169.2295 Y85.6541 I-56.3277 J8.4629
G3 X169.2487 Y85.9136 I-14.5458 J1.2051
G3 X169.2655 Y86.1569 I-13.1617 J1.0343
G3 X169.2804 Y86.3851 I-12.0841 J0.8998
G3 X169.2934 Y86.5991 I-11.21 J0.7902
G3 X169.3857 Y89.8132 I-52.1316 J3.1058
G3 X169.3845 Y90.0802 I-10.1763 J0.0857
G3 X169.3306 Y92.1485 I-55.1335 J-0.4004
G1 X169.3125 Y92.536
G1 X169.2724 Y93.2623
G1 X169.2311 Y93.8974
G1 X169.1905 Y94.4527
G1 X169.1519 Y94.9384
G1 X169.0777 Y95.7879
G1 X169.0172 Y96.4246
G1 X168.9193 Y97.3789
G3 X168.8676 Y97.8558 I-512.5305 J-55.3279
G3 X168.8143 Y98.3325 I-26.9946 J-2.7789
G3 X168.7676 Y98.7392 I-20.5081 J-2.1487
G3 X168.7206 Y99.1395 I-21.0249 J-2.2664
G3 X167.8483 Y105.4264 I-167.0983 J-19.9812
G3 X166.1044 Y114.7852 I-174.8054 J-27.731
G3 X165.0534 Y119.428 I-191.9731 J-41.0152
G3 X163.8934 Y124.0448 I-207.3771 J-49.6536
G3 X163.7077 Y124.7452 I-56.4196 J-14.5827
G3 X163.5255 Y125.4231 I-48.2449 J-12.6024
G3 X163.4364 Y125.7512 I-31.601 J-8.4025
G3 X163.3482 Y126.0741 I-30.1587 J-8.0676
G3 X163.2608 Y126.3918 I-28.9672 J-7.7964
G3 X163.1743 Y126.7043 I-27.9703 J-7.5746
G3 X163.0886 Y127.0119 I-27.1287 J-7.3922
G3 X163.0038 Y127.3145 I-26.414 J-7.2423
G3 X162.9198 Y127.6123 I-25.8049 J-7.1193
G3 X162.8366 Y127.9052 I-25.2855 J-7.0195
G3 X162.7543 Y128.1935 I-24.8443 J-6.9399
G3 X161.3936 Y132.7142 I-161.6246 J-46.1825
G3 X161.2595 Y133.136 I-38.3315 J-11.9515
G3 X160.1796 Y136.3919 I-140.193 J-44.693
G1 X159.9687 Y136.9996
G1 X159.7686 Y137.5684
G3 X158.9961 Y139.6936 I-122.062 J-43.1645
G3 X157.7695 Y142.8559 I-124.6833 J-46.5417
G1 X157.4497 Y143.6412
G3 X156.9596 Y144.815 I-96.7589 J-39.713
G1 X156.7098 Y145.3999
G1 X156.4569 Y145.9834
G3 X155.9723 Y147.0775 I-182.8262 J-80.325
G1 X155.7411 Y147.5885
G1 X155.5146 Y148.0824
G1 X155.2928 Y148.5598
G1 X155.0757 Y149.0212
G1 X154.8631 Y149.4671
G3 X154.4449 Y150.3282 I-57.5241 J-27.4034
G3 X152.7995 Y153.5184 I-78.5503 J-38.4935
G3 X150.0815 Y158.1659 I-70.7529 J-38.2608
G3 X149.3512 Y159.2969 I-51.0167 J-32.1429
G3 X147.0293 Y162.6011 I-54.7728 J-36.0195
G3 X146.63 Y163.1279 I-52.8458 J-39.646
G1 X146.2757 Y163.5852
G3 X144.9966 Y165.1543 I-37.4736 J-29.2424
G1 X144.6664 Y165.538
G3 X143.6491 Y166.6651 I-33.2725 J-29.0104
G3 X142.1127 Y168.2008 I-22.3219 J-20.7951
G3 X140.4515 Y169.6002 I-14.7008 J-15.7657
G3 X140.3444 Y169.6805 I-1.7449 J-2.2152
G3 X140.2402 Y169.7575 I-2.0114 J-2.6117
G3 X139.8318 Y170.0499 I-8.8751 J-11.9646
G1 X139.4695 Y170.2984
G1 X139.1492 Y170.511
G1 X138.8669 Y170.6939
G1 X138.3693 Y171.0084
G3 X137.994 Y171.2408 I-27.2556 J-43.5907
G1 X137.4292 Y171.5865
G1 X137.2878 Y171.6728
G1 X136.8641 Y171.9318
G1 X136.4783 Y172.1697
G2 X135.0469 Y173.0869 I25.6659 J41.6288
G2 X134.9145 Y173.1759 I1.5748 J2.4871
G2 X133.9046 Y173.8887 I15.1434 J22.5253
G2 X132.4662 Y175.0587 I11.356 J15.4301
G2 X131.1715 Y176.386 I9.3232 J10.3892
G2 X130.1151 Y177.826 I9.8001 J8.2974
G2 X129.7684 Y178.3989 I12.899 J8.1976
G2 X129.2216 Y179.4351 I14.7343 J8.4368
G2 X128.532 Y181.0509 I16.7567 J8.1067
G2 X128.2398 Y181.8795 I23.4348 J8.7306
G2 X128.1718 Y182.0883 I7.3033 J2.4945
G2 X128.122 Y182.2454 I4.215 J1.4218
G2 X127.9791 Y182.7184 I16.8174 J5.3389
G2 X127.4023 Y185.0849 I26.6017 J7.7373
G1 X127.3157 Y185.5333
G2 X127.2963 Y185.6385 I2.4844 J0.5126
G2 X127.2775 Y185.7422 I2.4528 J0.498
G2 X127.2593 Y185.8444 I2.42 J0.4836
G2 X127.2417 Y185.945 I2.3862 J0.4695
G2 X127.2246 Y186.044 I2.3516 J0.4557
G2 X127.2081 Y186.1416 I2.3163 J0.4421
G2 X127.1921 Y186.2376 I2.2806 J0.4289
G2 X127.1767 Y186.3323 I2.2448 J0.4161
G2 X127.1616 Y186.4254 I2.2088 J0.4036
G2 X126.7951 Y189.3739 I46.2551 J7.2477
G2 X126.73 Y190.1139 I37.8523 J3.7035
G2 X126.6468 Y191.225 I106.6996 J8.5441
G2 X126.6421 Y191.2946 I1.0759 J0.1078
G2 X126.6249 Y191.5552 I11.6678 J0.9011
G1 X126.577 Y192.3372
G2 X126.5178 Y193.3802 I207.474 J12.3064
G1 X126.5063 Y193.5758
G1 X126.4598 Y194.3089
G1 X126.4402 Y194.5838
G1 X126.4312 Y194.704
G3 X126.2504 Y196.5026 I-32.9955 J-2.4086
G1 X126.2204 Y196.7255
G1 X126.191 Y196.9202
G3 X126.1267 Y197.2593 I-5.3713 J-0.8422
G3 X125.9786 Y197.7558 I-3.1078 J-0.6565
G3 X125.7234 Y198.2067 I-1.6264 J-0.623
G3 X125.4794 Y198.4425 I-1.1151 J-0.9096
G3 X125.0385 Y198.6929 I-1.2376 J-1.6658
G3 X124.5598 Y198.86 I-1.5632 J-3.7077
G1 X124.3513 Y198.9174
G1 X123.9831 Y199.0148
G1 X123.8434 Y199.0546
G2 X123.6001 Y199.1348 I0.9206 J3.2017
G1 X123.5091 Y199.1708
G2 X123.4305 Y199.2062 I0.3439 J0.8684
G2 X123.18 Y199.376 I0.3487 J0.7843
G2 X123.0737 Y199.6592 I0.2444 J0.2533
G2 X123.109 Y199.8036 I0.5761 J-0.0642
G2 X123.3589 Y200.168 I0.9647 J-0.3938
G2 X123.819 Y200.3962 I0.6145 J-0.661
G2 X124.1983 Y200.4141 I0.2569 J-1.4115
G2 X124.7594 Y200.3258 I-0.3278 J-3.9104
G1 X124.898 Y200.2953
G1 X125.1059 Y200.2491
G1 X125.3147 Y200.2067
G3 X126.0647 Y200.1298 I0.8578 J4.6716
G3 X126.4419 Y200.1352 I0.1222 J4.6875
G1 X126.5361 Y200.1405
G1 X126.6066 Y200.1453
G1 X126.8179 Y200.1642
G3 X126.9446 Y200.1783 I-0.1597 J2.0023
G3 X127.1655 Y200.2105 I-0.2776 J2.6775
G3 X127.4916 Y200.2862 I-0.4405 J2.6379
G3 X127.8023 Y200.4108 I-0.4825 J1.6535
G3 X128.1693 Y200.668 I-0.8294 J1.5737
G3 X128.4726 Y200.9979 I-1.7407 J1.9046
G3 X128.7857 Y201.5061 I-2.4056 J1.8328
G3 X128.9564 Y201.9195 I-3.1838 J1.5564
G3 X129.053 Y202.2405 I-3.6116 J1.2619
G3 X129.156 Y202.7327 I-6.1714 J1.5484
G1 X129.175 Y202.8569
G3 X129.2188 Y203.2315 I-5.2877 J0.8081
G3 X129.2276 Y204.6395 I-8.0323 J0.754
G3 X128.9789 Y206.0256 I-7.3205 J-0.5982
G3 X128.4826 Y207.3333 I-8.3392 J-2.4165
G3 X127.8227 Y208.5664 I-12.9444 J-6.135
G3 X126.9809 Y209.8811 I-19.3962 J-11.4921
G3 X126.5255 Y210.5152 I-24.5605 J-17.1579
G1 X126.2895 Y210.826
G1 X126.0481 Y211.1327
G3 X125.9688 Y211.2312 I-1.5687 J-1.1815
G2 X125.9316 Y211.2773 I0.9041 J0.7671
G2 X125.8956 Y211.3221 I0.8335 J0.7075
G2 X125.8608 Y211.3655 I0.7815 J0.6618
G2 X125.7938 Y211.4501 I1.0315 J0.8867
G2 X125.553 Y211.7751 I5.4857 J4.3157
G2 X125.257 Y212.3053 I2.5058 J1.7464
G2 X125.0957 Y212.8907 I2.1116 J0.8969
G2 X125.075 Y213.2184 I2.0128 J0.2917
G2 X125.0864 Y213.3829 I1.0318 J0.0109
G2 X125.1266 Y213.5427 I0.673 J-0.0844
G2 X125.1792 Y213.6211 I0.2104 J-0.0842
G2 X125.3326 Y213.6635 I0.1189 J-0.1311
G2 X125.4645 Y213.6207 I-0.0632 J-0.419
G2 X125.6816 Y213.4831 I-0.6208 J-1.2197
G2 X126.0184 Y213.1869 I-2.2669 J-2.9168
G2 X126.254 Y212.947 I-4.7514 J-4.9032
G2 X126.9272 Y212.196 I-18.08 J-16.8808
G1 X128.1407 Y210.8128
G1 X128.2915 Y210.639
G2 X129.315 Y209.3962 I-22.815 J-19.8308
G1 X129.5256 Y209.1202
G1 X129.7054 Y208.8752
G1 X129.858 Y208.6574
G2 X130.3422 Y207.8624 I-6.5253 J-4.519
G2 X130.703 Y207.0043 I-4.4068 J-2.3578
G2 X130.8211 Y206.5422 I-5.5837 J-1.6733
G1 X130.9225 Y206.0761
G3 X131.0367 Y205.6144 I25.6584 J6.101
G2 X131.0956 Y205.3839 I-6.5888 J-1.807
G1 X131.1243 Y205.2685
G1 X131.152 Y205.1528
G1 X131.1935 Y204.9717
G3 X131.2091 Y204.9037 I0.9584 J0.1845
G3 X131.2231 Y204.8443 I0.696 J0.1324
G3 X131.3419 Y204.4344 I3.5558 J0.8081
G3 X131.5914 Y203.9235 I3.0658 J1.1807
G3 X131.9032 Y203.4481 I6.3714 J3.8397
G3 X133.1068 Y201.8224 I25.1728 J17.3782
G3 X133.498 Y201.3399 I19.5647 J15.464
G1 X133.7959 Y200.9817
G1 X134.0204 Y200.7141
G1 X134.3573 Y200.3127
G2 X134.5251 Y200.1114 I-10.4439 J-8.8756
G2 X134.6087 Y200.0105 I-4.3049 J-3.6502
G2 X134.692 Y199.9093 I-3.653 J-3.0937
G2 X134.8219 Y199.7504 I-4.404 J-3.7315
G2 X136.6822 Y197.2971 I-37.0631 J-30.0362
G1 X136.9789 Y196.8739
G2 X137.9858 Y195.3707 I-44.8356 J-31.1205
G2 X138.4719 Y194.6078 I-90.3581 J-58.1123
G2 X138.711 Y194.2239 I-20.3143 J-12.915
G2 X138.8295 Y194.0313 I-11.4855 J-7.2054
G2 X138.9475 Y193.8384 I-10.1001 J-6.3074
G2 X139.0806 Y193.619 I-10.736 J-6.6645
G2 X140.9975 Y190.282 I-82.5957 J-49.6657
G1 X141.4382 Y189.4755
G2 X141.6027 Y189.1726 I-21.7548 J-12.0107
G3 X142.7596 Y187.0556 I233.1421 J126.0272
G3 X144.27 Y184.4618 I63.5196 J35.2523
G1 X144.4919 Y184.1047
G3 X144.5764 Y183.9715 I2.6793 J1.6069
G3 X144.6511 Y183.8555 I2.0318 J1.2259
G3 X144.7171 Y183.7544 I1.6873 J1.0296
G3 X144.7754 Y183.6663 I1.4624 J0.9048
G3 X144.9842 Y183.3612 I10.9709 J7.2849
G3 X145.2017 Y183.0624 I6.5837 J4.5624
G3 X146.1239 Y181.9842 I9.5624 J7.2458
G3 X146.8844 Y181.2407 I11.7909 J11.2999
G1 X147.1802 Y180.9733
G1 X147.3111 Y180.858
G3 X148.3127 Y180.0163 I22.2111 J25.4164
G1 X149.3313 Y179.1952
G1 X149.7125 Y178.8871
G1 X150.4248 Y178.3065
G1 X151.0464 Y177.7962
G1 X151.5895 Y177.3489
G1 X152.5399 Y176.566
G1 X153.2541 Y175.9806
G3 X153.3883 Y175.8711 I4.1049 J4.8941
G3 X153.5142 Y175.7686 I4.4018 J5.2758
G3 X155.4165 Y174.2489 I70.8282 J86.7123
G3 X158.0408 Y172.2814 I48.4638 J61.908
G1 X158.3744 Y172.043
G3 X160.7463 Y170.427 I40.0443 J56.2254
G3 X160.9172 Y170.3159 I4.2313 J6.325
G3 X161.0777 Y170.2122 I4.4344 J6.6883
G3 X161.2284 Y170.1154 I4.6313 J7.039
G3 X161.5115 Y169.9345 I7.0653 J10.7453
G1 X163.4996 Y168.6796
G1 X164.2571 Y168.1958
G1 X164.8234 Y167.83
G1 X165.6702 Y167.2773
G1 X166.5144 Y166.7204
G1 X167.1707 Y166.2842
G1 X169.138 Y164.9736
G3 X169.2563 Y164.8952 I3.0503 J4.4757
G3 X169.3709 Y164.8194 I3.161 J4.6538
G3 X171.1619 Y163.6671 I39.855 J59.974
G3 X172.0753 Y163.1194 I16.4773 J26.4473
G3 X173.006 Y162.6019 I17.4223 J30.2365
G1 X173.1926 Y162.5038
G3 X174.6241 Y161.8339 I7.867 J14.948
G3 X174.7159 Y161.797 I0.5966 J1.3492
G3 X176.1261 Y161.3418 I3.8647 J9.5601
G3 X176.3057 Y161.3003 I1.3238 J5.3319
G3 X177.671 Y161.0862 I2.6186 J12.2354
G3 X178.0148 Y161.052 I1.9571 J17.958
G1 X178.5313 Y161.009
G1 X179.0481 Y160.9711
G1 X181.0356
G1 X178.4015 Y163.0487
G1 X181.2339 Y165.072
G2 X181.4534 Y165.2198 I11.8126 J-17.3065
G2 X182.2276 Y165.7279 I15.1004 J-22.1634
G1 X182.4239 Y165.8505
G1 X182.7216 Y166.0293
G1 X182.8721 Y166.116
G1 X183.0238 Y166.2007
G1 X183.2136 Y166.3025
G2 X183.8949 Y166.6249 I4.4412 J-8.5037
G2 X184.2462 Y166.7616 I2.0437 J-4.7309
G2 X184.6047 Y166.8782 I2.6074 J-7.4101
G2 X185.9875 Y167.1092 I1.67 J-5.7427
G2 X186.7697 Y167.1038 I0.3458 J-6.6107
G1 X186.9159 Y167.0939
G2 X188.0051 Y166.9462 I-0.7878 J-9.9004
G1 X188.2746 Y166.8922
G1 X188.4759 Y166.8478
G1 X188.7766 Y166.7757
G1 X189.0758 Y166.6974
G2 X189.5056 Y166.5746 I-3.3857 J-12.6707
G1 X189.88 Y166.461
G1 X190.5345 Y166.2601
G3 X191.5245 Y165.9871 I5.2473 J17.0979
G3 X192.5288 Y165.7724 I4.136 J16.894
G1 X192.7972 Y165.7247
G1 X193.0339 Y165.6823
G1 X193.1383 Y165.6627
G2 X193.5291 Y165.5784 I-1.3881 J-7.3862
G2 X193.8238 Y165.4932 I-0.678 J-2.895
G2 X194.042 Y165.405 I-0.8694 J-2.4661
G2 X194.1217 Y165.3632 I-0.6127 J-1.2639
G2 X194.2523 Y165.2737 I-0.4286 J-0.7652
G2 X194.3984 Y165.0858 I-0.3079 J-0.3901
G2 X194.4245 Y164.8493 I-0.4013 J-0.1641
G2 X194.3386 Y164.6049 I-0.8187 J0.1504
G2 X194.1854 Y164.396 I-0.7693 J0.4035
G2 X193.7858 Y164.2094 I-0.4659 J0.4765
G2 X193.461 Y164.2167 I-0.1356 J1.1834
G1 X193.3411 Y164.2373
G2 X192.9303 Y164.3468 I1.0373 J4.7149
G1 X192.8795 Y164.3628
G1 X192.791 Y164.3914
G1 X192.5256 Y164.4773
G3 X191.7562 Y164.6855 I-2.751 J-8.6386
G3 X191.1705 Y164.8043 I-2.8489 J-12.5479
G1 X190.9497 Y164.8425
G1 X190.7562 Y164.874
G1 X190.078 Y164.9786
G2 X189.4018 Y165.0954 I2.9838 J19.299
G1 X189.1126 Y165.155
G1 X188.8603 Y165.2104
G1 X188.4191 Y165.3092
G1 X188.0874 Y165.38
G1 X187.8376 Y165.4287
G3 X187.082 Y165.5345 I-1.3946 J-7.208
G3 X186.6811 Y165.5554 I-0.5805 J-7.2897
G3 X185.4846 Y165.4402 I-0.1058 J-5.1747
G3 X185.3657 Y165.4123 I0.2905 J-1.5022
G3 X184.4979 Y165.1235 I1.6182 J-6.3103
G3 X184.077 Y164.9447 I4.8727 J-12.0575
G1 X183.8683 Y164.8512
G1 X183.6601 Y164.7565
G1 X181.1955 Y163.6664
G1 X183.7741 Y162.7241
G2 X183.8597 Y162.6889 I-1.0346 J-2.6345
G1 X184.1797 Y162.5557
G2 X184.6558 Y162.3461 I-6.0728 J-14.4354
G1 X184.8902 Y162.2334
G2 X185.006 Y162.1743 I-1.1786 J-2.4561
G2 X185.1208 Y162.1132 I-0.9978 J-2.0124
G2 X186.1037 Y161.4365 I-2.6318 J-4.8742
G1 X186.1761 Y161.3728
G2 X186.4078 Y161.1267 I-1.2101 J-1.3713
G2 X186.4956 Y160.9806 I-0.5713 J-0.4426
G2 X186.5435 Y160.8171 I-0.4979 J-0.2349
G2 X186.4912 Y160.4756 I-0.6994 J-0.0676
G2 X186.3072 Y160.1832 I-0.9004 J0.3626
G2 X185.9431 Y159.9473 I-0.6444 J0.5954
G2 X185.6286 Y159.8788 I-0.4624 J1.3665
G2 X185.5084 Y159.8693 I-0.2822 J2.8299
G1 X185.403 Y159.8662
G1 X185.3568 Y159.8661
G1 X185.3135 Y159.8666
G1 X185.2325 Y159.8689
G2 X184.9494 Y159.8867 I0.4061 J8.7291
G1 X184.6667 Y159.9107
G3 X183.6843 Y159.9632 I-1.389 J-16.7782
G1 X183.4999 Y159.9668
G1 X183.4134 Y159.9678
G3 X182.7435 Y159.963 I-0.1158 J-30.4959
G3 X181.7396 Y159.9201 I0.7438 J-29.157
G3 X181.6769 Y159.9164 I0.005 J-0.611
G1 X181.2069 Y159.8858
G1 X180.972 Y159.8693
G3 X180.8545 Y159.8609 I0.0801 J-1.9514
G3 X180.7371 Y159.8525 I0.183 J-3.3771
G2 X170.5036 Y162.5444 I-2.6469 J10.7355
G1 X169.1433 Y163.3917
G1 X168.462 Y163.8137
G1 X167.7796 Y164.2337
G3 X166.2497 Y165.1619 I-112.0851 J-183.0148
G3 X165.8658 Y165.3916 I-17.3863 J-28.6148
G3 X165.5775 Y165.5633 I-13.1662 J-21.7838
G3 X165.1444 Y165.8197 I-14.4425 J-23.8986
G3 X164.9276 Y165.9474 I-9.4834 J-15.8528
G3 X164.7106 Y166.0748 I-9.0854 J-15.2315
G3 X164.3676 Y166.2752 I-13.7342 J-23.112
G1 X163.1645 Y166.9726
G1 X162.5625 Y167.3205
G1 X161.961 Y167.6692
G1 X161.3291 Y168.0379
G1 X160.7379 Y168.3856
G1 X160.185 Y168.7138
G1 X159.6678 Y169.0237
G2 X155.8457 Y171.4385 I49.034 J81.8424
G1 X155.377 Y171.7544
G2 X152.1763 Y174.0796 I33.9104 J50.0439
G2 X150.2655 Y175.6479 I32.1543 J41.1243
G2 X149.9163 Y175.9528 I25.3222 J29.3645
G2 X147.402 Y178.3531 I28.635 J32.5115
G2 X147.2516 Y178.51 I4.3228 J4.2939
G2 X145.1069 Y180.9639 I26.8947 J25.6698
G2 X143.6479 Y182.9232 I29.5474 J23.5259
G2 X141.6666 Y186.0044 I42.4735 J29.4897
G1 X141.433 Y186.3983
G2 X139.86 Y189.1914 I81.4662 J47.7181
G1 X139.379 Y190.083
G1 X138.6589 Y191.4211
G3 X138.2949 Y192.0881 I-264.4049 J-143.8729
G1 X137.9255 Y192.752
G3 X136.9194 Y194.4718 I-47.2256 J-26.4706
G3 X135.8466 Y196.1509 I-37.7844 J-22.9596
G3 X135.4138 Y196.7834 I-26.7722 J-17.8559
G1 X135.0831 Y197.2537
G1 X134.5804 Y197.9544
G1 X134.0737 Y198.6521
G1 X131.4008 Y201.9378
G1 X130.0673 Y200.3299
G3 X129.9729 Y200.1877 I3.5909 J-2.4849
G1 X129.7968 Y199.9205
G3 X129.2116 Y198.9654 I13.5843 J-8.9809
G3 X128.7375 Y197.9507 I6.302 J-3.5628
G1 X128.6713 Y197.7606
G1 X128.615 Y197.5805
G3 X128.4503 Y196.8928 I6.7034 J-1.9694
G3 X128.3162 Y195.8413 I9.2198 J-1.7097
G1 X128.2993 Y195.5767
G3 X128.2838 Y195.1795 I18.5338 J-0.9239
G3 X128.2815 Y195.08 I1.7558 J-0.0898
G3 X128.2802 Y195.0055 I1.2966 J-0.0602
G1 X128.2781 Y194.7819
G3 X128.3772 Y192.5362 I25.5868 J0.0045
G1 X128.4281 Y191.9766
G3 X128.5165 Y191.1382 I124.6818 J12.712
G1 X128.6134 Y190.3009
G1 X128.7169 Y189.4432
G1 X128.7643 Y189.068
G3 X128.9618 Y187.6641 I44.5675 J5.5552
G3 X129.3566 Y185.5743 I30.3272 J4.646
G3 X129.9347 Y183.5275 I19.1741 J4.3107
G3 X130.3684 Y182.4016 I15.9852 J5.5108
G3 X131.1896 Y180.789 I12.2751 J5.2356
G3 X132.2479 Y179.321 I9.0181 J5.3863
G3 X132.717 Y178.8174 I6.9152 J5.9715
G3 X133.608 Y178.0083 I8.5355 J8.5041
G1 X133.7826 Y177.8654
G3 X134.4526 Y177.349 I10.801 J13.3207
G1 X134.7087 Y177.1619
G1 X134.8214 Y177.0809
G3 X135.2467 Y176.7811 I36.6555 J51.5445
G1 X135.4071 Y176.6699
G1 X135.5477 Y176.573
G1 X136.5339 Y175.8979
G2 X145.2402 Y168.9493 I-44.6647 J-64.8906
G2 X152.8607 Y160.8246 I-51.7391 J-56.1647
G2 X152.9957 Y160.6572 I-6.8817 J-5.6898
G2 X153.1291 Y160.4908 I-7.2541 J-5.9551
G2 X157.1314 Y155.0299 I-65.0306 J-51.857
G1 X157.484 Y154.5022
G2 X160.0972 Y150.3355 I-81.7352 J-54.164
G2 X163.6611 Y143.8771 I-104.3316 J-61.7853
G1 X163.8714 Y143.4668
G2 X164.6487 Y141.9224 I-135.2814 J-69.0437
G1 X164.9356 Y141.341
G2 X165.9216 Y139.2972 I-155.816 J-76.4316
G2 X166.8814 Y137.2409 I-186.2764 J-88.2087
G1 X167.3144 Y136.2923
G1 X167.7288 Y135.3711
G2 X169.2817 Y131.7774 I-153.0021 J-68.2459
G2 X169.364 Y131.5796 I-9.3323 J-3.9978
G2 X171.7989 Y125.2313 I-109.8266 J-45.7656
G2 X173.3534 Y120.3719 I-89.1776 J-31.2058
G2 X173.6138 Y119.451 I-217.8904 J-62.1075
G2 X173.6436 Y119.3429 I-3.5968 J-1.0501
G2 X174.0966 Y117.6212 I-67.8032 J-18.7601
G1 X174.2824 Y116.8647
G2 X175.4096 Y111.1339 I-66.8499 J-16.1254
G2 X175.4633 Y110.7726 I-14.8132 J-2.3848
G2 X175.5116 Y110.4337 I-17.2894 J-2.6411
G2 X176.0031 Y105.3234 I-56.8617 J-8.0467
G2 X176.016 Y100.0867 I-52.9432 J-2.7495
G2 X175.4932 Y94.8763 I-48.19 J2.2041
G2 X175.465 Y94.6976 I-5.6226 J0.7952
G2 X175.22 Y93.2939 I-48.8469 J7.8032
G2 X175.1009 Y92.6821 I-54.0823 J10.212
G2 X174.5991 Y90.3992 I-60.1208 J12.0174
G1 X174.4967 Y89.9732
G2 X173.6675 Y86.7929 I-104.1908 J25.4681
G1 X173.4481 Y86.0011
G2 X173.2816 Y85.4078 I-153.5879 J42.7682
G1 X172.777 Y83.6293
G1 X171.5686 Y79.3763
G1 X170.3626 Y75.1226
G2 X170.2614 Y74.7789 I-50.6616 J14.7369
G2 X170.1616 Y74.4405 I-29.1313 J8.4005
G2 X170.0634 Y74.1074 I-22.4956 J6.4524
G2 X169.9666 Y73.7795 I-18.9604 J5.4183
G2 X169.8713 Y73.4568 I-16.6798 J4.7542
G2 X169.7772 Y73.1391 I-15.0542 J4.2835
G1 X169.4052 Y71.889
G1 X169.0528 Y70.718
G2 X168.7179 Y69.6214 I-190.1343 J57.4575
G2 X168.6784 Y69.493 I-5.7329 J1.6963
G2 X168.639 Y69.3656 I-5.6596 J1.6778
G2 X168.5999 Y69.2392 I-5.5894 J1.6603
G2 X168.561 Y69.1138 I-5.5221 J1.6436
G2 X168.5224 Y68.9895 I-5.4575 J1.6278
G2 X168.484 Y68.8661 I-5.3955 J1.6127
G2 X168.4458 Y68.7437 I-5.3361 J1.5983
G2 X167.1849 Y64.8738 I-140.5738 J43.6613
G2 X167.1231 Y64.6933 I-5.8422 J1.9
G2 X167.0619 Y64.5157 I-5.8001 J1.8971
G2 X167.0015 Y64.3409 I-5.7611 J1.8951
G2 X166.9417 Y64.1689 I-5.7251 J1.8941
G2 X166.8826 Y63.9998 I-5.6921 J1.894
G2 X166.8241 Y63.8333 I-5.6621 J1.8948
G2 X166.7663 Y63.6696 I-5.6348 J1.8964
G2 X166.7092 Y63.5085 I-5.6101 J1.8989
G2 X165.7741 Y60.9844 I-101.2015 J36.0568
G2 X164.2255 Y57.2556 I-73.8467 J28.4834
G1 X164.0178 Y56.7956
G2 X162.4647 Y53.6222 I-56.2524 J25.5641
G2 X161.2902 Y51.4979 I-47.4485 J24.8476
G1 X161.0213 Y51.0399
G2 X158.7923 Y47.5807 I-47.0188 J27.8489
G2 X154.9675 Y42.7377 I-42.2031 J29.3995
G2 X154.7092 Y42.4508 I-13.7011 J12.0708
G2 X150.5699 Y38.4082 I-35.0598 J31.7581
G2 X143.0505 Y33.1408 I-30.206 J35.1197
G2 X134.6479 Y29.4418 I-23.0959 J41.071
G2 X133.0759 Y28.9663 I-10.4523 J31.7204
G2 X132.9767 Y28.9396 I-0.6746 J2.3039
G2 X132.8836 Y28.9149 I-0.6449 J2.2438
G2 X132.7963 Y28.8921 I-0.6186 J2.1918
G2 X131.4755 Y28.5972 I-5.162 J20.0144
G2 X129.6017 Y28.3471 I-3.6743 J20.3794
G1 X129.1307 Y28.3083
G1 X128.7771 Y28.2838
G1 X128.2462 Y28.2532
G2 X127.9807 Y28.2402 I-0.5391 J8.2848
G2 X127.8479 Y28.2342 I-0.2591 J4.2374
G2 X127.7151 Y28.2284 I-0.2254 J3.6638
G2 X127.6178 Y28.2243 I-0.1729 J2.9783
G1 X126.8512 Y28.1968
G2 X124.1671 Y28.1508 I-3.2176 J109.3794
G2 X123.8316 Y28.1492 I-0.2544 J17.5556
G1 X122.6571 Y28.1478
G1 X121.4827 Y28.1506
G1 X120.504 Y28.1542
G1 X119.6477 Y28.1594
G1 X118.8984 Y28.1669
G2 X118.2427 Y28.1764 I0.6585 J68.1622
G2 X117.6691 Y28.1875 I0.4136 J36.038
G2 X117.1672 Y28.1998 I0.4918 J30.2808
G2 X115.4115 Y28.2662 I1.6577 J67.1344
G1 X114.9728 Y28.2894
G2 X113.6581 Y28.3785 I2.9666 J53.5277
G2 X110.5842 Y28.7199 I3.8868 J49.0133
G2 X110.3929 Y28.7479 I1.1463 J8.502
G2 X107.5408 Y29.2702 I5.9827 J40.7139
G2 X107.3285 Y29.3175 I1.4966 J7.2234
G2 X107.1231 Y29.3643 I1.8087 J8.4022
G2 X106.3294 Y29.5553 I6.9861 J30.7828
G1 X105.9833 Y29.6431
G1 X105.6593 Y29.7277
G1 X105.0533 Y29.8915
G1 X104.5244 Y30.0398
G1 X104.0625 Y30.173
G1 X103.2561 Y30.4122
G1 X102.6526 Y30.5958
G1 X101.7487 Y30.8758
G1 X100.8457 Y31.1587
G1 X97.4336 Y32.2591
G1 X94.2119 Y29.3625
G2 X93.9618 Y29.1631 I-11.9135 J14.6878
G2 X93.8445 Y29.0696 I-5.2079 J6.4187
G2 X93.7308 Y28.9792 I-4.3901 J5.4014
G2 X93.6206 Y28.8917 I-3.8595 J4.7447
G2 X93.5138 Y28.8069 I-3.4798 J4.2773
G2 X93.4103 Y28.7249 I-3.1909 J3.9238
G2 X92.6042 Y28.0943 I-40.2483 J50.6119
G2 X91.9933 Y27.6293 I-26.8025 J34.5794
G2 X91.0623 Y26.9517 I-26.5966 J35.5674
G2 X90.1081 Y26.307 I-14.9459 J21.0909
G1 X89.8204 Y26.1239
G2 X87.595 Y24.8629 I-15.5165 J24.7895
G2 X85.2826 Y23.7699 I-18.411 J35.9571
G2 X82.7508 Y22.7591 I-15.553 J35.282
G2 X80.1429 Y21.9653 I-9.1292 J25.312
G2 X78.5351 Y21.6213 I-6.239 J25.2265
G2 X76.0951 Y21.2649 I-6.6086 J36.7147
G1 X75.7888 Y21.2306
G1 X75.2522 Y21.1748
G1 X74.8496 Y21.136
G1 X74.2452 Y21.0821
G2 X73.9428 Y21.0566 I-1.746 J18.9608
G2 X73.7916 Y21.0443 I-0.7093 J7.7365
G2 X73.6404 Y21.0321 I-0.5913 J6.3977
G2 X71.6783 Y20.8932 I-9.8364 J124.9959
G1 X70.9418 Y20.8521
G2 X68.3613 Y20.7719 I-3.2081 J61.6317
G2 X65.7799 Y20.8184 I-0.5061 J43.5142
G2 X62.7386 Y21.0577 I2.7565 J54.4969
G1 X62.3593 Y21.0978
G1 X61.696 Y21.1717
G1 X61.1989 Y21.2295
G1 X60.4534 Y21.3189
G1 X59.7082 Y21.4099
G1 X59.7079
G1 X59.7082
G0 Z0.125
G0 X60.2813 Y23.9514
G1 F10.0 Z0.485
G3 F30.0 X63.832 Y23.3096 I9.2356 J40.9511
G3 X64.7638 Y23.1945 I6.8402 J51.5243
G3 X64.9388 Y23.1754 I0.5964 J4.6652
G3 X65.1029 Y23.1583 I0.5576 J4.5506
G3 X67.5726 Y22.9905 I3.6578 J35.5804
G3 X69.6204 Y22.9787 I1.2495 J39.2877
G3 X71.1552 Y23.0313 I-0.8301 J46.694
G3 X73.454 Y23.1776 I-4.0696 J82.0807
G1 X74.0281 Y23.2225
G1 X74.889 Y23.2933
G1 X75.7496 Y23.3664
G1 X76.8194 Y23.5777
G2 X76.8696 Y23.5876 I0.1295 J-0.5244
G1 X77.6594 Y23.7431
G1 X78.8444 Y23.975
G1 X79.4371 Y24.0898
G1 X80.03 Y24.2036
G1 X80.2778 Y24.2508
G3 X80.3069 Y24.2563 I-0.0233 J0.2007
G3 X81.2261 Y24.4456 I-4.4382 J23.8802
G1 X81.5685 Y24.5276
G3 X82.7517 Y24.8694 I-5.0403 J19.6719
G3 X83.9155 Y25.2728 I-9.7765 J30.0794
G1 X84.0127 Y25.3086
G1 X84.3766 Y25.4458
G3 X84.9191 Y25.666 I-3.7807 J10.0897
G3 X85.1903 Y25.7927 I-1.3737 J3.2964
G3 X85.3288 Y25.8705 I-0.4848 J1.025
G3 X85.4038 Y25.9265 I-0.4733 J0.7121
G3 X85.4248 Y25.9502 I-0.1019 J0.1117
G3 X85.4282 Y25.9969 I-0.0259 J0.0254
G3 X85.3866 Y26.0185 I-0.0637 J-0.0719
G3 X85.2391 Y26.0344 I-0.1654 J-0.8408
G3 X84.795 Y26.0153 I-0.031 J-4.4478
G1 X84.6276 Y25.9991
G3 X84.0459 Y25.9114 I0.9457 J-8.2425
G3 X83.9017 Y25.8824 I0.5458 J-3.089
G1 X83.6862 Y25.8352
G1 X83.4713 Y25.7854
G1 X82.5877 Y25.5784
G1 X82.3666 Y25.5273
G1 X82.2006 Y25.4894
G1 X82.0761 Y25.4613
G1 X81.8892 Y25.4196
G2 X81.7022 Y25.3786 I-1.2335 J5.1821
G2 X79.4092 Y24.9481 I-8.672 J39.8683
G2 X78.543 Y24.8229 I-5.204 J32.9439
G1 X78.1631 Y24.775
G1 X77.8064 Y24.734
G1 X77.4716 Y24.6991
G2 X74.952 Y24.5551 I-2.9989 J30.3596
G2 X74.7942 Y24.5534 I-0.1154 J3.4769
G2 X74.6462 Y24.5527 I-0.0915 J3.5887
G2 X74.5075 Y24.5528 I-0.0679 J3.7262
G2 X72.4297 Y24.6419 I0.0854 J26.241
G2 X70.0433 Y24.9571 I2.2822 J26.4773
G2 X66.5373 Y25.8127 I5.2263 J29.0259
G2 X63.1501 Y27.0579 I10.3678 J33.4324
G2 X58.3924 Y29.5053 I14.822 J34.662
G2 X54.0182 Y32.5862 I20.5938 J33.8843
G2 X53.8418 Y32.7298 I5.4013 J6.8113
G2 X52.5421 Y33.8344 I28.5087 J34.8615
G1 X52.2226 Y34.1168
G2 X51.2737 Y34.9748 I74.5246 J83.38
G2 X51.0441 Y35.1858 I12.1541 J13.4517
G2 X50.8294 Y35.3842 I12.8023 J14.0679
G2 X47.6661 Y38.4202 I87.402 J94.2344
G2 X45.8108 Y40.2881 I161.0669 J161.8308
G2 X45.5807 Y40.5233 I16.7738 J16.6477
G2 X45.3795 Y40.7293 I13.9557 J13.8274
G2 X45.2036 Y40.9098 I11.96 J11.8305
G1 X43.9765 Y42.1765
G1 X42.2489 Y43.9717
G1 X40.9532 Y45.318
G1 X40.4664 Y45.8221
G1 X40.0399 Y46.2626
G1 X39.6661 Y46.6475
G1 X39.0105 Y47.3194
G1 X38.5172 Y47.822
G1 X38.1463 Y48.1979
G1 X37.8675 Y48.4792
G1 X37.4484 Y48.9002
G1 X37.0279 Y49.3198
G1 X36.4873 Y49.8546
G3 X34.5528 Y51.6827 I-40.7023 J-41.1319
G3 X33.5461 Y52.5538 I-21.0413 J-23.3001
G3 X32.5036 Y53.3814 I-16.4489 J-19.6498
G3 X30.8332 Y54.5395 I-15.0169 J-19.8767
G3 X29.0729 Y55.5558 I-12.7822 J-20.1055
G1 X28.7288 Y55.7318
G3 X28.5772 Y55.8066 I-3.3531 J-6.5985
G3 X27.4147 Y56.3124 I-5.81 J-11.7653
G3 X26.2005 Y56.6768 I-3.0739 J-8.0379
G3 X24.9277 Y56.8498 I-1.7475 J-8.0884
G3 X24.2851 Y56.8624 I-0.5007 J-9.1485
G3 X24.1244 Y56.8582 I-0.0051 J-2.8647
G3 X23.6434 Y56.8282 I0.245 J-7.8076
G3 X22.0689 Y56.5549 I0.8924 J-9.8118
G3 X20.5491 Y56.0605 I3.3521 J-12.8877
G3 X19.0806 Y55.3865 I5.3001 J-13.4857
G3 X18.379 Y54.985 I5.5355 J-10.4859
G3 X17.7056 Y54.5379 I5.4899 J-8.9985
G3 X16.4754 Y53.521 I7.1003 J-9.8429
G3 X15.3703 Y52.3692 I11.9511 J-12.573
G1 X15.1837 Y52.1533
G3 X15.1037 Y52.0571 I4.4183 J-3.7546
G3 X14.9581 Y51.8727 I3.8946 J-3.2264
G1 X14.8966 Y51.79
G3 X14.6845 Y51.4668 I2.7732 J-2.0508
G3 X14.4544 Y50.9338 I1.9992 J-1.1792
G3 X14.4054 Y50.3553 I1.4832 J-0.4171
G3 X14.4789 Y50.0383 I1.2671 J0.1268
G3 X14.6449 Y49.7584 I0.8093 J0.2909
G3 X14.8356 Y49.6138 I0.559 J0.5389
G3 X14.9998 Y49.5429 I0.4455 J0.8059
G3 X15.1283 Y49.5049 I0.478 J1.3832
G3 X15.325 Y49.4644 I0.472 J1.7949
G1 X15.4244 Y49.449
G1 X15.5239 Y49.4354
G1 X15.7442 Y49.409
G3 X15.7684 Y49.4063 I0.0318 J0.1779
G3 X15.8635 Y49.3963 I0.1746 J1.2053
G1 X16.0419 Y49.3794
G1 X16.1982 Y49.3663
G1 X16.4718 Y49.3464
G3 X16.6772 Y49.3331 I1.0856 J15.2221
G1 X17.2933 Y49.2941
G1 X17.6747 Y49.2645
G2 X20.5122 Y48.8513 I-1.9361 J-23.2474
G2 X23.2712 Y48.0702 I-3.9905 J-19.3586
G2 X24.1593 Y47.7189 I-5.9423 J-16.3196
G2 X25.669 Y47.0033 I-8.8766 J-20.6764
G2 X26.7648 Y46.3962 I-12.3328 J-23.5547
G2 X27.568 Y45.9087 I-19.495 J-33.0264
G2 X28.7466 Y45.1363 I-18.4168 J-29.386
G2 X29.037 Y44.9368 I-18.3733 J-27.0613
G2 X29.2538 Y44.7858 I-5.4775 J-8.0963
G2 X29.4159 Y44.6718 I-3.6284 J-5.3324
G2 X29.5373 Y44.5859 I-2.734 J-3.9904
G2 X29.6281 Y44.5213 I-2.1753 J-3.1538
G2 X29.7641 Y44.4241 I-2.439 J-3.5549
G2 X29.8998 Y44.3265 I-2.2379 J-3.2553
G1 X30.4613 Y43.9171
G1 X30.9839 Y43.5283
G2 X31.1059 Y43.4365 I-2.5849 J-3.561
G2 X32.0601 Y42.705 I-68.8227 J-90.7641
G2 X32.1638 Y42.6241 I-3.0609 J-4.0323
G2 X35.3748 Y40.0078 I-68.6479 J-87.5316
G2 X36.1643 Y39.3379 I-85.1381 J-101.1329
G1 X36.7541 Y38.8327
G1 X37.636 Y38.0716
G1 X38.5158 Y37.308
G1 X39.9891 Y36.0265
G1 X41.096 Y35.0676
G3 X42.7652 Y33.6395 I204.5475 J237.3904
G1 X43.606 Y32.9326
G1 X44.0283 Y32.5815
G1 X44.4521 Y32.2322
G1 X45.0113 Y31.7762
G3 X45.9981 Y30.9884 I38.709 J47.4706
G3 X46.7463 Y30.4078 I37.2831 J47.2808
G1 X47.029 Y30.1928
G1 X47.5265 Y29.8204
G1 X47.9023 Y29.5446
G1 X48.1857 Y29.3398
G1 X48.6134 Y29.0363
G1 X49.0442 Y28.7374
G3 X50.7788 Y27.6124 I20.5112 J29.7275
G3 X52.5828 Y26.6024 I14.6185 J23.9928
G3 X53.4291 Y26.1916 I13.8 J27.3529
G3 X56.4923 Y24.9894 I12.0702 J26.2519
G3 X57.2765 Y24.7402 I9.4978 J28.531
G3 X59.6593 Y24.0958 I12.3274 J40.8553
G3 X59.9027 Y24.0383 I1.9546 J7.725
G3 X60.1388 Y23.9838 I1.7849 J7.1978
G3 X60.2813 Y23.9514 I9.3782 J40.9187
G0 Z0.125
G0 X63.3107 Y29.349
G1 F10.0 Z0.485
G3 F30.0 X63.8894 Y29.0307 I18.5992 J33.1396
G1 X64.2538 Y28.8377
G3 X65.3626 Y28.2892 I12.4564 J23.7844
G1 X65.7196 Y28.126
G3 X66.0344 Y27.9884 I4.6002 J10.0958
G3 X67.1565 Y27.5565 I6.1209 J14.2284
G1 X67.4423 Y27.4634
G3 X68.3134 Y27.2291 I3.5184 J11.3475
G3 X69.5285 Y27.0304 I2.4399 J11.1021
G1 X69.7582 Y27.007
G1 X69.9737 Y26.9884
G3 X71.5949 Y26.9324 I1.5161 J20.3779
G1 X71.7978 Y26.933
G1 X72.1526 Y26.9368
G1 X72.6847 Y26.947
G3 X72.8178 Y26.9501 I-0.026 J3.9712
G3 X72.9176 Y26.9525 I-0.0175 J2.7868
G3 X73.0672 Y26.9562 I0.0025 J2.9133
G3 X73.1421 Y26.9581 I-0.009 J1.8451
G3 X73.2169 Y26.96 I-0.0063 J1.7339
G1 X74.0186 Y26.9805
G3 X74.1063 Y26.9828 I-0.006 J1.8812
G3 X74.1927 Y26.9851 I-0.0071 J1.8729
G3 X75.5519 Y27.0277 I-2.9805 J116.7446
G3 X76.571 Y27.0721 I-2.2833 J64.1513
G3 X76.6665 Y27.077 I-0.0752 J2.3883
G3 X76.759 Y27.0819 I-0.0802 J2.3848
G3 X76.8487 Y27.0868 I-0.0852 J2.3826
G3 X78.2364 Y27.1826 I-3.0331 J54.0693
G3 X78.4096 Y27.1975 I-0.4238 J5.9165
G3 X78.7127 Y27.2256 I-0.8161 J10.4817
G3 X79.6201 Y27.3247 I-2.9334 J31.0401
G3 X81.9914 Y27.6904 I-5.3194 J42.3701
G3 X84.3475 Y28.1425 I-24.1637 J132.2794
G1 X85.2144 Y28.4852
G1 X85.5393 Y28.6143
G1 X86.1072 Y28.8417
G3 X87.8015 Y29.5467 I-23.1497 J58.021
G1 X87.9062 Y29.5926
G1 X88.3101 Y29.7734
G1 X88.6615 Y29.9361
G1 X88.9676 Y30.0815
G1 X89.2345 Y30.2107
G1 X89.7 Y30.4398
G3 X89.7872 Y30.4831 I-0.5217 J1.1601
G3 X91.0918 Y31.1368 I-102.2572 J205.7126
G1 X91.2705 Y31.2267
G1 X91.4268 Y31.3061
G1 X91.6997 Y31.448
G3 X92.1044 Y31.6765 I-3.7612 J7.1321
G3 X92.3046 Y31.8123 I-1.0828 J1.8127
G3 X92.4028 Y31.9017 I-0.314 J0.4434
G3 X92.4408 Y31.9686 I-0.1064 J0.1048
G3 X92.4007 Y32.0344 I-0.0586 J0.0094
G3 X92.3183 Y32.0584 I-0.1172 J-0.249
G3 X92.0199 Y32.0771 I-0.262 J-1.7912
G1 X91.9825
G3 X91.8517 Y32.0755 I-0.0339 J-2.626
G3 X91.721 Y32.0725 I-0.0068 J-2.4978
G3 X91.3234 Y32.0606 I0.7377 J-31.2395
G1 X91.0253 Y32.0492
G3 X90.5784 Y32.0272 I0.4782 J-14.2768
G1 X90.1318 Y31.999
G1 X89.593 Y31.9588
G1 X88.7853 Y31.8932
G1 X87.9773 Y31.83
G2 X84.5134 Y31.6854 I-3.9405 J52.8323
G2 X79.3196 Y31.9321 I-0.4683 J44.9283
G2 X76.7437 Y32.2946 I4.2527 J39.5494
G1 X76.4235 Y32.352
G1 X76.1438 Y32.4045
G2 X74.1982 Y32.8307 I7.392 J38.3968
G2 X71.1176 Y33.7394 I8.6851 J35.119
G2 X66.686 Y35.6252 I10.9421 J31.8642
G2 X65.6252 Y36.1974 I16.543 J31.9389
G2 X65.4288 Y36.3092 I2.6483 J4.8776
G2 X65.2454 Y36.4154 I2.5651 J4.6405
G2 X65.0742 Y36.5161 I2.4898 J4.4287
G2 X63.8122 Y37.3074 I15.1228 J25.5206
G2 X63.6573 Y37.4109 I2.6063 J4.0714
G2 X63.5223 Y37.5022 I2.4854 J3.8196
G2 X62.5926 Y38.1628 I14.7175 J21.6984
G2 X61.362 Y39.1294 I16.3478 J22.0775
G2 X60.3291 Y40.028 I17.1327 J20.7365
G2 X58.6193 Y41.7053 I21.7187 J23.85
G2 X57.4167 Y43.0396 I25.3945 J24.096
G2 X56.558 Y44.0778 I27.3422 J23.4896
G2 X55.3367 Y45.6876 I31.1912 J24.9312
G2 X54.7549 Y46.5137 I31.6398 J22.9016
G2 X54.6835 Y46.6179 I2.8244 J2.0128
G2 X54.6212 Y46.7093 I2.5815 J1.8268
G2 X54.5669 Y46.7893 I2.368 J1.665
G2 X54.4723 Y46.9296 I3.0374 J2.15
G1 X54.1916 Y47.3525
G2 X53.8951 Y47.8095 I73.2793 J47.8809
G1 X53.3825 Y48.6133
G3 X53.3345 Y48.6888 I-2.1424 J-1.3088
G3 X52.583 Y49.8526 I-59.8328 J-37.8105
G3 X52.487 Y49.9968 I-3.2941 J-2.0896
G3 X51.7925 Y50.9905 I-20.8277 J-13.8161
G3 X49.3849 Y53.7463 I-17.3095 J-12.6931
G1 X49.0976 Y54.0187
G3 X48.5809 Y54.4803 I-9.4489 J-10.0563
G3 X48.4818 Y54.5644 I-1.3943 J-1.542
G3 X47.7145 Y55.1648 I-8.2505 J-9.7548
G3 X47.3133 Y55.4413 I-5.7596 J-7.9262
G3 X47.211 Y55.5076 I-0.9365 J-1.3325
G3 X47.1338 Y55.5565 I-0.8168 J-1.204
G3 X47.0756 Y55.5928 I-0.7145 J-1.0832
G3 X46.9879 Y55.6463 I-0.8967 J-1.3705
G3 X46.8996 Y55.6989 I-0.9262 J-1.454
G3 X45.8013 Y56.2553 I-5.1094 J-8.7227
G1 X45.5885 Y56.3446
G3 X43.9416 Y56.8737 I-4.4973 J-11.1704
G3 X42.2395 Y57.1818 I-3.5442 J-14.7241
G3 X41.7028 Y57.2378 I-2.5123 J-21.4737
G3 X40.7581 Y57.2744 I-0.8547 J-9.8768
G1 X40.5804 Y57.27
G1 X40.4139 Y57.2621
G3 X40.3359 Y57.257 I0.0116 J-0.7835
G3 X39.1445 Y57.0499 I0.3434 J-5.5054
G3 X38.0426 Y56.5519 I1.1847 J-4.0895
G3 X36.8944 Y55.4993 I2.5389 J-3.9221
G1 X36.835 Y55.4212
G3 X36.4519 Y54.7934 I3.1531 J-2.3552
G3 X36.2191 Y54.0957 I2.4352 J-1.2001
G3 X36.2604 Y53.1882 I2.0516 J-0.3615
G3 X36.5695 Y52.4758 I2.6997 J0.7483
G3 X36.9626 Y51.928 I3.8981 J2.3821
G3 X37.3604 Y51.4943 I5.745 J4.8703
G3 X38.1247 Y50.8057 I7.6628 J7.7371
G1 X38.1619 Y50.775
G1 X38.3093 Y50.6554
G1 X38.4486 Y50.5447
G1 X38.7124 Y50.3403
G1 X38.9452 Y50.1641
G1 X39.3559 Y49.8604
G1 X39.6655 Y49.6346
G2 X39.898 Y49.4657 I-9.2746 J-13.0052
G1 X40.2461 Y49.2116
G1 X40.5926 Y48.9552
G2 X43.0493 Y46.9329 I-21.0291 J-28.0504
G2 X44.7697 Y45.2805 I-26.7812 J-29.6046
G2 X46.0027 Y43.9845 I-41.868 J-41.0708
G1 X46.4563 Y43.4903
G2 X47.2436 Y42.6195 I-68.7704 J-62.97
G1 X47.538 Y42.2921
G1 X48.0535 Y41.7198
G1 X48.4417 Y41.2918
G1 X48.7343 Y40.9721
G1 X49.1763 Y40.4955
G1 X49.3991 Y40.2588
G1 X49.6231 Y40.0233
G3 X53.2631 Y36.5407 I43.1534 J41.4596
G3 X57.1761 Y33.3678 I40.5454 J46.0038
G3 X61.5913 Y30.3678 I36.6192 J49.1455
G1 X62.0505 Y30.0866
G1 X62.4547 Y29.8441
G3 X63.3107 Y29.349 I19.4552 J32.6444
G0 Z0.125
G0 X67.6895 Y37.3092
G1 F10.0 Z0.485
G3 F30.0 X69.0406 Y36.6052 I16.2469 J29.535
G3 X70.0881 Y36.1109 I14.4411 J29.2459
G1 X70.5517 Y35.9062
G3 X74.1261 Y34.6189 I11.8109 J27.1896
G3 X75.9711 Y34.1612 I7.0769 J24.5815
G3 X76.9053 Y33.9854 I4.2516 J20.0166
G3 X77.0226 Y33.966 I0.5004 J2.6664
G3 X77.1253 Y33.9496 I0.4569 J2.5235
G3 X77.2152 Y33.9356 I0.4181 J2.3868
G3 X77.3727 Y33.9119 I0.5593 J3.185
G3 X77.4909 Y33.8948 I0.466 J2.8148
G3 X77.6684 Y33.8704 I0.5718 J3.502
G3 X77.846 Y33.8475 I0.5561 J3.6
G3 X77.9794 Y33.8311 I0.49 J3.4512
G3 X79.016 Y33.7283 I3.121 J26.1935
G1 X79.4055 Y33.6987
G3 X80.7702 Y33.6191 I5.0866 J75.3817
G1 X82.1356 Y33.5513
G1 X83.1202 Y33.4992
G1 X83.4898 Y33.4837
G1 X83.8134 Y33.4742
G3 X84.9464 Y33.4887 I0.3937 J13.4954
G3 X86.0719 Y33.6193 I-0.4472 J8.7677
G1 X86.2665 Y33.6579
G3 X86.9401 Y33.8237 I-2.7159 J12.4873
G1 X87.274 Y33.9183
G1 X87.6068 Y34.016
G3 X87.5737 Y34.0534 I-0.7409 J-0.6235
G3 X87.5446 Y34.0859 I-0.4205 J-0.3474
G3 X87.4395 Y34.1965 I-1.0838 J-0.9237
G3 X87.3252 Y34.2977 I-1.1026 J-1.1299
G3 X86.9282 Y34.4987 I-0.7272 J-0.9442
G3 X86.7161 Y34.543 I-0.4556 J-1.6495
G1 X86.6088 Y34.5589
G2 X86.5552 Y34.5669 I0.111 J0.9385
G2 X86.5017 Y34.5753 I0.0809 J0.6853
G2 X86.0223 Y34.691 I0.6554 J3.7682
G2 X85.7881 Y34.768 I3.7215 J11.7165
G2 X85.5562 Y34.8519 I2.3016 J6.7187
G2 X84.6721 Y35.2019 I9.2718 J24.7126
G2 X84.5625 Y35.2478 I1.0777 J2.7305
G2 X84.3709 Y35.3289 I1.7821 J4.4745
G1 X83.7985 Y35.5771
G1 X83.2468 Y35.8218
G2 X81.6092 Y36.5939 I18.1718 J40.6651
G1 X81.2045 Y36.8002
G2 X78.4675 Y38.4161 I12.8361 J24.8681
G2 X77.5413 Y39.0658 I19.2602 J28.4419
G1 X77.2004 Y39.3183
G1 X76.9048 Y39.5428
G1 X76.6481 Y39.7416
G1 X76.2026 Y40.0946
G1 X75.8714 Y40.3631
G2 X75.3789 Y40.7709 I39.8025 J48.5747
G2 X75.1343 Y40.9768 I6.8692 J8.4111
G2 X75.0123 Y41.0801 I3.9289 J4.7595
G2 X74.8906 Y41.1837 I3.5067 J4.2432
G2 X74.7371 Y41.315 I3.835 J4.6404
G2 X74.5887 Y41.4425 I3.9747 J4.776
G2 X74.4452 Y41.5663 I4.1223 J4.921
G2 X74.3065 Y41.6866 I4.2799 J5.0776
G2 X74.1723 Y41.8034 I4.4489 J5.2473
G2 X74.0425 Y41.9167 I4.6314 J5.4325
G2 X73.917 Y42.0268 I4.8303 J5.6363
G2 X73.7956 Y42.1336 I5.049 J5.8626
G2 X73.5608 Y42.341 I7.6732 J8.9202
G2 X73.3412 Y42.5361 I8.5765 J9.8732
G2 X73.1358 Y42.7195 I9.8227 J11.2073
G2 X72.7518 Y43.0646 I18.7481 J21.2518
G1 X72.0828 Y43.6716
G1 X71.0842 Y44.5878
G1 X70.5864 Y45.0475
G1 X70.089 Y45.5076
G1 X69.1082 Y46.4143
G3 X68.9241 Y46.584 I-11.7686 J-12.5826
G3 X68.7513 Y46.743 I-8.5116 J-9.0741
G3 X68.5892 Y46.892 I-6.9432 J-7.3927
G3 X68.4372 Y47.0315 I-5.968 J-6.3525
G3 X68.2945 Y47.1622 I-5.2828 J-5.6249
G3 X68.1606 Y47.2846 I-4.765 J-5.0776
G3 X66.1351 Y49.1005 I-82.2825 J-89.7459
G3 X66.0338 Y49.189 I-2.5935 J-2.8643
G3 X65.9356 Y49.2746 I-2.8179 J-3.1327
G3 X64.4032 Y50.5884 I-88.2854 J-101.4229
G1 X63.6324 Y51.2401
G1 X63.2469 Y51.5657
G1 X62.8614 Y51.8915
G1 X62.4131 Y52.2681
G3 X62.3282 Y52.3379 I-1.1472 J-1.3089
G3 X62.2483 Y52.4028 I-0.9773 J-1.1203
G3 X62.173 Y52.4633 I-0.865 J-0.9996
G3 X61.5935 Y52.8971 I-6.6403 J-8.2673
G3 X60.9769 Y53.2764 I-3.9344 J-5.7056
G3 X59.7844 Y53.758 I-2.9233 J-5.521
G3 X59.1605 Y53.9155 I-2.3671 J-8.0604
G3 X59.0028 Y53.9476 I-0.556 J-2.3317
G1 X58.7653 Y53.9906
G1 X58.5269 Y54.0279
G3 X57.336 Y54.1216 I-1.2663 J-8.4822
G3 X56.7386 Y54.0983 I-0.0012 J-7.6545
G3 X56.4413 Y54.0663 I0.294 J-4.1309
G1 X56.3672 Y54.0561
G3 X56.1457 Y54.0201 I0.7347 J-5.2202
G3 X55.7063 Y53.9209 I0.8325 J-4.7073
G3 X55.0766 Y53.6738 I0.7583 J-2.8584
G3 X54.545 Y53.2554 I0.8837 J-1.6699
G3 X54.304 Y52.8874 I1.2802 J-1.1013
G3 X54.178 Y52.4659 I1.2461 J-0.602
G3 X54.1777 Y52.1608 I1.3261 J-0.1538
G3 X54.2805 Y51.7164 I2.2859 J0.2945
G3 X54.4455 Y51.2912 I4.7668 J1.6052
G1 X54.5017 Y51.1599
G3 X54.7217 Y50.6714 I16.2016 J7.0025
G3 X55.4585 Y49.2434 I20.2733 J9.5555
G3 X56.6715 Y47.2769 I23.9565 J13.4193
G3 X58.7721 Y44.5217 I24.7179 J16.6674
G3 X61.168 Y42.0192 I23.7716 J20.3609
G3 X64.9047 Y39.022 I21.5869 J23.0848
G3 X67.6895 Y37.3092 I19.0317 J27.8222
G0 Z0.125
G0 X87.6068 Y34.0161
G1 F10.0 Z0.485
G1 F30.0 Y34.016
G1 Y34.0161
G0 Z0.125
G0 X92.2001 Y35.2013
G1 F10.0 Z0.485
G1 F30.0 X91.5225 Y35.3775
G1 X90.8452 Y35.5547
G1 X90.394 Y35.6739
G1 X90.1362 Y35.7426
G1 X89.4497 Y35.9283
G1 X89.2667 Y35.9785
G2 X88.849 Y36.0946 I5.1796 J19.44
G1 X88.3723 Y36.2299
G1 X87.8287 Y36.3883
G2 X86.3864 Y36.8351 I15.2568 J51.7942
G2 X85.5684 Y37.1101 I17.6443 J53.8464
G2 X85.1345 Y37.2636 I10.3454 J29.9291
G1 X84.6738 Y37.4332
G2 X83.6301 Y37.8458 I11.1476 J29.7218
G1 X83.4985 Y37.901
G1 X83.3652 Y37.9576
G1 X83.2301 Y38.0159
G2 X82.6573 Y38.2726 I6.9279 J16.2286
G2 X80.6763 Y39.2918 I11.4269 J24.6434
G2 X78.7775 Y40.457 I15.7759 J27.8387
G1 X78.53 Y40.6214
G1 X78.2674 Y40.7988
G2 X77.6723 Y41.2114 I20.5739 J30.3098
G1 X77.3575 Y41.4353
G1 X77.1957 Y41.5517
G1 X77.0291 Y41.6726
G1 X76.6753 Y41.9325
G2 X76.4935 Y42.0676 I3.9637 J5.5247
G2 X76.4477 Y42.1018 I0.3522 J0.5195
G2 X75.6162 Y42.7326 I29.5877 J39.8615
G2 X75.5641 Y42.7728 I0.3632 J0.5256
G1 X75.1207 Y43.1166
G1 X75.0084 Y43.2043
G1 X74.5306 Y43.58
G1 X74.0228 Y43.9831
G1 X72.8672 Y44.9102
G1 X72.3775 Y45.3063
G1 X71.8909 Y45.7066
G2 X70.9401 Y46.5333 I17.6119 J21.215
G2 X70.8167 Y46.6474 I2.3731 J2.6914
G2 X70.1785 Y47.2766 I10.4422 J11.2299
G2 X69.4035 Y48.1869 I6.927 J6.6819
G2 X69.0213 Y48.7545 I5.5878 J4.176
G2 X68.6658 Y49.4531 I4.7909 J2.8777
G2 X68.4089 Y50.3164 I3.7093 J1.5734
G2 X68.3723 Y51.3565 I3.5627 J0.6462
G2 X68.732 Y52.6485 I4.272 J-0.4932
G2 X69.4675 Y53.7701 I3.8671 J-1.7341
G2 X70.1595 Y54.342 I2.387 J-2.1833
G2 X70.6528 Y54.5817 I1.5171 J-2.4944
G2 X71.1801 Y54.7331 I1.1739 J-3.0956
G2 X72.2708 Y54.8049 I0.8233 J-4.1874
G2 X72.9935 Y54.7123 I-0.2941 J-5.1665
G2 X73.9245 Y54.4461 I-1.1301 J-5.7112
G1 X73.982 Y54.424
G2 X74.9723 Y53.9301 I-2.2553 J-5.7621
G2 X75.8686 Y53.281 I-4.0062 J-6.4759
G2 X76.4151 Y52.7853 I-5.6451 J-6.7722
G2 X76.483 Y52.7185 I-1.0877 J-1.1726
G2 X76.5524 Y52.649 I-1.1335 J-1.2012
G2 X76.6235 Y52.5766 I-1.1936 J-1.2428
G2 X77.347 Y51.7743 I-11.9144 J-11.4709
G1 X77.5314 Y51.553
G2 X78.1029 Y50.8337 I-21.2568 J-17.4752
G1 X78.2884 Y50.5901
G1 X78.3935 Y50.4502
G1 X78.5128 Y50.2896
G2 X79.4449 Y48.9894 I-47.3931 J-34.9601
G1 X79.7071 Y48.6149
G1 X80.4067 Y47.6169
G1 X80.595 Y47.352
G3 X81.6285 Y45.9603 I31.7154 J22.4743
G3 X83.3362 Y43.9554 I24.6199 J19.2393
G3 X83.4556 Y43.8266 I2.9085 J2.5781
G3 X85.4449 Y41.8432 I29.579 J27.6767
G3 X86.8399 Y40.5937 I33.1102 J35.5643
G3 X87.861 Y39.7335 I47.9849 J55.9231
G1 X88.2055 Y39.4516
G1 X88.6675 Y39.0791
G1 X89.2878 Y38.5878
G1 X89.6441 Y38.3095
G1 X90.0527 Y37.9932
G1 X90.5213 Y37.6339
G1 X91.0585 Y37.2254
G1 X92.496 Y36.1426
G1 X93.9226 Y35.1932
G1 X92.2001 Y35.2013
G0 Z0.125
G0 X95.4834 Y42.8559
G1 F10.0 Z0.485
G1 F30.0 X95.5906 Y42.8099
G2 X96.0519 Y42.6023 I-6.7426 J-15.5945
G2 X97.3267 Y41.785 I-2.4719 J-5.2585
G1 X97.5499 Y41.5925
G3 X97.7237 Y41.4496 I2.8858 J3.3318
G3 X97.8639 Y41.3499 I0.8732 J1.0794
G3 X98.1023 Y41.2425 I0.4286 J0.6333
G3 X98.3581 Y41.2963 I0.073 J0.2884
G3 X98.4942 Y41.48 I-0.2769 J0.3474
G3 X98.5129 Y41.7292 I-0.4505 J0.159
G3 X98.4507 Y41.9714 I-1.7781 J-0.3276
G1 X98.3439 Y42.3176
G1 X98.2905 Y42.4908
G3 X98.2771 Y42.5341 I-0.3471 J-0.0835
G3 X98.267 Y42.5665 I-0.345 J-0.0888
G3 X98.252 Y42.6152 I-0.526 J-0.1358
G3 X98.237 Y42.6638 I-0.905 J-0.253
G3 X97.8496 Y43.4394 I-45.9113 J-22.4455
G3 X97.8128 Y43.5119 I-1.891 J-0.9139
G3 X97.7771 Y43.5821 I-1.796 J-0.8709
G3 X97.7423 Y43.65 I-1.7139 J-0.8343
G3 X97.6746 Y43.7814 I-2.3019 J-1.1031
G3 X97.6106 Y43.9044 I-2.1391 J-1.035
G3 X97.5502 Y44.0194 I-2.0084 J-0.9824
G3 X97.0777 Y44.8715 I-20.9804 J-11.0761
G3 X96.5592 Y45.6963 I-12.9483 J-7.5641
G3 X96.2585 Y46.1211 I-10.515 J-7.1233
G3 X95.6957 Y46.8368 I-11.8578 J-8.7467
G3 X94.7814 Y47.851 I-14.6234 J-12.2623
G1 X94.5426 Y48.0949
G1 X94.3612 Y48.2757
G3 X94.224 Y48.4101 I-4.4789 J-4.4342
G3 X94.1205 Y48.5103 I-2.7471 J-2.7341
G3 X93.8073 Y48.8078 I-17.2589 J-17.8552
G3 X92.8428 Y49.6807 I-23.3696 J-24.8523
G3 X92.751 Y49.761 I-2.1605 J-2.3793
G3 X91.3051 Y50.9784 I-42.2972 J-48.7694
G1 X90.5711 Y51.5738
G1 X89.8338 Y52.1651
G1 X89.2815 Y52.6075
G1 X88.7994 Y52.9961
G2 X88.3794 Y53.3386 I43.2557 J53.4789
G2 X88.014 Y53.6408 I16.0961 J19.8299
G2 X87.3812 Y54.1774 I25.8359 J31.1058
G1 X87.1466 Y54.3818
G2 X85.5619 Y55.8758 I18.7284 J21.4522
G2 X84.0118 Y57.6268 I17.1133 J16.712
G2 X83.966 Y57.6838 I1.2654 J1.0628
G2 X83.9218 Y57.7392 I1.2073 J1.0091
G2 X83.8791 Y57.7929 I1.1552 J0.9609
G2 X83.8379 Y57.8451 I1.1079 J0.9172
G2 X83.7585 Y57.9465 I1.4746 J1.2374
G2 X83.6844 Y58.0419 I1.37 J1.1396
G2 X82.6267 Y59.511 I21.3212 J16.4656
G1 X82.4839 Y59.7263
G2 X82.2233 Y60.1345 I16.2636 J10.6722
G2 X81.7976 Y60.8676 I10.432 J6.5482
G2 X81.2633 Y62.0215 I9.0979 J4.9126
G2 X80.8932 Y63.2381 I8.3545 J3.2068
G2 X80.796 Y63.6939 I36.8874 J8.1035
G1 X80.7572 Y63.8653
G3 X80.6763 Y64.1629 I-4.0483 J-0.9417
G3 X80.492 Y64.5883 I-1.9011 J-0.5705
G3 X80.1793 Y64.9305 I-0.9502 J-0.5544
G3 X79.7518 Y65.1126 I-0.6839 J-1.0125
G3 X79.288 Y65.1406 I-0.3154 J-1.3682
G3 X78.8227 Y64.9949 I0.1454 J-1.2804
G3 X78.5208 Y64.7919 I0.8587 J-1.6031
G3 X78.14 Y64.403 I1.8153 J-2.1582
G1 X78.0554 Y64.2962
G1 X78.0246 Y64.2555
G1 X77.92 Y64.1106
G3 X77.8694 Y64.0369 I2.4168 J-1.7126
G3 X77.8445 Y63.9998 I0.51 J-0.3691
G3 X77.8199 Y63.9626 I0.398 J-0.2902
G3 X76.7865 Y61.5143 I6.0531 J-3.9971
G3 X76.6312 Y60.1879 I6.6734 J-1.4541
G3 X76.7457 Y58.8573 I6.4245 J-0.1173
G3 X77.0319 Y57.8451 I6.376 J1.2563
G3 X77.4043 Y57.0067 I6.7991 J2.518
G3 X77.5968 Y56.655 I6.8247 J3.5085
G3 X78.4434 Y55.4153 I9.0244 J5.2533
G3 X79.1734 Y54.5591 I10.8692 J8.5288
G3 X80.3659 Y53.3657 I15.4139 J14.2104
G3 X80.5208 Y53.2226 I6.9014 J7.3106
G3 X80.5889 Y53.1603 I1.8284 J1.9299
G1 X80.8458 Y52.9284
G1 X81.0399 Y52.7561
G1 X81.333 Y52.5001
G1 X81.6283 Y52.2464
G3 X82.8503 Y51.2301 I48.8512 J57.4957
G3 X85.0472 Y49.5249 I41.0744 J50.6504
G3 X88.4553 Y47.1203 I52.9818 J71.4739
G1 X88.8884 Y46.8299
G1 X89.6489 Y46.326
G1 X89.935 Y46.1381
G1 X90.0603 Y46.0561
G1 X91.0016 Y45.4444
G1 X91.4734 Y45.1402
G1 X91.9457 Y44.8368
G3 X92.696 Y44.3594 I46.721 J72.5894
G1 X92.979 Y44.1829
G3 X93.0412 Y44.1446 I0.4492 J0.6586
G3 X93.1015 Y44.1075 I0.4198 J0.6158
G3 X94.0464 Y43.5534 I15.0061 J24.5068
G3 X95.023 Y43.057 I7.1952 J12.9457
G1 X95.325 Y42.9239
G1 X95.4834 Y42.8559
G0 Z0.125
G0 X100.8202 Y46.8071
G1 F10.0 Z0.485
G3 F30.0 X100.7702 Y47.0528 I-18.1217 J-3.5533
G3 X100.3809 Y48.8921 I-82.9895 J-16.6081
G3 X100.1633 Y49.8068 I-31.2329 J-6.9474
G3 X99.92 Y50.7148 I-30.9488 J-7.8053
G1 X99.8346 Y51.0066
G3 X99.486 Y52.0919 I-24.6177 J-7.3085
G3 X99.1986 Y52.897 I-29.2768 J-9.9956
G1 X99.0859 Y53.1971
G3 X98.6732 Y54.2405 I-35.3206 J-13.3667
G1 X98.4579 Y54.7585
G1 X98.3484 Y55.0167
G3 X98.2377 Y55.2745 I-11.317 J-4.7054
G3 X98.1759 Y55.4173 I-6.532 J-2.7432
G3 X98.1157 Y55.5554 I-6.0055 J-2.5336
G3 X97.1372 Y57.6764 I-46.1049 J-19.9857
G3 X96.0478 Y59.7426 I-34.8355 J-17.0468
G3 X95.449 Y60.7542 I-35.2724 J-20.1924
G1 X95.2169 Y61.129
G1 X95.0109 Y61.455
G1 X94.6448 Y62.022
G1 X94.3664 Y62.4447
G1 X93.944 Y63.0758
G3 X93.8377 Y63.2331 I-10.5979 J-7.0448
G3 X93.6779 Y63.4688 I-9.2868 J-6.123
G3 X93.5979 Y63.5866 I-5.4319 J-3.6052
G3 X93.5178 Y63.7043 I-4.9292 J-3.2682
G3 X93.411 Y63.861 I-5.5334 J-3.6558
G3 X93.3075 Y64.0127 I-5.6025 J-3.712
G3 X91.689 Y66.3547 I-224.3105 J-153.2848
G1 X91.2801 Y66.9372
G1 X90.6632 Y67.8085
G1 X90.3531 Y68.243
G1 X90.042 Y68.6767
G1 X89.7136 Y69.1317
G1 X89.4245 Y69.5285
G3 X89.1699 Y69.8746 I-16.2607 J-11.6992
G3 X89.0579 Y70.0255 I-8.0527 J-5.8583
G3 X88.9525 Y70.1668 I-7.0449 J-5.1463
G3 X88.1483 Y71.2154 I-35.0933 J-26.0797
G3 X87.9427 Y71.474 I-8.7467 J-6.7426
G3 X87.3125 Y72.2391 I-23.8129 J-18.9726
G1 X86.6245 Y73.038
G2 X85.8336 Y73.9735 I46.3446 J39.9804
G1 X85.1113 Y74.843
G1 X83.9639 Y76.2412
G1 X83.2754 Y74.5634
G3 X83.2239 Y74.3908 I8.7685 J-2.7144
G3 X83.179 Y74.2397 I4.9049 J-1.5393
G3 X82.8894 Y73.1754 I17.4594 J-5.3227
G3 X82.6888 Y72.1669 I15.9083 J-3.6885
G1 X82.6479 Y71.9131
G3 X82.5913 Y71.5316 I11.6688 J-1.9246
G3 X82.5779 Y71.4361 I2.9852 J-0.4677
G3 X82.5582 Y71.2928 I3.0487 J-0.4914
G3 X82.539 Y71.1495 I2.5907 J-0.4203
G3 X82.5208 Y71.0108 I2.4967 J-0.3988
G3 X82.3003 Y68.9243 I40.4593 J-5.3313
G1 X82.2896 Y68.7806
G1 X82.2711 Y68.5021
G1 X82.2565 Y68.2408
G3 X82.256 Y66.2787 I17.6523 J-0.985
G3 X82.2944 Y65.7891 I16.6366 J1.059
G3 X82.3885 Y65.0585 I9.9335 J0.9078
G3 X82.4195 Y64.877 I4.0017 J0.5893
G3 X82.4719 Y64.6058 I10.3844 J1.8667
G1 X82.5318 Y64.3361
G3 X83.2245 Y62.3499 I10.251 J2.4614
G3 X84.2703 Y60.5249 I11.1673 J5.1872
G3 X85.0904 Y59.4519 I11.7728 J8.1479
G3 X86.4664 Y57.9669 I16.9427 J14.3187
G3 X86.6466 Y57.7891 I6.8053 J6.7209
G3 X86.8054 Y57.6347 I4.1778 J4.135
G3 X86.9449 Y57.5003 I3.1198 J3.1007
G3 X87.0676 Y57.3832 I2.5121 J2.5081
G1 X87.4996 Y56.9764
G1 X87.9346 Y56.5728
G1 X88.6779 Y55.8887
G1 X89.3296 Y55.2914
G2 X89.4722 Y55.1607 I-3.223 J-3.6621
G1 X90.0246 Y54.6544
G1 X90.9889 Y53.7659
G1 X91.3492 Y53.4313
G1 X91.9771 Y52.8429
G1 X92.2116 Y52.6211
G2 X93.027 Y51.8397 I-52.3346 J-55.4288
G1 X93.4313 Y51.4454
G1 X93.8329 Y51.0484
G2 X95.7505 Y49.0846 I-79.6873 J-79.7334
G1 X95.9872 Y48.8362
G1 X96.4004 Y48.4005
G1 X97.0181 Y47.7452
G1 X97.3264 Y47.417
G1 X97.6345 Y47.0886
G1 X97.8898 Y46.815
G2 X98.3228 Y46.3231 I-9.8547 J-9.1103
G2 X99.368 Y44.6637 I-5.8523 J-4.8452
G1 X99.5474 Y44.2708
G1 X99.6846 Y43.9739
G3 X99.7962 Y43.752 I3.894 J1.82
G1 X99.8419 Y43.6692
G3 X100.0309 Y43.3952 I1.4369 J0.7885
G3 X100.1645 Y43.2845 I0.3809 J0.3236
G3 X100.337 Y43.2648 I0.1089 J0.1882
G3 X100.4469 Y43.3291 I-0.1153 J0.3228
G3 X100.5931 Y43.4936 I-0.5291 J0.6176
G3 X100.7594 Y43.7778 I-1.6914 J1.1803
G3 X100.8282 Y43.9275 I-1.9294 J0.9786
G3 X100.8443 Y43.9654 I-0.3904 J0.1871
G1 X100.8895 Y44.0803
G3 X101.0841 Y45.4495 I-2.981 J1.1222
G3 X101.0461 Y45.7938 I-5.1224 J-0.3917
G3 X100.9466 Y46.3035 I-7.3811 J-1.1759
G3 X100.8851 Y46.5557 I-5.2345 J-1.1438
G1 X100.8202 Y46.8071
G0 Z0.125
G0 X104.6072 Y49.4729
G1 F10.0 Z0.485
G3 F30.0 X104.651 Y49.687 I-17.8493 J3.7636
G3 X104.6934 Y49.8944 I-10.1969 J2.1913
G3 X105.0135 Y51.5033 I-103.7246 J21.4698
G3 X105.4214 Y53.93 I-49.0859 J9.4995
G3 X105.6587 Y56.3792 I-27.2828 J3.8796
G3 X105.6777 Y58.1519 I-23.5005 J1.1385
G3 X105.4719 Y60.8022 I-26.9394 J-0.7596
G1 X105.4279 Y61.1316
G3 X105.0174 Y63.4212 I-30.8474 J-4.3491
G3 X102.7189 Y70.2087 I-31.5612 J-6.9051
G3 X101.6378 Y72.3277 I-32.901 J-15.4506
G3 X100.4292 Y74.3768 I-37.9537 J-21.0046
G3 X98.8792 Y76.7093 I-45.6986 J-28.686
G3 X98.0631 Y77.8473 I-72.0682 J-50.8233
G3 X97.6465 Y78.4101 I-27.6272 J-20.0129
G3 X97.4363 Y78.6901 I-14.6182 J-10.7557
G3 X97.225 Y78.9691 I-12.3261 J-9.1169
G3 X97.0847 Y79.153 I-9.7392 J-7.2839
G3 X96.9484 Y79.3307 I-10.4982 J-7.9097
G3 X94.7902 Y82.0499 I-106.2629 J-82.1248
G1 X94.2412 Y82.7221
G1 X93.4142 Y83.7276
G3 X93.2071 Y83.9787 I-29.0501 J-23.7531
G3 X92.8964 Y84.3552 I-27.9756 J-22.7723
G2 X92.5857 Y84.7317 I22.8164 J19.1443
G2 X92.4085 Y84.9466 I16.6298 J13.8942
G2 X92.0764 Y85.3497 I25.6557 J21.4732
G2 X91.7861 Y85.7026 I29.7164 J24.737
G1 X90.7731 Y86.9402
G1 X90.2688 Y87.5608
G1 X89.7664 Y88.1829
G1 X89.139 Y88.9669
G2 X88.9051 Y89.262 I23.5455 J18.9005
G2 X88.7013 Y89.5209 I16.6042 J13.2875
G2 X88.5235 Y89.7479 I13.7223 J10.9256
G2 X87.302 Y91.3543 I58.7153 J45.9158
G1 X86.9026 Y91.9016
G1 X86.6062 Y92.3144
G1 X86.165 Y92.9361
G1 X85.726 Y93.5593
G1 X83.9915 Y96.2738
G1 X82.8548 Y94.0873
G3 X82.7667 Y93.9052 I7.1193 J-3.5578
G3 X82.6843 Y93.7343 I4.0267 J-2.048
G3 X82.3804 Y93.0912 I43.2382 J-20.8271
G3 X82.3248 Y92.9699 I1.8604 J-0.9251
G3 X82.2733 Y92.8559 I1.7557 J-0.8617
G3 X81.9111 Y91.9908 I16.1199 J-7.2588
G3 X81.6097 Y91.1028 I9.9022 J-3.8559
G3 X81.3134 Y89.7241 I9.8555 J-2.8395
G3 X81.2046 Y88.3182 I10.8016 J-1.5423
G3 X81.2891 Y86.7667 I11.6512 J-0.1438
G3 X81.5677 Y85.2381 I13.4573 J1.6631
G3 X82.143 Y83.4033 I15.3659 J3.8105
G3 X82.9084 Y81.6392 I20.4465 J7.8225
G3 X85.3226 Y77.5742 I25.3009 J12.277
G1 X85.5031 Y77.3242
G1 X85.6746 Y77.0914
G1 X85.8372 Y76.8747
G1 X86.1465 Y76.4715
G3 X87.2629 Y75.087 I44.5507 J34.7802
G3 X87.3339 Y75.0015 I3.0273 J2.4409
G3 X87.4005 Y74.9214 I2.7725 J2.2389
G3 X87.4631 Y74.8463 I2.5578 J2.0685
G1 X88.4058 Y73.7244
G1 X88.8661 Y73.1763
G2 X88.92 Y73.1119 I-1.6366 J-1.4251
G2 X88.9734 Y73.0481 I-1.6569 J-1.4407
G2 X89.0264 Y72.9847 I-1.678 J-1.4569
G2 X89.079 Y72.9218 I-1.7003 J-1.4741
G2 X89.1311 Y72.8594 I-1.7237 J-1.4921
G2 X89.2344 Y72.7354 I-2.4799 J-2.1731
G1 X89.6403 Y72.2467
G2 X89.7352 Y72.1319 I-3.0054 J-2.5808
G2 X89.8284 Y72.0188 I-3.1624 J-2.704
G2 X89.9202 Y71.9074 I-3.3504 J-2.8521
G2 X90.0103 Y71.7977 I-3.5804 J-3.0341
G2 X90.099 Y71.6896 I-3.8706 J-3.2645
G2 X90.1862 Y71.5831 I-4.2519 J-3.5684
G2 X90.8683 Y70.741 I-77.6586 J-63.6039
G2 X92.0401 Y69.2496 I-75.2104 J-60.2968
G2 X92.4706 Y68.6834 I-67.1234 J-51.4947
G1 X92.8428 Y68.1845
G2 X95.3011 Y64.5889 I-45.1248 J-33.4898
G2 X96.7122 Y62.1961 I-46.627 J-29.1094
G2 X97.2117 Y61.282 I-40.0003 J-22.4491
G2 X97.2654 Y61.1814 I-1.5617 J-0.8996
G2 X100.3126 Y54.6856 I-62.8836 J-33.4607
G1 X100.513 Y54.1882
G2 X100.6955 Y53.7196 I-33.8601 J-13.4546
G2 X100.8601 Y53.2779 I-15.7826 J-6.1335
G2 X101.1474 Y52.4421 I-18.5151 J-6.8321
G2 X101.8811 Y49.4394 I-20.2651 J-6.5424
G1 X101.9132 Y49.2488
G2 X102.1113 Y47.8132 I-27.5519 J-4.5352
G2 X102.1314 Y47.6331 I-4.2802 J-0.5688
G2 X102.248 Y46.3703 I-34.9311 J-3.8599
G1 X102.2774 Y45.9864
G1 X102.3032 Y45.6974
G3 X102.3635 Y45.2636 I5.1888 J0.4998
G3 X102.4219 Y45.0466 I1.4023 J0.2612
G3 X102.474 Y44.9431 I0.5574 J0.2156
G3 X102.5144 Y44.8997 I0.2029 J0.1485
G3 X102.5691 Y44.8768 I0.0682 J0.0863
G3 X102.6589 Y44.8991 I0.0093 J0.1546
G3 X102.789 Y45.0052 I-0.2891 J0.4875
G3 X102.971 Y45.2337 I-1.3214 J1.2393
G1 X103.0324 Y45.3245
G1 X103.1342 Y45.4867
G3 X103.2073 Y45.6104 I-4.3538 J2.6529
G1 X103.2606 Y45.7042
G1 X103.3385 Y45.8458
G1 X103.4144 Y45.9885
G3 X104.1441 Y47.6851 I-10.0837 J5.3419
G1 X104.215 Y47.9051
G1 X104.2446 Y48.0017
G3 X104.348 Y48.3663 I-9.3474 J2.8479
G1 X104.3839 Y48.5038
G1 X104.4437 Y48.7451
G1 X104.5274 Y49.1086
G3 X104.5376 Y49.1541 I-0.4097 J0.1149
G1 X104.5726 Y49.3135
G3 X104.5899 Y49.3932 I-0.916 J0.2412
G3 X104.6072 Y49.4729 I-1.5925 J0.3875
G0 Z0.125
G0 X107.4179 Y51.2754
G1 F10.0 Z0.485
G3 F30.0 X107.4311 Y51.2591 I0.0802 J0.0514
G3 X107.4641 Y51.2424 I0.036 J0.0304
G3 X107.503 Y51.2615 I-0.0065 J0.0624
G3 X107.5522 Y51.3231 I-0.1779 J0.1927
G3 X107.6749 Y51.5689 I-1.7836 J1.0442
G1 X107.7806 Y51.8224
G1 X107.9025 Y52.1108
G1 X107.9972 Y52.3256
G2 X108.0152 Y52.3658 I0.3389 J-0.128
G1 X108.2876 Y52.9674
G1 X108.3656 Y53.1483
G1 X108.4976 Y53.4668
G1 X108.6885 Y53.9473
G1 X108.7822 Y54.1884
G1 X108.8288 Y54.309
G1 X108.8754 Y54.4295
G3 X108.9453 Y54.7477 I-16.6406 J3.8242
G3 X108.978 Y54.8969 I-7.2663 J1.6717
G3 X109.0096 Y55.0415 I-6.1134 J1.413
G3 X109.0402 Y55.1816 I-5.3668 J1.2436
G3 X109.0697 Y55.3173 I-4.8337 J1.121
G3 X109.4984 Y57.4264 I-65.3152 J14.3766
G3 X109.8235 Y59.554 I-31.2723 J5.8672
G3 X109.9063 Y60.3814 I-28.2408 J3.2425
G3 X109.9939 Y61.8339 I-28.0455 J2.4194
G3 X110.0146 Y64.0161 I-39.9394 J1.4716
G1 X110.0037 Y64.5616
G1 X109.9922 Y64.9706
G1 X109.9703 Y65.584
G1 X109.9437 Y66.1972
G3 X109.8632 Y67.6028 I-52.5141 J-2.3021
G1 X109.8217 Y68.1294
G1 X109.7782 Y68.5896
G1 X109.7337 Y68.9916
G1 X109.6892 Y69.3427
G3 X109.6787 Y69.4194 I-1.5657 J-0.1747
G3 X109.6683 Y69.4937 I-1.5436 J-0.1785
G3 X109.4697 Y70.639 I-19.0027 J-2.7051
G3 X109.4394 Y70.7812 I-2.9273 J-0.5484
G3 X109.189 Y71.767 I-15.2173 J-3.3412
G3 X109.0082 Y72.3384 I-15.1316 J-4.4734
G3 X108.7014 Y73.1833 I-17.1254 J-5.7405
G1 X108.5374 Y73.6017
G3 X108.4537 Y73.8103 I-10.841 J-4.2272
G3 X108.4116 Y73.9145 I-3.5413 J-1.3708
G3 X108.3693 Y74.0186 I-2.8492 J-1.0954
G3 X107.6985 Y75.6321 I-101.6392 J-41.31
G3 X107.6128 Y75.833 I-6.0047 J-2.4453
G3 X107.5373 Y76.0086 I-6.2733 J-2.5904
G3 X106.9993 Y77.2334 I-60.9757 J-26.0571
G1 X106.8017 Y77.671
G1 X106.4509 Y78.4348
G1 X106.1845 Y79.0061
G1 X105.7812 Y79.8613
G3 X105.5784 Y80.2884 I-36.1972 J-16.919
G3 X105.4769 Y80.5019 I-14.4068 J-6.719
G3 X105.3754 Y80.7154 I-11.9113 J-5.5358
G1 X104.2873 Y83.0033
G2 X104.1684 Y83.2537 I13.913 J6.7552
G2 X104.0516 Y83.5002 I14.1003 J6.8363
G2 X103.9366 Y83.7429 I14.3056 J6.9251
G2 X103.8235 Y83.9818 I14.532 J7.0234
G2 X103.7123 Y84.2171 I14.7826 J7.1323
G2 X103.6029 Y84.4487 I15.062 J7.2541
G2 X103.4954 Y84.6768 I15.3743 J7.3907
G2 X103.3896 Y84.9013 I15.7256 J7.5449
G2 X103.2856 Y85.1224 I16.1236 J7.7202
G2 X101.6675 Y88.6137 I269.1762 J126.8785
G1 X101.3695 Y89.2708
G1 X101.092 Y89.8877
G2 X100.0706 Y92.2097 I143.9217 J64.6899
G1 X99.6965 Y93.0843
G2 X98.4329 Y96.1646 I113.905 J48.5275
G1 X98.2805 Y96.552
G1 X98.1483 Y96.8913
G2 X97.2537 Y99.2783 I113.6149 J43.9392
G1 X97.1052 Y99.6924
G1 X96.963 Y100.0942
G1 X96.8271 Y100.4841
G1 X96.5687 Y101.2411
G2 X96.104 Y102.6673 I69.702 J23.5021
G2 X95.3614 Y105.185 I60.3814 J19.1775
G2 X94.4538 Y109.0164 I52.3296 J14.4188
G2 X93.8578 Y112.9084 I42.8646 J8.5564
G2 X93.8392 Y113.0872 I5.3796 J0.6482
G2 X93.7221 Y114.4975 I37.4091 J3.8169
G2 X93.6631 Y115.7345 I40.1336 J2.5338
G2 X93.8003 Y120.0644 I34.3724 J1.0782
G2 X94.5067 Y124.3385 I31.8146 J-3.0629
G2 X94.6264 Y124.8335 I30.5353 J-7.1183
G3 X94.8006 Y125.5774 I-25.5919 J6.3847
G1 X94.8397 Y125.7644
G3 X94.9355 Y126.3295 I-6.9244 J1.4648
G1 X94.9576 Y126.5149
G1 X94.9947 Y126.8396
G2 X95.0843 Y127.3217 I3.5302 J-0.4065
G2 X95.2413 Y127.7862 I3.3736 J-0.8819
G1 X95.3041 Y127.9311
G3 X95.3886 Y128.1554 I-1.3754 J0.6466
G3 X95.4073 Y128.2787 I-0.3905 J0.1221
G3 X95.358 Y128.3932 I-0.1437 J0.006
G3 X95.2971 Y128.4259 I-0.1352 J-0.179
G3 X95.1967 Y128.4503 I-0.1884 J-0.5549
G3 X95.0942 Y128.4637 I-0.1963 J-1.1021
G3 X94.4028 Y128.514 I-1.1183 J-10.5936
G3 X93.9183 Y128.5339 I-1.1174 J-21.2829
G3 X93.4333 Y128.5332 I-0.2311 J-7.6154
G3 X91.7982 Y128.2524 I0.2413 J-6.3062
G3 X90.6446 Y127.7902 I2.3319 J-7.4907
G3 X89.0741 Y126.7915 I4.1281 J-8.2259
G3 X87.7175 Y125.5173 I6.6533 J-8.4428
G3 X86.4337 Y123.7732 I8.7839 J-7.8105
G3 X85.6816 Y122.3352 I11.5969 J-6.981
G3 X84.8486 Y120.0504 I15.8504 J-7.0728
G3 X84.2943 Y117.6824 I23.7479 J-6.8079
G3 X83.9151 Y114.9903 I30.5447 J-5.6744
G3 X83.8306 Y113.9743 I39.4443 J-3.7956
G3 X83.753 Y110.4083 I39.0978 J-2.634
G1 X83.7648 Y109.9625
G1 X83.7786 Y109.5726
G3 X83.8513 Y108.2089 I56.9007 J2.3485
G1 X83.875 Y107.8684
G1 X83.8942 Y107.613
G1 X83.9251 Y107.2301
G1 X83.9585 Y106.8475
G1 X83.9985 Y106.4216
G1 X84.0392 Y106.0226
G3 X84.2241 Y104.53 I37.5763 J3.8971
G3 X84.6306 Y102.3108 I26.7636 J3.7561
G3 X85.25 Y100.1414 I19.8064 J4.4821
G3 X85.899 Y98.5336 I18.7956 J6.6516
G3 X87.1025 Y96.2295 I23.1558 J10.6283
