( Made using CamBam - http://www.cambam.co.uk )
( NatsCoaster 6/26/2015 6:39:55 AM )
( T3 : 0.125 )
G20 G90 G64 G40
G0 Z0.125
( T3 : 0.125 )
T3 M6
( Engrave1 )
G17
M3 S1000
G0 X1.4989 Y0.6889
G0 Z0.0625
G1 F10.0 Z-0.015
G1 F30.0 X1.4578 Y0.695
G2 X1.4164 Y0.7027 I0.0922 J0.6149
G1 X1.3836 Y0.7102
G2 X1.1902 Y0.8112 I0.3944 J0.9904
G2 X1.0378 Y0.9698 I0.398 J0.5351
G2 X0.941 Y1.1451 I1.354 J0.8617
G2 X0.9 Y1.3458 I1.4733 J0.4058
G2 X0.9052 Y1.5722 I0.9313 J0.0919
G2 X0.9565 Y1.8183 I1.6235 J-0.2099
G1 X0.986 Y1.9034
G1 X1.0247 Y2.002
G2 X1.0481 Y2.052 I0.1587 J-0.0439
G3 X1.0508 Y2.0552 I-0.009 J0.0105
G1 X1.0535 Y2.0606
G3 X1.0554 Y2.0671 I-0.0232 J0.0105
G2 X1.1681 Y2.2829 I6.5385 J-3.278
G1 X1.2831 Y2.4938
G3 X1.3866 Y2.6823 I-11.0134 J6.1674
G3 X1.3904 Y2.6871 I-0.0086 J0.0108
G1 X1.3939 Y2.6963
G3 X1.3974 Y2.7102 I-0.0365 J0.0165
G3 X1.3689 Y2.71 I-0.0123 J-0.29
G3 X1.2838 Y2.7043 I-0.0126 J-0.4509
G3 X1.1475 Y2.6642 I0.0801 J-0.5238
G1 X1.0437 Y2.6196
G3 X0.9626 Y2.5654 I0.3994 J-0.6852
G1 X0.9279 Y2.534
G1 X0.8937 Y2.5022
G1 X0.8728 Y2.4828
G3 X0.8646 Y2.4555 I0.0147 J-0.0194
G3 X0.8692 Y2.4499 I0.0103 J0.0038
G3 X0.8812 Y2.4421 I0.0248 J0.0252
G3 X0.898 Y2.4339 I0.2259 J0.4404
G2 X0.9654 Y2.3904 I-0.1201 J-0.2604
G2 X1.0194 Y2.3287 I-0.1819 J-0.2134
G2 X1.0499 Y2.2601 I-0.3525 J-0.198
G2 X1.0377 Y2.1917 I-1.3903 J0.2122
G2 X1.0129 Y2.1268 I-0.2096 J0.043
G2 X0.9163 Y2.0415 I-0.1835 J0.1106
G2 X0.7877 Y2.0118 I-0.1593 J0.3951
G2 X0.7466 Y2.0142 I-0.0083 J0.2078
G2 X0.7057 Y2.0201 I0.0077 J0.197
G2 X0.6347 Y2.0469 I0.0522 J0.2456
G2 X0.5645 Y2.096 I0.2574 J0.4431
G2 X0.5373 Y2.12 I0.107 J0.1489
G1 X0.5166 Y2.1402
G2 X0.5071 Y2.1523 I0.0183 J0.0243
G1 X0.5038 Y2.1584
G3 X0.4999 Y2.1627 I-0.0078 J-0.0032
G1 X0.4961 Y2.1643
G2 X0.4923 Y2.1658 I0.0006 J0.0069
G1 X0.4884 Y2.1698
G2 X0.4853 Y2.1753 I0.012 J0.0105
G1 X0.4821 Y2.182
G3 X0.4781 Y2.1893 I-0.0613 J-0.0292
G1 X0.4741 Y2.1955
G2 X0.4333 Y2.2743 I0.3499 J0.2309
G2 X0.4139 Y2.3644 I0.261 J0.1034
G2 X0.4171 Y2.4598 I0.6327 J0.0265
G2 X0.4324 Y2.5074 I0.5749 J-0.1579
G2 X0.4871 Y2.6469 I0.9882 J-0.3071
G2 X0.617 Y2.8267 I0.6191 J-0.3108
G2 X0.7869 Y2.9619 I0.8488 J-0.8919
G3 X0.8113 Y2.9759 I-1.6036 J2.8297
G1 X0.8351 Y2.9895
G2 X0.8569 Y3.0015 I0.3807 J-0.6645
G2 X1.0253 Y3.0747 I0.495 J-0.909
G2 X1.1269 Y3.108 I0.361 J-0.9311
G2 X1.23 Y3.1362 I0.3574 J-1.1028
G2 X1.4651 Y3.1843 I0.6174 J-2.4207
G2 X1.5651 Y3.1985 I0.1888 J-0.9691
G1 X1.6654 Y3.2095
G1 X1.775 Y3.2186
G1 X1.8298 Y3.2224
G1 X1.8572 Y3.2243
G2 X1.8846 Y3.2261 I0.036 J-0.3363
G2 X2.0706 Y3.2304 I0.121 J-1.203
G3 X2.1275 Y3.2291 I0.0326 J0.189
G2 X2.1383 Y3.23 I0.0095 J-0.0495
G2 X2.1485 Y3.2263 I0.0025 J-0.0089
G2 X2.1466 Y3.2188 I-0.0216 J0.0014
G3 X2.1143 Y3.1752 I0.5544 J-0.4451
G3 X2.0833 Y3.1308 I0.4542 J-0.3504
G1 X2.0271 Y3.0389
G2 X1.9755 Y2.9516 I-1.2094 J0.6548
G1 X1.9141 Y2.8514
G3 X1.8662 Y2.7726 I3.5551 J-2.2141
G1 X1.8423 Y2.7323
G3 X1.761 Y2.584 I3.1813 J-1.8396
G1 X1.6873 Y2.4387
G3 X1.6171 Y2.2921 I7.2777 J-3.5752
G3 X1.5749 Y2.196 I2.2005 J-1.0235
G3 X1.5344 Y2.0991 I2.0156 J-0.8992
G1 X1.4947 Y1.9943
G3 X1.4585 Y1.8882 I33.9106 J-11.6137
G3 X1.4025 Y1.6957 I2.2447 J-0.7579
G3 X1.3881 Y1.6366 I2.5383 J-0.6499
G1 X1.3756 Y1.5771
G3 X1.3635 Y1.491 I0.4903 J-0.1132
G1 X1.3607 Y1.3998
G3 X1.3692 Y1.286 I0.5267 J-0.0177
G3 X1.4065 Y1.1911 I0.2622 J0.0483
G3 X1.4854 Y1.1078 I0.3516 J0.2539
G3 X1.503 Y1.0972 I0.0732 J0.1012
G1 X1.5285 Y1.0853
G3 X1.5563 Y1.0748 I0.0794 J0.1683
G3 X1.6353 Y1.0594 I0.0993 J0.2989
G3 X1.7247 Y1.0595 I0.044 J0.4242
G3 X1.8145 Y1.0752 I-0.0333 J0.4551
G1 X1.8801 Y1.0964
G3 X1.945 Y1.1228 I-0.1207 J0.3901
G1 X1.9941 Y1.1482
G1 X2.0408 Y1.1798
G3 X2.0844 Y1.2137 I-0.2108 J0.3151
G1 X2.124 Y1.2513
G1 X2.1033 Y1.2755
G1 X2.124 Y1.2513
G1 F10.0 X2.1033 Y1.2755
G2 F30.0 X1.9923 Y1.4473 I1.0712 J0.8139
G2 X1.9129 Y1.644 I0.7713 J0.4258
G2 X1.8896 Y1.7382 I0.8608 J0.2625
G1 X1.8706 Y1.8333
G2 X1.8683 Y1.9133 I0.9644 J0.0683
G2 X1.8687 Y1.9932 I0.8793 J0.0356
G1 X1.8752 Y2.0853
G2 X1.8877 Y2.1769 I1.2984 J-0.1307
G2 X1.9257 Y2.3653 I3.1124 J-0.5302
G2 X1.9842 Y2.5322 I1.7396 J-0.515
G2 X2.0617 Y2.692 I0.9547 J-0.3646
G1 X2.1094 Y2.7678
G1 X2.1601 Y2.8415
G1 X2.2288 Y2.896
G2 X2.482 Y3.0702 I1.2404 J-1.5313
G2 X2.6272 Y3.1277 I0.3038 J-0.5554
G2 X2.7834 Y3.1303 I0.0836 J-0.3279
G2 X3.0098 Y2.9914 I-0.127 J-0.4612
G2 X3.159 Y2.7716 I-0.5393 J-0.5264
G2 X3.2223 Y2.4886 I-0.7238 J-0.3107
G2 X3.2157 Y2.1987 I-2.8866 J-0.0787
G1 X3.1575 Y2.0433
G1 X3.0955 Y1.8895
G2 X2.9574 Y1.6153 I-1.8638 J0.7667
G1 X2.9167 Y1.552
G2 X2.7835 Y1.3694 I-2.7959 J1.8995
G1 X2.7662 Y1.3474
G3 X2.7563 Y1.3309 I0.0331 J-0.0311
G1 X2.755 Y1.3219
G3 X2.8786 Y1.3526 I-0.0822 J0.5943
G3 X3.0214 Y1.4286 I-0.3375 J0.8067
G1 X3.0706 Y1.4605
G3 X3.1171 Y1.4966 I-0.1657 J0.2612
G1 X3.1317 Y1.5102
G2 X3.1476 Y1.5248 I0.2506 J-0.2547
G1 X3.1611 Y1.5374
G3 X3.1972 Y1.573 I-0.4706 J0.5134
G3 X3.233 Y1.6134 I-0.8162 J0.7592
G3 X3.2743 Y1.6651 I-18.0147 J14.4119
G3 X3.3425 Y1.7565 I-0.9165 J0.7549
G3 X3.4012 Y1.861 I-0.736 J0.4821
G3 X3.425 Y1.9106 I-0.4667 J0.2545
G3 X3.448 Y1.9606 I-0.9726 J0.4794
G3 X3.4822 Y2.0489 I-0.8484 J0.3785
G3 X3.5124 Y2.1387 I-0.8479 J0.3352
G1 X3.5354 Y2.2307
G3 X3.5511 Y2.3242 I-0.8733 J0.1946
G3 X3.5613 Y2.4286 I-1.2882 J0.1788
G1 X3.5675 Y2.5332
G1 X3.5627 Y2.6365
G3 X3.5543 Y2.7397 I-1.1295 J-0.0401
G3 X3.5117 Y2.9296 I-0.7321 J-0.0644
G3 X3.4162 Y3.0974 I-0.8884 J-0.3947
G3 X3.3899 Y3.123 I-0.2578 J-0.2382
G3 X3.306 Y3.1942 I-0.3898 J-0.3743
G3 X3.1816 Y3.2585 I-0.3606 J-0.5452
G3 X3.1139 Y3.2819 I-0.1666 J-0.3714
G3 X3.0454 Y3.3024 I-0.501 J-1.5525
G2 X3.2421 Y3.4495 I1.3627 J-1.616
G2 X3.3531 Y3.5061 I0.3166 J-0.4839
G2 X3.4766 Y3.5226 I0.0956 J-0.246
G2 X3.606 Y3.4624 I-0.0431 J-0.262
G2 X3.7456 Y3.3035 I-0.4176 J-0.5074
G2 X3.8467 Y3.1176 I-0.9844 J-0.656
G2 X3.9375 Y2.8536 I-1.2982 J-0.5942
G2 X3.968 Y2.7173 I-2.0413 J-0.5283
G1 X3.981 Y2.6487
G2 X3.9873 Y2.6144 I-0.2949 J-0.0712
G2 X3.9934 Y2.58 I-0.5143 J-0.1097
G2 X3.9888 Y2.5218 I-3.5433 J0.2509
G1 X3.9854 Y2.4779
G2 X3.984 Y2.4577 I-0.3184 J0.0125
G1 X3.9763 Y2.4005
G2 X3.96 Y2.3078 I-1.2352 J0.1692
G2 X3.9418 Y2.2174 I-1.7982 J0.3162
G1 X3.9173 Y2.1205
G1 X3.8886 Y2.0247
G2 X3.8554 Y1.9276 I-1.2269 J0.3653
G2 X3.8174 Y1.8322 I-0.8926 J0.2998
G1 X3.7793 Y1.7497
G1 X3.7388 Y1.6682
G1 X3.6829 Y1.5727
G2 X3.6244 Y1.4785 I-0.8735 J0.4775
G1 X3.5653 Y1.3961
G1 X3.4633 Y1.2837
G2 X3.3512 Y1.18 I-0.6722 J0.6145
G1 X3.2954 Y1.1375
G1 X3.2382 Y1.0969
G2 X3.1835 Y1.0657 I-0.2792 J0.4262
G2 X3.1272 Y1.0372 I-0.2284 J0.3817
G2 X2.9926 Y0.991 I-0.3395 J0.769
G2 X2.8665 Y0.9635 I-0.2996 J1.0698
G1 X2.8253 Y0.9585
G2 X2.7835 Y0.955 I-0.072 J0.6032
G1 X2.7503 Y0.9536
G1 X2.6465 Y0.9635
G2 X2.5907 Y0.9712 I0.0597 J0.6348
G2 X2.5356 Y0.983 I0.0356 J0.3013
G2 X2.4441 Y1.0139 I0.1392 J0.5644
G3 X2.4222 Y1.0266 I-0.0276 J-0.0222
G3 X2.4089 Y1.0199 I0.0044 J-0.0252
G3 X2.3859 Y0.9928 I0.1295 J-0.1333
G2 X2.3148 Y0.9238 I-0.3656 J0.3053
G1 X2.2299 Y0.8572
G1 X2.186 Y0.8278
G2 X2.1403 Y0.801 I-0.5429 J0.8753
G2 X1.9428 Y0.7218 I-0.455 J0.8487
G2 X1.7238 Y0.6835 I-0.3174 J1.1705
G2 X1.4989 Y0.6889 I-0.0753 J1.5572
G0 Z0.125
G0 X2.4362 Y1.4941
G0 Z0.0625
G1 F10.0 Z-0.015
G2 F30.0 X2.4282 Y1.4868 I-0.0127 J0.0059
G2 X2.4229 Y1.4885 I0.0002 J0.0099
G2 X2.4165 Y1.5003 I0.014 J0.0153
G3 X2.384 Y1.5924 I-1.1355 J-0.349
G1 X2.35 Y1.6839
G2 X2.3112 Y1.8884 I0.8477 J0.2664
G2 X2.3044 Y2.0926 I1.2511 J0.1439
G2 X2.3621 Y2.413 I1.1942 J-0.0497
G2 X2.4092 Y2.5275 I0.9758 J-0.3338
G2 X2.4858 Y2.6246 I0.2764 J-0.1393
G2 X2.5694 Y2.671 I0.1731 J-0.2135
G2 X2.66 Y2.7011 I0.4064 J-1.0735
G2 X2.6997 Y2.661 I-0.23 J-0.2675
G1 X2.7374 Y2.6193
G2 X2.7952 Y2.5225 I-0.2268 J-0.2011
G2 X2.7964 Y2.3647 I-0.2892 J-0.081
G2 X2.7491 Y2.214 I-1.0546 J0.2486
G1 X2.7335 Y2.1717
G3 X2.6759 Y2.0031 I2.2357 J-0.8583
G1 X2.668 Y1.9789
G1 X2.6474 Y1.9142
G2 X2.5857 Y1.7728 I-5.5815 J2.3534
G2 X2.5153 Y1.6313 I-3.5941 J1.6997
G2 X2.4362 Y1.4941 I-1.7371 J0.9096
( Profile1 )
S1000
G0 Z0.125
G0 X4.359 Y2.2031
G0 Z0.0625
G1 F10.0 Z-0.015
G3 F30.0 X1.1955 Y4.0295 I-2.109 J0.0
G3 Y0.3767 I1.0545 J-1.8264
G3 X4.359 Y2.2031 I1.0545 J1.8264
G1 F10.0 Z-0.03
G3 F30.0 X1.1955 Y4.0295 I-2.109 J0.0
G3 Y0.3767 I1.0545 J-1.8264
G3 X4.359 Y2.2031 I1.0545 J1.8264
G1 F10.0 Z-0.045
G3 F30.0 X1.1955 Y4.0295 I-2.109 J0.0
G3 Y0.3767 I1.0545 J-1.8264
G3 X4.359 Y2.2031 I1.0545 J1.8264
G1 F10.0 Z-0.06
G3 F30.0 X1.1955 Y4.0295 I-2.109 J0.0
G3 Y0.3767 I1.0545 J-1.8264
G3 X4.359 Y2.2031 I1.0545 J1.8264
G1 F10.0 Z-0.075
G3 F30.0 X1.1955 Y4.0295 I-2.109 J0.0
G3 Y0.3767 I1.0545 J-1.8264
G3 X4.359 Y2.2031 I1.0545 J1.8264
G1 F10.0 Z-0.09
G3 F30.0 X1.1955 Y4.0295 I-2.109 J0.0
G3 Y0.3767 I1.0545 J-1.8264
G3 X4.359 Y2.2031 I1.0545 J1.8264
G1 F10.0 Z-0.105
G3 F30.0 X1.1955 Y4.0295 I-2.109 J0.0
G3 Y0.3767 I1.0545 J-1.8264
G3 X4.359 Y2.2031 I1.0545 J1.8264
G1 F10.0 Z-0.12
G3 F30.0 X1.1955 Y4.0295 I-2.109 J0.0
G3 Y0.3767 I1.0545 J-1.8264
G3 X4.359 Y2.2031 I1.0545 J1.8264
G1 F10.0 Z-0.135
G3 F30.0 X1.1955 Y4.0295 I-2.109 J0.0
G3 Y0.3767 I1.0545 J-1.8264
G3 X4.359 Y2.2031 I1.0545 J1.8264
G1 F10.0 Z-0.15
G3 F30.0 X1.1955 Y4.0295 I-2.109 J0.0
G3 Y0.3767 I1.0545 J-1.8264
G3 X4.359 Y2.2031 I1.0545 J1.8264
G1 F10.0 Z-0.165
G3 F30.0 X1.1955 Y4.0295 I-2.109 J0.0
G3 Y0.3767 I1.0545 J-1.8264
G3 X4.359 Y2.2031 I1.0545 J1.8264
G1 F10.0 Z-0.18
G3 F30.0 X1.1955 Y4.0295 I-2.109 J0.0
G3 Y0.3767 I1.0545 J-1.8264
G3 X4.359 Y2.2031 I1.0545 J1.8264
G1 F10.0 Z-0.195
G3 F30.0 X1.1955 Y4.0295 I-2.109 J0.0
G3 Y0.3767 I1.0545 J-1.8264
G3 X4.359 Y2.2031 I1.0545 J1.8264
G1 F10.0 Z-0.21
G3 F30.0 X1.1955 Y4.0295 I-2.109 J0.0
G3 Y0.3767 I1.0545 J-1.8264
G3 X4.359 Y2.2031 I1.0545 J1.8264
G1 F10.0 Z-0.225
G3 F30.0 X1.1955 Y4.0295 I-2.109 J0.0
G3 Y0.3767 I1.0545 J-1.8264
G3 X4.359 Y2.2031 I1.0545 J1.8264
G1 F10.0 Z-0.24
G3 F30.0 X1.1955 Y4.0295 I-2.109 J0.0
G3 Y0.3767 I1.0545 J-1.8264
G3 X4.359 Y2.2031 I1.0545 J1.8264
G1 F10.0 Z-0.25
G3 F30.0 X1.1955 Y4.0295 I-2.109 J0.0
G3 Y0.3767 I1.0545 J-1.8264
G3 X4.359 Y2.2031 I1.0545 J1.8264
G0 Z0.125
M5
M30
