( Made using CamBam - http://www.cambam.co.uk )
( NatsCoaster 6/25/2015 4:28:54 PM )
( T3 : 0.125 )
G20 G90 G64 G40
G0 Z0.125
( T3 : 0.125 )
T3 M6
( Engrave1 )
G17
M3 S1000
G0 X1.9985 Y0.9186
G0 Z0.0625
G1 F10.0 Z-0.015
G1 F30.0 X1.9438 Y0.9267
G2 X1.8885 Y0.9369 I0.1229 J0.8199
G1 X1.8448 Y0.947
G2 X1.587 Y1.0817 I0.5258 J1.3205
G2 X1.3837 Y1.2931 I0.4893 J0.6737
G2 X1.2547 Y1.5269 I1.8053 J1.149
G2 X1.2 Y1.7944 I1.9645 J0.5411
G2 X1.2069 Y2.0962 I1.2418 J0.1225
G2 X1.2753 Y2.4244 I2.1647 J-0.2798
G2 X1.2939 Y2.4815 I0.6463 J-0.1786
G2 X1.304 Y2.5099 I0.2084 J-0.0585
G2 X1.3147 Y2.5379 I0.1689 J-0.0483
G1 X1.3413 Y2.6033
G3 X1.3662 Y2.6693 I-2.7627 J1.0772
G2 X1.3974 Y2.736 I0.1722 J-0.0401
G3 X1.4011 Y2.7403 I-0.012 J0.0141
G1 X1.4046 Y2.7475
G3 X1.4072 Y2.7561 I-0.0309 J0.014
G2 X1.5575 Y3.0439 I8.7179 J-4.3707
G1 X1.7108 Y3.3251
G3 X1.8488 Y3.5764 I-14.6845 J8.2233
G3 X1.8539 Y3.5829 I-0.0115 J0.0143
G3 X1.8586 Y3.595 I-0.0395 J0.0223
G3 X1.8632 Y3.6136 I-0.0487 J0.022
G3 X1.7118 Y3.6058 I-0.0302 J-0.8818
G3 X1.5301 Y3.5523 I0.172 J-0.9197
G1 X1.3916 Y3.4928
G3 X1.2835 Y3.4205 I0.5325 J-0.9137
G1 X1.2372 Y3.3787
G1 X1.1916 Y3.3363
G1 X1.1637 Y3.3104
G3 X1.1528 Y3.2739 I0.0197 J-0.0258
G1 X1.1589 Y3.2665
G3 X1.1749 Y3.2562 I0.033 J0.0336
G3 X1.1974 Y3.2452 I0.3012 J0.5872
G2 X1.2872 Y3.1873 I-0.1602 J-0.3472
G2 X1.3591 Y3.105 I-0.2425 J-0.2845
G2 X1.3999 Y3.0135 I-0.47 J-0.2641
G2 X1.3836 Y2.9222 I-1.7344 J0.2617
G2 X1.3505 Y2.8357 I-0.2799 J0.0576
G2 X1.2218 Y2.7221 I-0.2447 J0.1474
G2 X1.0503 Y2.6823 I-0.2124 J0.5269
G2 X0.941 Y2.6935 I0.01 J0.6388
G2 X0.8463 Y2.7293 I0.0695 J0.3275
G2 X0.7526 Y2.7947 I0.3432 J0.5908
G2 X0.7163 Y2.8267 I0.1426 J0.1985
G2 X0.6889 Y2.8536 I0.1273 J0.1573
G2 X0.6761 Y2.8698 I0.1236 J0.111
G1 X0.6718 Y2.8778
G3 X0.6665 Y2.8836 I-0.0104 J-0.0042
G1 X0.6614 Y2.8858
G2 X0.6564 Y2.8878 I0.0008 J0.0093
G1 X0.6512 Y2.893
G2 X0.6471 Y2.9004 I0.016 J0.014
G1 X0.6428 Y2.9094
G3 X0.6374 Y2.9191 I-0.0818 J-0.0389
G1 X0.6321 Y2.9274
G2 X0.5778 Y3.0324 I0.4666 J0.3079
G2 X0.5519 Y3.1525 I0.4156 J0.1524
G2 X0.5562 Y3.2797 I0.8436 J0.0354
G1 X0.598 Y3.4062
G2 X0.6495 Y3.5292 I0.9447 J-0.3229
G2 X0.8227 Y3.7689 I0.8255 J-0.4144
G2 X0.9323 Y3.8637 I0.9474 J-0.9849
G2 X1.0492 Y3.9492 I1.2159 J-1.5387
G3 X1.0817 Y3.9678 I-2.1381 J3.7729
G1 X1.1134 Y3.986
G2 X1.1425 Y4.0021 I0.5076 J-0.886
G2 X1.3671 Y4.0996 I0.66 J-1.212
G2 X1.6399 Y4.1816 I1.0949 J-3.1493
G2 X1.9535 Y4.2457 I0.8232 J-3.2276
G1 X2.0201 Y4.2557
G2 X2.0701 Y4.2625 I0.0942 J-0.5063
G2 X2.1077 Y4.2672 I0.0569 J-0.3024
G2 X2.136 Y4.2705 I0.0403 J-0.2214
G2 X2.2206 Y4.2794 I0.1306 J-0.8383
G2 X2.3666 Y4.2915 I0.2361 J-1.964
G1 X2.4397 Y4.2966
G2 X2.4763 Y4.299 I0.0342 J-0.2369
G2 X2.5128 Y4.3014 I0.0481 J-0.4484
G2 X2.7608 Y4.3072 I0.1613 J-1.604
G3 X2.8366 Y4.3055 I0.0435 J0.252
G2 X2.851 Y4.3067 I0.0126 J-0.0659
G2 X2.8647 Y4.3018 I0.0034 J-0.0119
G2 X2.8622 Y4.2917 I-0.0288 J0.0019
G3 X2.8191 Y4.2337 I0.7392 J-0.5934
G3 X2.7777 Y4.1744 I0.6057 J-0.4671
G1 X2.7027 Y4.0519
G2 X2.6684 Y3.9936 I-0.9284 J0.5079
G2 X2.634 Y3.9354 I-1.5957 J0.9037
G1 X2.5521 Y3.8019
G3 X2.4882 Y3.6968 I4.7401 J-2.9521
G1 X2.4563 Y3.643
G3 X2.348 Y3.4453 I4.2417 J-2.4527
G1 X2.2497 Y3.2516
G3 X2.1562 Y3.0562 I9.7036 J-4.7669
G3 X2.0999 Y2.928 I2.934 J-1.3646
G3 X2.0459 Y2.7988 I2.6874 J-1.1989
G1 X1.9929 Y2.6591
G3 X1.9447 Y2.5176 I45.2141 J-15.4849
G3 X1.87 Y2.261 I2.993 J-1.0106
G3 X1.8508 Y2.1822 I3.3844 J-0.8665
G1 X1.8342 Y2.1027
G3 X1.8179 Y1.988 I0.6537 J-0.1509
G1 X1.8149 Y1.9273
G1 X1.8142 Y1.8664
G3 X1.8256 Y1.7146 I0.7023 J-0.0236
G3 X1.8753 Y1.5882 I0.3495 J0.0644
G3 X1.9806 Y1.477 I0.4688 J0.3386
G3 X2.004 Y1.4629 I0.0976 J0.1349
G1 X2.038 Y1.4471
G3 X2.0751 Y1.4331 I0.1059 J0.2244
G3 X2.1803 Y1.4125 I0.1324 J0.3985
G3 X2.2996 Y1.4127 I0.0587 J0.5656
G3 X2.4193 Y1.4336 I-0.0444 J0.6068
G3 X2.4633 Y1.4468 I-0.3177 J1.145
G1 X2.5068 Y1.4619
G3 X2.5934 Y1.497 I-0.1609 J0.5201
G1 X2.6588 Y1.531
G1 X2.7211 Y1.573
G3 X2.7792 Y1.6183 I-0.2811 J0.4201
G1 X2.832 Y1.6684
G1 X2.8044 Y1.7007
G1 X2.832 Y1.6684
G1 F10.0 X2.8044 Y1.7007
G2 F30.0 X2.7653 Y1.7567 I0.7964 J0.5982
G2 X2.6564 Y1.9298 I1.8266 J1.2699
G2 X2.5505 Y2.192 I1.2124 J0.642
G2 X2.5195 Y2.3176 I1.1477 J0.35
G1 X2.4942 Y2.4444
G2 X2.491 Y2.551 I1.2858 J0.091
G2 X2.4916 Y2.6577 I1.1724 J0.0475
G2 X2.5169 Y2.9025 I1.7802 J-0.0607
G2 X2.5677 Y3.1537 I4.1499 J-0.7069
G2 X2.6455 Y3.3763 I2.3195 J-0.6867
G2 X2.7489 Y3.5893 I1.2729 J-0.4862
G1 X2.8125 Y3.6904
G1 X2.8802 Y3.7886
G1 X2.9717 Y3.8613
G2 X3.0528 Y3.9239 I3.1324 J-3.9725
G2 X3.3561 Y4.1172 I1.1521 J-1.4725
G2 X3.5288 Y4.1757 I0.3201 J-0.661
G2 X3.7112 Y4.1737 I0.0866 J-0.416
G2 X3.875 Y4.1022 I-0.134 J-0.5304
G2 X4.0721 Y3.9226 I-0.4516 J-0.6935
G2 X4.2119 Y3.6955 I-0.7289 J-0.6056
G2 X4.2964 Y3.3182 I-0.965 J-0.4143
G1 X4.2985 Y3.2698
G1 X4.2992 Y3.1852
G2 X4.2876 Y2.9316 I-10.1008 J0.3352
G1 X4.21 Y2.7244
G1 X4.1696 Y2.6215
G1 X4.1274 Y2.5193
G2 X3.9433 Y2.1537 I-2.485 J1.0223
G1 X3.8888 Y2.0692
G2 X3.7113 Y1.8258 I-3.72 J2.527
G1 X3.6882 Y1.7966
G3 X3.675 Y1.7746 I0.0442 J-0.0414
G3 X3.6734 Y1.7625 I0.0227 J-0.0092
G1 X3.7566 Y1.7797
G3 X3.8382 Y1.8035 I-0.1147 J0.5457
G1 X3.8879 Y1.8245
G3 X4.0285 Y1.9048 I-1.0141 J1.9385
G1 X4.0942 Y1.9473
G3 X4.1561 Y1.9954 I-0.2209 J0.3483
G1 X4.1757 Y2.0136
G2 X4.1968 Y2.0331 I0.3342 J-0.3396
G1 X4.2148 Y2.0499
G3 X4.263 Y2.0973 I-0.6275 J0.6845
G3 X4.3107 Y2.1512 I-1.0883 J1.0123
G3 X4.3657 Y2.2201 I-24.0196 J19.2158
G3 X4.4566 Y2.342 I-1.222 J1.0065
G3 X4.5349 Y2.4814 I-0.9813 J0.6428
G3 X4.5666 Y2.5475 I-0.6222 J0.3394
G3 X4.5974 Y2.6141 I-1.2968 J0.6393
G3 X4.6205 Y2.6729 I-1.1092 J0.4695
G3 X4.6537 Y2.7616 I-0.8127 J0.3547
G3 X4.6831 Y2.8515 I-1.2953 J0.4742
G1 X4.6998 Y2.9125
G3 X4.7347 Y3.099 I-1.6665 J0.4092
G3 X4.7484 Y3.2381 I-1.7176 J0.2384
G1 X4.7566 Y3.3776
G1 X4.7502 Y3.5154
G3 X4.739 Y3.6529 I-1.506 J-0.0535
G3 X4.6823 Y3.9061 I-0.9762 J-0.0859
G3 X4.5549 Y4.1298 I-1.1845 J-0.5262
G1 X4.4841 Y4.1974
G3 X4.4471 Y4.2293 I-0.1959 J-0.1901
G3 X4.408 Y4.2589 I-0.309 J-0.3673
G3 X4.2421 Y4.3447 I-0.4808 J-0.7269
G3 X4.1973 Y4.361 I-0.1327 J-0.294
G3 X4.0606 Y4.4032 I-0.5084 J-1.4051
G2 X4.3228 Y4.5994 I1.817 J-2.1547
G2 X4.4708 Y4.6748 I0.4222 J-0.6452
G2 X4.6355 Y4.6967 I0.1274 J-0.3279
G2 X4.808 Y4.6165 I-0.0661 J-0.3679
G2 X4.9941 Y4.4045 I-0.5565 J-0.6763
G2 X5.1289 Y4.1568 I-1.3084 J-0.8722
G2 X5.1971 Y3.9833 I-1.6562 J-0.7516
G2 X5.2027 Y3.9667 I-0.0773 J-0.0353
G2 X5.2415 Y3.8371 I-2.0472 J-0.6835
G2 X5.3245 Y3.44 I-4.8063 J-1.212
G2 X5.3184 Y3.3624 I-4.7244 J0.3345
G1 X5.3139 Y3.3038
G2 X5.312 Y3.2769 I-0.4245 J0.0167
G1 X5.3017 Y3.2006
G2 X5.28 Y3.0771 I-1.647 J0.2256
G2 X5.2557 Y2.9565 I-2.3976 J0.4216
G1 X5.2231 Y2.8273
G1 X5.1847 Y2.6996
G2 X5.0899 Y2.443 I-2.5456 J0.795
G2 X4.985 Y2.2243 I-3.5631 J1.5736
G1 X4.9106 Y2.0969
G2 X4.8724 Y2.0336 I-1.5424 J0.885
G2 X4.8325 Y1.9713 I-0.7689 J0.4492
G1 X4.7538 Y1.8614
G2 X4.6866 Y1.7857 I-3.0116 J2.6033
G1 X4.6177 Y1.7116
G2 X4.545 Y1.6401 I-1.7012 J1.6581
G2 X4.4682 Y1.5733 I-0.5739 J0.5823
G1 X4.3938 Y1.5166
G1 X4.3176 Y1.4625
G2 X4.1695 Y1.383 I-0.6676 J1.0647
G2 X3.9902 Y1.3213 I-0.4526 J1.0254
G2 X3.9063 Y1.3018 I-0.2051 J0.6901
G2 X3.8221 Y1.2846 I-0.5408 J2.4415
G1 X3.767 Y1.278
G2 X3.7114 Y1.2733 I-0.096 J0.8042
G1 X3.6671 Y1.2715
G1 X3.5287 Y1.2846
G2 X3.4543 Y1.295 I0.0797 J0.8464
G2 X3.3808 Y1.3107 I0.0474 J0.4017
G1 X3.3193 Y1.3298
G1 X3.2588 Y1.3518
G3 X3.2296 Y1.3689 I-0.0368 J-0.0296
G3 X3.2118 Y1.3599 I0.0058 J-0.0336
G3 X3.1811 Y1.3238 I0.1727 J-0.1778
G2 X3.0864 Y1.2317 I-0.4875 J0.4071
G2 X2.9732 Y1.143 I-1.0745 J1.2536
G2 X2.8537 Y1.0681 I-0.604 J0.8304
G2 X2.5904 Y0.9624 I-0.6067 J1.1316
G2 X2.2984 Y0.9114 I-0.3749 J1.2841
G2 X2.2234 Y0.9091 I-0.0918 J1.7704
G1 X2.1109 Y0.9119
G1 X1.9985 Y0.9186
G0 Z0.125
G0 X3.2482 Y1.9921
G0 Z0.0625
G1 F10.0 Z-0.015
G2 F30.0 X3.2376 Y1.9824 I-0.0169 J0.0079
G2 X3.2306 Y1.9847 I0.0003 J0.0133
G2 X3.222 Y2.0004 I0.0187 J0.0204
G3 X3.1787 Y2.1232 I-1.514 J-0.4654
G2 X3.1333 Y2.2452 I1.5137 J0.633
G2 X3.0817 Y2.5179 I1.3421 J0.3952
G2 X3.0726 Y2.7901 I1.6681 J0.1918
G2 X3.1495 Y3.2173 I1.5923 J-0.0662
G1 X3.1776 Y3.295
G2 X3.2122 Y3.3699 I0.4516 J-0.1632
G2 X3.3144 Y3.4995 I0.3689 J-0.186
G2 X3.4259 Y3.5613 I0.2591 J-0.3355
G2 X3.5467 Y3.6014 I0.5419 J-1.4314
G2 X3.6499 Y3.4923 I-0.7525 J-0.8156
G2 X3.727 Y3.3634 I-0.3024 J-0.2682
G2 X3.7285 Y3.1529 I-0.3856 J-0.108
G2 X3.6654 Y2.9521 I-1.4061 J0.3314
G1 X3.6447 Y2.8957
G1 X3.577 Y2.6991
G1 X3.5678 Y2.6708
G1 X3.5436 Y2.5954
G1 X3.5298 Y2.5522
G2 X3.4475 Y2.3638 I-7.442 J3.1379
G2 X3.3537 Y2.1751 I-4.7921 J2.2662
G2 X3.3019 Y2.0831 I-1.9234 J1.023
G2 X3.2482 Y1.9921 I-2.0123 J1.1245
( Profile1 )
S1000
G0 Z0.125
G0 X5.7911 Y2.9375
G0 Z0.0625
G1 F10.0 Z-0.015
G3 F30.0 X1.6044 Y5.3547 I-2.7911 J0.0
G3 Y0.5203 I1.3956 J-2.4172
G3 X5.7911 Y2.9375 I1.3956 J2.4172
G1 F10.0 Z-0.03
G3 F30.0 X1.6044 Y5.3547 I-2.7911 J0.0
G3 Y0.5203 I1.3956 J-2.4172
G3 X5.7911 Y2.9375 I1.3956 J2.4172
G1 F10.0 Z-0.045
G3 F30.0 X1.6044 Y5.3547 I-2.7911 J0.0
G3 Y0.5203 I1.3956 J-2.4172
G3 X5.7911 Y2.9375 I1.3956 J2.4172
G1 F10.0 Z-0.06
G3 F30.0 X1.6044 Y5.3547 I-2.7911 J0.0
G3 Y0.5203 I1.3956 J-2.4172
G3 X5.7911 Y2.9375 I1.3956 J2.4172
G1 F10.0 Z-0.075
G3 F30.0 X1.6044 Y5.3547 I-2.7911 J0.0
G3 Y0.5203 I1.3956 J-2.4172
G3 X5.7911 Y2.9375 I1.3956 J2.4172
G1 F10.0 Z-0.09
G3 F30.0 X1.6044 Y5.3547 I-2.7911 J0.0
G3 Y0.5203 I1.3956 J-2.4172
G3 X5.7911 Y2.9375 I1.3956 J2.4172
G1 F10.0 Z-0.105
G3 F30.0 X1.6044 Y5.3547 I-2.7911 J0.0
G3 Y0.5203 I1.3956 J-2.4172
G3 X5.7911 Y2.9375 I1.3956 J2.4172
G1 F10.0 Z-0.12
G3 F30.0 X1.6044 Y5.3547 I-2.7911 J0.0
G3 Y0.5203 I1.3956 J-2.4172
G3 X5.7911 Y2.9375 I1.3956 J2.4172
G1 F10.0 Z-0.135
G3 F30.0 X1.6044 Y5.3547 I-2.7911 J0.0
G3 Y0.5203 I1.3956 J-2.4172
G3 X5.7911 Y2.9375 I1.3956 J2.4172
G1 F10.0 Z-0.15
G3 F30.0 X1.6044 Y5.3547 I-2.7911 J0.0
G3 Y0.5203 I1.3956 J-2.4172
G3 X5.7911 Y2.9375 I1.3956 J2.4172
G1 F10.0 Z-0.165
G3 F30.0 X1.6044 Y5.3547 I-2.7911 J0.0
G3 Y0.5203 I1.3956 J-2.4172
G3 X5.7911 Y2.9375 I1.3956 J2.4172
G1 F10.0 Z-0.18
G3 F30.0 X1.6044 Y5.3547 I-2.7911 J0.0
G3 Y0.5203 I1.3956 J-2.4172
G3 X5.7911 Y2.9375 I1.3956 J2.4172
G1 F10.0 Z-0.195
G3 F30.0 X1.6044 Y5.3547 I-2.7911 J0.0
G3 Y0.5203 I1.3956 J-2.4172
G3 X5.7911 Y2.9375 I1.3956 J2.4172
G1 F10.0 Z-0.21
G3 F30.0 X1.6044 Y5.3547 I-2.7911 J0.0
G3 Y0.5203 I1.3956 J-2.4172
G3 X5.7911 Y2.9375 I1.3956 J2.4172
G1 F10.0 Z-0.225
G3 F30.0 X1.6044 Y5.3547 I-2.7911 J0.0
G3 Y0.5203 I1.3956 J-2.4172
G3 X5.7911 Y2.9375 I1.3956 J2.4172
G1 F10.0 Z-0.24
G3 F30.0 X1.6044 Y5.3547 I-2.7911 J0.0
G3 Y0.5203 I1.3956 J-2.4172
G3 X5.7911 Y2.9375 I1.3956 J2.4172
G1 F10.0 Z-0.25
G3 F30.0 X1.6044 Y5.3547 I-2.7911 J0.0
G3 Y0.5203 I1.3956 J-2.4172
G3 X5.7911 Y2.9375 I1.3956 J2.4172
G0 Z0.125
M5
M30
