%
(Generated by SketchUcam {1.2a})
(Bit diameter: 3.2mm)
(Feed rate: 2540.0mm/min)
(Material Thickness: 6.3mm)
(Material length: 300.0mm X width: 660.0mm)
(Overhead Gantry: true)
(Retract feed rate NOT limited to plunge feed rate)
(Multipass enabled, Depth = 0.8mm)
(Optimization is ON)
(Z ZERO IS TABLETOP)
(www.PhlatBoyz.com)
G90 G21 G49 
M3 S15000
G0   Z9.500     
(Pass: 1)
   X74.888       Y59.199    
G1   Z5.500      F2540
   X74.575       Y59.606    
   X74.379       Y60.081    
   X74.312       Y60.590    
   X74.379       Y61.099    
   X74.575       Y61.573    
   X74.888       Y61.981    
   X75.295       Y62.294    
   X75.770       Y62.490    
   X76.279       Y62.557    
   X76.788       Y62.490    
   X77.263       Y62.294    
   X77.670       Y61.981    
   X77.983       Y61.573    
   X78.179       Y61.099    
   X78.246       Y60.590    
   X78.179       Y60.081    
   X77.983       Y59.606    
   X77.670       Y59.199    
   X77.263       Y58.886    
   X76.788       Y58.690    
   X76.279       Y58.623    
   X75.770       Y58.690    
   X75.295       Y58.886    
   X74.888       Y59.199    
(Pass: 2)
   Z4.700     
   X74.575       Y59.606    
   X74.379       Y60.081    
   X74.312       Y60.590    
   X74.379       Y61.099    
   X74.575       Y61.573    
   X74.888       Y61.981    
   X75.295       Y62.294    
   X75.770       Y62.490    
   X76.279       Y62.557    
   X76.788       Y62.490    
   X77.263       Y62.294    
   X77.670       Y61.981    
   X77.983       Y61.573    
   X78.179       Y61.099    
   X78.246       Y60.590    
   X78.179       Y60.081    
   X77.983       Y59.606    
   X77.670       Y59.199    
   X77.263       Y58.886    
   X76.788       Y58.690    
   X76.279       Y58.623    
   X75.770       Y58.690    
   X75.295       Y58.886    
   X74.888       Y59.199    
(Pass: 3)
   Z3.900     
   X74.575       Y59.606    
   X74.379       Y60.081    
   X74.312       Y60.590    
   X74.379       Y61.099    
   X74.575       Y61.573    
   X74.888       Y61.981    
   X75.295       Y62.294    
   X75.770       Y62.490    
   X76.279       Y62.557    
   X76.788       Y62.490    
   X77.263       Y62.294    
   X77.670       Y61.981    
   X77.983       Y61.573    
   X78.179       Y61.099    
   X78.246       Y60.590    
   X78.179       Y60.081    
   X77.983       Y59.606    
   X77.670       Y59.199    
   X77.263       Y58.886    
   X76.788       Y58.690    
   X76.279       Y58.623    
   X75.770       Y58.690    
   X75.295       Y58.886    
   X74.888       Y59.199    
(Pass: 4)
   Z3.100     
   X74.575       Y59.606    
   X74.379       Y60.081    
   X74.312       Y60.590    
   X74.379       Y61.099    
   X74.575       Y61.573    
   X74.888       Y61.981    
   X75.295       Y62.294    
   X75.770       Y62.490    
   X76.279       Y62.557    
   X76.788       Y62.490    
   X77.263       Y62.294    
   X77.670       Y61.981    
   X77.983       Y61.573    
   X78.179       Y61.099    
   X78.246       Y60.590    
   X78.179       Y60.081    
   X77.983       Y59.606    
   X77.670       Y59.199    
   X77.263       Y58.886    
   X76.788       Y58.690    
   X76.279       Y58.623    
   X75.770       Y58.690    
   X75.295       Y58.886    
   X74.888       Y59.199    
(Pass: 5)
   Z2.300     
   X74.575       Y59.606    
   X74.379       Y60.081    
   X74.312       Y60.590    
   X74.379       Y61.099    
   X74.575       Y61.573    
   X74.888       Y61.981    
   X75.295       Y62.294    
   X75.770       Y62.490    
   X76.279       Y62.557    
   X76.788       Y62.490    
   X77.263       Y62.294    
   X77.670       Y61.981    
   X77.983       Y61.573    
   X78.179       Y61.099    
   X78.246       Y60.590    
   X78.179       Y60.081    
   X77.983       Y59.606    
   X77.670       Y59.199    
   X77.263       Y58.886    
   X76.788       Y58.690    
   X76.279       Y58.623    
   X75.770       Y58.690    
   X75.295       Y58.886    
   X74.888       Y59.199    
(Pass: 6)
   Z1.500     
   X74.575       Y59.606    
   X74.379       Y60.081    
   X74.312       Y60.590    
   X74.379       Y61.099    
   X74.575       Y61.573    
   X74.888       Y61.981    
   X75.295       Y62.294    
   X75.770       Y62.490    
   X76.279       Y62.557    
   X76.788       Y62.490    
   X77.263       Y62.294    
   X77.670       Y61.981    
   X77.983       Y61.573    
   X78.179       Y61.099    
   X78.246       Y60.590    
   X78.179       Y60.081    
   X77.983       Y59.606    
   X77.670       Y59.199    
   X77.263       Y58.886    
   X76.788       Y58.690    
   X76.279       Y58.623    
   X75.770       Y58.690    
   X75.295       Y58.886    
   X74.888       Y59.199    
(Pass: 7)
   Z0.700     
   X74.575       Y59.606    
   X74.379       Y60.081    
   X74.312       Y60.590    
   X74.379       Y61.099    
   X74.575       Y61.573    
   X74.888       Y61.981    
   X75.295       Y62.294    
   X75.770       Y62.490    
   X76.279       Y62.557    
   X76.788       Y62.490    
   X77.263       Y62.294    
   X77.670       Y61.981    
   X77.983       Y61.573    
   X78.179       Y61.099    
   X78.246       Y60.590    
   X78.179       Y60.081    
   X77.983       Y59.606    
   X77.670       Y59.199    
   X77.263       Y58.886    
   X76.788       Y58.690    
   X76.279       Y58.623    
   X75.770       Y58.690    
   X75.295       Y58.886    
   X74.888       Y59.199    
(Pass: 8)
   Z-0.100    
   X74.575       Y59.606    
   X74.379       Y60.081    
   X74.312       Y60.590    
   X74.379       Y61.099    
   X74.575       Y61.573    
   X74.888       Y61.981    
   X75.295       Y62.294    
   X75.770       Y62.490    
   X76.279       Y62.557    
   X76.788       Y62.490    
   X77.263       Y62.294    
   X77.670       Y61.981    
   X77.983       Y61.573    
   X78.179       Y61.099    
   X78.246       Y60.590    
   X78.179       Y60.081    
   X77.983       Y59.606    
   X77.670       Y59.199    
   X77.263       Y58.886    
   X76.788       Y58.690    
   X76.279       Y58.623    
   X75.770       Y58.690    
   X75.295       Y58.886    
   X74.888       Y59.199    
(Pass: 9)
   Z-0.900    
   X74.575       Y59.606    
   X74.379       Y60.081    
   X74.312       Y60.590    
   X74.379       Y61.099    
   X74.575       Y61.573    
   X74.888       Y61.981    
   X75.295       Y62.294    
   X75.770       Y62.490    
   X76.279       Y62.557    
   X76.788       Y62.490    
   X77.263       Y62.294    
   X77.670       Y61.981    
   X77.983       Y61.573    
   X78.179       Y61.099    
   X78.246       Y60.590    
   X78.179       Y60.081    
   X77.983       Y59.606    
   X77.670       Y59.199    
   X77.263       Y58.886    
   X76.788       Y58.690    
   X76.279       Y58.623    
   X75.770       Y58.690    
   X75.295       Y58.886    
   X74.888       Y59.199    
(BREAK pass 9)
G0   Z9.500     
(Pass: 1)
   X101.931      Y78.762    
G1   Z5.500      F2540
   X100.864      Y80.359    
   X100.015      Y82.080    
   X99.398       Y83.898    
   X99.024       Y85.781    
   X98.908       Y87.541    
   Y113.044   
   X99.024       Y114.804   
   X99.398       Y116.687   
   X100.015      Y118.505   
   X100.864      Y120.227   
   X101.931      Y121.823   
   X103.197      Y123.266   
   X104.640      Y124.532   
   X106.237      Y125.599   
   X107.959      Y126.448   
   X109.777      Y127.065   
   X111.660      Y127.440   
   X113.420      Y127.555   
   X152.922   
   X154.682      Y127.440   
   X156.565      Y127.065   
   X158.383      Y126.448   
   X160.105      Y125.599   
   X161.701      Y124.532   
   X163.145      Y123.266   
   X164.410      Y121.823   
   X165.477      Y120.227   
   X166.326      Y118.505   
   X166.943      Y116.687   
   X167.318      Y114.804   
   X167.433      Y113.044   
   Y87.541    
   X167.318      Y85.781    
   X166.943      Y83.898    
   X166.326      Y82.080    
   X165.477      Y80.359    
   X164.410      Y78.762    
   X163.145      Y77.319    
   X161.701      Y76.053    
   X160.105      Y74.986    
   X158.383      Y74.137    
   X156.565      Y73.520    
   X154.682      Y73.145    
   X152.922      Y73.030    
   X113.420   
   X111.660      Y73.145    
   X109.777      Y73.520    
   X107.959      Y74.137    
   X106.237      Y74.986    
   X104.640      Y76.053    
   X103.197      Y77.319    
   X101.931      Y78.762    
(Pass: 2)
   Z4.700     
   X100.864      Y80.359    
   X100.015      Y82.080    
   X99.398       Y83.898    
   X99.024       Y85.781    
   X98.908       Y87.541    
   Y113.044   
   X99.024       Y114.804   
   X99.398       Y116.687   
   X100.015      Y118.505   
   X100.864      Y120.227   
   X101.931      Y121.823   
   X103.197      Y123.266   
   X104.640      Y124.532   
   X106.237      Y125.599   
   X107.959      Y126.448   
   X109.777      Y127.065   
   X111.660      Y127.440   
   X113.420      Y127.555   
   X152.922   
   X154.682      Y127.440   
   X156.565      Y127.065   
   X158.383      Y126.448   
   X160.105      Y125.599   
   X161.701      Y124.532   
   X163.145      Y123.266   
   X164.410      Y121.823   
   X165.477      Y120.227   
   X166.326      Y118.505   
   X166.943      Y116.687   
   X167.318      Y114.804   
   X167.433      Y113.044   
   Y87.541    
   X167.318      Y85.781    
   X166.943      Y83.898    
   X166.326      Y82.080    
   X165.477      Y80.359    
   X164.410      Y78.762    
   X163.145      Y77.319    
   X161.701      Y76.053    
   X160.105      Y74.986    
   X158.383      Y74.137    
   X156.565      Y73.520    
   X154.682      Y73.145    
   X152.922      Y73.030    
   X113.420   
   X111.660      Y73.145    
   X109.777      Y73.520    
   X107.959      Y74.137    
   X106.237      Y74.986    
   X104.640      Y76.053    
   X103.197      Y77.319    
   X101.931      Y78.762    
(Pass: 3)
   Z3.900     
   X100.864      Y80.359    
   X100.015      Y82.080    
   X99.398       Y83.898    
   X99.024       Y85.781    
   X98.908       Y87.541    
   Y113.044   
   X99.024       Y114.804   
   X99.398       Y116.687   
   X100.015      Y118.505   
   X100.864      Y120.227   
   X101.931      Y121.823   
   X103.197      Y123.266   
   X104.640      Y124.532   
   X106.237      Y125.599   
   X107.959      Y126.448   
   X109.777      Y127.065   
   X111.660      Y127.440   
   X113.420      Y127.555   
   X152.922   
   X154.682      Y127.440   
   X156.565      Y127.065   
   X158.383      Y126.448   
   X160.105      Y125.599   
   X161.701      Y124.532   
   X163.145      Y123.266   
   X164.410      Y121.823   
   X165.477      Y120.227   
   X166.326      Y118.505   
   X166.943      Y116.687   
   X167.318      Y114.804   
   X167.433      Y113.044   
   Y87.541    
   X167.318      Y85.781    
   X166.943      Y83.898    
   X166.326      Y82.080    
   X165.477      Y80.359    
   X164.410      Y78.762    
   X163.145      Y77.319    
   X161.701      Y76.053    
   X160.105      Y74.986    
   X158.383      Y74.137    
   X156.565      Y73.520    
   X154.682      Y73.145    
   X152.922      Y73.030    
   X113.420   
   X111.660      Y73.145    
   X109.777      Y73.520    
   X107.959      Y74.137    
   X106.237      Y74.986    
   X104.640      Y76.053    
   X103.197      Y77.319    
   X101.931      Y78.762    
(Pass: 4)
   Z3.100     
   X100.864      Y80.359    
   X100.015      Y82.080    
   X99.398       Y83.898    
   X99.024       Y85.781    
   X98.908       Y87.541    
   Y113.044   
   X99.024       Y114.804   
   X99.398       Y116.687   
   X100.015      Y118.505   
   X100.864      Y120.227   
   X101.931      Y121.823   
   X103.197      Y123.266   
   X104.640      Y124.532   
   X106.237      Y125.599   
   X107.959      Y126.448   
   X109.777      Y127.065   
   X111.660      Y127.440   
   X113.420      Y127.555   
   X152.922   
   X154.682      Y127.440   
   X156.565      Y127.065   
   X158.383      Y126.448   
   X160.105      Y125.599   
   X161.701      Y124.532   
   X163.145      Y123.266   
   X164.410      Y121.823   
   X165.477      Y120.227   
   X166.326      Y118.505   
   X166.943      Y116.687   
   X167.318      Y114.804   
   X167.433      Y113.044   
   Y87.541    
   X167.318      Y85.781    
   X166.943      Y83.898    
   X166.326      Y82.080    
   X165.477      Y80.359    
   X164.410      Y78.762    
   X163.145      Y77.319    
   X161.701      Y76.053    
   X160.105      Y74.986    
   X158.383      Y74.137    
   X156.565      Y73.520    
   X154.682      Y73.145    
   X152.922      Y73.030    
   X113.420   
   X111.660      Y73.145    
   X109.777      Y73.520    
   X107.959      Y74.137    
   X106.237      Y74.986    
   X104.640      Y76.053    
   X103.197      Y77.319    
   X101.931      Y78.762    
(Pass: 5)
   Z2.300     
   X100.864      Y80.359    
   X100.015      Y82.080    
   X99.398       Y83.898    
   X99.024       Y85.781    
   X98.908       Y87.541    
   Y113.044   
   X99.024       Y114.804   
   X99.398       Y116.687   
   X100.015      Y118.505   
   X100.864      Y120.227   
   X101.931      Y121.823   
   X103.197      Y123.266   
   X104.640      Y124.532   
   X106.237      Y125.599   
   X107.959      Y126.448   
   X109.777      Y127.065   
   X111.660      Y127.440   
   X113.420      Y127.555   
   X152.922   
   X154.682      Y127.440   
   X156.565      Y127.065   
   X158.383      Y126.448   
   X160.105      Y125.599   
   X161.701      Y124.532   
   X163.145      Y123.266   
   X164.410      Y121.823   
   X165.477      Y120.227   
   X166.326      Y118.505   
   X166.943      Y116.687   
   X167.318      Y114.804   
   X167.433      Y113.044   
   Y87.541    
   X167.318      Y85.781    
   X166.943      Y83.898    
   X166.326      Y82.080    
   X165.477      Y80.359    
   X164.410      Y78.762    
   X163.145      Y77.319    
   X161.701      Y76.053    
   X160.105      Y74.986    
   X158.383      Y74.137    
   X156.565      Y73.520    
   X154.682      Y73.145    
   X152.922      Y73.030    
   X113.420   
   X111.660      Y73.145    
   X109.777      Y73.520    
   X107.959      Y74.137    
   X106.237      Y74.986    
   X104.640      Y76.053    
   X103.197      Y77.319    
   X101.931      Y78.762    
(Pass: 6)
   Z1.500     
   X100.864      Y80.359    
   X100.015      Y82.080    
   X99.398       Y83.898    
   X99.024       Y85.781    
   X98.908       Y87.541    
   Y113.044   
   X99.024       Y114.804   
   X99.398       Y116.687   
   X100.015      Y118.505   
   X100.864      Y120.227   
   X101.931      Y121.823   
   X103.197      Y123.266   
   X104.640      Y124.532   
   X106.237      Y125.599   
   X107.959      Y126.448   
   X109.777      Y127.065   
   X111.660      Y127.440   
   X113.420      Y127.555   
   X152.922   
   X154.682      Y127.440   
   X156.565      Y127.065   
   X158.383      Y126.448   
   X160.105      Y125.599   
   X161.701      Y124.532   
   X163.145      Y123.266   
   X164.410      Y121.823   
   X165.477      Y120.227   
   X166.326      Y118.505   
   X166.943      Y116.687   
   X167.318      Y114.804   
   X167.433      Y113.044   
   Y87.541    
   X167.318      Y85.781    
   X166.943      Y83.898    
   X166.326      Y82.080    
   X165.477      Y80.359    
   X164.410      Y78.762    
   X163.145      Y77.319    
   X161.701      Y76.053    
   X160.105      Y74.986    
   X158.383      Y74.137    
   X156.565      Y73.520    
   X154.682      Y73.145    
   X152.922      Y73.030    
   X113.420   
   X111.660      Y73.145    
   X109.777      Y73.520    
   X107.959      Y74.137    
   X106.237      Y74.986    
   X104.640      Y76.053    
   X103.197      Y77.319    
   X101.931      Y78.762    
(Pass: 7)
   Z0.700     
   X100.864      Y80.359    
   X100.015      Y82.080    
   X99.398       Y83.898    
   X99.024       Y85.781    
   X98.908       Y87.541    
   Y113.044   
   X99.024       Y114.804   
   X99.398       Y116.687   
   X100.015      Y118.505   
   X100.864      Y120.227   
   X101.931      Y121.823   
   X103.197      Y123.266   
   X104.640      Y124.532   
   X106.237      Y125.599   
   X107.959      Y126.448   
   X109.777      Y127.065   
   X111.660      Y127.440   
   X113.420      Y127.555   
   X152.922   
   X154.682      Y127.440   
   X156.565      Y127.065   
   X158.383      Y126.448   
   X160.105      Y125.599   
   X161.701      Y124.532   
   X163.145      Y123.266   
   X164.410      Y121.823   
   X165.477      Y120.227   
   X166.326      Y118.505   
   X166.943      Y116.687   
   X167.318      Y114.804   
   X167.433      Y113.044   
   Y87.541    
   X167.318      Y85.781    
   X166.943      Y83.898    
   X166.326      Y82.080    
   X165.477      Y80.359    
   X164.410      Y78.762    
   X163.145      Y77.319    
   X161.701      Y76.053    
   X160.105      Y74.986    
   X158.383      Y74.137    
   X156.565      Y73.520    
   X154.682      Y73.145    
   X152.922      Y73.030    
   X113.420   
   X111.660      Y73.145    
   X109.777      Y73.520    
   X107.959      Y74.137    
   X106.237      Y74.986    
   X104.640      Y76.053    
   X103.197      Y77.319    
   X101.931      Y78.762    
(Pass: 8)
   Z-0.100    
   X100.864      Y80.359    
   X100.015      Y82.080    
   X99.398       Y83.898    
   X99.024       Y85.781    
   X98.908       Y87.541    
   Y113.044   
   X99.024       Y114.804   
   X99.398       Y116.687   
   X100.015      Y118.505   
   X100.864      Y120.227   
   X101.931      Y121.823   
   X103.197      Y123.266   
   X104.640      Y124.532   
   X106.237      Y125.599   
   X107.959      Y126.448   
   X109.777      Y127.065   
   X111.660      Y127.440   
   X113.420      Y127.555   
   X152.922   
   X154.682      Y127.440   
   X156.565      Y127.065   
   X158.383      Y126.448   
   X160.105      Y125.599   
   X161.701      Y124.532   
   X163.145      Y123.266   
   X164.410      Y121.823   
   X165.477      Y120.227   
   X166.326      Y118.505   
   X166.943      Y116.687   
   X167.318      Y114.804   
   X167.433      Y113.044   
   Y87.541    
   X167.318      Y85.781    
   X166.943      Y83.898    
   X166.326      Y82.080    
   X165.477      Y80.359    
   X164.410      Y78.762    
   X163.145      Y77.319    
   X161.701      Y76.053    
   X160.105      Y74.986    
   X158.383      Y74.137    
   X156.565      Y73.520    
   X154.682      Y73.145    
   X152.922      Y73.030    
   X113.420   
   X111.660      Y73.145    
   X109.777      Y73.520    
   X107.959      Y74.137    
   X106.237      Y74.986    
   X104.640      Y76.053    
   X103.197      Y77.319    
   X101.931      Y78.762    
(Pass: 9)
   Z-0.900    
   X100.864      Y80.359    
   X100.015      Y82.080    
   X99.398       Y83.898    
   X99.024       Y85.781    
   X98.908       Y87.541    
   Y113.044   
   X99.024       Y114.804   
   X99.398       Y116.687   
   X100.015      Y118.505   
   X100.864      Y120.227   
   X101.931      Y121.823   
   X103.197      Y123.266   
   X104.640      Y124.532   
   X106.237      Y125.599   
   X107.959      Y126.448   
   X109.777      Y127.065   
   X111.660      Y127.440   
   X113.420      Y127.555   
   X152.922   
   X154.682      Y127.440   
   X156.565      Y127.065   
   X158.383      Y126.448   
   X160.105      Y125.599   
   X161.701      Y124.532   
   X163.145      Y123.266   
   X164.410      Y121.823   
   X165.477      Y120.227   
   X166.326      Y118.505   
   X166.943      Y116.687   
   X167.318      Y114.804   
   X167.433      Y113.044   
   Y87.541    
   X167.318      Y85.781    
   X166.943      Y83.898    
   X166.326      Y82.080    
   X165.477      Y80.359    
   X164.410      Y78.762    
   X163.145      Y77.319    
   X161.701      Y76.053    
   X160.105      Y74.986    
   X158.383      Y74.137    
   X156.565      Y73.520    
   X154.682      Y73.145    
   X152.922      Y73.030    
   X113.420   
   X111.660      Y73.145    
   X109.777      Y73.520    
   X107.959      Y74.137    
   X106.237      Y74.986    
   X104.640      Y76.053    
   X103.197      Y77.319    
   X101.931      Y78.762    
(BREAK pass 9)
G0   Z9.500     
(Pass: 1)
   X76.737       Y138.681   
G1   Z5.500      F2540
   X76.520       Y138.592   
   X76.288       Y138.561   
   X76.055       Y138.592   
   X75.838       Y138.681   
   X75.652       Y138.824   
   X75.509       Y139.010   
   X75.419       Y139.227   
   X75.389       Y139.460   
   X75.419       Y139.692   
   X75.509       Y139.909   
   X75.652       Y140.095   
   X75.838       Y140.238   
   X76.055       Y140.328   
   X76.288       Y140.359   
   X76.520       Y140.328   
   X76.737       Y140.238   
   X76.923       Y140.095   
   X77.066       Y139.909   
   X77.156       Y139.692   
   X77.186       Y139.460   
   X77.156       Y139.227   
   X77.066       Y139.010   
   X76.923       Y138.824   
   X76.737       Y138.681   
(Pass: 2)
   Z4.700     
   X76.520       Y138.592   
   X76.288       Y138.561   
   X76.055       Y138.592   
   X75.838       Y138.681   
   X75.652       Y138.824   
   X75.509       Y139.010   
   X75.419       Y139.227   
   X75.389       Y139.460   
   X75.419       Y139.692   
   X75.509       Y139.909   
   X75.652       Y140.095   
   X75.838       Y140.238   
   X76.055       Y140.328   
   X76.288       Y140.359   
   X76.520       Y140.328   
   X76.737       Y140.238   
   X76.923       Y140.095   
   X77.066       Y139.909   
   X77.156       Y139.692   
   X77.186       Y139.460   
   X77.156       Y139.227   
   X77.066       Y139.010   
   X76.923       Y138.824   
   X76.737       Y138.681   
(Pass: 3)
   Z3.900     
   X76.520       Y138.592   
   X76.288       Y138.561   
   X76.055       Y138.592   
   X75.838       Y138.681   
   X75.652       Y138.824   
   X75.509       Y139.010   
   X75.419       Y139.227   
   X75.389       Y139.460   
   X75.419       Y139.692   
   X75.509       Y139.909   
   X75.652       Y140.095   
   X75.838       Y140.238   
   X76.055       Y140.328   
   X76.288       Y140.359   
   X76.520       Y140.328   
   X76.737       Y140.238   
   X76.923       Y140.095   
   X77.066       Y139.909   
   X77.156       Y139.692   
   X77.186       Y139.460   
   X77.156       Y139.227   
   X77.066       Y139.010   
   X76.923       Y138.824   
   X76.737       Y138.681   
(Pass: 4)
   Z3.100     
   X76.520       Y138.592   
   X76.288       Y138.561   
   X76.055       Y138.592   
   X75.838       Y138.681   
   X75.652       Y138.824   
   X75.509       Y139.010   
   X75.419       Y139.227   
   X75.389       Y139.460   
   X75.419       Y139.692   
   X75.509       Y139.909   
   X75.652       Y140.095   
   X75.838       Y140.238   
   X76.055       Y140.328   
   X76.288       Y140.359   
   X76.520       Y140.328   
   X76.737       Y140.238   
   X76.923       Y140.095   
   X77.066       Y139.909   
   X77.156       Y139.692   
   X77.186       Y139.460   
   X77.156       Y139.227   
   X77.066       Y139.010   
   X76.923       Y138.824   
   X76.737       Y138.681   
(Pass: 5)
   Z2.300     
   X76.520       Y138.592   
   X76.288       Y138.561   
   X76.055       Y138.592   
   X75.838       Y138.681   
   X75.652       Y138.824   
   X75.509       Y139.010   
   X75.419       Y139.227   
   X75.389       Y139.460   
   X75.419       Y139.692   
   X75.509       Y139.909   
   X75.652       Y140.095   
   X75.838       Y140.238   
   X76.055       Y140.328   
   X76.288       Y140.359   
   X76.520       Y140.328   
   X76.737       Y140.238   
   X76.923       Y140.095   
   X77.066       Y139.909   
   X77.156       Y139.692   
   X77.186       Y139.460   
   X77.156       Y139.227   
   X77.066       Y139.010   
   X76.923       Y138.824   
   X76.737       Y138.681   
(Pass: 6)
   Z1.500     
   X76.520       Y138.592   
   X76.288       Y138.561   
   X76.055       Y138.592   
   X75.838       Y138.681   
   X75.652       Y138.824   
   X75.509       Y139.010   
   X75.419       Y139.227   
   X75.389       Y139.460   
   X75.419       Y139.692   
   X75.509       Y139.909   
   X75.652       Y140.095   
   X75.838       Y140.238   
   X76.055       Y140.328   
   X76.288       Y140.359   
   X76.520       Y140.328   
   X76.737       Y140.238   
   X76.923       Y140.095   
   X77.066       Y139.909   
   X77.156       Y139.692   
   X77.186       Y139.460   
   X77.156       Y139.227   
   X77.066       Y139.010   
   X76.923       Y138.824   
   X76.737       Y138.681   
(Pass: 7)
   Z0.700     
   X76.520       Y138.592   
   X76.288       Y138.561   
   X76.055       Y138.592   
   X75.838       Y138.681   
   X75.652       Y138.824   
   X75.509       Y139.010   
   X75.419       Y139.227   
   X75.389       Y139.460   
   X75.419       Y139.692   
   X75.509       Y139.909   
   X75.652       Y140.095   
   X75.838       Y140.238   
   X76.055       Y140.328   
   X76.288       Y140.359   
   X76.520       Y140.328   
   X76.737       Y140.238   
   X76.923       Y140.095   
   X77.066       Y139.909   
   X77.156       Y139.692   
   X77.186       Y139.460   
   X77.156       Y139.227   
   X77.066       Y139.010   
   X76.923       Y138.824   
   X76.737       Y138.681   
(Pass: 8)
   Z-0.100    
   X76.520       Y138.592   
   X76.288       Y138.561   
   X76.055       Y138.592   
   X75.838       Y138.681   
   X75.652       Y138.824   
   X75.509       Y139.010   
   X75.419       Y139.227   
   X75.389       Y139.460   
   X75.419       Y139.692   
   X75.509       Y139.909   
   X75.652       Y140.095   
   X75.838       Y140.238   
   X76.055       Y140.328   
   X76.288       Y140.359   
   X76.520       Y140.328   
   X76.737       Y140.238   
   X76.923       Y140.095   
   X77.066       Y139.909   
   X77.156       Y139.692   
   X77.186       Y139.460   
   X77.156       Y139.227   
   X77.066       Y139.010   
   X76.923       Y138.824   
   X76.737       Y138.681   
(Pass: 9)
   Z-0.900    
   X76.520       Y138.592   
   X76.288       Y138.561   
   X76.055       Y138.592   
   X75.838       Y138.681   
   X75.652       Y138.824   
   X75.509       Y139.010   
   X75.419       Y139.227   
   X75.389       Y139.460   
   X75.419       Y139.692   
   X75.509       Y139.909   
   X75.652       Y140.095   
   X75.838       Y140.238   
   X76.055       Y140.328   
   X76.288       Y140.359   
   X76.520       Y140.328   
   X76.737       Y140.238   
   X76.923       Y140.095   
   X77.066       Y139.909   
   X77.156       Y139.692   
   X77.186       Y139.460   
   X77.156       Y139.227   
   X77.066       Y139.010   
   X76.923       Y138.824   
   X76.737       Y138.681   
(BREAK pass 9)
G0   Z9.500     
(Pass: 1)
   X108.746      Y148.131   
G1   Z5.500      F2540
   X108.652      Y148.358   
   X108.606      Y148.705   
   Y157.497   
   X108.652      Y157.844   
   X108.746      Y158.070   
   X108.895      Y158.264   
   X109.089      Y158.414   
   X109.316      Y158.507   
   X109.559      Y158.539   
   X109.802      Y158.507   
   X110.028      Y158.414   
   X110.223      Y158.264   
   X110.372      Y158.070   
   X110.466      Y157.844   
   X110.511      Y157.497   
   Y148.705   
   X110.466      Y148.358   
   X110.372      Y148.131   
   X110.223      Y147.937   
   X110.028      Y147.788   
   X109.802      Y147.694   
   X109.559      Y147.662   
   X109.316      Y147.694   
   X109.089      Y147.788   
   X108.895      Y147.937   
   X108.746      Y148.131   
(Pass: 2)
   Z4.700     
   X108.652      Y148.358   
   X108.606      Y148.705   
   Y157.497   
   X108.652      Y157.844   
   X108.746      Y158.070   
   X108.895      Y158.264   
   X109.089      Y158.414   
   X109.316      Y158.507   
   X109.559      Y158.539   
   X109.802      Y158.507   
   X110.028      Y158.414   
   X110.223      Y158.264   
   X110.372      Y158.070   
   X110.466      Y157.844   
   X110.511      Y157.497   
   Y148.705   
   X110.466      Y148.358   
   X110.372      Y148.131   
   X110.223      Y147.937   
   X110.028      Y147.788   
   X109.802      Y147.694   
   X109.559      Y147.662   
   X109.316      Y147.694   
   X109.089      Y147.788   
   X108.895      Y147.937   
   X108.746      Y148.131   
(Pass: 3)
   Z3.900     
   X108.652      Y148.358   
   X108.606      Y148.705   
   Y157.497   
   X108.652      Y157.844   
   X108.746      Y158.070   
   X108.895      Y158.264   
   X109.089      Y158.414   
   X109.316      Y158.507   
   X109.559      Y158.539   
   X109.802      Y158.507   
   X110.028      Y158.414   
   X110.223      Y158.264   
   X110.372      Y158.070   
   X110.466      Y157.844   
   X110.511      Y157.497   
   Y148.705   
   X110.466      Y148.358   
   X110.372      Y148.131   
   X110.223      Y147.937   
   X110.028      Y147.788   
   X109.802      Y147.694   
   X109.559      Y147.662   
   X109.316      Y147.694   
   X109.089      Y147.788   
   X108.895      Y147.937   
   X108.746      Y148.131   
(Pass: 4)
   Z3.100     
   X108.652      Y148.358   
   X108.606      Y148.705   
   Y157.497   
   X108.652      Y157.844   
   X108.746      Y158.070   
   X108.895      Y158.264   
   X109.089      Y158.414   
   X109.316      Y158.507   
   X109.559      Y158.539   
   X109.802      Y158.507   
   X110.028      Y158.414   
   X110.223      Y158.264   
   X110.372      Y158.070   
   X110.466      Y157.844   
   X110.511      Y157.497   
   Y148.705   
   X110.466      Y148.358   
   X110.372      Y148.131   
   X110.223      Y147.937   
   X110.028      Y147.788   
   X109.802      Y147.694   
   X109.559      Y147.662   
   X109.316      Y147.694   
   X109.089      Y147.788   
   X108.895      Y147.937   
   X108.746      Y148.131   
(Pass: 5)
   Z2.300     
   X108.652      Y148.358   
   X108.606      Y148.705   
   Y157.497   
   X108.652      Y157.844   
   X108.746      Y158.070   
   X108.895      Y158.264   
   X109.089      Y158.414   
   X109.316      Y158.507   
   X109.559      Y158.539   
   X109.802      Y158.507   
   X110.028      Y158.414   
   X110.223      Y158.264   
   X110.372      Y158.070   
   X110.466      Y157.844   
   X110.511      Y157.497   
   Y148.705   
   X110.466      Y148.358   
   X110.372      Y148.131   
   X110.223      Y147.937   
   X110.028      Y147.788   
   X109.802      Y147.694   
   X109.559      Y147.662   
   X109.316      Y147.694   
   X109.089      Y147.788   
   X108.895      Y147.937   
   X108.746      Y148.131   
(Pass: 6)
   Z1.500     
   X108.652      Y148.358   
   X108.606      Y148.705   
   Y157.497   
   X108.652      Y157.844   
   X108.746      Y158.070   
   X108.895      Y158.264   
   X109.089      Y158.414   
   X109.316      Y158.507   
   X109.559      Y158.539   
   X109.802      Y158.507   
   X110.028      Y158.414   
   X110.223      Y158.264   
   X110.372      Y158.070   
   X110.466      Y157.844   
   X110.511      Y157.497   
   Y148.705   
   X110.466      Y148.358   
   X110.372      Y148.131   
   X110.223      Y147.937   
   X110.028      Y147.788   
   X109.802      Y147.694   
   X109.559      Y147.662   
   X109.316      Y147.694   
   X109.089      Y147.788   
   X108.895      Y147.937   
   X108.746      Y148.131   
(Pass: 7)
   Z0.700     
   X108.652      Y148.358   
   X108.606      Y148.705   
   Y157.497   
   X108.652      Y157.844   
   X108.746      Y158.070   
   X108.895      Y158.264   
   X109.089      Y158.414   
   X109.316      Y158.507   
   X109.559      Y158.539   
   X109.802      Y158.507   
   X110.028      Y158.414   
   X110.223      Y158.264   
   X110.372      Y158.070   
   X110.466      Y157.844   
   X110.511      Y157.497   
   Y148.705   
   X110.466      Y148.358   
   X110.372      Y148.131   
   X110.223      Y147.937   
   X110.028      Y147.788   
   X109.802      Y147.694   
   X109.559      Y147.662   
   X109.316      Y147.694   
   X109.089      Y147.788   
   X108.895      Y147.937   
   X108.746      Y148.131   
(Pass: 8)
   Z-0.100    
   X108.652      Y148.358   
   X108.606      Y148.705   
   Y157.497   
   X108.652      Y157.844   
   X108.746      Y158.070   
   X108.895      Y158.264   
   X109.089      Y158.414   
   X109.316      Y158.507   
   X109.559      Y158.539   
   X109.802      Y158.507   
   X110.028      Y158.414   
   X110.223      Y158.264   
   X110.372      Y158.070   
   X110.466      Y157.844   
   X110.511      Y157.497   
   Y148.705   
   X110.466      Y148.358   
   X110.372      Y148.131   
   X110.223      Y147.937   
   X110.028      Y147.788   
   X109.802      Y147.694   
   X109.559      Y147.662   
   X109.316      Y147.694   
   X109.089      Y147.788   
   X108.895      Y147.937   
   X108.746      Y148.131   
(Pass: 9)
   Z-0.900    
   X108.652      Y148.358   
   X108.606      Y148.705   
   Y157.497   
   X108.652      Y157.844   
   X108.746      Y158.070   
   X108.895      Y158.264   
   X109.089      Y158.414   
   X109.316      Y158.507   
   X109.559      Y158.539   
   X109.802      Y158.507   
   X110.028      Y158.414   
   X110.223      Y158.264   
   X110.372      Y158.070   
   X110.466      Y157.844   
   X110.511      Y157.497   
   Y148.705   
   X110.466      Y148.358   
   X110.372      Y148.131   
   X110.223      Y147.937   
   X110.028      Y147.788   
   X109.802      Y147.694   
   X109.559      Y147.662   
   X109.316      Y147.694   
   X109.089      Y147.788   
   X108.895      Y147.937   
   X108.746      Y148.131   
(BREAK pass 9)
G0   Z9.500     
(Pass: 1)
   X125.484      Y164.008   
G1   Z5.500      F2540
   X123.752      Y166.265   
   X122.663      Y168.894   
   X122.278      Y171.819   
   Y181.611   
   X122.663      Y184.536   
   X123.752      Y187.164   
   X125.484      Y189.421   
   X127.741      Y191.153   
   X130.370      Y192.242   
   X133.191      Y192.614   
   X136.012      Y192.242   
   X138.640      Y191.153   
   X140.897      Y189.421   
   X142.629      Y187.164   
   X143.718      Y184.536   
   X144.103      Y181.611   
   Y171.819   
   X143.718      Y168.894   
   X142.629      Y166.265   
   X140.897      Y164.008   
   X138.640      Y162.276   
   X136.012      Y161.187   
   X133.191      Y160.816   
   X130.370      Y161.187   
   X127.741      Y162.276   
   X125.484      Y164.008   
(Pass: 2)
   Z4.700     
   X123.752      Y166.265   
   X122.663      Y168.894   
   X122.278      Y171.819   
   Y181.611   
   X122.663      Y184.536   
   X123.752      Y187.164   
   X125.484      Y189.421   
   X127.741      Y191.153   
   X130.370      Y192.242   
   X133.191      Y192.614   
   X136.012      Y192.242   
   X138.640      Y191.153   
   X140.897      Y189.421   
   X142.629      Y187.164   
   X143.718      Y184.536   
   X144.103      Y181.611   
   Y171.819   
   X143.718      Y168.894   
   X142.629      Y166.265   
   X140.897      Y164.008   
   X138.640      Y162.276   
   X136.012      Y161.187   
   X133.191      Y160.816   
   X130.370      Y161.187   
   X127.741      Y162.276   
   X125.484      Y164.008   
(Pass: 3)
   Z3.900     
   X123.752      Y166.265   
   X122.663      Y168.894   
   X122.278      Y171.819   
   Y181.611   
   X122.663      Y184.536   
   X123.752      Y187.164   
   X125.484      Y189.421   
   X127.741      Y191.153   
   X130.370      Y192.242   
   X133.191      Y192.614   
   X136.012      Y192.242   
   X138.640      Y191.153   
   X140.897      Y189.421   
   X142.629      Y187.164   
   X143.718      Y184.536   
   X144.103      Y181.611   
   Y171.819   
   X143.718      Y168.894   
   X142.629      Y166.265   
   X140.897      Y164.008   
   X138.640      Y162.276   
   X136.012      Y161.187   
   X133.191      Y160.816   
   X130.370      Y161.187   
   X127.741      Y162.276   
   X125.484      Y164.008   
(Pass: 4)
   Z3.100     
   X123.752      Y166.265   
   X122.663      Y168.894   
   X122.278      Y171.819   
   Y181.611   
   X122.663      Y184.536   
   X123.752      Y187.164   
   X125.484      Y189.421   
   X127.741      Y191.153   
   X130.370      Y192.242   
   X133.191      Y192.614   
   X136.012      Y192.242   
   X138.640      Y191.153   
   X140.897      Y189.421   
   X142.629      Y187.164   
   X143.718      Y184.536   
   X144.103      Y181.611   
   Y171.819   
   X143.718      Y168.894   
   X142.629      Y166.265   
   X140.897      Y164.008   
   X138.640      Y162.276   
   X136.012      Y161.187   
   X133.191      Y160.816   
   X130.370      Y161.187   
   X127.741      Y162.276   
   X125.484      Y164.008   
(Pass: 5)
   Z2.300     
   X123.752      Y166.265   
   X122.663      Y168.894   
   X122.278      Y171.819   
   Y181.611   
   X122.663      Y184.536   
   X123.752      Y187.164   
   X125.484      Y189.421   
   X127.741      Y191.153   
   X130.370      Y192.242   
   X133.191      Y192.614   
   X136.012      Y192.242   
   X138.640      Y191.153   
   X140.897      Y189.421   
   X142.629      Y187.164   
   X143.718      Y184.536   
   X144.103      Y181.611   
   Y171.819   
   X143.718      Y168.894   
   X142.629      Y166.265   
   X140.897      Y164.008   
   X138.640      Y162.276   
   X136.012      Y161.187   
   X133.191      Y160.816   
   X130.370      Y161.187   
   X127.741      Y162.276   
   X125.484      Y164.008   
(Pass: 6)
   Z1.500     
   X123.752      Y166.265   
   X122.663      Y168.894   
   X122.278      Y171.819   
   Y181.611   
   X122.663      Y184.536   
   X123.752      Y187.164   
   X125.484      Y189.421   
   X127.741      Y191.153   
   X130.370      Y192.242   
   X133.191      Y192.614   
   X136.012      Y192.242   
   X138.640      Y191.153   
   X140.897      Y189.421   
   X142.629      Y187.164   
   X143.718      Y184.536   
   X144.103      Y181.611   
   Y171.819   
   X143.718      Y168.894   
   X142.629      Y166.265   
   X140.897      Y164.008   
   X138.640      Y162.276   
   X136.012      Y161.187   
   X133.191      Y160.816   
   X130.370      Y161.187   
   X127.741      Y162.276   
   X125.484      Y164.008   
(Pass: 7)
   Z0.700     
   X123.752      Y166.265   
   X122.663      Y168.894   
   X122.278      Y171.819   
   Y181.611   
   X122.663      Y184.536   
   X123.752      Y187.164   
   X125.484      Y189.421   
   X127.741      Y191.153   
   X130.370      Y192.242   
   X133.191      Y192.614   
   X136.012      Y192.242   
   X138.640      Y191.153   
   X140.897      Y189.421   
   X142.629      Y187.164   
   X143.718      Y184.536   
   X144.103      Y181.611   
   Y171.819   
   X143.718      Y168.894   
   X142.629      Y166.265   
   X140.897      Y164.008   
   X138.640      Y162.276   
   X136.012      Y161.187   
   X133.191      Y160.816   
   X130.370      Y161.187   
   X127.741      Y162.276   
   X125.484      Y164.008   
(Pass: 8)
   Z-0.100    
   X123.752      Y166.265   
   X122.663      Y168.894   
   X122.278      Y171.819   
   Y181.611   
   X122.663      Y184.536   
   X123.752      Y187.164   
   X125.484      Y189.421   
   X127.741      Y191.153   
   X130.370      Y192.242   
   X133.191      Y192.614   
   X136.012      Y192.242   
   X138.640      Y191.153   
   X140.897      Y189.421   
   X142.629      Y187.164   
   X143.718      Y184.536   
   X144.103      Y181.611   
   Y171.819   
   X143.718      Y168.894   
   X142.629      Y166.265   
   X140.897      Y164.008   
   X138.640      Y162.276   
   X136.012      Y161.187   
   X133.191      Y160.816   
   X130.370      Y161.187   
   X127.741      Y162.276   
   X125.484      Y164.008   
(Pass: 9)
   Z-0.900    
   X123.752      Y166.265   
   X122.663      Y168.894   
   X122.278      Y171.819   
   Y181.611   
   X122.663      Y184.536   
   X123.752      Y187.164   
   X125.484      Y189.421   
   X127.741      Y191.153   
   X130.370      Y192.242   
   X133.191      Y192.614   
   X136.012      Y192.242   
   X138.640      Y191.153   
   X140.897      Y189.421   
   X142.629      Y187.164   
   X143.718      Y184.536   
   X144.103      Y181.611   
   Y171.819   
   X143.718      Y168.894   
   X142.629      Y166.265   
   X140.897      Y164.008   
   X138.640      Y162.276   
   X136.012      Y161.187   
   X133.191      Y160.816   
   X130.370      Y161.187   
   X127.741      Y162.276   
   X125.484      Y164.008   
(BREAK pass 9)
G0   Z9.500     
(Pass: 1)
   X155.896      Y157.844   
G1   Z5.500      F2540
   X155.990      Y158.070   
   X156.139      Y158.264   
   X156.333      Y158.414   
   X156.560      Y158.507   
   X156.803      Y158.539   
   X157.046      Y158.507   
   X157.272      Y158.414   
   X157.467      Y158.264   
   X157.616      Y158.070   
   X157.709      Y157.844   
   X157.755      Y157.497   
   Y148.705   
   X157.709      Y148.358   
   X157.616      Y148.131   
   X157.467      Y147.937   
   X157.272      Y147.788   
   X157.046      Y147.694   
   X156.803      Y147.662   
   X156.560      Y147.694   
   X156.333      Y147.788   
   X156.139      Y147.937   
   X155.990      Y148.131   
   X155.896      Y148.358   
   X155.850      Y148.705   
   Y157.497   
   X155.896      Y157.844   
(Pass: 2)
   Z4.700     
   X155.990      Y158.070   
   X156.139      Y158.264   
   X156.333      Y158.414   
   X156.560      Y158.507   
   X156.803      Y158.539   
   X157.046      Y158.507   
   X157.272      Y158.414   
   X157.467      Y158.264   
   X157.616      Y158.070   
   X157.709      Y157.844   
   X157.755      Y157.497   
   Y148.705   
   X157.709      Y148.358   
   X157.616      Y148.131   
   X157.467      Y147.937   
   X157.272      Y147.788   
   X157.046      Y147.694   
   X156.803      Y147.662   
   X156.560      Y147.694   
   X156.333      Y147.788   
   X156.139      Y147.937   
   X155.990      Y148.131   
   X155.896      Y148.358   
   X155.850      Y148.705   
   Y157.497   
   X155.896      Y157.844   
(Pass: 3)
   Z3.900     
   X155.990      Y158.070   
   X156.139      Y158.264   
   X156.333      Y158.414   
   X156.560      Y158.507   
   X156.803      Y158.539   
   X157.046      Y158.507   
   X157.272      Y158.414   
   X157.467      Y158.264   
   X157.616      Y158.070   
   X157.709      Y157.844   
   X157.755      Y157.497   
   Y148.705   
   X157.709      Y148.358   
   X157.616      Y148.131   
   X157.467      Y147.937   
   X157.272      Y147.788   
   X157.046      Y147.694   
   X156.803      Y147.662   
   X156.560      Y147.694   
   X156.333      Y147.788   
   X156.139      Y147.937   
   X155.990      Y148.131   
   X155.896      Y148.358   
   X155.850      Y148.705   
   Y157.497   
   X155.896      Y157.844   
(Pass: 4)
   Z3.100     
   X155.990      Y158.070   
   X156.139      Y158.264   
   X156.333      Y158.414   
   X156.560      Y158.507   
   X156.803      Y158.539   
   X157.046      Y158.507   
   X157.272      Y158.414   
   X157.467      Y158.264   
   X157.616      Y158.070   
   X157.709      Y157.844   
   X157.755      Y157.497   
   Y148.705   
   X157.709      Y148.358   
   X157.616      Y148.131   
   X157.467      Y147.937   
   X157.272      Y147.788   
   X157.046      Y147.694   
   X156.803      Y147.662   
   X156.560      Y147.694   
   X156.333      Y147.788   
   X156.139      Y147.937   
   X155.990      Y148.131   
   X155.896      Y148.358   
   X155.850      Y148.705   
   Y157.497   
   X155.896      Y157.844   
(Pass: 5)
   Z2.300     
   X155.990      Y158.070   
   X156.139      Y158.264   
   X156.333      Y158.414   
   X156.560      Y158.507   
   X156.803      Y158.539   
   X157.046      Y158.507   
   X157.272      Y158.414   
   X157.467      Y158.264   
   X157.616      Y158.070   
   X157.709      Y157.844   
   X157.755      Y157.497   
   Y148.705   
   X157.709      Y148.358   
   X157.616      Y148.131   
   X157.467      Y147.937   
   X157.272      Y147.788   
   X157.046      Y147.694   
   X156.803      Y147.662   
   X156.560      Y147.694   
   X156.333      Y147.788   
   X156.139      Y147.937   
   X155.990      Y148.131   
   X155.896      Y148.358   
   X155.850      Y148.705   
   Y157.497   
   X155.896      Y157.844   
(Pass: 6)
   Z1.500     
   X155.990      Y158.070   
   X156.139      Y158.264   
   X156.333      Y158.414   
   X156.560      Y158.507   
   X156.803      Y158.539   
   X157.046      Y158.507   
   X157.272      Y158.414   
   X157.467      Y158.264   
   X157.616      Y158.070   
   X157.709      Y157.844   
   X157.755      Y157.497   
   Y148.705   
   X157.709      Y148.358   
   X157.616      Y148.131   
   X157.467      Y147.937   
   X157.272      Y147.788   
   X157.046      Y147.694   
   X156.803      Y147.662   
   X156.560      Y147.694   
   X156.333      Y147.788   
   X156.139      Y147.937   
   X155.990      Y148.131   
   X155.896      Y148.358   
   X155.850      Y148.705   
   Y157.497   
   X155.896      Y157.844   
(Pass: 7)
   Z0.700     
   X155.990      Y158.070   
   X156.139      Y158.264   
   X156.333      Y158.414   
   X156.560      Y158.507   
   X156.803      Y158.539   
   X157.046      Y158.507   
   X157.272      Y158.414   
   X157.467      Y158.264   
   X157.616      Y158.070   
   X157.709      Y157.844   
   X157.755      Y157.497   
   Y148.705   
   X157.709      Y148.358   
   X157.616      Y148.131   
   X157.467      Y147.937   
   X157.272      Y147.788   
   X157.046      Y147.694   
   X156.803      Y147.662   
   X156.560      Y147.694   
   X156.333      Y147.788   
   X156.139      Y147.937   
   X155.990      Y148.131   
   X155.896      Y148.358   
   X155.850      Y148.705   
   Y157.497   
   X155.896      Y157.844   
(Pass: 8)
   Z-0.100    
   X155.990      Y158.070   
   X156.139      Y158.264   
   X156.333      Y158.414   
   X156.560      Y158.507   
   X156.803      Y158.539   
   X157.046      Y158.507   
   X157.272      Y158.414   
   X157.467      Y158.264   
   X157.616      Y158.070   
   X157.709      Y157.844   
   X157.755      Y157.497   
   Y148.705   
   X157.709      Y148.358   
   X157.616      Y148.131   
   X157.467      Y147.937   
   X157.272      Y147.788   
   X157.046      Y147.694   
   X156.803      Y147.662   
   X156.560      Y147.694   
   X156.333      Y147.788   
   X156.139      Y147.937   
   X155.990      Y148.131   
   X155.896      Y148.358   
   X155.850      Y148.705   
   Y157.497   
   X155.896      Y157.844   
(Pass: 9)
   Z-0.900    
   X155.990      Y158.070   
   X156.139      Y158.264   
   X156.333      Y158.414   
   X156.560      Y158.507   
   X156.803      Y158.539   
   X157.046      Y158.507   
   X157.272      Y158.414   
   X157.467      Y158.264   
   X157.616      Y158.070   
   X157.709      Y157.844   
   X157.755      Y157.497   
   Y148.705   
   X157.709      Y148.358   
   X157.616      Y148.131   
   X157.467      Y147.937   
   X157.272      Y147.788   
   X157.046      Y147.694   
   X156.803      Y147.662   
   X156.560      Y147.694   
   X156.333      Y147.788   
   X156.139      Y147.937   
   X155.990      Y148.131   
   X155.896      Y148.358   
   X155.850      Y148.705   
   Y157.497   
   X155.896      Y157.844   
(BREAK pass 9)
G0   Z9.500     
(Pass: 1)
   X189.186      Y139.692   
G1   Z5.500      F2540
   X189.275      Y139.909   
   X189.418      Y140.095   
   X189.604      Y140.238   
   X189.821      Y140.328   
   X190.054      Y140.359   
   X190.287      Y140.328   
   X190.503      Y140.238   
   X190.689      Y140.095   
   X190.832      Y139.909   
   X190.922      Y139.692   
   X190.953      Y139.460   
   X190.922      Y139.227   
   X190.832      Y139.010   
   X190.689      Y138.824   
   X190.503      Y138.681   
   X190.287      Y138.592   
   X190.054      Y138.561   
   X189.821      Y138.592   
   X189.604      Y138.681   
   X189.418      Y138.824   
   X189.275      Y139.010   
   X189.186      Y139.227   
   X189.155      Y139.460   
   X189.186      Y139.692   
(Pass: 2)
   Z4.700     
   X189.275      Y139.909   
   X189.418      Y140.095   
   X189.604      Y140.238   
   X189.821      Y140.328   
   X190.054      Y140.359   
   X190.287      Y140.328   
   X190.503      Y140.238   
   X190.689      Y140.095   
   X190.832      Y139.909   
   X190.922      Y139.692   
   X190.953      Y139.460   
   X190.922      Y139.227   
   X190.832      Y139.010   
   X190.689      Y138.824   
   X190.503      Y138.681   
   X190.287      Y138.592   
   X190.054      Y138.561   
   X189.821      Y138.592   
   X189.604      Y138.681   
   X189.418      Y138.824   
   X189.275      Y139.010   
   X189.186      Y139.227   
   X189.155      Y139.460   
   X189.186      Y139.692   
(Pass: 3)
   Z3.900     
   X189.275      Y139.909   
   X189.418      Y140.095   
   X189.604      Y140.238   
   X189.821      Y140.328   
   X190.054      Y140.359   
   X190.287      Y140.328   
   X190.503      Y140.238   
   X190.689      Y140.095   
   X190.832      Y139.909   
   X190.922      Y139.692   
   X190.953      Y139.460   
   X190.922      Y139.227   
   X190.832      Y139.010   
   X190.689      Y138.824   
   X190.503      Y138.681   
   X190.287      Y138.592   
   X190.054      Y138.561   
   X189.821      Y138.592   
   X189.604      Y138.681   
   X189.418      Y138.824   
   X189.275      Y139.010   
   X189.186      Y139.227   
   X189.155      Y139.460   
   X189.186      Y139.692   
(Pass: 4)
   Z3.100     
   X189.275      Y139.909   
   X189.418      Y140.095   
   X189.604      Y140.238   
   X189.821      Y140.328   
   X190.054      Y140.359   
   X190.287      Y140.328   
   X190.503      Y140.238   
   X190.689      Y140.095   
   X190.832      Y139.909   
   X190.922      Y139.692   
   X190.953      Y139.460   
   X190.922      Y139.227   
   X190.832      Y139.010   
   X190.689      Y138.824   
   X190.503      Y138.681   
   X190.287      Y138.592   
   X190.054      Y138.561   
   X189.821      Y138.592   
   X189.604      Y138.681   
   X189.418      Y138.824   
   X189.275      Y139.010   
   X189.186      Y139.227   
   X189.155      Y139.460   
   X189.186      Y139.692   
(Pass: 5)
   Z2.300     
   X189.275      Y139.909   
   X189.418      Y140.095   
   X189.604      Y140.238   
   X189.821      Y140.328   
   X190.054      Y140.359   
   X190.287      Y140.328   
   X190.503      Y140.238   
   X190.689      Y140.095   
   X190.832      Y139.909   
   X190.922      Y139.692   
   X190.953      Y139.460   
   X190.922      Y139.227   
   X190.832      Y139.010   
   X190.689      Y138.824   
   X190.503      Y138.681   
   X190.287      Y138.592   
   X190.054      Y138.561   
   X189.821      Y138.592   
   X189.604      Y138.681   
   X189.418      Y138.824   
   X189.275      Y139.010   
   X189.186      Y139.227   
   X189.155      Y139.460   
   X189.186      Y139.692   
(Pass: 6)
   Z1.500     
   X189.275      Y139.909   
   X189.418      Y140.095   
   X189.604      Y140.238   
   X189.821      Y140.328   
   X190.054      Y140.359   
   X190.287      Y140.328   
   X190.503      Y140.238   
   X190.689      Y140.095   
   X190.832      Y139.909   
   X190.922      Y139.692   
   X190.953      Y139.460   
   X190.922      Y139.227   
   X190.832      Y139.010   
   X190.689      Y138.824   
   X190.503      Y138.681   
   X190.287      Y138.592   
   X190.054      Y138.561   
   X189.821      Y138.592   
   X189.604      Y138.681   
   X189.418      Y138.824   
   X189.275      Y139.010   
   X189.186      Y139.227   
   X189.155      Y139.460   
   X189.186      Y139.692   
(Pass: 7)
   Z0.700     
   X189.275      Y139.909   
   X189.418      Y140.095   
   X189.604      Y140.238   
   X189.821      Y140.328   
   X190.054      Y140.359   
   X190.287      Y140.328   
   X190.503      Y140.238   
   X190.689      Y140.095   
   X190.832      Y139.909   
   X190.922      Y139.692   
   X190.953      Y139.460   
   X190.922      Y139.227   
   X190.832      Y139.010   
   X190.689      Y138.824   
   X190.503      Y138.681   
   X190.287      Y138.592   
   X190.054      Y138.561   
   X189.821      Y138.592   
   X189.604      Y138.681   
   X189.418      Y138.824   
   X189.275      Y139.010   
   X189.186      Y139.227   
   X189.155      Y139.460   
   X189.186      Y139.692   
(Pass: 8)
   Z-0.100    
   X189.275      Y139.909   
   X189.418      Y140.095   
   X189.604      Y140.238   
   X189.821      Y140.328   
   X190.054      Y140.359   
   X190.287      Y140.328   
   X190.503      Y140.238   
   X190.689      Y140.095   
   X190.832      Y139.909   
   X190.922      Y139.692   
   X190.953      Y139.460   
   X190.922      Y139.227   
   X190.832      Y139.010   
   X190.689      Y138.824   
   X190.503      Y138.681   
   X190.287      Y138.592   
   X190.054      Y138.561   
   X189.821      Y138.592   
   X189.604      Y138.681   
   X189.418      Y138.824   
   X189.275      Y139.010   
   X189.186      Y139.227   
   X189.155      Y139.460   
   X189.186      Y139.692   
(Pass: 9)
   Z-0.900    
   X189.275      Y139.909   
   X189.418      Y140.095   
   X189.604      Y140.238   
   X189.821      Y140.328   
   X190.054      Y140.359   
   X190.287      Y140.328   
   X190.503      Y140.238   
   X190.689      Y140.095   
   X190.832      Y139.909   
   X190.922      Y139.692   
   X190.953      Y139.460   
   X190.922      Y139.227   
   X190.832      Y139.010   
   X190.689      Y138.824   
   X190.503      Y138.681   
   X190.287      Y138.592   
   X190.054      Y138.561   
   X189.821      Y138.592   
   X189.604      Y138.681   
   X189.418      Y138.824   
   X189.275      Y139.010   
   X189.186      Y139.227   
   X189.155      Y139.460   
   X189.186      Y139.692   
(BREAK pass 9)
G0   Z9.500     
(Pass: 1)
   X167.555      Y184.069   
G1   Z5.500      F2540
   X167.286      Y183.958   
   X166.998      Y183.920   
   X166.710      Y183.958   
   X166.441      Y184.069   
   X166.210      Y184.246   
   X166.033      Y184.477   
   X165.922      Y184.746   
   X165.884      Y185.034   
   X165.922      Y185.322   
   X166.033      Y185.591   
   X166.210      Y185.822   
   X166.441      Y185.999   
   X166.710      Y186.110   
   X166.998      Y186.148   
   X167.286      Y186.110   
   X167.555      Y185.999   
   X167.786      Y185.822   
   X167.963      Y185.591   
   X168.074      Y185.322   
   X168.112      Y185.034   
   X168.074      Y184.746   
   X167.963      Y184.477   
   X167.786      Y184.246   
   X167.555      Y184.069   
(Pass: 2)
   Z4.700     
   X167.286      Y183.958   
   X166.998      Y183.920   
   X166.710      Y183.958   
   X166.441      Y184.069   
   X166.210      Y184.246   
   X166.033      Y184.477   
   X165.922      Y184.746   
   X165.884      Y185.034   
   X165.922      Y185.322   
   X166.033      Y185.591   
   X166.210      Y185.822   
   X166.441      Y185.999   
   X166.710      Y186.110   
   X166.998      Y186.148   
   X167.286      Y186.110   
   X167.555      Y185.999   
   X167.786      Y185.822   
   X167.963      Y185.591   
   X168.074      Y185.322   
   X168.112      Y185.034   
   X168.074      Y184.746   
   X167.963      Y184.477   
   X167.786      Y184.246   
   X167.555      Y184.069   
(Pass: 3)
   Z3.900     
   X167.286      Y183.958   
   X166.998      Y183.920   
   X166.710      Y183.958   
   X166.441      Y184.069   
   X166.210      Y184.246   
   X166.033      Y184.477   
   X165.922      Y184.746   
   X165.884      Y185.034   
   X165.922      Y185.322   
   X166.033      Y185.591   
   X166.210      Y185.822   
   X166.441      Y185.999   
   X166.710      Y186.110   
   X166.998      Y186.148   
   X167.286      Y186.110   
   X167.555      Y185.999   
   X167.786      Y185.822   
   X167.963      Y185.591   
   X168.074      Y185.322   
   X168.112      Y185.034   
   X168.074      Y184.746   
   X167.963      Y184.477   
   X167.786      Y184.246   
   X167.555      Y184.069   
(Pass: 4)
   Z3.100     
   X167.286      Y183.958   
   X166.998      Y183.920   
   X166.710      Y183.958   
   X166.441      Y184.069   
   X166.210      Y184.246   
   X166.033      Y184.477   
   X165.922      Y184.746   
   X165.884      Y185.034   
   X165.922      Y185.322   
   X166.033      Y185.591   
   X166.210      Y185.822   
   X166.441      Y185.999   
   X166.710      Y186.110   
   X166.998      Y186.148   
   X167.286      Y186.110   
   X167.555      Y185.999   
   X167.786      Y185.822   
   X167.963      Y185.591   
   X168.074      Y185.322   
   X168.112      Y185.034   
   X168.074      Y184.746   
   X167.963      Y184.477   
   X167.786      Y184.246   
   X167.555      Y184.069   
(Pass: 5)
   Z2.300     
   X167.286      Y183.958   
   X166.998      Y183.920   
   X166.710      Y183.958   
   X166.441      Y184.069   
   X166.210      Y184.246   
   X166.033      Y184.477   
   X165.922      Y184.746   
   X165.884      Y185.034   
   X165.922      Y185.322   
   X166.033      Y185.591   
   X166.210      Y185.822   
   X166.441      Y185.999   
   X166.710      Y186.110   
   X166.998      Y186.148   
   X167.286      Y186.110   
   X167.555      Y185.999   
   X167.786      Y185.822   
   X167.963      Y185.591   
   X168.074      Y185.322   
   X168.112      Y185.034   
   X168.074      Y184.746   
   X167.963      Y184.477   
   X167.786      Y184.246   
   X167.555      Y184.069   
(Pass: 6)
   Z1.500     
   X167.286      Y183.958   
   X166.998      Y183.920   
   X166.710      Y183.958   
   X166.441      Y184.069   
   X166.210      Y184.246   
   X166.033      Y184.477   
   X165.922      Y184.746   
   X165.884      Y185.034   
   X165.922      Y185.322   
   X166.033      Y185.591   
   X166.210      Y185.822   
   X166.441      Y185.999   
   X166.710      Y186.110   
   X166.998      Y186.148   
   X167.286      Y186.110   
   X167.555      Y185.999   
   X167.786      Y185.822   
   X167.963      Y185.591   
   X168.074      Y185.322   
   X168.112      Y185.034   
   X168.074      Y184.746   
   X167.963      Y184.477   
   X167.786      Y184.246   
   X167.555      Y184.069   
(Pass: 7)
   Z0.700     
   X167.286      Y183.958   
   X166.998      Y183.920   
   X166.710      Y183.958   
   X166.441      Y184.069   
   X166.210      Y184.246   
   X166.033      Y184.477   
   X165.922      Y184.746   
   X165.884      Y185.034   
   X165.922      Y185.322   
   X166.033      Y185.591   
   X166.210      Y185.822   
   X166.441      Y185.999   
   X166.710      Y186.110   
   X166.998      Y186.148   
   X167.286      Y186.110   
   X167.555      Y185.999   
   X167.786      Y185.822   
   X167.963      Y185.591   
   X168.074      Y185.322   
   X168.112      Y185.034   
   X168.074      Y184.746   
   X167.963      Y184.477   
   X167.786      Y184.246   
   X167.555      Y184.069   
(Pass: 8)
   Z-0.100    
   X167.286      Y183.958   
   X166.998      Y183.920   
   X166.710      Y183.958   
   X166.441      Y184.069   
   X166.210      Y184.246   
   X166.033      Y184.477   
   X165.922      Y184.746   
   X165.884      Y185.034   
   X165.922      Y185.322   
   X166.033      Y185.591   
   X166.210      Y185.822   
   X166.441      Y185.999   
   X166.710      Y186.110   
   X166.998      Y186.148   
   X167.286      Y186.110   
   X167.555      Y185.999   
   X167.786      Y185.822   
   X167.963      Y185.591   
   X168.074      Y185.322   
   X168.112      Y185.034   
   X168.074      Y184.746   
   X167.963      Y184.477   
   X167.786      Y184.246   
   X167.555      Y184.069   
(Pass: 9)
   Z-0.900    
   X167.286      Y183.958   
   X166.998      Y183.920   
   X166.710      Y183.958   
   X166.441      Y184.069   
   X166.210      Y184.246   
   X166.033      Y184.477   
   X165.922      Y184.746   
   X165.884      Y185.034   
   X165.922      Y185.322   
   X166.033      Y185.591   
   X166.210      Y185.822   
   X166.441      Y185.999   
   X166.710      Y186.110   
   X166.998      Y186.148   
   X167.286      Y186.110   
   X167.555      Y185.999   
   X167.786      Y185.822   
   X167.963      Y185.591   
   X168.074      Y185.322   
   X168.112      Y185.034   
   X168.074      Y184.746   
   X167.963      Y184.477   
   X167.786      Y184.246   
   X167.555      Y184.069   
(BREAK pass 9)
G0   Z9.500     
(Pass: 1)
   X157.467      Y195.181   
G1   Z5.500      F2540
   X157.272      Y195.031   
   X157.046      Y194.938   
   X156.803      Y194.906   
   X156.560      Y194.938   
   X156.333      Y195.031   
   X156.139      Y195.181   
   X155.990      Y195.375   
   X155.896      Y195.601   
   X155.850      Y195.949   
   Y204.740   
   X155.896      Y205.087   
   X155.990      Y205.314   
   X156.139      Y205.508   
   X156.333      Y205.657   
   X156.560      Y205.751   
   X156.803      Y205.783   
   X157.046      Y205.751   
   X157.272      Y205.657   
   X157.467      Y205.508   
   X157.616      Y205.314   
   X157.709      Y205.087   
   X157.755      Y204.740   
   Y195.949   
   X157.709      Y195.601   
   X157.616      Y195.375   
   X157.467      Y195.181   
(Pass: 2)
   Z4.700     
   X157.272      Y195.031   
   X157.046      Y194.938   
   X156.803      Y194.906   
   X156.560      Y194.938   
   X156.333      Y195.031   
   X156.139      Y195.181   
   X155.990      Y195.375   
   X155.896      Y195.601   
   X155.850      Y195.949   
   Y204.740   
   X155.896      Y205.087   
   X155.990      Y205.314   
   X156.139      Y205.508   
   X156.333      Y205.657   
   X156.560      Y205.751   
   X156.803      Y205.783   
   X157.046      Y205.751   
   X157.272      Y205.657   
   X157.467      Y205.508   
   X157.616      Y205.314   
   X157.709      Y205.087   
   X157.755      Y204.740   
   Y195.949   
   X157.709      Y195.601   
   X157.616      Y195.375   
   X157.467      Y195.181   
(Pass: 3)
   Z3.900     
   X157.272      Y195.031   
   X157.046      Y194.938   
   X156.803      Y194.906   
   X156.560      Y194.938   
   X156.333      Y195.031   
   X156.139      Y195.181   
   X155.990      Y195.375   
   X155.896      Y195.601   
   X155.850      Y195.949   
   Y204.740   
   X155.896      Y205.087   
   X155.990      Y205.314   
   X156.139      Y205.508   
   X156.333      Y205.657   
   X156.560      Y205.751   
   X156.803      Y205.783   
   X157.046      Y205.751   
   X157.272      Y205.657   
   X157.467      Y205.508   
   X157.616      Y205.314   
   X157.709      Y205.087   
   X157.755      Y204.740   
   Y195.949   
   X157.709      Y195.601   
   X157.616      Y195.375   
   X157.467      Y195.181   
(Pass: 4)
   Z3.100     
   X157.272      Y195.031   
   X157.046      Y194.938   
   X156.803      Y194.906   
   X156.560      Y194.938   
   X156.333      Y195.031   
   X156.139      Y195.181   
   X155.990      Y195.375   
   X155.896      Y195.601   
   X155.850      Y195.949   
   Y204.740   
   X155.896      Y205.087   
   X155.990      Y205.314   
   X156.139      Y205.508   
   X156.333      Y205.657   
   X156.560      Y205.751   
   X156.803      Y205.783   
   X157.046      Y205.751   
   X157.272      Y205.657   
   X157.467      Y205.508   
   X157.616      Y205.314   
   X157.709      Y205.087   
   X157.755      Y204.740   
   Y195.949   
   X157.709      Y195.601   
   X157.616      Y195.375   
   X157.467      Y195.181   
(Pass: 5)
   Z2.300     
   X157.272      Y195.031   
   X157.046      Y194.938   
   X156.803      Y194.906   
   X156.560      Y194.938   
   X156.333      Y195.031   
   X156.139      Y195.181   
   X155.990      Y195.375   
   X155.896      Y195.601   
   X155.850      Y195.949   
   Y204.740   
   X155.896      Y205.087   
   X155.990      Y205.314   
   X156.139      Y205.508   
   X156.333      Y205.657   
   X156.560      Y205.751   
   X156.803      Y205.783   
   X157.046      Y205.751   
   X157.272      Y205.657   
   X157.467      Y205.508   
   X157.616      Y205.314   
   X157.709      Y205.087   
   X157.755      Y204.740   
   Y195.949   
   X157.709      Y195.601   
   X157.616      Y195.375   
   X157.467      Y195.181   
(Pass: 6)
   Z1.500     
   X157.272      Y195.031   
   X157.046      Y194.938   
   X156.803      Y194.906   
   X156.560      Y194.938   
   X156.333      Y195.031   
   X156.139      Y195.181   
   X155.990      Y195.375   
   X155.896      Y195.601   
   X155.850      Y195.949   
   Y204.740   
   X155.896      Y205.087   
   X155.990      Y205.314   
   X156.139      Y205.508   
   X156.333      Y205.657   
   X156.560      Y205.751   
   X156.803      Y205.783   
   X157.046      Y205.751   
   X157.272      Y205.657   
   X157.467      Y205.508   
   X157.616      Y205.314   
   X157.709      Y205.087   
   X157.755      Y204.740   
   Y195.949   
   X157.709      Y195.601   
   X157.616      Y195.375   
   X157.467      Y195.181   
(Pass: 7)
   Z0.700     
   X157.272      Y195.031   
   X157.046      Y194.938   
   X156.803      Y194.906   
   X156.560      Y194.938   
   X156.333      Y195.031   
   X156.139      Y195.181   
   X155.990      Y195.375   
   X155.896      Y195.601   
   X155.850      Y195.949   
   Y204.740   
   X155.896      Y205.087   
   X155.990      Y205.314   
   X156.139      Y205.508   
   X156.333      Y205.657   
   X156.560      Y205.751   
   X156.803      Y205.783   
   X157.046      Y205.751   
   X157.272      Y205.657   
   X157.467      Y205.508   
   X157.616      Y205.314   
   X157.709      Y205.087   
   X157.755      Y204.740   
   Y195.949   
   X157.709      Y195.601   
   X157.616      Y195.375   
   X157.467      Y195.181   
(Pass: 8)
   Z-0.100    
   X157.272      Y195.031   
   X157.046      Y194.938   
   X156.803      Y194.906   
   X156.560      Y194.938   
   X156.333      Y195.031   
   X156.139      Y195.181   
   X155.990      Y195.375   
   X155.896      Y195.601   
   X155.850      Y195.949   
   Y204.740   
   X155.896      Y205.087   
   X155.990      Y205.314   
   X156.139      Y205.508   
   X156.333      Y205.657   
   X156.560      Y205.751   
   X156.803      Y205.783   
   X157.046      Y205.751   
   X157.272      Y205.657   
   X157.467      Y205.508   
   X157.616      Y205.314   
   X157.709      Y205.087   
   X157.755      Y204.740   
   Y195.949   
   X157.709      Y195.601   
   X157.616      Y195.375   
   X157.467      Y195.181   
(Pass: 9)
   Z-0.900    
   X157.272      Y195.031   
   X157.046      Y194.938   
   X156.803      Y194.906   
   X156.560      Y194.938   
   X156.333      Y195.031   
   X156.139      Y195.181   
   X155.990      Y195.375   
   X155.896      Y195.601   
   X155.850      Y195.949   
   Y204.740   
   X155.896      Y205.087   
   X155.990      Y205.314   
   X156.139      Y205.508   
   X156.333      Y205.657   
   X156.560      Y205.751   
   X156.803      Y205.783   
   X157.046      Y205.751   
   X157.272      Y205.657   
   X157.467      Y205.508   
   X157.616      Y205.314   
   X157.709      Y205.087   
   X157.755      Y204.740   
   Y195.949   
   X157.709      Y195.601   
   X157.616      Y195.375   
   X157.467      Y195.181   
(BREAK pass 9)
G0   Z9.500     
(Pass: 1)
   X151.319      Y214.506   
G1   Z5.500      F2540
   X151.030      Y214.468   
   X150.742      Y214.506   
   X150.473      Y214.617   
   X150.242      Y214.794   
   X150.065      Y215.025   
   X149.954      Y215.293   
   X149.916      Y215.582   
   X149.954      Y215.870   
   X150.065      Y216.139   
   X150.242      Y216.370   
   X150.473      Y216.547   
   X150.742      Y216.658   
   X151.030      Y216.696   
   X151.319      Y216.658   
   X151.587      Y216.547   
   X151.818      Y216.370   
   X151.995      Y216.139   
   X152.107      Y215.870   
   X152.145      Y215.582   
   X152.107      Y215.293   
   X151.995      Y215.025   
   X151.818      Y214.794   
   X151.587      Y214.617   
   X151.319      Y214.506   
(Pass: 2)
   Z4.700     
   X151.030      Y214.468   
   X150.742      Y214.506   
   X150.473      Y214.617   
   X150.242      Y214.794   
   X150.065      Y215.025   
   X149.954      Y215.293   
   X149.916      Y215.582   
   X149.954      Y215.870   
   X150.065      Y216.139   
   X150.242      Y216.370   
   X150.473      Y216.547   
   X150.742      Y216.658   
   X151.030      Y216.696   
   X151.319      Y216.658   
   X151.587      Y216.547   
   X151.818      Y216.370   
   X151.995      Y216.139   
   X152.107      Y215.870   
   X152.145      Y215.582   
   X152.107      Y215.293   
   X151.995      Y215.025   
   X151.818      Y214.794   
   X151.587      Y214.617   
   X151.319      Y214.506   
(Pass: 3)
   Z3.900     
   X151.030      Y214.468   
   X150.742      Y214.506   
   X150.473      Y214.617   
   X150.242      Y214.794   
   X150.065      Y215.025   
   X149.954      Y215.293   
   X149.916      Y215.582   
   X149.954      Y215.870   
   X150.065      Y216.139   
   X150.242      Y216.370   
   X150.473      Y216.547   
   X150.742      Y216.658   
   X151.030      Y216.696   
   X151.319      Y216.658   
   X151.587      Y216.547   
   X151.818      Y216.370   
   X151.995      Y216.139   
   X152.107      Y215.870   
   X152.145      Y215.582   
   X152.107      Y215.293   
   X151.995      Y215.025   
   X151.818      Y214.794   
   X151.587      Y214.617   
   X151.319      Y214.506   
(Pass: 4)
   Z3.100     
   X151.030      Y214.468   
   X150.742      Y214.506   
   X150.473      Y214.617   
   X150.242      Y214.794   
   X150.065      Y215.025   
   X149.954      Y215.293   
   X149.916      Y215.582   
   X149.954      Y215.870   
   X150.065      Y216.139   
   X150.242      Y216.370   
   X150.473      Y216.547   
   X150.742      Y216.658   
   X151.030      Y216.696   
   X151.319      Y216.658   
   X151.587      Y216.547   
   X151.818      Y216.370   
   X151.995      Y216.139   
   X152.107      Y215.870   
   X152.145      Y215.582   
   X152.107      Y215.293   
   X151.995      Y215.025   
   X151.818      Y214.794   
   X151.587      Y214.617   
   X151.319      Y214.506   
(Pass: 5)
   Z2.300     
   X151.030      Y214.468   
   X150.742      Y214.506   
   X150.473      Y214.617   
   X150.242      Y214.794   
   X150.065      Y215.025   
   X149.954      Y215.293   
   X149.916      Y215.582   
   X149.954      Y215.870   
   X150.065      Y216.139   
   X150.242      Y216.370   
   X150.473      Y216.547   
   X150.742      Y216.658   
   X151.030      Y216.696   
   X151.319      Y216.658   
   X151.587      Y216.547   
   X151.818      Y216.370   
   X151.995      Y216.139   
   X152.107      Y215.870   
   X152.145      Y215.582   
   X152.107      Y215.293   
   X151.995      Y215.025   
   X151.818      Y214.794   
   X151.587      Y214.617   
   X151.319      Y214.506   
(Pass: 6)
   Z1.500     
   X151.030      Y214.468   
   X150.742      Y214.506   
   X150.473      Y214.617   
   X150.242      Y214.794   
   X150.065      Y215.025   
   X149.954      Y215.293   
   X149.916      Y215.582   
   X149.954      Y215.870   
   X150.065      Y216.139   
   X150.242      Y216.370   
   X150.473      Y216.547   
   X150.742      Y216.658   
   X151.030      Y216.696   
   X151.319      Y216.658   
   X151.587      Y216.547   
   X151.818      Y216.370   
   X151.995      Y216.139   
   X152.107      Y215.870   
   X152.145      Y215.582   
   X152.107      Y215.293   
   X151.995      Y215.025   
   X151.818      Y214.794   
   X151.587      Y214.617   
   X151.319      Y214.506   
(Pass: 7)
   Z0.700     
   X151.030      Y214.468   
   X150.742      Y214.506   
   X150.473      Y214.617   
   X150.242      Y214.794   
   X150.065      Y215.025   
   X149.954      Y215.293   
   X149.916      Y215.582   
   X149.954      Y215.870   
   X150.065      Y216.139   
   X150.242      Y216.370   
   X150.473      Y216.547   
   X150.742      Y216.658   
   X151.030      Y216.696   
   X151.319      Y216.658   
   X151.587      Y216.547   
   X151.818      Y216.370   
   X151.995      Y216.139   
   X152.107      Y215.870   
   X152.145      Y215.582   
   X152.107      Y215.293   
   X151.995      Y215.025   
   X151.818      Y214.794   
   X151.587      Y214.617   
   X151.319      Y214.506   
(Pass: 8)
   Z-0.100    
   X151.030      Y214.468   
   X150.742      Y214.506   
   X150.473      Y214.617   
   X150.242      Y214.794   
   X150.065      Y215.025   
   X149.954      Y215.293   
   X149.916      Y215.582   
   X149.954      Y215.870   
   X150.065      Y216.139   
   X150.242      Y216.370   
   X150.473      Y216.547   
   X150.742      Y216.658   
   X151.030      Y216.696   
   X151.319      Y216.658   
   X151.587      Y216.547   
   X151.818      Y216.370   
   X151.995      Y216.139   
   X152.107      Y215.870   
   X152.145      Y215.582   
   X152.107      Y215.293   
   X151.995      Y215.025   
   X151.818      Y214.794   
   X151.587      Y214.617   
   X151.319      Y214.506   
(Pass: 9)
   Z-0.900    
   X151.030      Y214.468   
   X150.742      Y214.506   
   X150.473      Y214.617   
   X150.242      Y214.794   
   X150.065      Y215.025   
   X149.954      Y215.293   
   X149.916      Y215.582   
   X149.954      Y215.870   
   X150.065      Y216.139   
   X150.242      Y216.370   
   X150.473      Y216.547   
   X150.742      Y216.658   
   X151.030      Y216.696   
   X151.319      Y216.658   
   X151.587      Y216.547   
   X151.818      Y216.370   
   X151.995      Y216.139   
   X152.107      Y215.870   
   X152.145      Y215.582   
   X152.107      Y215.293   
   X151.995      Y215.025   
   X151.818      Y214.794   
   X151.587      Y214.617   
   X151.319      Y214.506   
(BREAK pass 9)
G0   Z9.500     
(Pass: 1)
   X116.425      Y215.582   
G1   Z5.500      F2540
   X116.387      Y215.293   
   X116.276      Y215.025   
   X116.099      Y214.794   
   X115.868      Y214.617   
   X115.600      Y214.506   
   X115.311      Y214.468   
   X115.023      Y214.506   
   X114.754      Y214.617   
   X114.523      Y214.794   
   X114.346      Y215.025   
   X114.235      Y215.293   
   X114.197      Y215.582   
   X114.235      Y215.870   
   X114.346      Y216.139   
   X114.523      Y216.370   
   X114.754      Y216.547   
   X115.023      Y216.658   
   X115.311      Y216.696   
   X115.600      Y216.658   
   X115.868      Y216.547   
   X116.099      Y216.370   
   X116.276      Y216.139   
   X116.387      Y215.870   
   X116.425      Y215.582   
(Pass: 2)
   Z4.700     
   X116.387      Y215.293   
   X116.276      Y215.025   
   X116.099      Y214.794   
   X115.868      Y214.617   
   X115.600      Y214.506   
   X115.311      Y214.468   
   X115.023      Y214.506   
   X114.754      Y214.617   
   X114.523      Y214.794   
   X114.346      Y215.025   
   X114.235      Y215.293   
   X114.197      Y215.582   
   X114.235      Y215.870   
   X114.346      Y216.139   
   X114.523      Y216.370   
   X114.754      Y216.547   
   X115.023      Y216.658   
   X115.311      Y216.696   
   X115.600      Y216.658   
   X115.868      Y216.547   
   X116.099      Y216.370   
   X116.276      Y216.139   
   X116.387      Y215.870   
   X116.425      Y215.582   
(Pass: 3)
   Z3.900     
   X116.387      Y215.293   
   X116.276      Y215.025   
   X116.099      Y214.794   
   X115.868      Y214.617   
   X115.600      Y214.506   
   X115.311      Y214.468   
   X115.023      Y214.506   
   X114.754      Y214.617   
   X114.523      Y214.794   
   X114.346      Y215.025   
   X114.235      Y215.293   
   X114.197      Y215.582   
   X114.235      Y215.870   
   X114.346      Y216.139   
   X114.523      Y216.370   
   X114.754      Y216.547   
   X115.023      Y216.658   
   X115.311      Y216.696   
   X115.600      Y216.658   
   X115.868      Y216.547   
   X116.099      Y216.370   
   X116.276      Y216.139   
   X116.387      Y215.870   
   X116.425      Y215.582   
(Pass: 4)
   Z3.100     
   X116.387      Y215.293   
   X116.276      Y215.025   
   X116.099      Y214.794   
   X115.868      Y214.617   
   X115.600      Y214.506   
   X115.311      Y214.468   
   X115.023      Y214.506   
   X114.754      Y214.617   
   X114.523      Y214.794   
   X114.346      Y215.025   
   X114.235      Y215.293   
   X114.197      Y215.582   
   X114.235      Y215.870   
   X114.346      Y216.139   
   X114.523      Y216.370   
   X114.754      Y216.547   
   X115.023      Y216.658   
   X115.311      Y216.696   
   X115.600      Y216.658   
   X115.868      Y216.547   
   X116.099      Y216.370   
   X116.276      Y216.139   
   X116.387      Y215.870   
   X116.425      Y215.582   
(Pass: 5)
   Z2.300     
   X116.387      Y215.293   
   X116.276      Y215.025   
   X116.099      Y214.794   
   X115.868      Y214.617   
   X115.600      Y214.506   
   X115.311      Y214.468   
   X115.023      Y214.506   
   X114.754      Y214.617   
   X114.523      Y214.794   
   X114.346      Y215.025   
   X114.235      Y215.293   
   X114.197      Y215.582   
   X114.235      Y215.870   
   X114.346      Y216.139   
   X114.523      Y216.370   
   X114.754      Y216.547   
   X115.023      Y216.658   
   X115.311      Y216.696   
   X115.600      Y216.658   
   X115.868      Y216.547   
   X116.099      Y216.370   
   X116.276      Y216.139   
   X116.387      Y215.870   
   X116.425      Y215.582   
(Pass: 6)
   Z1.500     
   X116.387      Y215.293   
   X116.276      Y215.025   
   X116.099      Y214.794   
   X115.868      Y214.617   
   X115.600      Y214.506   
   X115.311      Y214.468   
   X115.023      Y214.506   
   X114.754      Y214.617   
   X114.523      Y214.794   
   X114.346      Y215.025   
   X114.235      Y215.293   
   X114.197      Y215.582   
   X114.235      Y215.870   
   X114.346      Y216.139   
   X114.523      Y216.370   
   X114.754      Y216.547   
   X115.023      Y216.658   
   X115.311      Y216.696   
   X115.600      Y216.658   
   X115.868      Y216.547   
   X116.099      Y216.370   
   X116.276      Y216.139   
   X116.387      Y215.870   
   X116.425      Y215.582   
(Pass: 7)
   Z0.700     
   X116.387      Y215.293   
   X116.276      Y215.025   
   X116.099      Y214.794   
   X115.868      Y214.617   
   X115.600      Y214.506   
   X115.311      Y214.468   
   X115.023      Y214.506   
   X114.754      Y214.617   
   X114.523      Y214.794   
   X114.346      Y215.025   
   X114.235      Y215.293   
   X114.197      Y215.582   
   X114.235      Y215.870   
   X114.346      Y216.139   
   X114.523      Y216.370   
   X114.754      Y216.547   
   X115.023      Y216.658   
   X115.311      Y216.696   
   X115.600      Y216.658   
   X115.868      Y216.547   
   X116.099      Y216.370   
   X116.276      Y216.139   
   X116.387      Y215.870   
   X116.425      Y215.582   
(Pass: 8)
   Z-0.100    
   X116.387      Y215.293   
   X116.276      Y215.025   
   X116.099      Y214.794   
   X115.868      Y214.617   
   X115.600      Y214.506   
   X115.311      Y214.468   
   X115.023      Y214.506   
   X114.754      Y214.617   
   X114.523      Y214.794   
   X114.346      Y215.025   
   X114.235      Y215.293   
   X114.197      Y215.582   
   X114.235      Y215.870   
   X114.346      Y216.139   
   X114.523      Y216.370   
   X114.754      Y216.547   
   X115.023      Y216.658   
   X115.311      Y216.696   
   X115.600      Y216.658   
   X115.868      Y216.547   
   X116.099      Y216.370   
   X116.276      Y216.139   
   X116.387      Y215.870   
   X116.425      Y215.582   
(Pass: 9)
   Z-0.900    
   X116.387      Y215.293   
   X116.276      Y215.025   
   X116.099      Y214.794   
   X115.868      Y214.617   
   X115.600      Y214.506   
   X115.311      Y214.468   
   X115.023      Y214.506   
   X114.754      Y214.617   
   X114.523      Y214.794   
   X114.346      Y215.025   
   X114.235      Y215.293   
   X114.197      Y215.582   
   X114.235      Y215.870   
   X114.346      Y216.139   
   X114.523      Y216.370   
   X114.754      Y216.547   
   X115.023      Y216.658   
   X115.311      Y216.696   
   X115.600      Y216.658   
   X115.868      Y216.547   
   X116.099      Y216.370   
   X116.276      Y216.139   
   X116.387      Y215.870   
   X116.425      Y215.582   
(BREAK pass 9)
G0   Z9.500     
(Pass: 1)
   X110.028      Y205.657   
G1   Z5.500      F2540
   X110.223      Y205.508   
   X110.372      Y205.314   
   X110.466      Y205.087   
   X110.511      Y204.740   
   Y195.949   
   X110.466      Y195.601   
   X110.372      Y195.375   
   X110.223      Y195.181   
   X110.028      Y195.031   
   X109.802      Y194.938   
   X109.559      Y194.906   
   X109.316      Y194.938   
   X109.089      Y195.031   
   X108.895      Y195.181   
   X108.746      Y195.375   
   X108.652      Y195.601   
   X108.606      Y195.949   
   Y204.740   
   X108.652      Y205.087   
   X108.746      Y205.314   
   X108.895      Y205.508   
   X109.089      Y205.657   
   X109.316      Y205.751   
   X109.559      Y205.783   
   X109.802      Y205.751   
   X110.028      Y205.657   
(Pass: 2)
   Z4.700     
   X110.223      Y205.508   
   X110.372      Y205.314   
   X110.466      Y205.087   
   X110.511      Y204.740   
   Y195.949   
   X110.466      Y195.601   
   X110.372      Y195.375   
   X110.223      Y195.181   
   X110.028      Y195.031   
   X109.802      Y194.938   
   X109.559      Y194.906   
   X109.316      Y194.938   
   X109.089      Y195.031   
   X108.895      Y195.181   
   X108.746      Y195.375   
   X108.652      Y195.601   
   X108.606      Y195.949   
   Y204.740   
   X108.652      Y205.087   
   X108.746      Y205.314   
   X108.895      Y205.508   
   X109.089      Y205.657   
   X109.316      Y205.751   
   X109.559      Y205.783   
   X109.802      Y205.751   
   X110.028      Y205.657   
(Pass: 3)
   Z3.900     
   X110.223      Y205.508   
   X110.372      Y205.314   
   X110.466      Y205.087   
   X110.511      Y204.740   
   Y195.949   
   X110.466      Y195.601   
   X110.372      Y195.375   
   X110.223      Y195.181   
   X110.028      Y195.031   
   X109.802      Y194.938   
   X109.559      Y194.906   
   X109.316      Y194.938   
   X109.089      Y195.031   
   X108.895      Y195.181   
   X108.746      Y195.375   
   X108.652      Y195.601   
   X108.606      Y195.949   
   Y204.740   
   X108.652      Y205.087   
   X108.746      Y205.314   
   X108.895      Y205.508   
   X109.089      Y205.657   
   X109.316      Y205.751   
   X109.559      Y205.783   
   X109.802      Y205.751   
   X110.028      Y205.657   
(Pass: 4)
   Z3.100     
   X110.223      Y205.508   
   X110.372      Y205.314   
   X110.466      Y205.087   
   X110.511      Y204.740   
   Y195.949   
   X110.466      Y195.601   
   X110.372      Y195.375   
   X110.223      Y195.181   
   X110.028      Y195.031   
   X109.802      Y194.938   
   X109.559      Y194.906   
   X109.316      Y194.938   
   X109.089      Y195.031   
   X108.895      Y195.181   
   X108.746      Y195.375   
   X108.652      Y195.601   
   X108.606      Y195.949   
   Y204.740   
   X108.652      Y205.087   
   X108.746      Y205.314   
   X108.895      Y205.508   
   X109.089      Y205.657   
   X109.316      Y205.751   
   X109.559      Y205.783   
   X109.802      Y205.751   
   X110.028      Y205.657   
(Pass: 5)
   Z2.300     
   X110.223      Y205.508   
   X110.372      Y205.314   
   X110.466      Y205.087   
   X110.511      Y204.740   
   Y195.949   
   X110.466      Y195.601   
   X110.372      Y195.375   
   X110.223      Y195.181   
   X110.028      Y195.031   
   X109.802      Y194.938   
   X109.559      Y194.906   
   X109.316      Y194.938   
   X109.089      Y195.031   
   X108.895      Y195.181   
   X108.746      Y195.375   
   X108.652      Y195.601   
   X108.606      Y195.949   
   Y204.740   
   X108.652      Y205.087   
   X108.746      Y205.314   
   X108.895      Y205.508   
   X109.089      Y205.657   
   X109.316      Y205.751   
   X109.559      Y205.783   
   X109.802      Y205.751   
   X110.028      Y205.657   
(Pass: 6)
   Z1.500     
   X110.223      Y205.508   
   X110.372      Y205.314   
   X110.466      Y205.087   
   X110.511      Y204.740   
   Y195.949   
   X110.466      Y195.601   
   X110.372      Y195.375   
   X110.223      Y195.181   
   X110.028      Y195.031   
   X109.802      Y194.938   
   X109.559      Y194.906   
   X109.316      Y194.938   
   X109.089      Y195.031   
   X108.895      Y195.181   
   X108.746      Y195.375   
   X108.652      Y195.601   
   X108.606      Y195.949   
   Y204.740   
   X108.652      Y205.087   
   X108.746      Y205.314   
   X108.895      Y205.508   
   X109.089      Y205.657   
   X109.316      Y205.751   
   X109.559      Y205.783   
   X109.802      Y205.751   
   X110.028      Y205.657   
(Pass: 7)
   Z0.700     
   X110.223      Y205.508   
   X110.372      Y205.314   
   X110.466      Y205.087   
   X110.511      Y204.740   
   Y195.949   
   X110.466      Y195.601   
   X110.372      Y195.375   
   X110.223      Y195.181   
   X110.028      Y195.031   
   X109.802      Y194.938   
   X109.559      Y194.906   
   X109.316      Y194.938   
   X109.089      Y195.031   
   X108.895      Y195.181   
   X108.746      Y195.375   
   X108.652      Y195.601   
   X108.606      Y195.949   
   Y204.740   
   X108.652      Y205.087   
   X108.746      Y205.314   
   X108.895      Y205.508   
   X109.089      Y205.657   
   X109.316      Y205.751   
   X109.559      Y205.783   
   X109.802      Y205.751   
   X110.028      Y205.657   
(Pass: 8)
   Z-0.100    
   X110.223      Y205.508   
   X110.372      Y205.314   
   X110.466      Y205.087   
   X110.511      Y204.740   
   Y195.949   
   X110.466      Y195.601   
   X110.372      Y195.375   
   X110.223      Y195.181   
   X110.028      Y195.031   
   X109.802      Y194.938   
   X109.559      Y194.906   
   X109.316      Y194.938   
   X109.089      Y195.031   
   X108.895      Y195.181   
   X108.746      Y195.375   
   X108.652      Y195.601   
   X108.606      Y195.949   
   Y204.740   
   X108.652      Y205.087   
   X108.746      Y205.314   
   X108.895      Y205.508   
   X109.089      Y205.657   
   X109.316      Y205.751   
   X109.559      Y205.783   
   X109.802      Y205.751   
   X110.028      Y205.657   
(Pass: 9)
   Z-0.900    
   X110.223      Y205.508   
   X110.372      Y205.314   
   X110.466      Y205.087   
   X110.511      Y204.740   
   Y195.949   
   X110.466      Y195.601   
   X110.372      Y195.375   
   X110.223      Y195.181   
   X110.028      Y195.031   
   X109.802      Y194.938   
   X109.559      Y194.906   
   X109.316      Y194.938   
   X109.089      Y195.031   
   X108.895      Y195.181   
   X108.746      Y195.375   
   X108.652      Y195.601   
   X108.606      Y195.949   
   Y204.740   
   X108.652      Y205.087   
   X108.746      Y205.314   
   X108.895      Y205.508   
   X109.089      Y205.657   
   X109.316      Y205.751   
   X109.559      Y205.783   
   X109.802      Y205.751   
   X110.028      Y205.657   
(BREAK pass 9)
G0   Z9.500     
(Pass: 1)
   X99.941       Y185.999   
G1   Z5.500      F2540
   X100.171      Y185.822   
   X100.349      Y185.591   
   X100.460      Y185.322   
   X100.498      Y185.034   
   X100.460      Y184.746   
   X100.349      Y184.477   
   X100.171      Y184.246   
   X99.941       Y184.069   
   X99.672       Y183.958   
   X99.384       Y183.920   
   X99.095       Y183.958   
   X98.826       Y184.069   
   X98.596       Y184.246   
   X98.419       Y184.477   
   X98.307       Y184.746   
   X98.269       Y185.034   
   X98.307       Y185.322   
   X98.419       Y185.591   
   X98.596       Y185.822   
   X98.826       Y185.999   
   X99.095       Y186.110   
   X99.384       Y186.148   
   X99.672       Y186.110   
   X99.941       Y185.999   
(Pass: 2)
   Z4.700     
   X100.171      Y185.822   
   X100.349      Y185.591   
   X100.460      Y185.322   
   X100.498      Y185.034   
   X100.460      Y184.746   
   X100.349      Y184.477   
   X100.171      Y184.246   
   X99.941       Y184.069   
   X99.672       Y183.958   
   X99.384       Y183.920   
   X99.095       Y183.958   
   X98.826       Y184.069   
   X98.596       Y184.246   
   X98.419       Y184.477   
   X98.307       Y184.746   
   X98.269       Y185.034   
   X98.307       Y185.322   
   X98.419       Y185.591   
   X98.596       Y185.822   
   X98.826       Y185.999   
   X99.095       Y186.110   
   X99.384       Y186.148   
   X99.672       Y186.110   
   X99.941       Y185.999   
(Pass: 3)
   Z3.900     
   X100.171      Y185.822   
   X100.349      Y185.591   
   X100.460      Y185.322   
   X100.498      Y185.034   
   X100.460      Y184.746   
   X100.349      Y184.477   
   X100.171      Y184.246   
   X99.941       Y184.069   
   X99.672       Y183.958   
   X99.384       Y183.920   
   X99.095       Y183.958   
   X98.826       Y184.069   
   X98.596       Y184.246   
   X98.419       Y184.477   
   X98.307       Y184.746   
   X98.269       Y185.034   
   X98.307       Y185.322   
   X98.419       Y185.591   
   X98.596       Y185.822   
   X98.826       Y185.999   
   X99.095       Y186.110   
   X99.384       Y186.148   
   X99.672       Y186.110   
   X99.941       Y185.999   
(Pass: 4)
   Z3.100     
   X100.171      Y185.822   
   X100.349      Y185.591   
   X100.460      Y185.322   
   X100.498      Y185.034   
   X100.460      Y184.746   
   X100.349      Y184.477   
   X100.171      Y184.246   
   X99.941       Y184.069   
   X99.672       Y183.958   
   X99.384       Y183.920   
   X99.095       Y183.958   
   X98.826       Y184.069   
   X98.596       Y184.246   
   X98.419       Y184.477   
   X98.307       Y184.746   
   X98.269       Y185.034   
   X98.307       Y185.322   
   X98.419       Y185.591   
   X98.596       Y185.822   
   X98.826       Y185.999   
   X99.095       Y186.110   
   X99.384       Y186.148   
   X99.672       Y186.110   
   X99.941       Y185.999   
(Pass: 5)
   Z2.300     
   X100.171      Y185.822   
   X100.349      Y185.591   
   X100.460      Y185.322   
   X100.498      Y185.034   
   X100.460      Y184.746   
   X100.349      Y184.477   
   X100.171      Y184.246   
   X99.941       Y184.069   
   X99.672       Y183.958   
   X99.384       Y183.920   
   X99.095       Y183.958   
   X98.826       Y184.069   
   X98.596       Y184.246   
   X98.419       Y184.477   
   X98.307       Y184.746   
   X98.269       Y185.034   
   X98.307       Y185.322   
   X98.419       Y185.591   
   X98.596       Y185.822   
   X98.826       Y185.999   
   X99.095       Y186.110   
   X99.384       Y186.148   
   X99.672       Y186.110   
   X99.941       Y185.999   
(Pass: 6)
   Z1.500     
   X100.171      Y185.822   
   X100.349      Y185.591   
   X100.460      Y185.322   
   X100.498      Y185.034   
   X100.460      Y184.746   
   X100.349      Y184.477   
   X100.171      Y184.246   
   X99.941       Y184.069   
   X99.672       Y183.958   
   X99.384       Y183.920   
   X99.095       Y183.958   
   X98.826       Y184.069   
   X98.596       Y184.246   
   X98.419       Y184.477   
   X98.307       Y184.746   
   X98.269       Y185.034   
   X98.307       Y185.322   
   X98.419       Y185.591   
   X98.596       Y185.822   
   X98.826       Y185.999   
   X99.095       Y186.110   
   X99.384       Y186.148   
   X99.672       Y186.110   
   X99.941       Y185.999   
(Pass: 7)
   Z0.700     
   X100.171      Y185.822   
   X100.349      Y185.591   
   X100.460      Y185.322   
   X100.498      Y185.034   
   X100.460      Y184.746   
   X100.349      Y184.477   
   X100.171      Y184.246   
   X99.941       Y184.069   
   X99.672       Y183.958   
   X99.384       Y183.920   
   X99.095       Y183.958   
   X98.826       Y184.069   
   X98.596       Y184.246   
   X98.419       Y184.477   
   X98.307       Y184.746   
   X98.269       Y185.034   
   X98.307       Y185.322   
   X98.419       Y185.591   
   X98.596       Y185.822   
   X98.826       Y185.999   
   X99.095       Y186.110   
   X99.384       Y186.148   
   X99.672       Y186.110   
   X99.941       Y185.999   
(Pass: 8)
   Z-0.100    
   X100.171      Y185.822   
   X100.349      Y185.591   
   X100.460      Y185.322   
   X100.498      Y185.034   
   X100.460      Y184.746   
   X100.349      Y184.477   
   X100.171      Y184.246   
   X99.941       Y184.069   
   X99.672       Y183.958   
   X99.384       Y183.920   
   X99.095       Y183.958   
   X98.826       Y184.069   
   X98.596       Y184.246   
   X98.419       Y184.477   
   X98.307       Y184.746   
   X98.269       Y185.034   
   X98.307       Y185.322   
   X98.419       Y185.591   
   X98.596       Y185.822   
   X98.826       Y185.999   
   X99.095       Y186.110   
   X99.384       Y186.148   
   X99.672       Y186.110   
   X99.941       Y185.999   
(Pass: 9)
   Z-0.900    
   X100.171      Y185.822   
   X100.349      Y185.591   
   X100.460      Y185.322   
   X100.498      Y185.034   
   X100.460      Y184.746   
   X100.349      Y184.477   
   X100.171      Y184.246   
   X99.941       Y184.069   
   X99.672       Y183.958   
   X99.384       Y183.920   
   X99.095       Y183.958   
   X98.826       Y184.069   
   X98.596       Y184.246   
   X98.419       Y184.477   
   X98.307       Y184.746   
   X98.269       Y185.034   
   X98.307       Y185.322   
   X98.419       Y185.591   
   X98.596       Y185.822   
   X98.826       Y185.999   
   X99.095       Y186.110   
   X99.384       Y186.148   
   X99.672       Y186.110   
   X99.941       Y185.999   
(BREAK pass 9)
G0   Z9.500     
(Pass: 1)
   X188.671      Y61.981    
G1   Z5.500      F2540
   X189.079      Y62.294    
   X189.553      Y62.490    
   X190.062      Y62.557    
   X190.572      Y62.490    
   X191.046      Y62.294    
   X191.453      Y61.981    
   X191.766      Y61.573    
   X191.963      Y61.099    
   X192.030      Y60.590    
   X191.963      Y60.081    
   X191.766      Y59.606    
   X191.453      Y59.199    
   X191.046      Y58.886    
   X190.572      Y58.690    
   X190.062      Y58.623    
   X189.553      Y58.690    
   X189.079      Y58.886    
   X188.671      Y59.199    
   X188.359      Y59.606    
   X188.162      Y60.081    
   X188.095      Y60.590    
   X188.162      Y61.099    
   X188.359      Y61.573    
   X188.671      Y61.981    
(Pass: 2)
   Z4.700     
   X189.079      Y62.294    
   X189.553      Y62.490    
   X190.062      Y62.557    
   X190.572      Y62.490    
   X191.046      Y62.294    
   X191.453      Y61.981    
   X191.766      Y61.573    
   X191.963      Y61.099    
   X192.030      Y60.590    
   X191.963      Y60.081    
   X191.766      Y59.606    
   X191.453      Y59.199    
   X191.046      Y58.886    
   X190.572      Y58.690    
   X190.062      Y58.623    
   X189.553      Y58.690    
   X189.079      Y58.886    
   X188.671      Y59.199    
   X188.359      Y59.606    
   X188.162      Y60.081    
   X188.095      Y60.590    
   X188.162      Y61.099    
   X188.359      Y61.573    
   X188.671      Y61.981    
(Pass: 3)
   Z3.900     
   X189.079      Y62.294    
   X189.553      Y62.490    
   X190.062      Y62.557    
   X190.572      Y62.490    
   X191.046      Y62.294    
   X191.453      Y61.981    
   X191.766      Y61.573    
   X191.963      Y61.099    
   X192.030      Y60.590    
   X191.963      Y60.081    
   X191.766      Y59.606    
   X191.453      Y59.199    
   X191.046      Y58.886    
   X190.572      Y58.690    
   X190.062      Y58.623    
   X189.553      Y58.690    
   X189.079      Y58.886    
   X188.671      Y59.199    
   X188.359      Y59.606    
   X188.162      Y60.081    
   X188.095      Y60.590    
   X188.162      Y61.099    
   X188.359      Y61.573    
   X188.671      Y61.981    
(Pass: 4)
   Z3.100     
   X189.079      Y62.294    
   X189.553      Y62.490    
   X190.062      Y62.557    
   X190.572      Y62.490    
   X191.046      Y62.294    
   X191.453      Y61.981    
   X191.766      Y61.573    
   X191.963      Y61.099    
   X192.030      Y60.590    
   X191.963      Y60.081    
   X191.766      Y59.606    
   X191.453      Y59.199    
   X191.046      Y58.886    
   X190.572      Y58.690    
   X190.062      Y58.623    
   X189.553      Y58.690    
   X189.079      Y58.886    
   X188.671      Y59.199    
   X188.359      Y59.606    
   X188.162      Y60.081    
   X188.095      Y60.590    
   X188.162      Y61.099    
   X188.359      Y61.573    
   X188.671      Y61.981    
(Pass: 5)
   Z2.300     
   X189.079      Y62.294    
   X189.553      Y62.490    
   X190.062      Y62.557    
   X190.572      Y62.490    
   X191.046      Y62.294    
   X191.453      Y61.981    
   X191.766      Y61.573    
   X191.963      Y61.099    
   X192.030      Y60.590    
   X191.963      Y60.081    
   X191.766      Y59.606    
   X191.453      Y59.199    
   X191.046      Y58.886    
   X190.572      Y58.690    
   X190.062      Y58.623    
   X189.553      Y58.690    
   X189.079      Y58.886    
   X188.671      Y59.199    
   X188.359      Y59.606    
   X188.162      Y60.081    
   X188.095      Y60.590    
   X188.162      Y61.099    
   X188.359      Y61.573    
   X188.671      Y61.981    
(Pass: 6)
   Z1.500     
   X189.079      Y62.294    
   X189.553      Y62.490    
   X190.062      Y62.557    
   X190.572      Y62.490    
   X191.046      Y62.294    
   X191.453      Y61.981    
   X191.766      Y61.573    
   X191.963      Y61.099    
   X192.030      Y60.590    
   X191.963      Y60.081    
   X191.766      Y59.606    
   X191.453      Y59.199    
   X191.046      Y58.886    
   X190.572      Y58.690    
   X190.062      Y58.623    
   X189.553      Y58.690    
   X189.079      Y58.886    
   X188.671      Y59.199    
   X188.359      Y59.606    
   X188.162      Y60.081    
   X188.095      Y60.590    
   X188.162      Y61.099    
   X188.359      Y61.573    
   X188.671      Y61.981    
(Pass: 7)
   Z0.700     
   X189.079      Y62.294    
   X189.553      Y62.490    
   X190.062      Y62.557    
   X190.572      Y62.490    
   X191.046      Y62.294    
   X191.453      Y61.981    
   X191.766      Y61.573    
   X191.963      Y61.099    
   X192.030      Y60.590    
   X191.963      Y60.081    
   X191.766      Y59.606    
   X191.453      Y59.199    
   X191.046      Y58.886    
   X190.572      Y58.690    
   X190.062      Y58.623    
   X189.553      Y58.690    
   X189.079      Y58.886    
   X188.671      Y59.199    
   X188.359      Y59.606    
   X188.162      Y60.081    
   X188.095      Y60.590    
   X188.162      Y61.099    
   X188.359      Y61.573    
   X188.671      Y61.981    
(Pass: 8)
   Z-0.100    
   X189.079      Y62.294    
   X189.553      Y62.490    
   X190.062      Y62.557    
   X190.572      Y62.490    
   X191.046      Y62.294    
   X191.453      Y61.981    
   X191.766      Y61.573    
   X191.963      Y61.099    
   X192.030      Y60.590    
   X191.963      Y60.081    
   X191.766      Y59.606    
   X191.453      Y59.199    
   X191.046      Y58.886    
   X190.572      Y58.690    
   X190.062      Y58.623    
   X189.553      Y58.690    
   X189.079      Y58.886    
   X188.671      Y59.199    
   X188.359      Y59.606    
   X188.162      Y60.081    
   X188.095      Y60.590    
   X188.162      Y61.099    
   X188.359      Y61.573    
   X188.671      Y61.981    
(Pass: 9)
   Z-0.900    
   X189.079      Y62.294    
   X189.553      Y62.490    
   X190.062      Y62.557    
   X190.572      Y62.490    
   X191.046      Y62.294    
   X191.453      Y61.981    
   X191.766      Y61.573    
   X191.963      Y61.099    
   X192.030      Y60.590    
   X191.963      Y60.081    
   X191.766      Y59.606    
   X191.453      Y59.199    
   X191.046      Y58.886    
