%
(Generated by SketchUcam {1.2a})
(File: Plate_printouts.skp)
(Bit diameter: 1/8")
(Feed rate: 80"/min)
(Plunge Feed rate: 100"/min)
(Material Thickness: 1/8")
(Material length: 15" X width: 25")
(Overhead Gantry: true)
(Retract feed rate NOT limited to plunge feed rate)
(Multipass enabled, Depth = 1/32")
(Optimization is ON)
(www.PhlatBoyz.com)
(Z plat)
G90 G20 G49 
M3 S15000
G0   Z0.1250    
(Pass: 1)
   X2.1480       Y1.6131    
G1   Z-0.0312    F100 
   X2.1357       Y1.6292     F80  
   X2.1280       Y1.6478    
   X2.1254       Y1.6679    
   X2.1280       Y1.6879    
   X2.1357       Y1.7066    
   X2.1480       Y1.7227    
   X2.1641       Y1.7350    
   X2.1828       Y1.7427    
   X2.2028       Y1.7453    
   X2.2229       Y1.7427    
   X2.2415       Y1.7350    
   X2.2576       Y1.7227    
   X2.2699       Y1.7066    
   X2.2776       Y1.6879    
   X2.2803       Y1.6679    
   X2.2776       Y1.6478    
   X2.2699       Y1.6292    
   X2.2576       Y1.6131    
   X2.2415       Y1.6008    
   X2.2229       Y1.5931    
   X2.2028       Y1.5904    
   X2.1828       Y1.5931    
   X2.1641       Y1.6008    
   X2.1480       Y1.6131    
(Pass: 2)
   Z-0.0625    F100 
   X2.1357       Y1.6292     F80  
   X2.1280       Y1.6478    
   X2.1254       Y1.6679    
   X2.1280       Y1.6879    
   X2.1357       Y1.7066    
   X2.1480       Y1.7227    
   X2.1641       Y1.7350    
   X2.1828       Y1.7427    
   X2.2028       Y1.7453    
   X2.2229       Y1.7427    
   X2.2415       Y1.7350    
   X2.2576       Y1.7227    
   X2.2699       Y1.7066    
   X2.2776       Y1.6879    
   X2.2803       Y1.6679    
   X2.2776       Y1.6478    
   X2.2699       Y1.6292    
   X2.2576       Y1.6131    
   X2.2415       Y1.6008    
   X2.2229       Y1.5931    
   X2.2028       Y1.5904    
   X2.1828       Y1.5931    
   X2.1641       Y1.6008    
   X2.1480       Y1.6131    
(Pass: 3)
   Z-0.0938    F100 
   X2.1357       Y1.6292     F80  
   X2.1280       Y1.6478    
   X2.1254       Y1.6679    
   X2.1280       Y1.6879    
   X2.1357       Y1.7066    
   X2.1480       Y1.7227    
   X2.1641       Y1.7350    
   X2.1828       Y1.7427    
   X2.2028       Y1.7453    
   X2.2229       Y1.7427    
   X2.2415       Y1.7350    
   X2.2576       Y1.7227    
   X2.2699       Y1.7066    
   X2.2776       Y1.6879    
   X2.2803       Y1.6679    
   X2.2776       Y1.6478    
   X2.2699       Y1.6292    
   X2.2576       Y1.6131    
   X2.2415       Y1.6008    
   X2.2229       Y1.5931    
   X2.2028       Y1.5904    
   X2.1828       Y1.5931    
   X2.1641       Y1.6008    
   X2.1480       Y1.6131    
(Pass: 4)
   Z-0.1250    F100 
   X2.1357       Y1.6292     F80  
   X2.1280       Y1.6478    
   X2.1254       Y1.6679    
   X2.1280       Y1.6879    
   X2.1357       Y1.7066    
   X2.1480       Y1.7227    
   X2.1641       Y1.7350    
   X2.1828       Y1.7427    
   X2.2028       Y1.7453    
   X2.2229       Y1.7427    
   X2.2415       Y1.7350    
   X2.2576       Y1.7227    
   X2.2699       Y1.7066    
   X2.2776       Y1.6879    
   X2.2803       Y1.6679    
   X2.2776       Y1.6478    
   X2.2699       Y1.6292    
   X2.2576       Y1.6131    
   X2.2415       Y1.6008    
   X2.2229       Y1.5931    
   X2.2028       Y1.5904    
   X2.1828       Y1.5931    
   X2.1641       Y1.6008    
   X2.1480       Y1.6131    
(Pass: 5)
   Z-0.1562    F100 
   X2.1357       Y1.6292     F80  
   X2.1280       Y1.6478    
   X2.1254       Y1.6679    
   X2.1280       Y1.6879    
   X2.1357       Y1.7066    
   X2.1480       Y1.7227    
   X2.1641       Y1.7350    
   X2.1828       Y1.7427    
   X2.2028       Y1.7453    
   X2.2229       Y1.7427    
   X2.2415       Y1.7350    
   X2.2576       Y1.7227    
   X2.2699       Y1.7066    
   X2.2776       Y1.6879    
   X2.2803       Y1.6679    
   X2.2776       Y1.6478    
   X2.2699       Y1.6292    
   X2.2576       Y1.6131    
   X2.2415       Y1.6008    
   X2.2229       Y1.5931    
   X2.2028       Y1.5904    
   X2.1828       Y1.5931    
   X2.1641       Y1.6008    
   X2.1480       Y1.6131    
(Pass: 6)
   Z-0.1750    F100 
   X2.1357       Y1.6292     F80  
   X2.1280       Y1.6478    
   X2.1254       Y1.6679    
   X2.1280       Y1.6879    
   X2.1357       Y1.7066    
   X2.1480       Y1.7227    
   X2.1641       Y1.7350    
   X2.1828       Y1.7427    
   X2.2028       Y1.7453    
   X2.2229       Y1.7427    
   X2.2415       Y1.7350    
   X2.2576       Y1.7227    
   X2.2699       Y1.7066    
   X2.2776       Y1.6879    
   X2.2803       Y1.6679    
   X2.2776       Y1.6478    
   X2.2699       Y1.6292    
   X2.2576       Y1.6131    
   X2.2415       Y1.6008    
   X2.2229       Y1.5931    
   X2.2028       Y1.5904    
   X2.1828       Y1.5931    
   X2.1641       Y1.6008    
   X2.1480       Y1.6131    
(BREAK pass 6)
G0   Z0.1250    
(Pass: 1)
   X3.2127       Y2.3833    
G1   Z-0.0312    F100 
   X3.1707       Y2.4462     F80  
   X3.1373       Y2.5140    
   X3.1130       Y2.5856    
   X3.0983       Y2.6597    
   X3.0937       Y2.7290    
   Y3.7330    
   X3.0983       Y3.8023    
   X3.1130       Y3.8764    
   X3.1373       Y3.9480    
   X3.1707       Y4.0158    
   X3.2127       Y4.0786    
   X3.2626       Y4.1355    
   X3.3194       Y4.1853    
   X3.3822       Y4.2273    
   X3.4500       Y4.2607    
   X3.5216       Y4.2850    
   X3.5957       Y4.2998    
   X3.6650       Y4.3043    
   X5.2202    
   X5.2895       Y4.2998    
   X5.3637       Y4.2850    
   X5.4352       Y4.2607    
   X5.5030       Y4.2273    
   X5.5659       Y4.1853    
   X5.6227       Y4.1355    
   X5.6725       Y4.0786    
   X5.7145       Y4.0158    
   X5.7480       Y3.9480    
   X5.7723       Y3.8764    
   X5.7870       Y3.8023    
   X5.7916       Y3.7330    
   Y2.7290    
   X5.7870       Y2.6597    
   X5.7723       Y2.5856    
   X5.7480       Y2.5140    
   X5.7145       Y2.4462    
   X5.6725       Y2.3833    
   X5.6227       Y2.3265    
   X5.5659       Y2.2767    
   X5.5030       Y2.2347    
   X5.4352       Y2.2013    
   X5.3637       Y2.1770    
   X5.2895       Y2.1622    
   X5.2202       Y2.1577    
   X3.6650    
   X3.5957       Y2.1622    
   X3.5216       Y2.1770    
   X3.4500       Y2.2013    
   X3.3822       Y2.2347    
   X3.3194       Y2.2767    
   X3.2626       Y2.3265    
   X3.2127       Y2.3833    
(Pass: 2)
   Z-0.0625    F100 
   X3.1707       Y2.4462     F80  
   X3.1373       Y2.5140    
   X3.1130       Y2.5856    
   X3.0983       Y2.6597    
   X3.0937       Y2.7290    
   Y3.7330    
   X3.0983       Y3.8023    
   X3.1130       Y3.8764    
   X3.1373       Y3.9480    
   X3.1707       Y4.0158    
   X3.2127       Y4.0786    
   X3.2626       Y4.1355    
   X3.3194       Y4.1853    
   X3.3822       Y4.2273    
   X3.4500       Y4.2607    
   X3.5216       Y4.2850    
   X3.5957       Y4.2998    
   X3.6650       Y4.3043    
   X5.2202    
   X5.2895       Y4.2998    
   X5.3637       Y4.2850    
   X5.4352       Y4.2607    
   X5.5030       Y4.2273    
   X5.5659       Y4.1853    
   X5.6227       Y4.1355    
   X5.6725       Y4.0786    
   X5.7145       Y4.0158    
   X5.7480       Y3.9480    
   X5.7723       Y3.8764    
   X5.7870       Y3.8023    
   X5.7916       Y3.7330    
   Y2.7290    
   X5.7870       Y2.6597    
   X5.7723       Y2.5856    
   X5.7480       Y2.5140    
   X5.7145       Y2.4462    
   X5.6725       Y2.3833    
   X5.6227       Y2.3265    
   X5.5659       Y2.2767    
   X5.5030       Y2.2347    
   X5.4352       Y2.2013    
   X5.3637       Y2.1770    
   X5.2895       Y2.1622    
   X5.2202       Y2.1577    
   X3.6650    
   X3.5957       Y2.1622    
   X3.5216       Y2.1770    
   X3.4500       Y2.2013    
   X3.3822       Y2.2347    
   X3.3194       Y2.2767    
   X3.2626       Y2.3265    
   X3.2127       Y2.3833    
(Pass: 3)
   Z-0.0938    F100 
   X3.1707       Y2.4462     F80  
   X3.1373       Y2.5140    
   X3.1130       Y2.5856    
   X3.0983       Y2.6597    
   X3.0937       Y2.7290    
   Y3.7330    
   X3.0983       Y3.8023    
   X3.1130       Y3.8764    
   X3.1373       Y3.9480    
   X3.1707       Y4.0158    
   X3.2127       Y4.0786    
   X3.2626       Y4.1355    
   X3.3194       Y4.1853    
   X3.3822       Y4.2273    
   X3.4500       Y4.2607    
   X3.5216       Y4.2850    
   X3.5957       Y4.2998    
   X3.6650       Y4.3043    
   X5.2202    
   X5.2895       Y4.2998    
   X5.3637       Y4.2850    
   X5.4352       Y4.2607    
   X5.5030       Y4.2273    
   X5.5659       Y4.1853    
   X5.6227       Y4.1355    
   X5.6725       Y4.0786    
   X5.7145       Y4.0158    
   X5.7480       Y3.9480    
   X5.7723       Y3.8764    
   X5.7870       Y3.8023    
   X5.7916       Y3.7330    
   Y2.7290    
   X5.7870       Y2.6597    
   X5.7723       Y2.5856    
   X5.7480       Y2.5140    
   X5.7145       Y2.4462    
   X5.6725       Y2.3833    
   X5.6227       Y2.3265    
   X5.5659       Y2.2767    
   X5.5030       Y2.2347    
   X5.4352       Y2.2013    
   X5.3637       Y2.1770    
   X5.2895       Y2.1622    
   X5.2202       Y2.1577    
   X3.6650    
   X3.5957       Y2.1622    
   X3.5216       Y2.1770    
   X3.4500       Y2.2013    
   X3.3822       Y2.2347    
   X3.3194       Y2.2767    
   X3.2626       Y2.3265    
   X3.2127       Y2.3833    
(Pass: 4)
   Z-0.1250    F100 
   X3.1707       Y2.4462     F80  
   X3.1373       Y2.5140    
   X3.1130       Y2.5856    
   X3.0983       Y2.6597    
   X3.0937       Y2.7290    
   Y3.7330    
   X3.0983       Y3.8023    
   X3.1130       Y3.8764    
   X3.1373       Y3.9480    
   X3.1707       Y4.0158    
   X3.2127       Y4.0786    
   X3.2626       Y4.1355    
   X3.3194       Y4.1853    
   X3.3822       Y4.2273    
   X3.4500       Y4.2607    
   X3.5216       Y4.2850    
   X3.5957       Y4.2998    
   X3.6650       Y4.3043    
   X5.2202    
   X5.2895       Y4.2998    
   X5.3637       Y4.2850    
   X5.4352       Y4.2607    
   X5.5030       Y4.2273    
   X5.5659       Y4.1853    
   X5.6227       Y4.1355    
   X5.6725       Y4.0786    
   X5.7145       Y4.0158    
   X5.7480       Y3.9480    
   X5.7723       Y3.8764    
   X5.7870       Y3.8023    
   X5.7916       Y3.7330    
   Y2.7290    
   X5.7870       Y2.6597    
   X5.7723       Y2.5856    
   X5.7480       Y2.5140    
   X5.7145       Y2.4462    
   X5.6725       Y2.3833    
   X5.6227       Y2.3265    
   X5.5659       Y2.2767    
   X5.5030       Y2.2347    
   X5.4352       Y2.2013    
   X5.3637       Y2.1770    
   X5.2895       Y2.1622    
   X5.2202       Y2.1577    
   X3.6650    
   X3.5957       Y2.1622    
   X3.5216       Y2.1770    
   X3.4500       Y2.2013    
   X3.3822       Y2.2347    
   X3.3194       Y2.2767    
   X3.2626       Y2.3265    
   X3.2127       Y2.3833    
(Pass: 5)
   Z-0.1562    F100 
   X3.1707       Y2.4462     F80  
   X3.1373       Y2.5140    
   X3.1130       Y2.5856    
   X3.0983       Y2.6597    
   X3.0937       Y2.7290    
   Y3.7330    
   X3.0983       Y3.8023    
   X3.1130       Y3.8764    
   X3.1373       Y3.9480    
   X3.1707       Y4.0158    
   X3.2127       Y4.0786    
   X3.2626       Y4.1355    
   X3.3194       Y4.1853    
   X3.3822       Y4.2273    
   X3.4500       Y4.2607    
   X3.5216       Y4.2850    
   X3.5957       Y4.2998    
   X3.6650       Y4.3043    
   X5.2202    
   X5.2895       Y4.2998    
   X5.3637       Y4.2850    
   X5.4352       Y4.2607    
   X5.5030       Y4.2273    
   X5.5659       Y4.1853    
   X5.6227       Y4.1355    
   X5.6725       Y4.0786    
   X5.7145       Y4.0158    
   X5.7480       Y3.9480    
   X5.7723       Y3.8764    
   X5.7870       Y3.8023    
   X5.7916       Y3.7330    
   Y2.7290    
   X5.7870       Y2.6597    
   X5.7723       Y2.5856    
   X5.7480       Y2.5140    
   X5.7145       Y2.4462    
   X5.6725       Y2.3833    
   X5.6227       Y2.3265    
   X5.5659       Y2.2767    
   X5.5030       Y2.2347    
   X5.4352       Y2.2013    
   X5.3637       Y2.1770    
   X5.2895       Y2.1622    
   X5.2202       Y2.1577    
   X3.6650    
   X3.5957       Y2.1622    
   X3.5216       Y2.1770    
   X3.4500       Y2.2013    
   X3.3822       Y2.2347    
   X3.3194       Y2.2767    
   X3.2626       Y2.3265    
   X3.2127       Y2.3833    
(Pass: 6)
   Z-0.1750    F100 
   X3.1707       Y2.4462     F80  
   X3.1373       Y2.5140    
   X3.1130       Y2.5856    
   X3.0983       Y2.6597    
   X3.0937       Y2.7290    
   Y3.7330    
   X3.0983       Y3.8023    
   X3.1130       Y3.8764    
   X3.1373       Y3.9480    
   X3.1707       Y4.0158    
   X3.2127       Y4.0786    
   X3.2626       Y4.1355    
   X3.3194       Y4.1853    
   X3.3822       Y4.2273    
   X3.4500       Y4.2607    
   X3.5216       Y4.2850    
   X3.5957       Y4.2998    
   X3.6650       Y4.3043    
   X5.2202    
   X5.2895       Y4.2998    
   X5.3637       Y4.2850    
   X5.4352       Y4.2607    
   X5.5030       Y4.2273    
   X5.5659       Y4.1853    
   X5.6227       Y4.1355    
   X5.6725       Y4.0786    
   X5.7145       Y4.0158    
   X5.7480       Y3.9480    
   X5.7723       Y3.8764    
   X5.7870       Y3.8023    
   X5.7916       Y3.7330    
   Y2.7290    
   X5.7870       Y2.6597    
   X5.7723       Y2.5856    
   X5.7480       Y2.5140    
   X5.7145       Y2.4462    
   X5.6725       Y2.3833    
   X5.6227       Y2.3265    
   X5.5659       Y2.2767    
   X5.5030       Y2.2347    
   X5.4352       Y2.2013    
   X5.3637       Y2.1770    
   X5.2895       Y2.1622    
   X5.2202       Y2.1577    
   X3.6650    
   X3.5957       Y2.1622    
   X3.5216       Y2.1770    
   X3.4500       Y2.2013    
   X3.3822       Y2.2347    
   X3.3194       Y2.2767    
   X3.2626       Y2.3265    
   X3.2127       Y2.3833    
(BREAK pass 6)
G0   Z0.1250    
(Pass: 1)
   X2.2208       Y4.7424    
G1   Z-0.0312    F100 
   X2.2123       Y4.7388     F80  
   X2.2031       Y4.7376    
   X2.1940       Y4.7388    
   X2.1854       Y4.7424    
   X2.1781       Y4.7480    
   X2.1725       Y4.7553    
   X2.1690       Y4.7639    
   X2.1678       Y4.7730    
   X2.1690       Y4.7822    
   X2.1725       Y4.7907    
   X2.1781       Y4.7980    
   X2.1854       Y4.8037    
   X2.1940       Y4.8072    
   X2.2031       Y4.8084    
   X2.2123       Y4.8072    
   X2.2208       Y4.8037    
   X2.2282       Y4.7980    
   X2.2338       Y4.7907    
   X2.2373       Y4.7822    
   X2.2385       Y4.7730    
   X2.2373       Y4.7639    
   X2.2338       Y4.7553    
   X2.2282       Y4.7480    
   X2.2208       Y4.7424    
(Pass: 2)
   Z-0.0625    F100 
   X2.2123       Y4.7388     F80  
   X2.2031       Y4.7376    
   X2.1940       Y4.7388    
   X2.1854       Y4.7424    
   X2.1781       Y4.7480    
   X2.1725       Y4.7553    
   X2.1690       Y4.7639    
   X2.1678       Y4.7730    
   X2.1690       Y4.7822    
   X2.1725       Y4.7907    
   X2.1781       Y4.7980    
   X2.1854       Y4.8037    
   X2.1940       Y4.8072    
   X2.2031       Y4.8084    
   X2.2123       Y4.8072    
   X2.2208       Y4.8037    
   X2.2282       Y4.7980    
   X2.2338       Y4.7907    
   X2.2373       Y4.7822    
   X2.2385       Y4.7730    
   X2.2373       Y4.7639    
   X2.2338       Y4.7553    
   X2.2282       Y4.7480    
   X2.2208       Y4.7424    
(Pass: 3)
   Z-0.0938    F100 
   X2.2123       Y4.7388     F80  
   X2.2031       Y4.7376    
   X2.1940       Y4.7388    
   X2.1854       Y4.7424    
   X2.1781       Y4.7480    
   X2.1725       Y4.7553    
   X2.1690       Y4.7639    
   X2.1678       Y4.7730    
   X2.1690       Y4.7822    
   X2.1725       Y4.7907    
   X2.1781       Y4.7980    
   X2.1854       Y4.8037    
   X2.1940       Y4.8072    
   X2.2031       Y4.8084    
   X2.2123       Y4.8072    
   X2.2208       Y4.8037    
   X2.2282       Y4.7980    
   X2.2338       Y4.7907    
   X2.2373       Y4.7822    
   X2.2385       Y4.7730    
   X2.2373       Y4.7639    
   X2.2338       Y4.7553    
   X2.2282       Y4.7480    
   X2.2208       Y4.7424    
(Pass: 4)
   Z-0.1250    F100 
   X2.2123       Y4.7388     F80  
   X2.2031       Y4.7376    
   X2.1940       Y4.7388    
   X2.1854       Y4.7424    
   X2.1781       Y4.7480    
   X2.1725       Y4.7553    
   X2.1690       Y4.7639    
   X2.1678       Y4.7730    
   X2.1690       Y4.7822    
   X2.1725       Y4.7907    
   X2.1781       Y4.7980    
   X2.1854       Y4.8037    
   X2.1940       Y4.8072    
   X2.2031       Y4.8084    
   X2.2123       Y4.8072    
   X2.2208       Y4.8037    
   X2.2282       Y4.7980    
   X2.2338       Y4.7907    
   X2.2373       Y4.7822    
   X2.2385       Y4.7730    
   X2.2373       Y4.7639    
   X2.2338       Y4.7553    
   X2.2282       Y4.7480    
   X2.2208       Y4.7424    
(Pass: 5)
   Z-0.1562    F100 
   X2.2123       Y4.7388     F80  
   X2.2031       Y4.7376    
   X2.1940       Y4.7388    
   X2.1854       Y4.7424    
   X2.1781       Y4.7480    
   X2.1725       Y4.7553    
   X2.1690       Y4.7639    
   X2.1678       Y4.7730    
   X2.1690       Y4.7822    
   X2.1725       Y4.7907    
   X2.1781       Y4.7980    
   X2.1854       Y4.8037    
   X2.1940       Y4.8072    
   X2.2031       Y4.8084    
   X2.2123       Y4.8072    
   X2.2208       Y4.8037    
   X2.2282       Y4.7980    
   X2.2338       Y4.7907    
   X2.2373       Y4.7822    
   X2.2385       Y4.7730    
   X2.2373       Y4.7639    
   X2.2338       Y4.7553    
   X2.2282       Y4.7480    
   X2.2208       Y4.7424    
(Pass: 6)
   Z-0.1750    F100 
   X2.2123       Y4.7388     F80  
   X2.2031       Y4.7376    
   X2.1940       Y4.7388    
   X2.1854       Y4.7424    
   X2.1781       Y4.7480    
   X2.1725       Y4.7553    
   X2.1690       Y4.7639    
   X2.1678       Y4.7730    
   X2.1690       Y4.7822    
   X2.1725       Y4.7907    
   X2.1781       Y4.7980    
   X2.1854       Y4.8037    
   X2.1940       Y4.8072    
   X2.2031       Y4.8084    
   X2.2123       Y4.8072    
   X2.2208       Y4.8037    
   X2.2282       Y4.7980    
   X2.2338       Y4.7907    
   X2.2373       Y4.7822    
   X2.2385       Y4.7730    
   X2.2373       Y4.7639    
   X2.2338       Y4.7553    
   X2.2282       Y4.7480    
   X2.2208       Y4.7424    
(BREAK pass 6)
G0   Z0.1250    
(Pass: 1)
   X3.4810       Y5.1144    
G1   Z-0.0312    F100 
   X3.4773       Y5.1233     F80  
   X3.4755       Y5.1370    
   Y5.4831    
   X3.4773       Y5.4968    
   X3.4810       Y5.5057    
   X3.4869       Y5.5133    
   X3.4946       Y5.5192    
   X3.5035       Y5.5229    
   X3.5130       Y5.5242    
   X3.5226       Y5.5229    
   X3.5315       Y5.5192    
   X3.5392       Y5.5133    
   X3.5450       Y5.5057    
   X3.5487       Y5.4968    
   X3.5505       Y5.4831    
   Y5.1370    
   X3.5487       Y5.1233    
   X3.5450       Y5.1144    
   X3.5392       Y5.1067    
   X3.5315       Y5.1009    
   X3.5226       Y5.0972    
   X3.5130       Y5.0959    
   X3.5035       Y5.0972    
   X3.4946       Y5.1009    
   X3.4869       Y5.1067    
   X3.4810       Y5.1144    
(Pass: 2)
   Z-0.0625    F100 
   X3.4773       Y5.1233     F80  
   X3.4755       Y5.1370    
   Y5.4831    
   X3.4773       Y5.4968    
   X3.4810       Y5.5057    
   X3.4869       Y5.5133    
   X3.4946       Y5.5192    
   X3.5035       Y5.5229    
   X3.5130       Y5.5242    
   X3.5226       Y5.5229    
   X3.5315       Y5.5192    
   X3.5392       Y5.5133    
   X3.5450       Y5.5057    
   X3.5487       Y5.4968    
   X3.5505       Y5.4831    
   Y5.1370    
   X3.5487       Y5.1233    
   X3.5450       Y5.1144    
   X3.5392       Y5.1067    
   X3.5315       Y5.1009    
   X3.5226       Y5.0972    
   X3.5130       Y5.0959    
   X3.5035       Y5.0972    
   X3.4946       Y5.1009    
   X3.4869       Y5.1067    
   X3.4810       Y5.1144    
(Pass: 3)
   Z-0.0938    F100 
   X3.4773       Y5.1233     F80  
   X3.4755       Y5.1370    
   Y5.4831    
   X3.4773       Y5.4968    
   X3.4810       Y5.5057    
   X3.4869       Y5.5133    
   X3.4946       Y5.5192    
   X3.5035       Y5.5229    
   X3.5130       Y5.5242    
   X3.5226       Y5.5229    
   X3.5315       Y5.5192    
   X3.5392       Y5.5133    
   X3.5450       Y5.5057    
   X3.5487       Y5.4968    
   X3.5505       Y5.4831    
   Y5.1370    
   X3.5487       Y5.1233    
   X3.5450       Y5.1144    
   X3.5392       Y5.1067    
   X3.5315       Y5.1009    
   X3.5226       Y5.0972    
   X3.5130       Y5.0959    
   X3.5035       Y5.0972    
   X3.4946       Y5.1009    
   X3.4869       Y5.1067    
   X3.4810       Y5.1144    
(Pass: 4)
   Z-0.1250    F100 
   X3.4773       Y5.1233     F80  
   X3.4755       Y5.1370    
   Y5.4831    
   X3.4773       Y5.4968    
   X3.4810       Y5.5057    
   X3.4869       Y5.5133    
   X3.4946       Y5.5192    
   X3.5035       Y5.5229    
   X3.5130       Y5.5242    
   X3.5226       Y5.5229    
   X3.5315       Y5.5192    
   X3.5392       Y5.5133    
   X3.5450       Y5.5057    
   X3.5487       Y5.4968    
   X3.5505       Y5.4831    
   Y5.1370    
   X3.5487       Y5.1233    
   X3.5450       Y5.1144    
   X3.5392       Y5.1067    
   X3.5315       Y5.1009    
   X3.5226       Y5.0972    
   X3.5130       Y5.0959    
   X3.5035       Y5.0972    
   X3.4946       Y5.1009    
   X3.4869       Y5.1067    
   X3.4810       Y5.1144    
(Pass: 5)
   Z-0.1562    F100 
   X3.4773       Y5.1233     F80  
   X3.4755       Y5.1370    
   Y5.4831    
   X3.4773       Y5.4968    
   X3.4810       Y5.5057    
   X3.4869       Y5.5133    
   X3.4946       Y5.5192    
   X3.5035       Y5.5229    
   X3.5130       Y5.5242    
   X3.5226       Y5.5229    
   X3.5315       Y5.5192    
   X3.5392       Y5.5133    
   X3.5450       Y5.5057    
   X3.5487       Y5.4968    
   X3.5505       Y5.4831    
   Y5.1370    
   X3.5487       Y5.1233    
   X3.5450       Y5.1144    
   X3.5392       Y5.1067    
   X3.5315       Y5.1009    
   X3.5226       Y5.0972    
   X3.5130       Y5.0959    
   X3.5035       Y5.0972    
   X3.4946       Y5.1009    
   X3.4869       Y5.1067    
   X3.4810       Y5.1144    
(Pass: 6)
   Z-0.1750    F100 
   X3.4773       Y5.1233     F80  
   X3.4755       Y5.1370    
   Y5.4831    
   X3.4773       Y5.4968    
   X3.4810       Y5.5057    
   X3.4869       Y5.5133    
   X3.4946       Y5.5192    
   X3.5035       Y5.5229    
   X3.5130       Y5.5242    
   X3.5226       Y5.5229    
   X3.5315       Y5.5192    
   X3.5392       Y5.5133    
   X3.5450       Y5.5057    
   X3.5487       Y5.4968    
   X3.5505       Y5.4831    
   Y5.1370    
   X3.5487       Y5.1233    
   X3.5450       Y5.1144    
   X3.5392       Y5.1067    
   X3.5315       Y5.1009    
   X3.5226       Y5.0972    
   X3.5130       Y5.0959    
   X3.5035       Y5.0972    
   X3.4946       Y5.1009    
   X3.4869       Y5.1067    
   X3.4810       Y5.1144    
(BREAK pass 6)
G0   Z0.1250    
(Pass: 1)
   X4.1400       Y5.7395    
G1   Z-0.0312    F100 
   X4.0718       Y5.8283     F80  
   X4.0290       Y5.9318    
   X4.0138       Y6.0470    
   Y6.4325    
   X4.0290       Y6.5476    
   X4.0718       Y6.6511    
   X4.1400       Y6.7400    
   X4.2289       Y6.8082    
   X4.3324       Y6.8511    
   X4.4434       Y6.8657    
   X4.5545       Y6.8511    
   X4.6580       Y6.8082    
   X4.7468       Y6.7400    
   X4.8150       Y6.6511    
   X4.8579       Y6.5476    
   X4.8730       Y6.4325    
   Y6.0470    
   X4.8579       Y5.9318    
   X4.8150       Y5.8283    
   X4.7468       Y5.7395    
   X4.6580       Y5.6713    
   X4.5545       Y5.6284    
   X4.4434       Y5.6138    
   X4.3324       Y5.6284    
   X4.2289       Y5.6713    
   X4.1400       Y5.7395    
(Pass: 2)
   Z-0.0625    F100 
   X4.0718       Y5.8283     F80  
   X4.0290       Y5.9318    
   X4.0138       Y6.0470    
   Y6.4325    
   X4.0290       Y6.5476    
   X4.0718       Y6.6511    
   X4.1400       Y6.7400    
   X4.2289       Y6.8082    
   X4.3324       Y6.8511    
   X4.4434       Y6.8657    
   X4.5545       Y6.8511    
   X4.6580       Y6.8082    
   X4.7468       Y6.7400    
   X4.8150       Y6.6511    
   X4.8579       Y6.5476    
   X4.8730       Y6.4325    
   Y6.0470    
   X4.8579       Y5.9318    
   X4.8150       Y5.8283    
   X4.7468       Y5.7395    
   X4.6580       Y5.6713    
   X4.5545       Y5.6284    
   X4.4434       Y5.6138    
   X4.3324       Y5.6284    
   X4.2289       Y5.6713    
   X4.1400       Y5.7395    
(Pass: 3)
   Z-0.0938    F100 
   X4.0718       Y5.8283     F80  
   X4.0290       Y5.9318    
   X4.0138       Y6.0470    
   Y6.4325    
   X4.0290       Y6.5476    
   X4.0718       Y6.6511    
   X4.1400       Y6.7400    
   X4.2289       Y6.8082    
   X4.3324       Y6.8511    
   X4.4434       Y6.8657    
   X4.5545       Y6.8511    
   X4.6580       Y6.8082    
   X4.7468       Y6.7400    
   X4.8150       Y6.6511    
   X4.8579       Y6.5476    
   X4.8730       Y6.4325    
   Y6.0470    
   X4.8579       Y5.9318    
   X4.8150       Y5.8283    
   X4.7468       Y5.7395    
   X4.6580       Y5.6713    
   X4.5545       Y5.6284    
   X4.4434       Y5.6138    
   X4.3324       Y5.6284    
   X4.2289       Y5.6713    
   X4.1400       Y5.7395    
(Pass: 4)
   Z-0.1250    F100 
   X4.0718       Y5.8283     F80  
   X4.0290       Y5.9318    
   X4.0138       Y6.0470    
   Y6.4325    
   X4.0290       Y6.5476    
   X4.0718       Y6.6511    
   X4.1400       Y6.7400    
   X4.2289       Y6.8082    
   X4.3324       Y6.8511    
   X4.4434       Y6.8657    
   X4.5545       Y6.8511    
   X4.6580       Y6.8082    
   X4.7468       Y6.7400    
   X4.8150       Y6.6511    
   X4.8579       Y6.5476    
   X4.8730       Y6.4325    
   Y6.0470    
   X4.8579       Y5.9318    
   X4.8150       Y5.8283    
   X4.7468       Y5.7395    
   X4.6580       Y5.6713    
   X4.5545       Y5.6284    
   X4.4434       Y5.6138    
   X4.3324       Y5.6284    
   X4.2289       Y5.6713    
   X4.1400       Y5.7395    
(Pass: 5)
   Z-0.1562    F100 
   X4.0718       Y5.8283     F80  
   X4.0290       Y5.9318    
   X4.0138       Y6.0470    
   Y6.4325    
   X4.0290       Y6.5476    
   X4.0718       Y6.6511    
   X4.1400       Y6.7400    
   X4.2289       Y6.8082    
   X4.3324       Y6.8511    
   X4.4434       Y6.8657    
   X4.5545       Y6.8511    
   X4.6580       Y6.8082    
   X4.7468       Y6.7400    
   X4.8150       Y6.6511    
   X4.8579       Y6.5476    
   X4.8730       Y6.4325    
   Y6.0470    
   X4.8579       Y5.9318    
   X4.8150       Y5.8283    
   X4.7468       Y5.7395    
   X4.6580       Y5.6713    
   X4.5545       Y5.6284    
   X4.4434       Y5.6138    
   X4.3324       Y5.6284    
   X4.2289       Y5.6713    
   X4.1400       Y5.7395    
(Pass: 6)
   Z-0.1750    F100 
   X4.0718       Y5.8283     F80  
   X4.0290       Y5.9318    
   X4.0138       Y6.0470    
   Y6.4325    
   X4.0290       Y6.5476    
   X4.0718       Y6.6511    
   X4.1400       Y6.7400    
   X4.2289       Y6.8082    
   X4.3324       Y6.8511    
   X4.4434       Y6.8657    
   X4.5545       Y6.8511    
   X4.6580       Y6.8082    
   X4.7468       Y6.7400    
   X4.8150       Y6.6511    
   X4.8579       Y6.5476    
   X4.8730       Y6.4325    
   Y6.0470    
   X4.8579       Y5.9318    
   X4.8150       Y5.8283    
   X4.7468       Y5.7395    
   X4.6580       Y5.6713    
   X4.5545       Y5.6284    
   X4.4434       Y5.6138    
   X4.3324       Y5.6284    
   X4.2289       Y5.6713    
   X4.1400       Y5.7395    
(BREAK pass 6)
G0   Z0.1250    
(Pass: 1)
   X5.3373       Y5.4968    
G1   Z-0.0312    F100 
   X5.3410       Y5.5057     F80  
   X5.3469       Y5.5133    
   X5.3545       Y5.5192    
   X5.3635       Y5.5229    
   X5.3730       Y5.5242    
   X5.3826       Y5.5229    
   X5.3915       Y5.5192    
   X5.3992       Y5.5133    
   X5.4050       Y5.5057    
   X5.4087       Y5.4968    
   X5.4105       Y5.4831    
   Y5.1370    
   X5.4087       Y5.1233    
   X5.4050       Y5.1144    
   X5.3992       Y5.1067    
   X5.3915       Y5.1009    
   X5.3826       Y5.0972    
   X5.3730       Y5.0959    
   X5.3635       Y5.0972    
   X5.3545       Y5.1009    
   X5.3469       Y5.1067    
   X5.3410       Y5.1144    
   X5.3373       Y5.1233    
   X5.3355       Y5.1370    
   Y5.4831    
   X5.3373       Y5.4968    
(Pass: 2)
   Z-0.0625    F100 
   X5.3410       Y5.5057     F80  
   X5.3469       Y5.5133    
   X5.3545       Y5.5192    
   X5.3635       Y5.5229    
   X5.3730       Y5.5242    
   X5.3826       Y5.5229    
   X5.3915       Y5.5192    
   X5.3992       Y5.5133    
   X5.4050       Y5.5057    
   X5.4087       Y5.4968    
   X5.4105       Y5.4831    
   Y5.1370    
   X5.4087       Y5.1233    
   X5.4050       Y5.1144    
   X5.3992       Y5.1067    
   X5.3915       Y5.1009    
   X5.3826       Y5.0972    
   X5.3730       Y5.0959    
   X5.3635       Y5.0972    
   X5.3545       Y5.1009    
   X5.3469       Y5.1067    
   X5.3410       Y5.1144    
   X5.3373       Y5.1233    
   X5.3355       Y5.1370    
   Y5.4831    
   X5.3373       Y5.4968    
(Pass: 3)
   Z-0.0938    F100 
   X5.3410       Y5.5057     F80  
   X5.3469       Y5.5133    
   X5.3545       Y5.5192    
   X5.3635       Y5.5229    
   X5.3730       Y5.5242    
   X5.3826       Y5.5229    
   X5.3915       Y5.5192    
   X5.3992       Y5.5133    
   X5.4050       Y5.5057    
   X5.4087       Y5.4968    
   X5.4105       Y5.4831    
   Y5.1370    
   X5.4087       Y5.1233    
   X5.4050       Y5.1144    
   X5.3992       Y5.1067    
   X5.3915       Y5.1009    
   X5.3826       Y5.0972    
   X5.3730       Y5.0959    
   X5.3635       Y5.0972    
   X5.3545       Y5.1009    
   X5.3469       Y5.1067    
   X5.3410       Y5.1144    
   X5.3373       Y5.1233    
   X5.3355       Y5.1370    
   Y5.4831    
   X5.3373       Y5.4968    
(Pass: 4)
   Z-0.1250    F100 
   X5.3410       Y5.5057     F80  
   X5.3469       Y5.5133    
   X5.3545       Y5.5192    
   X5.3635       Y5.5229    
   X5.3730       Y5.5242    
   X5.3826       Y5.5229    
   X5.3915       Y5.5192    
   X5.3992       Y5.5133    
   X5.4050       Y5.5057    
   X5.4087       Y5.4968    
   X5.4105       Y5.4831    
   Y5.1370    
   X5.4087       Y5.1233    
   X5.4050       Y5.1144    
   X5.3992       Y5.1067    
   X5.3915       Y5.1009    
   X5.3826       Y5.0972    
   X5.3730       Y5.0959    
   X5.3635       Y5.0972    
   X5.3545       Y5.1009    
   X5.3469       Y5.1067    
   X5.3410       Y5.1144    
   X5.3373       Y5.1233    
   X5.3355       Y5.1370    
   Y5.4831    
   X5.3373       Y5.4968    
(Pass: 5)
   Z-0.1562    F100 
   X5.3410       Y5.5057     F80  
   X5.3469       Y5.5133    
   X5.3545       Y5.5192    
   X5.3635       Y5.5229    
   X5.3730       Y5.5242    
   X5.3826       Y5.5229    
   X5.3915       Y5.5192    
   X5.3992       Y5.5133    
   X5.4050       Y5.5057    
   X5.4087       Y5.4968    
   X5.4105       Y5.4831    
   Y5.1370    
   X5.4087       Y5.1233    
   X5.4050       Y5.1144    
   X5.3992       Y5.1067    
   X5.3915       Y5.1009    
   X5.3826       Y5.0972    
   X5.3730       Y5.0959    
   X5.3635       Y5.0972    
   X5.3545       Y5.1009    
   X5.3469       Y5.1067    
   X5.3410       Y5.1144    
   X5.3373       Y5.1233    
   X5.3355       Y5.1370    
   Y5.4831    
   X5.3373       Y5.4968    
(Pass: 6)
   Z-0.1750    F100 
   X5.3410       Y5.5057     F80  
   X5.3469       Y5.5133    
   X5.3545       Y5.5192    
   X5.3635       Y5.5229    
   X5.3730       Y5.5242    
   X5.3826       Y5.5229    
   X5.3915       Y5.5192    
   X5.3992       Y5.5133    
   X5.4050       Y5.5057    
   X5.4087       Y5.4968    
   X5.4105       Y5.4831    
   Y5.1370    
   X5.4087       Y5.1233    
   X5.4050       Y5.1144    
   X5.3992       Y5.1067    
   X5.3915       Y5.1009    
   X5.3826       Y5.0972    
   X5.3730       Y5.0959    
   X5.3635       Y5.0972    
   X5.3545       Y5.1009    
   X5.3469       Y5.1067    
   X5.3410       Y5.1144    
   X5.3373       Y5.1233    
   X5.3355       Y5.1370    
   Y5.4831    
   X5.3373       Y5.4968    
(BREAK pass 6)
G0   Z0.1250    
(Pass: 1)
   X6.6479       Y4.7822    
G1   Z-0.0312    F100 
   X6.6515       Y4.7907     F80  
   X6.6571       Y4.7980    
   X6.6644       Y4.8037    
   X6.6730       Y4.8072    
   X6.6821       Y4.8084    
   X6.6913       Y4.8072    
   X6.6998       Y4.8037    
   X6.7072       Y4.7980    
   X6.7128       Y4.7907    
   X6.7163       Y4.7822    
   X6.7175       Y4.7730    
   X6.7163       Y4.7639    
   X6.7128       Y4.7553    
   X6.7072       Y4.7480    
   X6.6998       Y4.7424    
   X6.6913       Y4.7388    
   X6.6821       Y4.7376    
   X6.6730       Y4.7388    
   X6.6644       Y4.7424    
   X6.6571       Y4.7480    
   X6.6515       Y4.7553    
   X6.6479       Y4.7639    
   X6.6467       Y4.7730    
   X6.6479       Y4.7822    
(Pass: 2)
   Z-0.0625    F100 
   X6.6515       Y4.7907     F80  
   X6.6571       Y4.7980    
   X6.6644       Y4.8037    
   X6.6730       Y4.8072    
   X6.6821       Y4.8084    
   X6.6913       Y4.8072    
   X6.6998       Y4.8037    
   X6.7072       Y4.7980    
   X6.7128       Y4.7907    
   X6.7163       Y4.7822    
   X6.7175       Y4.7730    
   X6.7163       Y4.7639    
   X6.7128       Y4.7553    
   X6.7072       Y4.7480    
   X6.6998       Y4.7424    
   X6.6913       Y4.7388    
   X6.6821       Y4.7376    
   X6.6730       Y4.7388    
   X6.6644       Y4.7424    
   X6.6571       Y4.7480    
   X6.6515       Y4.7553    
   X6.6479       Y4.7639    
   X6.6467       Y4.7730    
   X6.6479       Y4.7822    
(Pass: 3)
   Z-0.0938    F100 
   X6.6515       Y4.7907     F80  
   X6.6571       Y4.7980    
   X6.6644       Y4.8037    
   X6.6730       Y4.8072    
   X6.6821       Y4.8084    
   X6.6913       Y4.8072    
   X6.6998       Y4.8037    
   X6.7072       Y4.7980    
   X6.7128       Y4.7907    
   X6.7163       Y4.7822    
   X6.7175       Y4.7730    
   X6.7163       Y4.7639    
   X6.7128       Y4.7553    
   X6.7072       Y4.7480    
   X6.6998       Y4.7424    
   X6.6913       Y4.7388    
   X6.6821       Y4.7376    
   X6.6730       Y4.7388    
   X6.6644       Y4.7424    
   X6.6571       Y4.7480    
   X6.6515       Y4.7553    
   X6.6479       Y4.7639    
   X6.6467       Y4.7730    
   X6.6479       Y4.7822    
(Pass: 4)
   Z-0.1250    F100 
   X6.6515       Y4.7907     F80  
   X6.6571       Y4.7980    
   X6.6644       Y4.8037    
   X6.6730       Y4.8072    
   X6.6821       Y4.8084    
   X6.6913       Y4.8072    
   X6.6998       Y4.8037    
   X6.7072       Y4.7980    
   X6.7128       Y4.7907    
   X6.7163       Y4.7822    
   X6.7175       Y4.7730    
   X6.7163       Y4.7639    
   X6.7128       Y4.7553    
   X6.7072       Y4.7480    
   X6.6998       Y4.7424    
   X6.6913       Y4.7388    
   X6.6821       Y4.7376    
   X6.6730       Y4.7388    
   X6.6644       Y4.7424    
   X6.6571       Y4.7480    
   X6.6515       Y4.7553    
   X6.6479       Y4.7639    
   X6.6467       Y4.7730    
   X6.6479       Y4.7822    
(Pass: 5)
   Z-0.1562    F100 
   X6.6515       Y4.7907     F80  
   X6.6571       Y4.7980    
   X6.6644       Y4.8037    
   X6.6730       Y4.8072    
   X6.6821       Y4.8084    
   X6.6913       Y4.8072    
   X6.6998       Y4.8037    
   X6.7072       Y4.7980    
   X6.7128       Y4.7907    
   X6.7163       Y4.7822    
   X6.7175       Y4.7730    
   X6.7163       Y4.7639    
   X6.7128       Y4.7553    
   X6.7072       Y4.7480    
   X6.6998       Y4.7424    
   X6.6913       Y4.7388    
   X6.6821       Y4.7376    
   X6.6730       Y4.7388    
   X6.6644       Y4.7424    
   X6.6571       Y4.7480    
   X6.6515       Y4.7553    
   X6.6479       Y4.7639    
   X6.6467       Y4.7730    
   X6.6479       Y4.7822    
(Pass: 6)
   Z-0.1750    F100 
   X6.6515       Y4.7907     F80  
   X6.6571       Y4.7980    
   X6.6644       Y4.8037    
   X6.6730       Y4.8072    
   X6.6821       Y4.8084    
   X6.6913       Y4.8072    
   X6.6998       Y4.8037    
   X6.7072       Y4.7980    
   X6.7128       Y4.7907    
   X6.7163       Y4.7822    
   X6.7175       Y4.7730    
   X6.7163       Y4.7639    
   X6.7128       Y4.7553    
   X6.7072       Y4.7480    
   X6.6998       Y4.7424    
   X6.6913       Y4.7388    
   X6.6821       Y4.7376    
   X6.6730       Y4.7388    
   X6.6644       Y4.7424    
   X6.6571       Y4.7480    
   X6.6515       Y4.7553    
   X6.6479       Y4.7639    
   X6.6467       Y4.7730    
   X6.6479       Y4.7822    
(BREAK pass 6)
G0   Z0.1250    
(Pass: 1)
   X5.7963       Y6.5293    
G1   Z-0.0312    F100 
   X5.7858       Y6.5249     F80  
   X5.7744       Y6.5234    
   X5.7631       Y6.5249    
   X5.7525       Y6.5293    
   X5.7434       Y6.5362    
   X5.7364       Y6.5453    
   X5.7320       Y6.5559    
   X5.7305       Y6.5673    
   X5.7320       Y6.5786    
   X5.7364       Y6.5892    
   X5.7434       Y6.5983    
   X5.7525       Y6.6053    
   X5.7631       Y6.6096    
   X5.7744       Y6.6111    
   X5.7858       Y6.6096    
   X5.7963       Y6.6053    
   X5.8054       Y6.5983    
   X5.8124       Y6.5892    
   X5.8168       Y6.5786    
   X5.8183       Y6.5673    
   X5.8168       Y6.5559    
   X5.8124       Y6.5453    
   X5.8054       Y6.5362    
   X5.7963       Y6.5293    
(Pass: 2)
   Z-0.0625    F100 
   X5.7858       Y6.5249     F80  
   X5.7744       Y6.5234    
   X5.7631       Y6.5249    
   X5.7525       Y6.5293    
   X5.7434       Y6.5362    
   X5.7364       Y6.5453    
   X5.7320       Y6.5559    
   X5.7305       Y6.5673    
   X5.7320       Y6.5786    
   X5.7364       Y6.5892    
   X5.7434       Y6.5983    
   X5.7525       Y6.6053    
   X5.7631       Y6.6096    
   X5.7744       Y6.6111    
   X5.7858       Y6.6096    
   X5.7963       Y6.6053    
   X5.8054       Y6.5983    
   X5.8124       Y6.5892    
   X5.8168       Y6.5786    
   X5.8183       Y6.5673    
   X5.8168       Y6.5559    
   X5.8124       Y6.5453    
   X5.8054       Y6.5362    
   X5.7963       Y6.5293    
(Pass: 3)
   Z-0.0938    F100 
   X5.7858       Y6.5249     F80  
   X5.7744       Y6.5234    
   X5.7631       Y6.5249    
   X5.7525       Y6.5293    
   X5.7434       Y6.5362    
   X5.7364       Y6.5453    
   X5.7320       Y6.5559    
   X5.7305       Y6.5673    
   X5.7320       Y6.5786    
   X5.7364       Y6.5892    
   X5.7434       Y6.5983    
   X5.7525       Y6.6053    
   X5.7631       Y6.6096    
   X5.7744       Y6.6111    
   X5.7858       Y6.6096    
   X5.7963       Y6.6053    
   X5.8054       Y6.5983    
   X5.8124       Y6.5892    
   X5.8168       Y6.5786    
   X5.8183       Y6.5673    
   X5.8168       Y6.5559    
   X5.8124       Y6.5453    
   X5.8054       Y6.5362    
   X5.7963       Y6.5293    
(Pass: 4)
   Z-0.1250    F100 
   X5.7858       Y6.5249     F80  
   X5.7744       Y6.5234    
   X5.7631       Y6.5249    
   X5.7525       Y6.5293    
   X5.7434       Y6.5362    
   X5.7364       Y6.5453    
   X5.7320       Y6.5559    
   X5.7305       Y6.5673    
   X5.7320       Y6.5786    
   X5.7364       Y6.5892    
   X5.7434       Y6.5983    
   X5.7525       Y6.6053    
   X5.7631       Y6.6096    
   X5.7744       Y6.6111    
   X5.7858       Y6.6096    
   X5.7963       Y6.6053    
   X5.8054       Y6.5983    
   X5.8124       Y6.5892    
   X5.8168       Y6.5786    
   X5.8183       Y6.5673    
   X5.8168       Y6.5559    
   X5.8124       Y6.5453    
   X5.8054       Y6.5362    
   X5.7963       Y6.5293    
(Pass: 5)
   Z-0.1562    F100 
   X5.7858       Y6.5249     F80  
   X5.7744       Y6.5234    
   X5.7631       Y6.5249    
   X5.7525       Y6.5293    
   X5.7434       Y6.5362    
   X5.7364       Y6.5453    
   X5.7320       Y6.5559    
   X5.7305       Y6.5673    
   X5.7320       Y6.5786    
   X5.7364       Y6.5892    
   X5.7434       Y6.5983    
   X5.7525       Y6.6053    
   X5.7631       Y6.6096    
   X5.7744       Y6.6111    
   X5.7858       Y6.6096    
   X5.7963       Y6.6053    
   X5.8054       Y6.5983    
   X5.8124       Y6.5892    
   X5.8168       Y6.5786    
   X5.8183       Y6.5673    
   X5.8168       Y6.5559    
   X5.8124       Y6.5453    
   X5.8054       Y6.5362    
   X5.7963       Y6.5293    
(Pass: 6)
   Z-0.1750    F100 
   X5.7858       Y6.5249     F80  
   X5.7744       Y6.5234    
   X5.7631       Y6.5249    
   X5.7525       Y6.5293    
   X5.7434       Y6.5362    
   X5.7364       Y6.5453    
   X5.7320       Y6.5559    
   X5.7305       Y6.5673    
   X5.7320       Y6.5786    
   X5.7364       Y6.5892    
   X5.7434       Y6.5983    
   X5.7525       Y6.6053    
   X5.7631       Y6.6096    
   X5.7744       Y6.6111    
   X5.7858       Y6.6096    
   X5.7963       Y6.6053    
   X5.8054       Y6.5983    
   X5.8124       Y6.5892    
   X5.8168       Y6.5786    
   X5.8183       Y6.5673    
   X5.8168       Y6.5559    
   X5.8124       Y6.5453    
   X5.8054       Y6.5362    
   X5.7963       Y6.5293    
(BREAK pass 6)
G0   Z0.1250    
(Pass: 1)
   X5.3992       Y6.9667    
G1   Z-0.0312    F100 
   X5.3915       Y6.9609     F80  
   X5.3826       Y6.9572    
   X5.3730       Y6.9559    
   X5.3635       Y6.9572    
   X5.3545       Y6.9609    
   X5.3469       Y6.9667    
   X5.3410       Y6.9744    
   X5.3373       Y6.9833    
   X5.3355       Y6.9970    
   Y7.3431    
   X5.3373       Y7.3568    
   X5.3410       Y7.3657    
   X5.3469       Y7.3733    
   X5.3545       Y7.3792    
   X5.3635       Y7.3829    
   X5.3730       Y7.3842    
   X5.3826       Y7.3829    
   X5.3915       Y7.3792    
   X5.3992       Y7.3733    
   X5.4050       Y7.3657    
   X5.4087       Y7.3568    
   X5.4105       Y7.3431    
   Y6.9970    
   X5.4087       Y6.9833    
   X5.4050       Y6.9744    
   X5.3992       Y6.9667    
(Pass: 2)
   Z-0.0625    F100 
   X5.3915       Y6.9609     F80  
   X5.3826       Y6.9572    
   X5.3730       Y6.9559    
   X5.3635       Y6.9572    
   X5.3545       Y6.9609    
   X5.3469       Y6.9667    
   X5.3410       Y6.9744    
   X5.3373       Y6.9833    
   X5.3355       Y6.9970    
   Y7.3431    
   X5.3373       Y7.3568    
   X5.3410       Y7.3657    
   X5.3469       Y7.3733    
   X5.3545       Y7.3792    
   X5.3635       Y7.3829    
   X5.3730       Y7.3842    
   X5.3826       Y7.3829    
   X5.3915       Y7.3792    
   X5.3992       Y7.3733    
   X5.4050       Y7.3657    
   X5.4087       Y7.3568    
   X5.4105       Y7.3431    
   Y6.9970    
   X5.4087       Y6.9833    
   X5.4050       Y6.9744    
   X5.3992       Y6.9667    
(Pass: 3)
   Z-0.0938    F100 
   X5.3915       Y6.9609     F80  
   X5.3826       Y6.9572    
   X5.3730       Y6.9559    
   X5.3635       Y6.9572    
   X5.3545       Y6.9609    
   X5.3469       Y6.9667    
   X5.3410       Y6.9744    
   X5.3373       Y6.9833    
   X5.3355       Y6.9970    
   Y7.3431    
   X5.3373       Y7.3568    
   X5.3410       Y7.3657    
   X5.3469       Y7.3733    
   X5.3545       Y7.3792    
   X5.3635       Y7.3829    
   X5.3730       Y7.3842    
   X5.3826       Y7.3829    
   X5.3915       Y7.3792    
   X5.3992       Y7.3733    
   X5.4050       Y7.3657    
   X5.4087       Y7.3568    
   X5.4105       Y7.3431    
   Y6.9970    
   X5.4087       Y6.9833    
   X5.4050       Y6.9744    
   X5.3992       Y6.9667    
(Pass: 4)
   Z-0.1250    F100 
   X5.3915       Y6.9609     F80  
   X5.3826       Y6.9572    
   X5.3730       Y6.9559    
   X5.3635       Y6.9572    
   X5.3545       Y6.9609    
   X5.3469       Y6.9667    
   X5.3410       Y6.9744    
   X5.3373       Y6.9833    
   X5.3355       Y6.9970    
   Y7.3431    
   X5.3373       Y7.3568    
   X5.3410       Y7.3657    
   X5.3469       Y7.3733    
   X5.3545       Y7.3792    
   X5.3635       Y7.3829    
   X5.3730       Y7.3842    
   X5.3826       Y7.3829    
   X5.3915       Y7.3792    
   X5.3992       Y7.3733    
   X5.4050       Y7.3657    
   X5.4087       Y7.3568    
   X5.4105       Y7.3431    
   Y6.9970    
   X5.4087       Y6.9833    
   X5.4050       Y6.9744    
   X5.3992       Y6.9667    
(Pass: 5)
   Z-0.1562    F100 
   X5.3915       Y6.9609     F80  
   X5.3826       Y6.9572    
   X5.3730       Y6.9559    
   X5.3635       Y6.9572    
   X5.3545       Y6.9609    
   X5.3469       Y6.9667    
   X5.3410       Y6.9744    
   X5.3373       Y6.9833    
   X5.3355       Y6.9970    
   Y7.3431    
   X5.3373       Y7.3568    
   X5.3410       Y7.3657    
   X5.3469       Y7.3733    
   X5.3545       Y7.3792    
   X5.3635       Y7.3829    
   X5.3730       Y7.3842    
   X5.3826       Y7.3829    
   X5.3915       Y7.3792    
   X5.3992       Y7.3733    
   X5.4050       Y7.3657    
   X5.4087       Y7.3568    
   X5.4105       Y7.3431    
   Y6.9970    
   X5.4087       Y6.9833    
   X5.4050       Y6.9744    
   X5.3992       Y6.9667    
(Pass: 6)
   Z-0.1750    F100 
   X5.3915       Y6.9609     F80  
   X5.3826       Y6.9572    
   X5.3730       Y6.9559    
   X5.3635       Y6.9572    
   X5.3545       Y6.9609    
   X5.3469       Y6.9667    
   X5.3410       Y6.9744    
   X5.3373       Y6.9833    
   X5.3355       Y6.9970    
   Y7.3431    
   X5.3373       Y7.3568    
   X5.3410       Y7.3657    
   X5.3469       Y7.3733    
   X5.3545       Y7.3792    
   X5.3635       Y7.3829    
   X5.3730       Y7.3842    
   X5.3826       Y7.3829    
   X5.3915       Y7.3792    
   X5.3992       Y7.3733    
   X5.4050       Y7.3657    
   X5.4087       Y7.3568    
   X5.4105       Y7.3431    
   Y6.9970    
   X5.4087       Y6.9833    
   X5.4050       Y6.9744    
   X5.3992       Y6.9667    
(BREAK pass 6)
G0   Z0.1250    
(Pass: 1)
   X5.1571       Y7.7276    
G1   Z-0.0312    F100 
   X5.1458       Y7.7261     F80  
   X5.1344       Y7.7276    
   X5.1238       Y7.7319    
   X5.1148       Y7.7389    
   X5.1078       Y7.7480    
   X5.1034       Y7.7586    
   X5.1019       Y7.7699    
   X5.1034       Y7.7813    
   X5.1078       Y7.7919    
   X5.1148       Y7.8010    
   X5.1238       Y7.8079    
   X5.1344       Y7.8123    
   X5.1458       Y7.8138    
   X5.1571       Y7.8123    
   X5.1677       Y7.8079    
   X5.1768       Y7.8010    
   X5.1838       Y7.7919    
   X5.1881       Y7.7813    
   X5.1896       Y7.7699    
   X5.1881       Y7.7586    
   X5.1838       Y7.7480    
   X5.1768       Y7.7389    
   X5.1677       Y7.7319    
   X5.1571       Y7.7276    
(Pass: 2)
   Z-0.0625    F100 
   X5.1458       Y7.7261     F80  
   X5.1344       Y7.7276    
   X5.1238       Y7.7319    
   X5.1148       Y7.7389    
   X5.1078       Y7.7480    
   X5.1034       Y7.7586    
   X5.1019       Y7.7699    
   X5.1034       Y7.7813    
   X5.1078       Y7.7919    
   X5.1148       Y7.8010    
   X5.1238       Y7.8079    
   X5.1344       Y7.8123    
   X5.1458       Y7.8138    
   X5.1571       Y7.8123    
   X5.1677       Y7.8079    
   X5.1768       Y7.8010    
   X5.1838       Y7.7919    
   X5.1881       Y7.7813    
   X5.1896       Y7.7699    
   X5.1881       Y7.7586    
   X5.1838       Y7.7480    
   X5.1768       Y7.7389    
   X5.1677       Y7.7319    
   X5.1571       Y7.7276    
(Pass: 3)
   Z-0.0938    F100 
   X5.1458       Y7.7261     F80  
   X5.1344       Y7.7276    
   X5.1238       Y7.7319    
   X5.1148       Y7.7389    
   X5.1078       Y7.7480    
   X5.1034       Y7.7586    
   X5.1019       Y7.7699    
   X5.1034       Y7.7813    
   X5.1078       Y7.7919    
   X5.1148       Y7.8010    
   X5.1238       Y7.8079    
   X5.1344       Y7.8123    
   X5.1458       Y7.8138    
   X5.1571       Y7.8123    
   X5.1677       Y7.8079    
   X5.1768       Y7.8010    
   X5.1838       Y7.7919    
   X5.1881       Y7.7813    
   X5.1896       Y7.7699    
   X5.1881       Y7.7586    
   X5.1838       Y7.7480    
   X5.1768       Y7.7389    
   X5.1677       Y7.7319    
   X5.1571       Y7.7276    
(Pass: 4)
   Z-0.1250    F100 
   X5.1458       Y7.7261     F80  
   X5.1344       Y7.7276    
   X5.1238       Y7.7319    
   X5.1148       Y7.7389    
   X5.1078       Y7.7480    
   X5.1034       Y7.7586    
   X5.1019       Y7.7699    
   X5.1034       Y7.7813    
   X5.1078       Y7.7919    
   X5.1148       Y7.8010    
   X5.1238       Y7.8079    
   X5.1344       Y7.8123    
   X5.1458       Y7.8138    
   X5.1571       Y7.8123    
   X5.1677       Y7.8079    
   X5.1768       Y7.8010    
   X5.1838       Y7.7919    
   X5.1881       Y7.7813    
   X5.1896       Y7.7699    
   X5.1881       Y7.7586    
   X5.1838       Y7.7480    
   X5.1768       Y7.7389    
   X5.1677       Y7.7319    
   X5.1571       Y7.7276    
(Pass: 5)
   Z-0.1562    F100 
   X5.1458       Y7.7261     F80  
   X5.1344       Y7.7276    
   X5.1238       Y7.7319    
   X5.1148       Y7.7389    
   X5.1078       Y7.7480    
   X5.1034       Y7.7586    
   X5.1019       Y7.7699    
   X5.1034       Y7.7813    
   X5.1078       Y7.7919    
   X5.1148       Y7.8010    
   X5.1238       Y7.8079    
   X5.1344       Y7.8123    
   X5.1458       Y7.8138    
   X5.1571       Y7.8123    
   X5.1677       Y7.8079    
   X5.1768       Y7.8010    
   X5.1838       Y7.7919    
   X5.1881       Y7.7813    
   X5.1896       Y7.7699    
   X5.1881       Y7.7586    
   X5.1838       Y7.7480    
   X5.1768       Y7.7389    
   X5.1677       Y7.7319    
   X5.1571       Y7.7276    
(Pass: 6)
   Z-0.1750    F100 
   X5.1458       Y7.7261     F80  
   X5.1344       Y7.7276    
   X5.1238       Y7.7319    
   X5.1148       Y7.7389    
   X5.1078       Y7.7480    
   X5.1034       Y7.7586    
   X5.1019       Y7.7699    
   X5.1034       Y7.7813    
   X5.1078       Y7.7919    
   X5.1148       Y7.8010    
   X5.1238       Y7.8079    
   X5.1344       Y7.8123    
   X5.1458       Y7.8138    
   X5.1571       Y7.8123    
   X5.1677       Y7.8079    
   X5.1768       Y7.8010    
   X5.1838       Y7.7919    
   X5.1881       Y7.7813    
   X5.1896       Y7.7699    
   X5.1881       Y7.7586    
   X5.1838       Y7.7480    
   X5.1768       Y7.7389    
   X5.1677       Y7.7319    
   X5.1571       Y7.7276    
(BREAK pass 6)
G0   Z0.1250    
(Pass: 1)
   X3.7834       Y7.7699    
G1   Z-0.0312    F100 
   X3.7819       Y7.7586     F80  
   X3.7775       Y7.7480    
   X3.7705       Y7.7389    
   X3.7614       Y7.7319    
   X3.7509       Y7.7276    
   X3.7395       Y7.7261    
   X3.7281       Y7.7276    
   X3.7176       Y7.7319    
   X3.7085       Y7.7389    
   X3.7015       Y7.7480    
   X3.6971       Y7.7586    
   X3.6956       Y7.7699    
   X3.6971       Y7.7813    
   X3.7015       Y7.7919    
   X3.7085       Y7.8010    
   X3.7176       Y7.8079    
   X3.7281       Y7.8123    
   X3.7395       Y7.8138    
   X3.7509       Y7.8123    
   X3.7614       Y7.8079    
   X3.7705       Y7.8010    
   X3.7775       Y7.7919    
   X3.7819       Y7.7813    
   X3.7834       Y7.7699    
(Pass: 2)
   Z-0.0625    F100 
   X3.7819       Y7.7586     F80  
   X3.7775       Y7.7480    
   X3.7705       Y7.7389    
   X3.7614       Y7.7319    
   X3.7509       Y7.7276    
   X3.7395       Y7.7261    
   X3.7281       Y7.7276    
   X3.7176       Y7.7319    
   X3.7085       Y7.7389    
   X3.7015       Y7.7480    
   X3.6971       Y7.7586    
   X3.6956       Y7.7699    
   X3.6971       Y7.7813    
   X3.7015       Y7.7919    
   X3.7085       Y7.8010    
   X3.7176       Y7.8079    
   X3.7281       Y7.8123    
   X3.7395       Y7.8138    
   X3.7509       Y7.8123    
   X3.7614       Y7.8079    
   X3.7705       Y7.8010    
   X3.7775       Y7.7919    
   X3.7819       Y7.7813    
   X3.7834       Y7.7699    
(Pass: 3)
   Z-0.0938    F100 
   X3.7819       Y7.7586     F80  
   X3.7775       Y7.7480    
   X3.7705       Y7.7389    
   X3.7614       Y7.7319    
   X3.7509       Y7.7276    
   X3.7395       Y7.7261    
   X3.7281       Y7.7276    
   X3.7176       Y7.7319    
   X3.7085       Y7.7389    
   X3.7015       Y7.7480    
   X3.6971       Y7.7586    
   X3.6956       Y7.7699    
   X3.6971       Y7.7813    
   X3.7015       Y7.7919    
   X3.7085       Y7.8010    
   X3.7176       Y7.8079    
   X3.7281       Y7.8123    
   X3.7395       Y7.8138    
   X3.7509       Y7.8123    
   X3.7614       Y7.8079    
   X3.7705       Y7.8010    
   X3.7775       Y7.7919    
   X3.7819       Y7.7813    
   X3.7834       Y7.7699    
(Pass: 4)
   Z-0.1250    F100 
   X3.7819       Y7.7586     F80  
   X3.7775       Y7.7480    
   X3.7705       Y7.7389    
   X3.7614       Y7.7319    
   X3.7509       Y7.7276    
   X3.7395       Y7.7261    
   X3.7281       Y7.7276    
   X3.7176       Y7.7319    
   X3.7085       Y7.7389    
   X3.7015       Y7.7480    
   X3.6971       Y7.7586    
   X3.6956       Y7.7699    
   X3.6971       Y7.7813    
   X3.7015       Y7.7919    
   X3.7085       Y7.8010    
   X3.7176       Y7.8079    
   X3.7281       Y7.8123    
   X3.7395       Y7.8138    
   X3.7509       Y7.8123    
   X3.7614       Y7.8079    
   X3.7705       Y7.8010    
   X3.7775       Y7.7919    
   X3.7819       Y7.7813    
   X3.7834       Y7.7699    
(Pass: 5)
   Z-0.1562    F100 
   X3.7819       Y7.7586     F80  
   X3.7775       Y7.7480    
   X3.7705       Y7.7389    
   X3.7614       Y7.7319    
   X3.7509       Y7.7276    
   X3.7395       Y7.7261    
   X3.7281       Y7.7276    
   X3.7176       Y7.7319    
   X3.7085       Y7.7389    
   X3.7015       Y7.7480    
   X3.6971       Y7.7586    
   X3.6956       Y7.7699    
   X3.6971       Y7.7813    
   X3.7015       Y7.7919    
   X3.7085       Y7.8010    
   X3.7176       Y7.8079    
   X3.7281       Y7.8123    
   X3.7395       Y7.8138    
   X3.7509       Y7.8123    
   X3.7614       Y7.8079    
   X3.7705       Y7.8010    
   X3.7775       Y7.7919    
   X3.7819       Y7.7813    
   X3.7834       Y7.7699    
(Pass: 6)
   Z-0.1750    F100 
   X3.7819       Y7.7586     F80  
   X3.7775       Y7.7480    
   X3.7705       Y7.7389    
   X3.7614       Y7.7319    
   X3.7509       Y7.7276    
   X3.7395       Y7.7261    
   X3.7281       Y7.7276    
   X3.7176       Y7.7319    
   X3.7085       Y7.7389    
   X3.7015       Y7.7480    
   X3.6971       Y7.7586    
   X3.6956       Y7.7699    
   X3.6971       Y7.7813    
   X3.7015       Y7.7919    
   X3.7085       Y7.8010    
   X3.7176       Y7.8079    
   X3.7281       Y7.8123    
   X3.7395       Y7.8138    
   X3.7509       Y7.8123    
   X3.7614       Y7.8079    
   X3.7705       Y7.8010    
   X3.7775       Y7.7919    
   X3.7819       Y7.7813    
   X3.7834       Y7.7699    
(BREAK pass 6)
G0   Z0.1250    
(Pass: 1)
   X3.5315       Y7.3792    
G1   Z-0.0312    F100 
   X3.5392       Y7.3733     F80  
   X3.5450       Y7.3657    
   X3.5487       Y7.3568    
   X3.5505       Y7.3431    
   Y6.9970    
   X3.5487       Y6.9833    
   X3.5450       Y6.9744    
   X3.5392       Y6.9667    
   X3.5315       Y6.9609    
   X3.5226       Y6.9572    
   X3.5130       Y6.9559    
   X3.5035       Y6.9572    
   X3.4946       Y6.9609    
   X3.4869       Y6.9667    
   X3.4810       Y6.9744    
   X3.4773       Y6.9833    
   X3.4755       Y6.9970    
   Y7.3431    
   X3.4773       Y7.3568    
   X3.4810       Y7.3657    
   X3.4869       Y7.3733    
   X3.4946       Y7.3792    
   X3.5035       Y7.3829    
   X3.5130       Y7.3842    
   X3.5226       Y7.3829    
   X3.5315       Y7.3792    
(Pass: 2)
   Z-0.0625    F100 
   X3.5392       Y7.3733     F80  
   X3.5450       Y7.3657    
   X3.5487       Y7.3568    
   X3.5505       Y7.3431    
   Y6.9970    
   X3.5487       Y6.9833    
   X3.5450       Y6.9744    
   X3.5392       Y6.9667    
   X3.5315       Y6.9609    
   X3.5226       Y6.9572    
   X3.5130       Y6.9559    
   X3.5035       Y6.9572    
   X3.4946       Y6.9609    
   X3.4869       Y6.9667    
   X3.4810       Y6.9744    
   X3.4773       Y6.9833    
   X3.4755       Y6.9970    
   Y7.3431    
   X3.4773       Y7.3568    
   X3.4810       Y7.3657    
   X3.4869       Y7.3733    
   X3.4946       Y7.3792    
   X3.5035       Y7.3829    
   X3.5130       Y7.3842    
   X3.5226       Y7.3829    
   X3.5315       Y7.3792    
(Pass: 3)
   Z-0.0938    F100 
   X3.5392       Y7.3733     F80  
   X3.5450       Y7.3657    
   X3.5487       Y7.3568    
   X3.5505       Y7.3431    
   Y6.9970    
   X3.5487       Y6.9833    
   X3.5450       Y6.9744    
   X3.5392       Y6.9667    
   X3.5315       Y6.9609    
   X3.5226       Y6.9572    
   X3.5130       Y6.9559    
   X3.5035       Y6.9572    
   X3.4946       Y6.9609    
   X3.4869       Y6.9667    
   X3.4810       Y6.9744    
   X3.4773       Y6.9833    
   X3.4755       Y6.9970    
   Y7.3431    
   X3.4773       Y7.3568    
   X3.4810       Y7.3657    
   X3.4869       Y7.3733    
   X3.4946       Y7.3792    
   X3.5035       Y7.3829    
   X3.5130       Y7.3842    
   X3.5226       Y7.3829    
   X3.5315       Y7.3792    
(Pass: 4)
   Z-0.1250    F100 
   X3.5392       Y7.3733     F80  
   X3.5450       Y7.3657    
   X3.5487       Y7.3568    
   X3.5505       Y7.3431    
   Y6.9970    
   X3.5487       Y6.9833    
   X3.5450       Y6.9744    
   X3.5392       Y6.9667    
   X3.5315       Y6.9609    
   X3.5226       Y6.9572    
   X3.5130       Y6.9559    
   X3.5035       Y6.9572    
   X3.4946       Y6.9609    
   X3.4869       Y6.9667    
   X3.4810       Y6.9744    
   X3.4773       Y6.9833    
   X3.4755       Y6.9970    
   Y7.3431    
   X3.4773       Y7.3568    
   X3.4810       Y7.3657    
   X3.4869       Y7.3733    
   X3.4946       Y7.3792    
   X3.5035       Y7.3829    
   X3.5130       Y7.3842    
   X3.5226       Y7.3829    
   X3.5315       Y7.3792    
(Pass: 5)
   Z-0.1562    F100 
   X3.5392       Y7.3733     F80  
   X3.5450       Y7.3657    
   X3.5487       Y7.3568    
   X3.5505       Y7.3431    
   Y6.9970    
   X3.5487       Y6.9833    
   X3.5450       Y6.9744    
   X3.5392       Y6.9667    
   X3.5315       Y6.9609    
   X3.5226       Y6.9572    
   X3.5130       Y6.9559    
   X3.5035       Y6.9572    
   X3.4946       Y6.9609    
   X3.4869       Y6.9667    
   X3.4810       Y6.9744    
   X3.4773       Y6.9833    
   X3.4755       Y6.9970    
   Y7.3431    
   X3.4773       Y7.3568    
   X3.4810       Y7.3657    
   X3.4869       Y7.3733    
   X3.4946       Y7.3792    
   X3.5035       Y7.3829    
   X3.5130       Y7.3842    
   X3.5226       Y7.3829    
   X3.5315       Y7.3792    
(Pass: 6)
   Z-0.1750    F100 
   X3.5392       Y7.3733     F80  
   X3.5450       Y7.3657    
   X3.5487       Y7.3568    
   X3.5505       Y7.3431    
   Y6.9970    
   X3.5487       Y6.9833    
   X3.5450       Y6.9744    
   X3.5392       Y6.9667    
   X3.5315       Y6.9609    
   X3.5226       Y6.9572    
   X3.5130       Y6.9559    
   X3.5035       Y6.9572    
   X3.4946       Y6.9609    
   X3.4869       Y6.9667    
   X3.4810       Y6.9744    
   X3.4773       Y6.9833    
   X3.4755       Y6.9970    
   Y7.3431    
   X3.4773       Y7.3568    
   X3.4810       Y7.3657    
   X3.4869       Y7.3733    
   X3.4946       Y7.3792    
   X3.5035       Y7.3829    
   X3.5130       Y7.3842    
   X3.5226       Y7.3829    
   X3.5315       Y7.3792    
(BREAK pass 6)
G0   Z0.1250    
(Pass: 1)
   X3.1238       Y6.6096    
G1   Z-0.0312    F100 
   X3.1344       Y6.6053     F80  
   X3.1435       Y6.5983    
   X3.1504       Y6.5892    
   X3.1548       Y6.5786    
   X3.1563       Y6.5673    
   X3.1548       Y6.5559    
   X3.1504       Y6.5453    
   X3.1435       Y6.5362    
   X3.1344       Y6.5293    
   X3.1238       Y6.5249    
   X3.1124       Y6.5234    
   X3.1011       Y6.5249    
   X3.0905       Y6.5293    
   X3.0814       Y6.5362    
   X3.0744       Y6.5453    
   X3.0701       Y6.5559    
   X3.0686       Y6.5673    
   X3.0701       Y6.5786    
   X3.0744       Y6.5892    
   X3.0814       Y6.5983    
   X3.0905       Y6.6053    
   X3.1011       Y6.6096    
   X3.1124       Y6.6111    
   X3.1238       Y6.6096    
(Pass: 2)
   Z-0.0625    F100 
   X3.1344       Y6.6053     F80  
   X3.1435       Y6.5983    
   X3.1504       Y6.5892    
   X3.1548       Y6.5786    
   X3.1563       Y6.5673    
   X3.1548       Y6.5559    
   X3.1504       Y6.5453    
   X3.1435       Y6.5362    
   X3.1344       Y6.5293    
   X3.1238       Y6.5249    
   X3.1124       Y6.5234    
   X3.1011       Y6.5249    
   X3.0905       Y6.5293    
   X3.0814       Y6.5362    
   X3.0744       Y6.5453    
   X3.0701       Y6.5559    
   X3.0686       Y6.5673    
   X3.0701       Y6.5786    
   X3.0744       Y6.5892    
   X3.0814       Y6.5983    
   X3.0905       Y6.6053    
   X3.1011       Y6.6096    
   X3.1124       Y6.6111    
   X3.1238       Y6.6096    
(Pass: 3)
   Z-0.0938    F100 
   X3.1344       Y6.6053     F80  
   X3.1435       Y6.5983    
   X3.1504       Y6.5892    
   X3.1548       Y6.5786    
   X3.1563       Y6.5673    
   X3.1548       Y6.5559    
   X3.1504       Y6.5453    
   X3.1435       Y6.5362    
   X3.1344       Y6.5293    
   X3.1238       Y6.5249    
   X3.1124       Y6.5234    
   X3.1011       Y6.5249    
   X3.0905       Y6.5293    
   X3.0814       Y6.5362    
   X3.0744       Y6.5453    
   X3.0701       Y6.5559    
   X3.0686       Y6.5673    
   X3.0701       Y6.5786    
   X3.0744       Y6.5892    
   X3.0814       Y6.5983    
   X3.0905       Y6.6053    
   X3.1011       Y6.6096    
   X3.1124       Y6.6111    
   X3.1238       Y6.6096    
(Pass: 4)
   Z-0.1250    F100 
   X3.1344       Y6.6053     F80  
   X3.1435       Y6.5983    
   X3.1504       Y6.5892    
   X3.1548       Y6.5786    
   X3.1563       Y6.5673    
   X3.1548       Y6.5559    
   X3.1504       Y6.5453    
   X3.1435       Y6.5362    
   X3.1344       Y6.5293    
   X3.1238       Y6.5249    
   X3.1124       Y6.5234    
   X3.1011       Y6.5249    
   X3.0905       Y6.5293    
   X3.0814       Y6.5362    
   X3.0744       Y6.5453    
   X3.0701       Y6.5559    
   X3.0686       Y6.5673    
   X3.0701       Y6.5786    
   X3.0744       Y6.5892    
   X3.0814       Y6.5983    
   X3.0905       Y6.6053    
   X3.1011       Y6.6096    
   X3.1124       Y6.6111    
   X3.1238       Y6.6096    
(Pass: 5)
   Z-0.1562    F100 
   X3.1344       Y6.6053     F80  
   X3.1435       Y6.5983    
   X3.1504       Y6.5892    
   X3.1548       Y6.5786    
   X3.1563       Y6.5673    
   X3.1548       Y6.5559    
   X3.1504       Y6.5453    
   X3.1435       Y6.5362    
   X3.1344       Y6.5293    
   X3.1238       Y6.5249    
   X3.1124       Y6.5234    
   X3.1011       Y6.5249    
   X3.0905       Y6.5293    
   X3.0814       Y6.5362    
   X3.0744       Y6.5453    
   X3.0701       Y6.5559    
   X3.0686       Y6.5673    
   X3.0701       Y6.5786    
   X3.0744       Y6.5892    
   X3.0814       Y6.5983    
   X3.0905       Y6.6053    
   X3.1011       Y6.6096    
   X3.1124       Y6.6111    
   X3.1238       Y6.6096    
(Pass: 6)
   Z-0.1750    F100 
   X3.1344       Y6.6053     F80  
   X3.1435       Y6.5983    
   X3.1504       Y6.5892    
   X3.1548       Y6.5786    
   X3.1563       Y6.5673    
   X3.1548       Y6.5559    
   X3.1504       Y6.5453    
   X3.1435       Y6.5362    
   X3.1344       Y6.5293    
   X3.1238       Y6.5249    
   X3.1124       Y6.5234    
   X3.1011       Y6.5249    
   X3.0905       Y6.5293    
   X3.0814       Y6.5362    
   X3.0744       Y6.5453    
   X3.0701       Y6.5559    
   X3.0686       Y6.5673    
   X3.0701       Y6.5786    
   X3.0744       Y6.5892    
   X3.0814       Y6.5983    
   X3.0905       Y6.6053    
   X3.1011       Y6.6096    
   X3.1124       Y6.6111    
   X3.1238       Y6.6096    
(BREAK pass 6)
G0   Z0.1250    
(Pass: 1)
   X6.6277       Y1.7227    
G1   Z-0.0312    F100 
   X6.6437       Y1.7350     F80  
   X6.6624       Y1.7427    
   X6.6825       Y1.7453    
   X6.7025       Y1.7427    
   X6.7212       Y1.7350    
   X6.7372       Y1.7227    
   X6.7495       Y1.7066    
   X6.7573       Y1.6879    
   X6.7599       Y1.6679    
   X6.7573       Y1.6478    
   X6.7495       Y1.6292    
   X6.7372       Y1.6131    
   X6.7212       Y1.6008    
   X6.7025       Y1.5931    
   X6.6825       Y1.5904    
   X6.6624       Y1.5931    
   X6.6437       Y1.6008    
   X6.6277       Y1.6131    
   X6.6154       Y1.6292    
   X6.6077       Y1.6478    
   X6.6050       Y1.6679    
   X6.6077       Y1.6879    
   X6.6154       Y1.7066    
   X6.6277       Y1.7227    
(Pass: 2)
   Z-0.0625    F100 
   X6.6437       Y1.7350     F80  
   X6.6624       Y1.7427    
   X6.6825       Y1.7453    
   X6.7025       Y1.7427    
   X6.7212       Y1.7350    
   X6.7372       Y1.7227    
   X6.7495       Y1.7066    
   X6.7573       Y1.6879    
   X6.7599       Y1.6679    
   X6.7573       Y1.6478    
   X6.7495       Y1.6292    
   X6.7372       Y1.6131    
   X6.7212       Y1.6008    
   X6.7025       Y1.5931    
   X6.6825       Y1.5904    
   X6.6624       Y1.5931    
   X6.6437       Y1.6008    
   X6.6277       Y1.6131    
   X6.6154       Y1.6292    
   X6.6077       Y1.6478    
   X6.6050       Y1.6679    
   X6.6077       Y1.6879    
   X6.6154       Y1.7066    
   X6.6277       Y1.7227    
(Pass: 3)
   Z-0.0938    F100 
   X6.6437       Y1.7350     F80  
   X6.6624       Y1.7427    
   X6.6825       Y1.7453    
   X6.7025       Y1.7427    
   X6.7212       Y1.7350    
   X6.7372       Y1.7227    
   X6.7495       Y1.7066    
   X6.7573       Y1.6879    
   X6.7599       Y1.6679    
   X6.7573       Y1.6478    
   X6.7495       Y1.6292    
   X6.7372       Y1.6131    
   X6.7212       Y1.6008    
   X6.7025       Y1.5931    
   X6.6825       Y1.5904    
   X6.6624       Y1.5931    
   X6.6437       Y1.6008    
   X6.6277       Y1.6131    
   X6.6154       Y1.6292    
   X6.6077       Y1.6478    
   X6.6050       Y1.6679    
   X6.6077       Y1.6879    
   X6.6154       Y1.7066    
   X6.6277       Y1.7227    
(Pass: 4)
   Z-0.1250    F100 
   X6.6437       Y1.7350     F80  
   X6.6624       Y1.7427    
   X6.6825       Y1.7453    
   X6.7025       Y1.7427    
   X6.7212       Y1.7350    
   X6.7372       Y1.7227    
   X6.7495       Y1.7066    
   X6.7573       Y1.6879    
   X6.7599       Y1.6679    
   X6.7573       Y1.6478    
   X6.7495       Y1.6292    
   X6.7372       Y1.6131    
   X6.7212       Y1.6008    
   X6.7025       Y1.5931    
   X6.6825       Y1.5904    
   X6.6624       Y1.5931    
   X6.6437       Y1.6008    
   X6.6277       Y1.6131    
   X6.6154       Y1.6292    
   X6.6077       Y1.6478    
   X6.6050       Y1.6679    
   X6.6077       Y1.6879    
   X6.6154       Y1.7066    
   X6.6277       Y1.7227    
(Pass: 5)
   Z-0.1562    F100 
   X6.6437       Y1.7350     F80  
   X6.6624       Y1.7427    
   X6.6825       Y1.7453    
   X6.7025       Y1.7427    
   X6.7212       Y1.7350    
   X6.7372       Y1.7227    
   X6.7495       Y1.7066    
   X6.7573       Y1.6879    
   X6.7599       Y1.6679    
   X6.7573       Y1.6478    
   X6.7495       Y1.6292    
   X6.7372       Y1.6131    
   X6.7212       Y1.6008    
   X6.7025       Y1.5931    
   X6.6825       Y1.5904    
   X6.6624       Y1.5931    
   X6.6437       Y1.6008    
   X6.6277       Y1.6131    
   X6.6154       Y1.6292    
   X6.6077       Y1.6478    
   X6.6050       Y1.6679    
   X6.6077       Y1.6879    
   X6.6154       Y1.7066    
   X6.6277       Y1.7227    
(Pass: 6)
   Z-0.1750    F100 
   X6.6437       Y1.7350     F80  
   X6.6624       Y1.7427    
   X6.6825       Y1.7453    
   X6.7025       Y1.7427    
   X6.7212       Y1.7350    
   X6.7372       Y1.7227    
   X6.7495       Y1.7066    
   X6.7573       Y1.6879    
   X6.7599       Y1.6679    
   X6.7573       Y1.6478    
   X6.7495       Y1.6292    
   X6.7372       Y1.6131    
   X6.7212       Y1.6008    
   X6.7025       Y1.5931    
   X6.6825       Y1.5904    
   X6.6624       Y1.5931    
   X6.6437       Y1.6008    
   X6.6277       Y1.6131    
   X6.6154       Y1.6292    
   X6.6077       Y1.6478    
   X6.6050       Y1.6679    
   X6.6077       Y1.6879    
   X6.6154       Y1.7066    
   X6.6277       Y1.7227    
(BREAK pass 6)
G0   Z0.1250    
G0 X0 Y0 (home)
M05
M30
%
