%
(Generated by SketchUcam {1.2a})
(File: Plate_printouts_side.skp)
(Bit diameter: 1/8")
(Feed rate: 80"/min)
(Plunge Feed rate: 60"/min)
(Material Thickness: 1/4")
(Material length: 15" X width: 25")
(Overhead Gantry: true)
(Retract feed rate NOT limited to plunge feed rate)
(Multipass enabled, Depth = 1/64")
(Optimization is ON)
(Z ZERO IS TABLETOP)
(www.PhlatBoyz.com)
(Z plat)
G90 G20 G49 
M3 S15000
G0   Z0.3750    
(Pass: 1)
   X0.7350       Y0.7159    
G1   Z0.2344     F60  
   X0.7227       Y0.7320     F80  
   X0.7149       Y0.7507    
   X0.7123       Y0.7707    
   X0.7149       Y0.7907    
   X0.7227       Y0.8094    
   X0.7350       Y0.8255    
   X0.7510       Y0.8378    
   X0.7697       Y0.8455    
   X0.7897       Y0.8482    
   X0.8098       Y0.8455    
   X0.8285       Y0.8378    
   X0.8445       Y0.8255    
   X0.8568       Y0.8094    
   X0.8645       Y0.7907    
   X0.8672       Y0.7707    
   X0.8645       Y0.7507    
   X0.8568       Y0.7320    
   X0.8445       Y0.7159    
   X0.8285       Y0.7036    
   X0.8098       Y0.6959    
   X0.7897       Y0.6932    
   X0.7697       Y0.6959    
   X0.7510       Y0.7036    
   X0.7350       Y0.7159    
(Pass: 2)
   Z0.2188     F60  
   X0.7227       Y0.7320     F80  
   X0.7149       Y0.7507    
   X0.7123       Y0.7707    
   X0.7149       Y0.7907    
   X0.7227       Y0.8094    
   X0.7350       Y0.8255    
   X0.7510       Y0.8378    
   X0.7697       Y0.8455    
   X0.7897       Y0.8482    
   X0.8098       Y0.8455    
   X0.8285       Y0.8378    
   X0.8445       Y0.8255    
   X0.8568       Y0.8094    
   X0.8645       Y0.7907    
   X0.8672       Y0.7707    
   X0.8645       Y0.7507    
   X0.8568       Y0.7320    
   X0.8445       Y0.7159    
   X0.8285       Y0.7036    
   X0.8098       Y0.6959    
   X0.7897       Y0.6932    
   X0.7697       Y0.6959    
   X0.7510       Y0.7036    
   X0.7350       Y0.7159    
(Pass: 3)
   Z0.2031     F60  
   X0.7227       Y0.7320     F80  
   X0.7149       Y0.7507    
   X0.7123       Y0.7707    
   X0.7149       Y0.7907    
   X0.7227       Y0.8094    
   X0.7350       Y0.8255    
   X0.7510       Y0.8378    
   X0.7697       Y0.8455    
   X0.7897       Y0.8482    
   X0.8098       Y0.8455    
   X0.8285       Y0.8378    
   X0.8445       Y0.8255    
   X0.8568       Y0.8094    
   X0.8645       Y0.7907    
   X0.8672       Y0.7707    
   X0.8645       Y0.7507    
   X0.8568       Y0.7320    
   X0.8445       Y0.7159    
   X0.8285       Y0.7036    
   X0.8098       Y0.6959    
   X0.7897       Y0.6932    
   X0.7697       Y0.6959    
   X0.7510       Y0.7036    
   X0.7350       Y0.7159    
(Pass: 4)
   Z0.1875     F60  
   X0.7227       Y0.7320     F80  
   X0.7149       Y0.7507    
   X0.7123       Y0.7707    
   X0.7149       Y0.7907    
   X0.7227       Y0.8094    
   X0.7350       Y0.8255    
   X0.7510       Y0.8378    
   X0.7697       Y0.8455    
   X0.7897       Y0.8482    
   X0.8098       Y0.8455    
   X0.8285       Y0.8378    
   X0.8445       Y0.8255    
   X0.8568       Y0.8094    
   X0.8645       Y0.7907    
   X0.8672       Y0.7707    
   X0.8645       Y0.7507    
   X0.8568       Y0.7320    
   X0.8445       Y0.7159    
   X0.8285       Y0.7036    
   X0.8098       Y0.6959    
   X0.7897       Y0.6932    
   X0.7697       Y0.6959    
   X0.7510       Y0.7036    
   X0.7350       Y0.7159    
(Pass: 5)
   Z0.1719     F60  
   X0.7227       Y0.7320     F80  
   X0.7149       Y0.7507    
   X0.7123       Y0.7707    
   X0.7149       Y0.7907    
   X0.7227       Y0.8094    
   X0.7350       Y0.8255    
   X0.7510       Y0.8378    
   X0.7697       Y0.8455    
   X0.7897       Y0.8482    
   X0.8098       Y0.8455    
   X0.8285       Y0.8378    
   X0.8445       Y0.8255    
   X0.8568       Y0.8094    
   X0.8645       Y0.7907    
   X0.8672       Y0.7707    
   X0.8645       Y0.7507    
   X0.8568       Y0.7320    
   X0.8445       Y0.7159    
   X0.8285       Y0.7036    
   X0.8098       Y0.6959    
   X0.7897       Y0.6932    
   X0.7697       Y0.6959    
   X0.7510       Y0.7036    
   X0.7350       Y0.7159    
(Pass: 6)
   Z0.1562     F60  
   X0.7227       Y0.7320     F80  
   X0.7149       Y0.7507    
   X0.7123       Y0.7707    
   X0.7149       Y0.7907    
   X0.7227       Y0.8094    
   X0.7350       Y0.8255    
   X0.7510       Y0.8378    
   X0.7697       Y0.8455    
   X0.7897       Y0.8482    
   X0.8098       Y0.8455    
   X0.8285       Y0.8378    
   X0.8445       Y0.8255    
   X0.8568       Y0.8094    
   X0.8645       Y0.7907    
   X0.8672       Y0.7707    
   X0.8645       Y0.7507    
   X0.8568       Y0.7320    
   X0.8445       Y0.7159    
   X0.8285       Y0.7036    
   X0.8098       Y0.6959    
   X0.7897       Y0.6932    
   X0.7697       Y0.6959    
   X0.7510       Y0.7036    
   X0.7350       Y0.7159    
(Pass: 7)
   Z0.1406     F60  
   X0.7227       Y0.7320     F80  
   X0.7149       Y0.7507    
   X0.7123       Y0.7707    
   X0.7149       Y0.7907    
   X0.7227       Y0.8094    
   X0.7350       Y0.8255    
   X0.7510       Y0.8378    
   X0.7697       Y0.8455    
   X0.7897       Y0.8482    
   X0.8098       Y0.8455    
   X0.8285       Y0.8378    
   X0.8445       Y0.8255    
   X0.8568       Y0.8094    
   X0.8645       Y0.7907    
   X0.8672       Y0.7707    
   X0.8645       Y0.7507    
   X0.8568       Y0.7320    
   X0.8445       Y0.7159    
   X0.8285       Y0.7036    
   X0.8098       Y0.6959    
   X0.7897       Y0.6932    
   X0.7697       Y0.6959    
   X0.7510       Y0.7036    
   X0.7350       Y0.7159    
(Pass: 8)
   Z0.1250     F60  
   X0.7227       Y0.7320     F80  
   X0.7149       Y0.7507    
   X0.7123       Y0.7707    
   X0.7149       Y0.7907    
   X0.7227       Y0.8094    
   X0.7350       Y0.8255    
   X0.7510       Y0.8378    
   X0.7697       Y0.8455    
   X0.7897       Y0.8482    
   X0.8098       Y0.8455    
   X0.8285       Y0.8378    
   X0.8445       Y0.8255    
   X0.8568       Y0.8094    
   X0.8645       Y0.7907    
   X0.8672       Y0.7707    
   X0.8645       Y0.7507    
   X0.8568       Y0.7320    
   X0.8445       Y0.7159    
   X0.8285       Y0.7036    
   X0.8098       Y0.6959    
   X0.7897       Y0.6932    
   X0.7697       Y0.6959    
   X0.7510       Y0.7036    
   X0.7350       Y0.7159    
(Pass: 9)
   Z0.1094     F60  
   X0.7227       Y0.7320     F80  
   X0.7149       Y0.7507    
   X0.7123       Y0.7707    
   X0.7149       Y0.7907    
   X0.7227       Y0.8094    
   X0.7350       Y0.8255    
   X0.7510       Y0.8378    
   X0.7697       Y0.8455    
   X0.7897       Y0.8482    
   X0.8098       Y0.8455    
   X0.8285       Y0.8378    
   X0.8445       Y0.8255    
   X0.8568       Y0.8094    
   X0.8645       Y0.7907    
   X0.8672       Y0.7707    
   X0.8645       Y0.7507    
   X0.8568       Y0.7320    
   X0.8445       Y0.7159    
   X0.8285       Y0.7036    
   X0.8098       Y0.6959    
   X0.7897       Y0.6932    
   X0.7697       Y0.6959    
   X0.7510       Y0.7036    
   X0.7350       Y0.7159    
(Pass: 10)
   Z0.0938     F60  
   X0.7227       Y0.7320     F80  
   X0.7149       Y0.7507    
   X0.7123       Y0.7707    
   X0.7149       Y0.7907    
   X0.7227       Y0.8094    
   X0.7350       Y0.8255    
   X0.7510       Y0.8378    
   X0.7697       Y0.8455    
   X0.7897       Y0.8482    
   X0.8098       Y0.8455    
   X0.8285       Y0.8378    
   X0.8445       Y0.8255    
   X0.8568       Y0.8094    
   X0.8645       Y0.7907    
   X0.8672       Y0.7707    
   X0.8645       Y0.7507    
   X0.8568       Y0.7320    
   X0.8445       Y0.7159    
   X0.8285       Y0.7036    
   X0.8098       Y0.6959    
   X0.7897       Y0.6932    
   X0.7697       Y0.6959    
   X0.7510       Y0.7036    
   X0.7350       Y0.7159    
(Pass: 11)
   Z0.0781     F60  
   X0.7227       Y0.7320     F80  
   X0.7149       Y0.7507    
   X0.7123       Y0.7707    
   X0.7149       Y0.7907    
   X0.7227       Y0.8094    
   X0.7350       Y0.8255    
   X0.7510       Y0.8378    
   X0.7697       Y0.8455    
   X0.7897       Y0.8482    
   X0.8098       Y0.8455    
   X0.8285       Y0.8378    
   X0.8445       Y0.8255    
   X0.8568       Y0.8094    
   X0.8645       Y0.7907    
   X0.8672       Y0.7707    
   X0.8645       Y0.7507    
   X0.8568       Y0.7320    
   X0.8445       Y0.7159    
   X0.8285       Y0.7036    
   X0.8098       Y0.6959    
   X0.7897       Y0.6932    
   X0.7697       Y0.6959    
   X0.7510       Y0.7036    
   X0.7350       Y0.7159    
(Pass: 12)
   Z0.0625     F60  
   X0.7227       Y0.7320     F80  
   X0.7149       Y0.7507    
   X0.7123       Y0.7707    
   X0.7149       Y0.7907    
   X0.7227       Y0.8094    
   X0.7350       Y0.8255    
   X0.7510       Y0.8378    
   X0.7697       Y0.8455    
   X0.7897       Y0.8482    
   X0.8098       Y0.8455    
   X0.8285       Y0.8378    
   X0.8445       Y0.8255    
   X0.8568       Y0.8094    
   X0.8645       Y0.7907    
   X0.8672       Y0.7707    
   X0.8645       Y0.7507    
   X0.8568       Y0.7320    
   X0.8445       Y0.7159    
   X0.8285       Y0.7036    
   X0.8098       Y0.6959    
   X0.7897       Y0.6932    
   X0.7697       Y0.6959    
   X0.7510       Y0.7036    
   X0.7350       Y0.7159    
(Pass: 13)
   Z0.0469     F60  
   X0.7227       Y0.7320     F80  
   X0.7149       Y0.7507    
   X0.7123       Y0.7707    
   X0.7149       Y0.7907    
   X0.7227       Y0.8094    
   X0.7350       Y0.8255    
   X0.7510       Y0.8378    
   X0.7697       Y0.8455    
   X0.7897       Y0.8482    
   X0.8098       Y0.8455    
   X0.8285       Y0.8378    
   X0.8445       Y0.8255    
   X0.8568       Y0.8094    
   X0.8645       Y0.7907    
   X0.8672       Y0.7707    
   X0.8645       Y0.7507    
   X0.8568       Y0.7320    
   X0.8445       Y0.7159    
   X0.8285       Y0.7036    
   X0.8098       Y0.6959    
   X0.7897       Y0.6932    
   X0.7697       Y0.6959    
   X0.7510       Y0.7036    
   X0.7350       Y0.7159    
(Pass: 14)
   Z0.0312     F60  
   X0.7227       Y0.7320     F80  
   X0.7149       Y0.7507    
   X0.7123       Y0.7707    
   X0.7149       Y0.7907    
   X0.7227       Y0.8094    
   X0.7350       Y0.8255    
   X0.7510       Y0.8378    
   X0.7697       Y0.8455    
   X0.7897       Y0.8482    
   X0.8098       Y0.8455    
   X0.8285       Y0.8378    
   X0.8445       Y0.8255    
   X0.8568       Y0.8094    
   X0.8645       Y0.7907    
   X0.8672       Y0.7707    
   X0.8645       Y0.7507    
   X0.8568       Y0.7320    
   X0.8445       Y0.7159    
   X0.8285       Y0.7036    
   X0.8098       Y0.6959    
   X0.7897       Y0.6932    
   X0.7697       Y0.6959    
   X0.7510       Y0.7036    
   X0.7350       Y0.7159    
(Pass: 15)
   Z0.0156     F60  
   X0.7227       Y0.7320     F80  
   X0.7149       Y0.7507    
   X0.7123       Y0.7707    
   X0.7149       Y0.7907    
   X0.7227       Y0.8094    
   X0.7350       Y0.8255    
   X0.7510       Y0.8378    
   X0.7697       Y0.8455    
   X0.7897       Y0.8482    
   X0.8098       Y0.8455    
   X0.8285       Y0.8378    
   X0.8445       Y0.8255    
   X0.8568       Y0.8094    
   X0.8645       Y0.7907    
   X0.8672       Y0.7707    
   X0.8645       Y0.7507    
   X0.8568       Y0.7320    
   X0.8445       Y0.7159    
   X0.8285       Y0.7036    
   X0.8098       Y0.6959    
   X0.7897       Y0.6932    
   X0.7697       Y0.6959    
   X0.7510       Y0.7036    
   X0.7350       Y0.7159    
(Pass: 16)
   Z0.0000     F60  
   X0.7227       Y0.7320     F80  
   X0.7149       Y0.7507    
   X0.7123       Y0.7707    
   X0.7149       Y0.7907    
   X0.7227       Y0.8094    
   X0.7350       Y0.8255    
   X0.7510       Y0.8378    
   X0.7697       Y0.8455    
   X0.7897       Y0.8482    
   X0.8098       Y0.8455    
   X0.8285       Y0.8378    
   X0.8445       Y0.8255    
   X0.8568       Y0.8094    
   X0.8645       Y0.7907    
   X0.8672       Y0.7707    
   X0.8645       Y0.7507    
   X0.8568       Y0.7320    
   X0.8445       Y0.7159    
   X0.8285       Y0.7036    
   X0.8098       Y0.6959    
   X0.7897       Y0.6932    
   X0.7697       Y0.6959    
   X0.7510       Y0.7036    
   X0.7350       Y0.7159    
G0   Z0.3750    
(Pass: 1)
   X0.7897       Y3.6586    
G1   Z0.2344     F60  
   X0.7697       Y3.6612     F80  
   X0.7510       Y3.6690    
   X0.7350       Y3.6813    
   X0.7227       Y3.6973    
   X0.7149       Y3.7160    
   X0.7123       Y3.7361    
   X0.7149       Y3.7561    
   X0.7227       Y3.7748    
   X0.7350       Y3.7908    
   X0.7510       Y3.8031    
   X0.7697       Y3.8109    
   X0.7897       Y3.8135    
   X0.8098       Y3.8109    
   X0.8285       Y3.8031    
   X0.8445       Y3.7908    
   X0.8568       Y3.7748    
   X0.8645       Y3.7561    
   X0.8672       Y3.7361    
   X0.8645       Y3.7160    
   X0.8568       Y3.6973    
   X0.8445       Y3.6813    
   X0.8285       Y3.6690    
   X0.8098       Y3.6612    
   X0.7897       Y3.6586    
(Pass: 2)
   Z0.2188     F60  
   X0.7697       Y3.6612     F80  
   X0.7510       Y3.6690    
   X0.7350       Y3.6813    
   X0.7227       Y3.6973    
   X0.7149       Y3.7160    
   X0.7123       Y3.7361    
   X0.7149       Y3.7561    
   X0.7227       Y3.7748    
   X0.7350       Y3.7908    
   X0.7510       Y3.8031    
   X0.7697       Y3.8109    
   X0.7897       Y3.8135    
   X0.8098       Y3.8109    
   X0.8285       Y3.8031    
   X0.8445       Y3.7908    
   X0.8568       Y3.7748    
   X0.8645       Y3.7561    
   X0.8672       Y3.7361    
   X0.8645       Y3.7160    
   X0.8568       Y3.6973    
   X0.8445       Y3.6813    
   X0.8285       Y3.6690    
   X0.8098       Y3.6612    
   X0.7897       Y3.6586    
(Pass: 3)
   Z0.2031     F60  
   X0.7697       Y3.6612     F80  
   X0.7510       Y3.6690    
   X0.7350       Y3.6813    
   X0.7227       Y3.6973    
   X0.7149       Y3.7160    
   X0.7123       Y3.7361    
   X0.7149       Y3.7561    
   X0.7227       Y3.7748    
   X0.7350       Y3.7908    
   X0.7510       Y3.8031    
   X0.7697       Y3.8109    
   X0.7897       Y3.8135    
   X0.8098       Y3.8109    
   X0.8285       Y3.8031    
   X0.8445       Y3.7908    
   X0.8568       Y3.7748    
   X0.8645       Y3.7561    
   X0.8672       Y3.7361    
   X0.8645       Y3.7160    
   X0.8568       Y3.6973    
   X0.8445       Y3.6813    
   X0.8285       Y3.6690    
   X0.8098       Y3.6612    
   X0.7897       Y3.6586    
(Pass: 4)
   Z0.1875     F60  
   X0.7697       Y3.6612     F80  
   X0.7510       Y3.6690    
   X0.7350       Y3.6813    
   X0.7227       Y3.6973    
   X0.7149       Y3.7160    
   X0.7123       Y3.7361    
   X0.7149       Y3.7561    
   X0.7227       Y3.7748    
   X0.7350       Y3.7908    
   X0.7510       Y3.8031    
   X0.7697       Y3.8109    
   X0.7897       Y3.8135    
   X0.8098       Y3.8109    
   X0.8285       Y3.8031    
   X0.8445       Y3.7908    
   X0.8568       Y3.7748    
   X0.8645       Y3.7561    
   X0.8672       Y3.7361    
   X0.8645       Y3.7160    
   X0.8568       Y3.6973    
   X0.8445       Y3.6813    
   X0.8285       Y3.6690    
   X0.8098       Y3.6612    
   X0.7897       Y3.6586    
(Pass: 5)
   Z0.1719     F60  
   X0.7697       Y3.6612     F80  
   X0.7510       Y3.6690    
   X0.7350       Y3.6813    
   X0.7227       Y3.6973    
   X0.7149       Y3.7160    
   X0.7123       Y3.7361    
   X0.7149       Y3.7561    
   X0.7227       Y3.7748    
   X0.7350       Y3.7908    
   X0.7510       Y3.8031    
   X0.7697       Y3.8109    
   X0.7897       Y3.8135    
   X0.8098       Y3.8109    
   X0.8285       Y3.8031    
   X0.8445       Y3.7908    
   X0.8568       Y3.7748    
   X0.8645       Y3.7561    
   X0.8672       Y3.7361    
   X0.8645       Y3.7160    
   X0.8568       Y3.6973    
   X0.8445       Y3.6813    
   X0.8285       Y3.6690    
   X0.8098       Y3.6612    
   X0.7897       Y3.6586    
(Pass: 6)
   Z0.1562     F60  
   X0.7697       Y3.6612     F80  
   X0.7510       Y3.6690    
   X0.7350       Y3.6813    
   X0.7227       Y3.6973    
   X0.7149       Y3.7160    
   X0.7123       Y3.7361    
   X0.7149       Y3.7561    
   X0.7227       Y3.7748    
   X0.7350       Y3.7908    
   X0.7510       Y3.8031    
   X0.7697       Y3.8109    
   X0.7897       Y3.8135    
   X0.8098       Y3.8109    
   X0.8285       Y3.8031    
   X0.8445       Y3.7908    
   X0.8568       Y3.7748    
   X0.8645       Y3.7561    
   X0.8672       Y3.7361    
   X0.8645       Y3.7160    
   X0.8568       Y3.6973    
   X0.8445       Y3.6813    
   X0.8285       Y3.6690    
   X0.8098       Y3.6612    
   X0.7897       Y3.6586    
(Pass: 7)
   Z0.1406     F60  
   X0.7697       Y3.6612     F80  
   X0.7510       Y3.6690    
   X0.7350       Y3.6813    
   X0.7227       Y3.6973    
   X0.7149       Y3.7160    
   X0.7123       Y3.7361    
   X0.7149       Y3.7561    
   X0.7227       Y3.7748    
   X0.7350       Y3.7908    
   X0.7510       Y3.8031    
   X0.7697       Y3.8109    
   X0.7897       Y3.8135    
   X0.8098       Y3.8109    
   X0.8285       Y3.8031    
   X0.8445       Y3.7908    
   X0.8568       Y3.7748    
   X0.8645       Y3.7561    
   X0.8672       Y3.7361    
   X0.8645       Y3.7160    
   X0.8568       Y3.6973    
   X0.8445       Y3.6813    
   X0.8285       Y3.6690    
   X0.8098       Y3.6612    
   X0.7897       Y3.6586    
(Pass: 8)
   Z0.1250     F60  
   X0.7697       Y3.6612     F80  
   X0.7510       Y3.6690    
   X0.7350       Y3.6813    
   X0.7227       Y3.6973    
   X0.7149       Y3.7160    
   X0.7123       Y3.7361    
   X0.7149       Y3.7561    
   X0.7227       Y3.7748    
   X0.7350       Y3.7908    
   X0.7510       Y3.8031    
   X0.7697       Y3.8109    
   X0.7897       Y3.8135    
   X0.8098       Y3.8109    
   X0.8285       Y3.8031    
   X0.8445       Y3.7908    
   X0.8568       Y3.7748    
   X0.8645       Y3.7561    
   X0.8672       Y3.7361    
   X0.8645       Y3.7160    
   X0.8568       Y3.6973    
   X0.8445       Y3.6813    
   X0.8285       Y3.6690    
   X0.8098       Y3.6612    
   X0.7897       Y3.6586    
(Pass: 9)
   Z0.1094     F60  
   X0.7697       Y3.6612     F80  
   X0.7510       Y3.6690    
   X0.7350       Y3.6813    
   X0.7227       Y3.6973    
   X0.7149       Y3.7160    
   X0.7123       Y3.7361    
   X0.7149       Y3.7561    
   X0.7227       Y3.7748    
   X0.7350       Y3.7908    
   X0.7510       Y3.8031    
   X0.7697       Y3.8109    
   X0.7897       Y3.8135    
   X0.8098       Y3.8109    
   X0.8285       Y3.8031    
   X0.8445       Y3.7908    
   X0.8568       Y3.7748    
   X0.8645       Y3.7561    
   X0.8672       Y3.7361    
   X0.8645       Y3.7160    
   X0.8568       Y3.6973    
   X0.8445       Y3.6813    
   X0.8285       Y3.6690    
   X0.8098       Y3.6612    
   X0.7897       Y3.6586    
(Pass: 10)
   Z0.0938     F60  
   X0.7697       Y3.6612     F80  
   X0.7510       Y3.6690    
   X0.7350       Y3.6813    
   X0.7227       Y3.6973    
   X0.7149       Y3.7160    
   X0.7123       Y3.7361    
   X0.7149       Y3.7561    
   X0.7227       Y3.7748    
   X0.7350       Y3.7908    
   X0.7510       Y3.8031    
   X0.7697       Y3.8109    
   X0.7897       Y3.8135    
   X0.8098       Y3.8109    
   X0.8285       Y3.8031    
   X0.8445       Y3.7908    
   X0.8568       Y3.7748    
   X0.8645       Y3.7561    
   X0.8672       Y3.7361    
   X0.8645       Y3.7160    
   X0.8568       Y3.6973    
   X0.8445       Y3.6813    
   X0.8285       Y3.6690    
   X0.8098       Y3.6612    
   X0.7897       Y3.6586    
(Pass: 11)
   Z0.0781     F60  
   X0.7697       Y3.6612     F80  
   X0.7510       Y3.6690    
   X0.7350       Y3.6813    
   X0.7227       Y3.6973    
   X0.7149       Y3.7160    
   X0.7123       Y3.7361    
   X0.7149       Y3.7561    
   X0.7227       Y3.7748    
   X0.7350       Y3.7908    
   X0.7510       Y3.8031    
   X0.7697       Y3.8109    
   X0.7897       Y3.8135    
   X0.8098       Y3.8109    
   X0.8285       Y3.8031    
   X0.8445       Y3.7908    
   X0.8568       Y3.7748    
   X0.8645       Y3.7561    
   X0.8672       Y3.7361    
   X0.8645       Y3.7160    
   X0.8568       Y3.6973    
   X0.8445       Y3.6813    
   X0.8285       Y3.6690    
   X0.8098       Y3.6612    
   X0.7897       Y3.6586    
(Pass: 12)
   Z0.0625     F60  
   X0.7697       Y3.6612     F80  
   X0.7510       Y3.6690    
   X0.7350       Y3.6813    
   X0.7227       Y3.6973    
   X0.7149       Y3.7160    
   X0.7123       Y3.7361    
   X0.7149       Y3.7561    
   X0.7227       Y3.7748    
   X0.7350       Y3.7908    
   X0.7510       Y3.8031    
   X0.7697       Y3.8109    
   X0.7897       Y3.8135    
   X0.8098       Y3.8109    
   X0.8285       Y3.8031    
   X0.8445       Y3.7908    
   X0.8568       Y3.7748    
   X0.8645       Y3.7561    
   X0.8672       Y3.7361    
   X0.8645       Y3.7160    
   X0.8568       Y3.6973    
   X0.8445       Y3.6813    
   X0.8285       Y3.6690    
   X0.8098       Y3.6612    
   X0.7897       Y3.6586    
(Pass: 13)
   Z0.0469     F60  
   X0.7697       Y3.6612     F80  
   X0.7510       Y3.6690    
   X0.7350       Y3.6813    
   X0.7227       Y3.6973    
   X0.7149       Y3.7160    
   X0.7123       Y3.7361    
   X0.7149       Y3.7561    
   X0.7227       Y3.7748    
   X0.7350       Y3.7908    
   X0.7510       Y3.8031    
   X0.7697       Y3.8109    
   X0.7897       Y3.8135    
   X0.8098       Y3.8109    
   X0.8285       Y3.8031    
   X0.8445       Y3.7908    
   X0.8568       Y3.7748    
   X0.8645       Y3.7561    
   X0.8672       Y3.7361    
   X0.8645       Y3.7160    
   X0.8568       Y3.6973    
   X0.8445       Y3.6813    
   X0.8285       Y3.6690    
   X0.8098       Y3.6612    
   X0.7897       Y3.6586    
(Pass: 14)
   Z0.0312     F60  
   X0.7697       Y3.6612     F80  
   X0.7510       Y3.6690    
   X0.7350       Y3.6813    
   X0.7227       Y3.6973    
   X0.7149       Y3.7160    
   X0.7123       Y3.7361    
   X0.7149       Y3.7561    
   X0.7227       Y3.7748    
   X0.7350       Y3.7908    
   X0.7510       Y3.8031    
   X0.7697       Y3.8109    
   X0.7897       Y3.8135    
   X0.8098       Y3.8109    
   X0.8285       Y3.8031    
   X0.8445       Y3.7908    
   X0.8568       Y3.7748    
   X0.8645       Y3.7561    
   X0.8672       Y3.7361    
   X0.8645       Y3.7160    
   X0.8568       Y3.6973    
   X0.8445       Y3.6813    
   X0.8285       Y3.6690    
   X0.8098       Y3.6612    
   X0.7897       Y3.6586    
(Pass: 15)
   Z0.0156     F60  
   X0.7697       Y3.6612     F80  
   X0.7510       Y3.6690    
   X0.7350       Y3.6813    
   X0.7227       Y3.6973    
   X0.7149       Y3.7160    
   X0.7123       Y3.7361    
   X0.7149       Y3.7561    
   X0.7227       Y3.7748    
   X0.7350       Y3.7908    
   X0.7510       Y3.8031    
   X0.7697       Y3.8109    
   X0.7897       Y3.8135    
   X0.8098       Y3.8109    
   X0.8285       Y3.8031    
   X0.8445       Y3.7908    
   X0.8568       Y3.7748    
   X0.8645       Y3.7561    
   X0.8672       Y3.7361    
   X0.8645       Y3.7160    
   X0.8568       Y3.6973    
   X0.8445       Y3.6813    
   X0.8285       Y3.6690    
   X0.8098       Y3.6612    
   X0.7897       Y3.6586    
(Pass: 16)
   Z0.0000     F60  
   X0.7697       Y3.6612     F80  
   X0.7510       Y3.6690    
   X0.7350       Y3.6813    
   X0.7227       Y3.6973    
   X0.7149       Y3.7160    
   X0.7123       Y3.7361    
   X0.7149       Y3.7561    
   X0.7227       Y3.7748    
   X0.7350       Y3.7908    
   X0.7510       Y3.8031    
   X0.7697       Y3.8109    
   X0.7897       Y3.8135    
   X0.8098       Y3.8109    
   X0.8285       Y3.8031    
   X0.8445       Y3.7908    
   X0.8568       Y3.7748    
   X0.8645       Y3.7561    
   X0.8672       Y3.7361    
   X0.8645       Y3.7160    
   X0.8568       Y3.6973    
   X0.8445       Y3.6813    
   X0.8285       Y3.6690    
   X0.8098       Y3.6612    
   X0.7897       Y3.6586    
G0   Z0.3750    
(Pass: 1)
   X1.5825       Y5.9192    
G1   Z0.2344     F60  
   X1.5739       Y5.9227     F80  
   X1.5666       Y5.9284    
   X1.5610       Y5.9357    
   X1.5575       Y5.9442    
   X1.5563       Y5.9534    
   X1.5575       Y5.9625    
   X1.5610       Y5.9711    
   X1.5666       Y5.9784    
   X1.5739       Y5.9840    
   X1.5825       Y5.9876    
   X1.5916       Y5.9888    
   X1.6008       Y5.9876    
   X1.6093       Y5.9840    
   X1.6167       Y5.9784    
   X1.6223       Y5.9711    
   X1.6258       Y5.9625    
   X1.6270       Y5.9534    
   X1.6258       Y5.9442    
   X1.6223       Y5.9357    
   X1.6167       Y5.9284    
   X1.6093       Y5.9227    
   X1.6008       Y5.9192    
   X1.5916       Y5.9180    
   X1.5825       Y5.9192    
(Pass: 2)
   Z0.2188     F60  
   X1.5739       Y5.9227     F80  
   X1.5666       Y5.9284    
   X1.5610       Y5.9357    
   X1.5575       Y5.9442    
   X1.5563       Y5.9534    
   X1.5575       Y5.9625    
   X1.5610       Y5.9711    
   X1.5666       Y5.9784    
   X1.5739       Y5.9840    
   X1.5825       Y5.9876    
   X1.5916       Y5.9888    
   X1.6008       Y5.9876    
   X1.6093       Y5.9840    
   X1.6167       Y5.9784    
   X1.6223       Y5.9711    
   X1.6258       Y5.9625    
   X1.6270       Y5.9534    
   X1.6258       Y5.9442    
   X1.6223       Y5.9357    
   X1.6167       Y5.9284    
   X1.6093       Y5.9227    
   X1.6008       Y5.9192    
   X1.5916       Y5.9180    
   X1.5825       Y5.9192    
(Pass: 3)
   Z0.2031     F60  
   X1.5739       Y5.9227     F80  
   X1.5666       Y5.9284    
   X1.5610       Y5.9357    
   X1.5575       Y5.9442    
   X1.5563       Y5.9534    
   X1.5575       Y5.9625    
   X1.5610       Y5.9711    
   X1.5666       Y5.9784    
   X1.5739       Y5.9840    
   X1.5825       Y5.9876    
   X1.5916       Y5.9888    
   X1.6008       Y5.9876    
   X1.6093       Y5.9840    
   X1.6167       Y5.9784    
   X1.6223       Y5.9711    
   X1.6258       Y5.9625    
   X1.6270       Y5.9534    
   X1.6258       Y5.9442    
   X1.6223       Y5.9357    
   X1.6167       Y5.9284    
   X1.6093       Y5.9227    
   X1.6008       Y5.9192    
   X1.5916       Y5.9180    
   X1.5825       Y5.9192    
(Pass: 4)
   Z0.1875     F60  
   X1.5739       Y5.9227     F80  
   X1.5666       Y5.9284    
   X1.5610       Y5.9357    
   X1.5575       Y5.9442    
   X1.5563       Y5.9534    
   X1.5575       Y5.9625    
   X1.5610       Y5.9711    
   X1.5666       Y5.9784    
   X1.5739       Y5.9840    
   X1.5825       Y5.9876    
   X1.5916       Y5.9888    
   X1.6008       Y5.9876    
   X1.6093       Y5.9840    
   X1.6167       Y5.9784    
   X1.6223       Y5.9711    
   X1.6258       Y5.9625    
   X1.6270       Y5.9534    
   X1.6258       Y5.9442    
   X1.6223       Y5.9357    
   X1.6167       Y5.9284    
   X1.6093       Y5.9227    
   X1.6008       Y5.9192    
   X1.5916       Y5.9180    
   X1.5825       Y5.9192    
(Pass: 5)
   Z0.1719     F60  
   X1.5739       Y5.9227     F80  
   X1.5666       Y5.9284    
   X1.5610       Y5.9357    
   X1.5575       Y5.9442    
   X1.5563       Y5.9534    
   X1.5575       Y5.9625    
   X1.5610       Y5.9711    
   X1.5666       Y5.9784    
   X1.5739       Y5.9840    
   X1.5825       Y5.9876    
   X1.5916       Y5.9888    
   X1.6008       Y5.9876    
   X1.6093       Y5.9840    
   X1.6167       Y5.9784    
   X1.6223       Y5.9711    
   X1.6258       Y5.9625    
   X1.6270       Y5.9534    
   X1.6258       Y5.9442    
   X1.6223       Y5.9357    
   X1.6167       Y5.9284    
   X1.6093       Y5.9227    
   X1.6008       Y5.9192    
   X1.5916       Y5.9180    
   X1.5825       Y5.9192    
(Pass: 6)
   Z0.1562     F60  
   X1.5739       Y5.9227     F80  
   X1.5666       Y5.9284    
   X1.5610       Y5.9357    
   X1.5575       Y5.9442    
   X1.5563       Y5.9534    
   X1.5575       Y5.9625    
   X1.5610       Y5.9711    
   X1.5666       Y5.9784    
   X1.5739       Y5.9840    
   X1.5825       Y5.9876    
   X1.5916       Y5.9888    
   X1.6008       Y5.9876    
   X1.6093       Y5.9840    
   X1.6167       Y5.9784    
   X1.6223       Y5.9711    
   X1.6258       Y5.9625    
   X1.6270       Y5.9534    
   X1.6258       Y5.9442    
   X1.6223       Y5.9357    
   X1.6167       Y5.9284    
   X1.6093       Y5.9227    
   X1.6008       Y5.9192    
   X1.5916       Y5.9180    
   X1.5825       Y5.9192    
(Pass: 7)
   Z0.1406     F60  
   X1.5739       Y5.9227     F80  
   X1.5666       Y5.9284    
   X1.5610       Y5.9357    
   X1.5575       Y5.9442    
   X1.5563       Y5.9534    
   X1.5575       Y5.9625    
   X1.5610       Y5.9711    
   X1.5666       Y5.9784    
   X1.5739       Y5.9840    
   X1.5825       Y5.9876    
   X1.5916       Y5.9888    
   X1.6008       Y5.9876    
   X1.6093       Y5.9840    
   X1.6167       Y5.9784    
   X1.6223       Y5.9711    
   X1.6258       Y5.9625    
   X1.6270       Y5.9534    
   X1.6258       Y5.9442    
   X1.6223       Y5.9357    
   X1.6167       Y5.9284    
   X1.6093       Y5.9227    
   X1.6008       Y5.9192    
   X1.5916       Y5.9180    
   X1.5825       Y5.9192    
(Pass: 8)
   Z0.1250     F60  
   X1.5739       Y5.9227     F80  
   X1.5666       Y5.9284    
   X1.5610       Y5.9357    
   X1.5575       Y5.9442    
   X1.5563       Y5.9534    
   X1.5575       Y5.9625    
   X1.5610       Y5.9711    
   X1.5666       Y5.9784    
   X1.5739       Y5.9840    
   X1.5825       Y5.9876    
   X1.5916       Y5.9888    
   X1.6008       Y5.9876    
   X1.6093       Y5.9840    
   X1.6167       Y5.9784    
   X1.6223       Y5.9711    
   X1.6258       Y5.9625    
   X1.6270       Y5.9534    
   X1.6258       Y5.9442    
   X1.6223       Y5.9357    
   X1.6167       Y5.9284    
   X1.6093       Y5.9227    
   X1.6008       Y5.9192    
   X1.5916       Y5.9180    
   X1.5825       Y5.9192    
(Pass: 9)
   Z0.1094     F60  
   X1.5739       Y5.9227     F80  
   X1.5666       Y5.9284    
   X1.5610       Y5.9357    
   X1.5575       Y5.9442    
   X1.5563       Y5.9534    
   X1.5575       Y5.9625    
   X1.5610       Y5.9711    
   X1.5666       Y5.9784    
   X1.5739       Y5.9840    
   X1.5825       Y5.9876    
   X1.5916       Y5.9888    
   X1.6008       Y5.9876    
   X1.6093       Y5.9840    
   X1.6167       Y5.9784    
   X1.6223       Y5.9711    
   X1.6258       Y5.9625    
   X1.6270       Y5.9534    
   X1.6258       Y5.9442    
   X1.6223       Y5.9357    
   X1.6167       Y5.9284    
   X1.6093       Y5.9227    
   X1.6008       Y5.9192    
   X1.5916       Y5.9180    
   X1.5825       Y5.9192    
(Pass: 10)
   Z0.0938     F60  
   X1.5739       Y5.9227     F80  
   X1.5666       Y5.9284    
   X1.5610       Y5.9357    
   X1.5575       Y5.9442    
   X1.5563       Y5.9534    
   X1.5575       Y5.9625    
   X1.5610       Y5.9711    
   X1.5666       Y5.9784    
   X1.5739       Y5.9840    
   X1.5825       Y5.9876    
   X1.5916       Y5.9888    
   X1.6008       Y5.9876    
   X1.6093       Y5.9840    
   X1.6167       Y5.9784    
   X1.6223       Y5.9711    
   X1.6258       Y5.9625    
   X1.6270       Y5.9534    
   X1.6258       Y5.9442    
   X1.6223       Y5.9357    
   X1.6167       Y5.9284    
   X1.6093       Y5.9227    
   X1.6008       Y5.9192    
   X1.5916       Y5.9180    
   X1.5825       Y5.9192    
(Pass: 11)
   Z0.0781     F60  
   X1.5739       Y5.9227     F80  
   X1.5666       Y5.9284    
   X1.5610       Y5.9357    
   X1.5575       Y5.9442    
   X1.5563       Y5.9534    
   X1.5575       Y5.9625    
   X1.5610       Y5.9711    
   X1.5666       Y5.9784    
   X1.5739       Y5.9840    
   X1.5825       Y5.9876    
   X1.5916       Y5.9888    
   X1.6008       Y5.9876    
   X1.6093       Y5.9840    
   X1.6167       Y5.9784    
   X1.6223       Y5.9711    
   X1.6258       Y5.9625    
   X1.6270       Y5.9534    
   X1.6258       Y5.9442    
   X1.6223       Y5.9357    
   X1.6167       Y5.9284    
   X1.6093       Y5.9227    
   X1.6008       Y5.9192    
   X1.5916       Y5.9180    
   X1.5825       Y5.9192    
(Pass: 12)
   Z0.0625     F60  
   X1.5739       Y5.9227     F80  
   X1.5666       Y5.9284    
   X1.5610       Y5.9357    
   X1.5575       Y5.9442    
   X1.5563       Y5.9534    
   X1.5575       Y5.9625    
   X1.5610       Y5.9711    
   X1.5666       Y5.9784    
   X1.5739       Y5.9840    
   X1.5825       Y5.9876    
   X1.5916       Y5.9888    
   X1.6008       Y5.9876    
   X1.6093       Y5.9840    
   X1.6167       Y5.9784    
   X1.6223       Y5.9711    
   X1.6258       Y5.9625    
   X1.6270       Y5.9534    
   X1.6258       Y5.9442    
   X1.6223       Y5.9357    
   X1.6167       Y5.9284    
   X1.6093       Y5.9227    
   X1.6008       Y5.9192    
   X1.5916       Y5.9180    
   X1.5825       Y5.9192    
(Pass: 13)
   Z0.0469     F60  
   X1.5739       Y5.9227     F80  
   X1.5666       Y5.9284    
   X1.5610       Y5.9357    
   X1.5575       Y5.9442    
   X1.5563       Y5.9534    
   X1.5575       Y5.9625    
   X1.5610       Y5.9711    
   X1.5666       Y5.9784    
   X1.5739       Y5.9840    
   X1.5825       Y5.9876    
   X1.5916       Y5.9888    
   X1.6008       Y5.9876    
   X1.6093       Y5.9840    
   X1.6167       Y5.9784    
   X1.6223       Y5.9711    
   X1.6258       Y5.9625    
   X1.6270       Y5.9534    
   X1.6258       Y5.9442    
   X1.6223       Y5.9357    
   X1.6167       Y5.9284    
   X1.6093       Y5.9227    
   X1.6008       Y5.9192    
   X1.5916       Y5.9180    
   X1.5825       Y5.9192    
(Pass: 14)
   Z0.0312     F60  
   X1.5739       Y5.9227     F80  
   X1.5666       Y5.9284    
   X1.5610       Y5.9357    
   X1.5575       Y5.9442    
   X1.5563       Y5.9534    
   X1.5575       Y5.9625    
   X1.5610       Y5.9711    
   X1.5666       Y5.9784    
   X1.5739       Y5.9840    
   X1.5825       Y5.9876    
   X1.5916       Y5.9888    
   X1.6008       Y5.9876    
   X1.6093       Y5.9840    
   X1.6167       Y5.9784    
   X1.6223       Y5.9711    
   X1.6258       Y5.9625    
   X1.6270       Y5.9534    
   X1.6258       Y5.9442    
   X1.6223       Y5.9357    
   X1.6167       Y5.9284    
   X1.6093       Y5.9227    
   X1.6008       Y5.9192    
   X1.5916       Y5.9180    
   X1.5825       Y5.9192    
(Pass: 15)
   Z0.0156     F60  
   X1.5739       Y5.9227     F80  
   X1.5666       Y5.9284    
   X1.5610       Y5.9357    
   X1.5575       Y5.9442    
   X1.5563       Y5.9534    
   X1.5575       Y5.9625    
   X1.5610       Y5.9711    
   X1.5666       Y5.9784    
   X1.5739       Y5.9840    
   X1.5825       Y5.9876    
   X1.5916       Y5.9888    
   X1.6008       Y5.9876    
   X1.6093       Y5.9840    
   X1.6167       Y5.9784    
   X1.6223       Y5.9711    
   X1.6258       Y5.9625    
   X1.6270       Y5.9534    
   X1.6258       Y5.9442    
   X1.6223       Y5.9357    
   X1.6167       Y5.9284    
   X1.6093       Y5.9227    
   X1.6008       Y5.9192    
   X1.5916       Y5.9180    
   X1.5825       Y5.9192    
(Pass: 16)
   Z0.0000     F60  
   X1.5739       Y5.9227     F80  
   X1.5666       Y5.9284    
   X1.5610       Y5.9357    
   X1.5575       Y5.9442    
   X1.5563       Y5.9534    
   X1.5575       Y5.9625    
   X1.5610       Y5.9711    
   X1.5666       Y5.9784    
   X1.5739       Y5.9840    
   X1.5825       Y5.9876    
   X1.5916       Y5.9888    
   X1.6008       Y5.9876    
   X1.6093       Y5.9840    
   X1.6167       Y5.9784    
   X1.6223       Y5.9711    
   X1.6258       Y5.9625    
   X1.6270       Y5.9534    
   X1.6258       Y5.9442    
   X1.6223       Y5.9357    
   X1.6167       Y5.9284    
   X1.6093       Y5.9227    
   X1.6008       Y5.9192    
   X1.5916       Y5.9180    
   X1.5825       Y5.9192    
G0   Z0.3750    
(Pass: 1)
   X0.8445       Y6.6466    
G1   Z0.2344     F60  
   X0.8285       Y6.6343     F80  
   X0.8098       Y6.6266    
   X0.7897       Y6.6240    
   X0.7697       Y6.6266    
   X0.7510       Y6.6343    
   X0.7350       Y6.6466    
   X0.7227       Y6.6627    
   X0.7149       Y6.6814    
   X0.7123       Y6.7014    
   X0.7149       Y6.7215    
   X0.7227       Y6.7401    
   X0.7350       Y6.7562    
   X0.7510       Y6.7685    
   X0.7697       Y6.7762    
   X0.7897       Y6.7789    
   X0.8098       Y6.7762    
   X0.8285       Y6.7685    
   X0.8445       Y6.7562    
   X0.8568       Y6.7401    
   X0.8645       Y6.7215    
   X0.8672       Y6.7014    
   X0.8645       Y6.6814    
   X0.8568       Y6.6627    
   X0.8445       Y6.6466    
(Pass: 2)
   Z0.2188     F60  
   X0.8285       Y6.6343     F80  
   X0.8098       Y6.6266    
   X0.7897       Y6.6240    
   X0.7697       Y6.6266    
   X0.7510       Y6.6343    
   X0.7350       Y6.6466    
   X0.7227       Y6.6627    
   X0.7149       Y6.6814    
   X0.7123       Y6.7014    
   X0.7149       Y6.7215    
   X0.7227       Y6.7401    
   X0.7350       Y6.7562    
   X0.7510       Y6.7685    
   X0.7697       Y6.7762    
   X0.7897       Y6.7789    
   X0.8098       Y6.7762    
   X0.8285       Y6.7685    
   X0.8445       Y6.7562    
   X0.8568       Y6.7401    
   X0.8645       Y6.7215    
   X0.8672       Y6.7014    
   X0.8645       Y6.6814    
   X0.8568       Y6.6627    
   X0.8445       Y6.6466    
(Pass: 3)
   Z0.2031     F60  
   X0.8285       Y6.6343     F80  
   X0.8098       Y6.6266    
   X0.7897       Y6.6240    
   X0.7697       Y6.6266    
   X0.7510       Y6.6343    
   X0.7350       Y6.6466    
   X0.7227       Y6.6627    
   X0.7149       Y6.6814    
   X0.7123       Y6.7014    
   X0.7149       Y6.7215    
   X0.7227       Y6.7401    
   X0.7350       Y6.7562    
   X0.7510       Y6.7685    
   X0.7697       Y6.7762    
   X0.7897       Y6.7789    
   X0.8098       Y6.7762    
   X0.8285       Y6.7685    
   X0.8445       Y6.7562    
   X0.8568       Y6.7401    
   X0.8645       Y6.7215    
   X0.8672       Y6.7014    
   X0.8645       Y6.6814    
   X0.8568       Y6.6627    
   X0.8445       Y6.6466    
(Pass: 4)
   Z0.1875     F60  
   X0.8285       Y6.6343     F80  
   X0.8098       Y6.6266    
   X0.7897       Y6.6240    
   X0.7697       Y6.6266    
   X0.7510       Y6.6343    
   X0.7350       Y6.6466    
   X0.7227       Y6.6627    
   X0.7149       Y6.6814    
   X0.7123       Y6.7014    
   X0.7149       Y6.7215    
   X0.7227       Y6.7401    
   X0.7350       Y6.7562    
   X0.7510       Y6.7685    
   X0.7697       Y6.7762    
   X0.7897       Y6.7789    
   X0.8098       Y6.7762    
   X0.8285       Y6.7685    
   X0.8445       Y6.7562    
   X0.8568       Y6.7401    
   X0.8645       Y6.7215    
   X0.8672       Y6.7014    
   X0.8645       Y6.6814    
   X0.8568       Y6.6627    
   X0.8445       Y6.6466    
(Pass: 5)
   Z0.1719     F60  
   X0.8285       Y6.6343     F80  
   X0.8098       Y6.6266    
   X0.7897       Y6.6240    
   X0.7697       Y6.6266    
   X0.7510       Y6.6343    
   X0.7350       Y6.6466    
   X0.7227       Y6.6627    
   X0.7149       Y6.6814    
   X0.7123       Y6.7014    
   X0.7149       Y6.7215    
   X0.7227       Y6.7401    
   X0.7350       Y6.7562    
   X0.7510       Y6.7685    
   X0.7697       Y6.7762    
   X0.7897       Y6.7789    
   X0.8098       Y6.7762    
   X0.8285       Y6.7685    
   X0.8445       Y6.7562    
   X0.8568       Y6.7401    
   X0.8645       Y6.7215    
   X0.8672       Y6.7014    
   X0.8645       Y6.6814    
   X0.8568       Y6.6627    
   X0.8445       Y6.6466    
(Pass: 6)
   Z0.1562     F60  
   X0.8285       Y6.6343     F80  
   X0.8098       Y6.6266    
   X0.7897       Y6.6240    
   X0.7697       Y6.6266    
   X0.7510       Y6.6343    
   X0.7350       Y6.6466    
   X0.7227       Y6.6627    
   X0.7149       Y6.6814    
   X0.7123       Y6.7014    
   X0.7149       Y6.7215    
   X0.7227       Y6.7401    
   X0.7350       Y6.7562    
   X0.7510       Y6.7685    
   X0.7697       Y6.7762    
   X0.7897       Y6.7789    
   X0.8098       Y6.7762    
   X0.8285       Y6.7685    
   X0.8445       Y6.7562    
   X0.8568       Y6.7401    
   X0.8645       Y6.7215    
   X0.8672       Y6.7014    
   X0.8645       Y6.6814    
   X0.8568       Y6.6627    
   X0.8445       Y6.6466    
(Pass: 7)
   Z0.1406     F60  
   X0.8285       Y6.6343     F80  
   X0.8098       Y6.6266    
   X0.7897       Y6.6240    
   X0.7697       Y6.6266    
   X0.7510       Y6.6343    
   X0.7350       Y6.6466    
   X0.7227       Y6.6627    
   X0.7149       Y6.6814    
   X0.7123       Y6.7014    
   X0.7149       Y6.7215    
   X0.7227       Y6.7401    
   X0.7350       Y6.7562    
   X0.7510       Y6.7685    
   X0.7697       Y6.7762    
   X0.7897       Y6.7789    
   X0.8098       Y6.7762    
   X0.8285       Y6.7685    
   X0.8445       Y6.7562    
   X0.8568       Y6.7401    
   X0.8645       Y6.7215    
   X0.8672       Y6.7014    
   X0.8645       Y6.6814    
   X0.8568       Y6.6627    
   X0.8445       Y6.6466    
(Pass: 8)
   Z0.1250     F60  
   X0.8285       Y6.6343     F80  
   X0.8098       Y6.6266    
   X0.7897       Y6.6240    
   X0.7697       Y6.6266    
   X0.7510       Y6.6343    
   X0.7350       Y6.6466    
   X0.7227       Y6.6627    
   X0.7149       Y6.6814    
   X0.7123       Y6.7014    
   X0.7149       Y6.7215    
   X0.7227       Y6.7401    
   X0.7350       Y6.7562    
   X0.7510       Y6.7685    
   X0.7697       Y6.7762    
   X0.7897       Y6.7789    
   X0.8098       Y6.7762    
   X0.8285       Y6.7685    
   X0.8445       Y6.7562    
   X0.8568       Y6.7401    
   X0.8645       Y6.7215    
   X0.8672       Y6.7014    
   X0.8645       Y6.6814    
   X0.8568       Y6.6627    
   X0.8445       Y6.6466    
(Pass: 9)
   Z0.1094     F60  
   X0.8285       Y6.6343     F80  
   X0.8098       Y6.6266    
   X0.7897       Y6.6240    
   X0.7697       Y6.6266    
   X0.7510       Y6.6343    
   X0.7350       Y6.6466    
   X0.7227       Y6.6627    
   X0.7149       Y6.6814    
   X0.7123       Y6.7014    
   X0.7149       Y6.7215    
   X0.7227       Y6.7401    
   X0.7350       Y6.7562    
   X0.7510       Y6.7685    
   X0.7697       Y6.7762    
   X0.7897       Y6.7789    
   X0.8098       Y6.7762    
   X0.8285       Y6.7685    
   X0.8445       Y6.7562    
   X0.8568       Y6.7401    
   X0.8645       Y6.7215    
   X0.8672       Y6.7014    
   X0.8645       Y6.6814    
   X0.8568       Y6.6627    
   X0.8445       Y6.6466    
(Pass: 10)
   Z0.0938     F60  
   X0.8285       Y6.6343     F80  
   X0.8098       Y6.6266    
   X0.7897       Y6.6240    
   X0.7697       Y6.6266    
   X0.7510       Y6.6343    
   X0.7350       Y6.6466    
   X0.7227       Y6.6627    
   X0.7149       Y6.6814    
   X0.7123       Y6.7014    
   X0.7149       Y6.7215    
   X0.7227       Y6.7401    
   X0.7350       Y6.7562    
   X0.7510       Y6.7685    
   X0.7697       Y6.7762    
   X0.7897       Y6.7789    
   X0.8098       Y6.7762    
   X0.8285       Y6.7685    
   X0.8445       Y6.7562    
   X0.8568       Y6.7401    
   X0.8645       Y6.7215    
   X0.8672       Y6.7014    
   X0.8645       Y6.6814    
   X0.8568       Y6.6627    
   X0.8445       Y6.6466    
(Pass: 11)
   Z0.0781     F60  
   X0.8285       Y6.6343     F80  
   X0.8098       Y6.6266    
   X0.7897       Y6.6240    
   X0.7697       Y6.6266    
   X0.7510       Y6.6343    
   X0.7350       Y6.6466    
   X0.7227       Y6.6627    
   X0.7149       Y6.6814    
   X0.7123       Y6.7014    
   X0.7149       Y6.7215    
   X0.7227       Y6.7401    
   X0.7350       Y6.7562    
   X0.7510       Y6.7685    
   X0.7697       Y6.7762    
   X0.7897       Y6.7789    
   X0.8098       Y6.7762    
   X0.8285       Y6.7685    
   X0.8445       Y6.7562    
   X0.8568       Y6.7401    
   X0.8645       Y6.7215    
   X0.8672       Y6.7014    
   X0.8645       Y6.6814    
   X0.8568       Y6.6627    
   X0.8445       Y6.6466    
(Pass: 12)
   Z0.0625     F60  
   X0.8285       Y6.6343     F80  
   X0.8098       Y6.6266    
   X0.7897       Y6.6240    
   X0.7697       Y6.6266    
   X0.7510       Y6.6343    
   X0.7350       Y6.6466    
   X0.7227       Y6.6627    
   X0.7149       Y6.6814    
   X0.7123       Y6.7014    
   X0.7149       Y6.7215    
   X0.7227       Y6.7401    
   X0.7350       Y6.7562    
   X0.7510       Y6.7685    
   X0.7697       Y6.7762    
   X0.7897       Y6.7789    
   X0.8098       Y6.7762    
   X0.8285       Y6.7685    
   X0.8445       Y6.7562    
   X0.8568       Y6.7401    
   X0.8645       Y6.7215    
   X0.8672       Y6.7014    
   X0.8645       Y6.6814    
   X0.8568       Y6.6627    
   X0.8445       Y6.6466    
(Pass: 13)
   Z0.0469     F60  
   X0.8285       Y6.6343     F80  
   X0.8098       Y6.6266    
   X0.7897       Y6.6240    
   X0.7697       Y6.6266    
   X0.7510       Y6.6343    
   X0.7350       Y6.6466    
   X0.7227       Y6.6627    
   X0.7149       Y6.6814    
   X0.7123       Y6.7014    
   X0.7149       Y6.7215    
   X0.7227       Y6.7401    
   X0.7350       Y6.7562    
   X0.7510       Y6.7685    
   X0.7697       Y6.7762    
   X0.7897       Y6.7789    
   X0.8098       Y6.7762    
   X0.8285       Y6.7685    
   X0.8445       Y6.7562    
   X0.8568       Y6.7401    
   X0.8645       Y6.7215    
   X0.8672       Y6.7014    
   X0.8645       Y6.6814    
   X0.8568       Y6.6627    
   X0.8445       Y6.6466    
(Pass: 14)
   Z0.0312     F60  
   X0.8285       Y6.6343     F80  
   X0.8098       Y6.6266    
   X0.7897       Y6.6240    
   X0.7697       Y6.6266    
   X0.7510       Y6.6343    
   X0.7350       Y6.6466    
   X0.7227       Y6.6627    
   X0.7149       Y6.6814    
   X0.7123       Y6.7014    
   X0.7149       Y6.7215    
   X0.7227       Y6.7401    
   X0.7350       Y6.7562    
   X0.7510       Y6.7685    
   X0.7697       Y6.7762    
   X0.7897       Y6.7789    
   X0.8098       Y6.7762    
   X0.8285       Y6.7685    
   X0.8445       Y6.7562    
   X0.8568       Y6.7401    
   X0.8645       Y6.7215    
   X0.8672       Y6.7014    
   X0.8645       Y6.6814    
   X0.8568       Y6.6627    
   X0.8445       Y6.6466    
(Pass: 15)
   Z0.0156     F60  
   X0.8285       Y6.6343     F80  
   X0.8098       Y6.6266    
   X0.7897       Y6.6240    
   X0.7697       Y6.6266    
   X0.7510       Y6.6343    
   X0.7350       Y6.6466    
   X0.7227       Y6.6627    
   X0.7149       Y6.6814    
   X0.7123       Y6.7014    
   X0.7149       Y6.7215    
   X0.7227       Y6.7401    
   X0.7350       Y6.7562    
   X0.7510       Y6.7685    
   X0.7697       Y6.7762    
   X0.7897       Y6.7789    
   X0.8098       Y6.7762    
   X0.8285       Y6.7685    
   X0.8445       Y6.7562    
   X0.8568       Y6.7401    
   X0.8645       Y6.7215    
   X0.8672       Y6.7014    
   X0.8645       Y6.6814    
   X0.8568       Y6.6627    
   X0.8445       Y6.6466    
(Pass: 16)
   Z0.0000     F60  
   X0.8285       Y6.6343     F80  
   X0.8098       Y6.6266    
   X0.7897       Y6.6240    
   X0.7697       Y6.6266    
   X0.7510       Y6.6343    
   X0.7350       Y6.6466    
   X0.7227       Y6.6627    
   X0.7149       Y6.6814    
   X0.7123       Y6.7014    
   X0.7149       Y6.7215    
   X0.7227       Y6.7401    
   X0.7350       Y6.7562    
   X0.7510       Y6.7685    
   X0.7697       Y6.7762    
   X0.7897       Y6.7789    
   X0.8098       Y6.7762    
   X0.8285       Y6.7685    
   X0.8445       Y6.7562    
   X0.8568       Y6.7401    
   X0.8645       Y6.7215    
   X0.8672       Y6.7014    
   X0.8645       Y6.6814    
   X0.8568       Y6.6627    
   X0.8445       Y6.6466    
G0   Z0.3750    
(Pass: 1)
   X4.6662       Y6.7014    
G1   Z0.2344     F60  
   X4.6674       Y6.7106     F80  
   X4.6710       Y6.7191    
   X4.6766       Y6.7264    
   X4.6839       Y6.7321    
   X4.6924       Y6.7356    
   X4.7016       Y6.7368    
   X4.7108       Y6.7356    
   X4.7193       Y6.7321    
   X4.7266       Y6.7264    
   X4.7322       Y6.7191    
   X4.7358       Y6.7106    
   X4.7370       Y6.7014    
   X4.7358       Y6.6923    
   X4.7322       Y6.6837    
   X4.7266       Y6.6764    
   X4.7193       Y6.6708    
   X4.7108       Y6.6672    
   X4.7016       Y6.6660    
   X4.6924       Y6.6672    
   X4.6839       Y6.6708    
   X4.6766       Y6.6764    
   X4.6710       Y6.6837    
   X4.6674       Y6.6923    
   X4.6662       Y6.7014    
(Pass: 2)
   Z0.2188     F60  
   X4.6674       Y6.7106     F80  
   X4.6710       Y6.7191    
   X4.6766       Y6.7264    
   X4.6839       Y6.7321    
   X4.6924       Y6.7356    
   X4.7016       Y6.7368    
   X4.7108       Y6.7356    
   X4.7193       Y6.7321    
   X4.7266       Y6.7264    
   X4.7322       Y6.7191    
   X4.7358       Y6.7106    
   X4.7370       Y6.7014    
   X4.7358       Y6.6923    
   X4.7322       Y6.6837    
   X4.7266       Y6.6764    
   X4.7193       Y6.6708    
   X4.7108       Y6.6672    
   X4.7016       Y6.6660    
   X4.6924       Y6.6672    
   X4.6839       Y6.6708    
   X4.6766       Y6.6764    
   X4.6710       Y6.6837    
   X4.6674       Y6.6923    
   X4.6662       Y6.7014    
(Pass: 3)
   Z0.2031     F60  
   X4.6674       Y6.7106     F80  
   X4.6710       Y6.7191    
   X4.6766       Y6.7264    
   X4.6839       Y6.7321    
   X4.6924       Y6.7356    
   X4.7016       Y6.7368    
   X4.7108       Y6.7356    
   X4.7193       Y6.7321    
   X4.7266       Y6.7264    
   X4.7322       Y6.7191    
   X4.7358       Y6.7106    
   X4.7370       Y6.7014    
   X4.7358       Y6.6923    
   X4.7322       Y6.6837    
   X4.7266       Y6.6764    
   X4.7193       Y6.6708    
   X4.7108       Y6.6672    
   X4.7016       Y6.6660    
   X4.6924       Y6.6672    
   X4.6839       Y6.6708    
   X4.6766       Y6.6764    
   X4.6710       Y6.6837    
   X4.6674       Y6.6923    
   X4.6662       Y6.7014    
(Pass: 4)
   Z0.1875     F60  
   X4.6674       Y6.7106     F80  
   X4.6710       Y6.7191    
   X4.6766       Y6.7264    
   X4.6839       Y6.7321    
   X4.6924       Y6.7356    
   X4.7016       Y6.7368    
   X4.7108       Y6.7356    
   X4.7193       Y6.7321    
   X4.7266       Y6.7264    
   X4.7322       Y6.7191    
   X4.7358       Y6.7106    
   X4.7370       Y6.7014    
   X4.7358       Y6.6923    
   X4.7322       Y6.6837    
   X4.7266       Y6.6764    
   X4.7193       Y6.6708    
   X4.7108       Y6.6672    
   X4.7016       Y6.6660    
   X4.6924       Y6.6672    
   X4.6839       Y6.6708    
   X4.6766       Y6.6764    
   X4.6710       Y6.6837    
   X4.6674       Y6.6923    
   X4.6662       Y6.7014    
(Pass: 5)
   Z0.1719     F60  
   X4.6674       Y6.7106     F80  
   X4.6710       Y6.7191    
   X4.6766       Y6.7264    
   X4.6839       Y6.7321    
   X4.6924       Y6.7356    
   X4.7016       Y6.7368    
   X4.7108       Y6.7356    
   X4.7193       Y6.7321    
   X4.7266       Y6.7264    
   X4.7322       Y6.7191    
   X4.7358       Y6.7106    
   X4.7370       Y6.7014    
   X4.7358       Y6.6923    
   X4.7322       Y6.6837    
   X4.7266       Y6.6764    
   X4.7193       Y6.6708    
   X4.7108       Y6.6672    
   X4.7016       Y6.6660    
   X4.6924       Y6.6672    
   X4.6839       Y6.6708    
   X4.6766       Y6.6764    
   X4.6710       Y6.6837    
   X4.6674       Y6.6923    
   X4.6662       Y6.7014    
(Pass: 6)
   Z0.1562     F60  
   X4.6674       Y6.7106     F80  
   X4.6710       Y6.7191    
   X4.6766       Y6.7264    
   X4.6839       Y6.7321    
   X4.6924       Y6.7356    
   X4.7016       Y6.7368    
   X4.7108       Y6.7356    
   X4.7193       Y6.7321    
   X4.7266       Y6.7264    
   X4.7322       Y6.7191    
   X4.7358       Y6.7106    
   X4.7370       Y6.7014    
   X4.7358       Y6.6923    
   X4.7322       Y6.6837    
   X4.7266       Y6.6764    
   X4.7193       Y6.6708    
   X4.7108       Y6.6672    
   X4.7016       Y6.6660    
   X4.6924       Y6.6672    
   X4.6839       Y6.6708    
   X4.6766       Y6.6764    
   X4.6710       Y6.6837    
   X4.6674       Y6.6923    
   X4.6662       Y6.7014    
(Pass: 7)
   Z0.1406     F60  
   X4.6674       Y6.7106     F80  
   X4.6710       Y6.7191    
   X4.6766       Y6.7264    
   X4.6839       Y6.7321    
   X4.6924       Y6.7356    
   X4.7016       Y6.7368    
   X4.7108       Y6.7356    
   X4.7193       Y6.7321    
   X4.7266       Y6.7264    
   X4.7322       Y6.7191    
   X4.7358       Y6.7106    
   X4.7370       Y6.7014    
   X4.7358       Y6.6923    
   X4.7322       Y6.6837    
   X4.7266       Y6.6764    
   X4.7193       Y6.6708    
   X4.7108       Y6.6672    
   X4.7016       Y6.6660    
   X4.6924       Y6.6672    
   X4.6839       Y6.6708    
   X4.6766       Y6.6764    
   X4.6710       Y6.6837    
   X4.6674       Y6.6923    
   X4.6662       Y6.7014    
(Pass: 8)
   Z0.1250     F60  
   X4.6674       Y6.7106     F80  
   X4.6710       Y6.7191    
   X4.6766       Y6.7264    
   X4.6839       Y6.7321    
   X4.6924       Y6.7356    
   X4.7016       Y6.7368    
   X4.7108       Y6.7356    
   X4.7193       Y6.7321    
   X4.7266       Y6.7264    
   X4.7322       Y6.7191    
   X4.7358       Y6.7106    
   X4.7370       Y6.7014    
   X4.7358       Y6.6923    
   X4.7322       Y6.6837    
   X4.7266       Y6.6764    
   X4.7193       Y6.6708    
   X4.7108       Y6.6672    
   X4.7016       Y6.6660    
   X4.6924       Y6.6672    
   X4.6839       Y6.6708    
   X4.6766       Y6.6764    
   X4.6710       Y6.6837    
   X4.6674       Y6.6923    
   X4.6662       Y6.7014    
(Pass: 9)
   Z0.1094     F60  
   X4.6674       Y6.7106     F80  
   X4.6710       Y6.7191    
   X4.6766       Y6.7264    
   X4.6839       Y6.7321    
   X4.6924       Y6.7356    
   X4.7016       Y6.7368    
   X4.7108       Y6.7356    
   X4.7193       Y6.7321    
   X4.7266       Y6.7264    
   X4.7322       Y6.7191    
   X4.7358       Y6.7106    
   X4.7370       Y6.7014    
   X4.7358       Y6.6923    
   X4.7322       Y6.6837    
   X4.7266       Y6.6764    
   X4.7193       Y6.6708    
   X4.7108       Y6.6672    
   X4.7016       Y6.6660    
   X4.6924       Y6.6672    
   X4.6839       Y6.6708    
   X4.6766       Y6.6764    
   X4.6710       Y6.6837    
   X4.6674       Y6.6923    
   X4.6662       Y6.7014    
(Pass: 10)
   Z0.0938     F60  
   X4.6674       Y6.7106     F80  
   X4.6710       Y6.7191    
   X4.6766       Y6.7264    
   X4.6839       Y6.7321    
   X4.6924       Y6.7356    
   X4.7016       Y6.7368    
   X4.7108       Y6.7356    
   X4.7193       Y6.7321    
   X4.7266       Y6.7264    
   X4.7322       Y6.7191    
   X4.7358       Y6.7106    
   X4.7370       Y6.7014    
   X4.7358       Y6.6923    
   X4.7322       Y6.6837    
   X4.7266       Y6.6764    
   X4.7193       Y6.6708    
   X4.7108       Y6.6672    
   X4.7016       Y6.6660    
   X4.6924       Y6.6672    
   X4.6839       Y6.6708    
   X4.6766       Y6.6764    
   X4.6710       Y6.6837    
   X4.6674       Y6.6923    
   X4.6662       Y6.7014    
(Pass: 11)
   Z0.0781     F60  
   X4.6674       Y6.7106     F80  
   X4.6710       Y6.7191    
   X4.6766       Y6.7264    
   X4.6839       Y6.7321    
   X4.6924       Y6.7356    
   X4.7016       Y6.7368    
   X4.7108       Y6.7356    
   X4.7193       Y6.7321    
   X4.7266       Y6.7264    
   X4.7322       Y6.7191    
   X4.7358       Y6.7106    
   X4.7370       Y6.7014    
   X4.7358       Y6.6923    
   X4.7322       Y6.6837    
   X4.7266       Y6.6764    
   X4.7193       Y6.6708    
   X4.7108       Y6.6672    
   X4.7016       Y6.6660    
   X4.6924       Y6.6672    
   X4.6839       Y6.6708    
   X4.6766       Y6.6764    
   X4.6710       Y6.6837    
   X4.6674       Y6.6923    
   X4.6662       Y6.7014    
(Pass: 12)
   Z0.0625     F60  
   X4.6674       Y6.7106     F80  
   X4.6710       Y6.7191    
   X4.6766       Y6.7264    
   X4.6839       Y6.7321    
   X4.6924       Y6.7356    
   X4.7016       Y6.7368    
   X4.7108       Y6.7356    
   X4.7193       Y6.7321    
   X4.7266       Y6.7264    
   X4.7322       Y6.7191    
   X4.7358       Y6.7106    
   X4.7370       Y6.7014    
   X4.7358       Y6.6923    
   X4.7322       Y6.6837    
   X4.7266       Y6.6764    
   X4.7193       Y6.6708    
   X4.7108       Y6.6672    
   X4.7016       Y6.6660    
   X4.6924       Y6.6672    
   X4.6839       Y6.6708    
   X4.6766       Y6.6764    
   X4.6710       Y6.6837    
   X4.6674       Y6.6923    
   X4.6662       Y6.7014    
(Pass: 13)
   Z0.0469     F60  
   X4.6674       Y6.7106     F80  
   X4.6710       Y6.7191    
   X4.6766       Y6.7264    
   X4.6839       Y6.7321    
   X4.6924       Y6.7356    
   X4.7016       Y6.7368    
   X4.7108       Y6.7356    
   X4.7193       Y6.7321    
   X4.7266       Y6.7264    
   X4.7322       Y6.7191    
   X4.7358       Y6.7106    
   X4.7370       Y6.7014    
   X4.7358       Y6.6923    
   X4.7322       Y6.6837    
   X4.7266       Y6.6764    
   X4.7193       Y6.6708    
   X4.7108       Y6.6672    
   X4.7016       Y6.6660    
   X4.6924       Y6.6672    
   X4.6839       Y6.6708    
   X4.6766       Y6.6764    
   X4.6710       Y6.6837    
   X4.6674       Y6.6923    
   X4.6662       Y6.7014    
(Pass: 14)
   Z0.0312     F60  
   X4.6674       Y6.7106     F80  
   X4.6710       Y6.7191    
   X4.6766       Y6.7264    
   X4.6839       Y6.7321    
   X4.6924       Y6.7356    
   X4.7016       Y6.7368    
   X4.7108       Y6.7356    
   X4.7193       Y6.7321    
   X4.7266       Y6.7264    
   X4.7322       Y6.7191    
   X4.7358       Y6.7106    
   X4.7370       Y6.7014    
   X4.7358       Y6.6923    
   X4.7322       Y6.6837    
   X4.7266       Y6.6764    
   X4.7193       Y6.6708    
   X4.7108       Y6.6672    
   X4.7016       Y6.6660    
   X4.6924       Y6.6672    
   X4.6839       Y6.6708    
   X4.6766       Y6.6764    
   X4.6710       Y6.6837    
   X4.6674       Y6.6923    
   X4.6662       Y6.7014    
(Pass: 15)
   Z0.0156     F60  
   X4.6674       Y6.7106     F80  
   X4.6710       Y6.7191    
   X4.6766       Y6.7264    
   X4.6839       Y6.7321    
   X4.6924       Y6.7356    
   X4.7016       Y6.7368    
   X4.7108       Y6.7356    
   X4.7193       Y6.7321    
   X4.7266       Y6.7264    
   X4.7322       Y6.7191    
   X4.7358       Y6.7106    
   X4.7370       Y6.7014    
   X4.7358       Y6.6923    
   X4.7322       Y6.6837    
   X4.7266       Y6.6764    
   X4.7193       Y6.6708    
   X4.7108       Y6.6672    
   X4.7016       Y6.6660    
   X4.6924       Y6.6672    
   X4.6839       Y6.6708    
   X4.6766       Y6.6764    
   X4.6710       Y6.6837    
   X4.6674       Y6.6923    
   X4.6662       Y6.7014    
(Pass: 16)
   Z0.0000     F60  
   X4.6674       Y6.7106     F80  
   X4.6710       Y6.7191    
   X4.6766       Y6.7264    
   X4.6839       Y6.7321    
   X4.6924       Y6.7356    
   X4.7016       Y6.7368    
   X4.7108       Y6.7356    
   X4.7193       Y6.7321    
   X4.7266       Y6.7264    
   X4.7322       Y6.7191    
   X4.7358       Y6.7106    
   X4.7370       Y6.7014    
   X4.7358       Y6.6923    
   X4.7322       Y6.6837    
   X4.7266       Y6.6764    
   X4.7193       Y6.6708    
   X4.7108       Y6.6672    
   X4.7016       Y6.6660    
   X4.6924       Y6.6672    
   X4.6839       Y6.6708    
   X4.6766       Y6.6764    
   X4.6710       Y6.6837    
   X4.6674       Y6.6923    
   X4.6662       Y6.7014    
G0   Z0.3750    
(Pass: 1)
   X5.3068       Y5.9784    
G1   Z0.2344     F60  
   X5.3141       Y5.9840     F80  
   X5.3226       Y5.9876    
   X5.3318       Y5.9888    
   X5.3410       Y5.9876    
   X5.3495       Y5.9840    
   X5.3568       Y5.9784    
   X5.3624       Y5.9711    
   X5.3660       Y5.9625    
   X5.3672       Y5.9534    
   X5.3660       Y5.9442    
   X5.3624       Y5.9357    
   X5.3568       Y5.9284    
   X5.3495       Y5.9227    
   X5.3410       Y5.9192    
   X5.3318       Y5.9180    
   X5.3226       Y5.9192    
   X5.3141       Y5.9227    
   X5.3068       Y5.9284    
   X5.3012       Y5.9357    
   X5.2976       Y5.9442    
   X5.2964       Y5.9534    
   X5.2976       Y5.9625    
   X5.3012       Y5.9711    
   X5.3068       Y5.9784    
(Pass: 2)
   Z0.2188     F60  
   X5.3141       Y5.9840     F80  
   X5.3226       Y5.9876    
   X5.3318       Y5.9888    
   X5.3410       Y5.9876    
   X5.3495       Y5.9840    
   X5.3568       Y5.9784    
   X5.3624       Y5.9711    
   X5.3660       Y5.9625    
   X5.3672       Y5.9534    
   X5.3660       Y5.9442    
   X5.3624       Y5.9357    
   X5.3568       Y5.9284    
   X5.3495       Y5.9227    
   X5.3410       Y5.9192    
   X5.3318       Y5.9180    
   X5.3226       Y5.9192    
   X5.3141       Y5.9227    
   X5.3068       Y5.9284    
   X5.3012       Y5.9357    
   X5.2976       Y5.9442    
   X5.2964       Y5.9534    
   X5.2976       Y5.9625    
   X5.3012       Y5.9711    
   X5.3068       Y5.9784    
(Pass: 3)
   Z0.2031     F60  
   X5.3141       Y5.9840     F80  
   X5.3226       Y5.9876    
   X5.3318       Y5.9888    
   X5.3410       Y5.9876    
   X5.3495       Y5.9840    
   X5.3568       Y5.9784    
   X5.3624       Y5.9711    
   X5.3660       Y5.9625    
   X5.3672       Y5.9534    
   X5.3660       Y5.9442    
   X5.3624       Y5.9357    
   X5.3568       Y5.9284    
   X5.3495       Y5.9227    
   X5.3410       Y5.9192    
   X5.3318       Y5.9180    
   X5.3226       Y5.9192    
   X5.3141       Y5.9227    
   X5.3068       Y5.9284    
   X5.3012       Y5.9357    
   X5.2976       Y5.9442    
   X5.2964       Y5.9534    
   X5.2976       Y5.9625    
   X5.3012       Y5.9711    
   X5.3068       Y5.9784    
(Pass: 4)
   Z0.1875     F60  
   X5.3141       Y5.9840     F80  
   X5.3226       Y5.9876    
   X5.3318       Y5.9888    
   X5.3410       Y5.9876    
   X5.3495       Y5.9840    
   X5.3568       Y5.9784    
   X5.3624       Y5.9711    
   X5.3660       Y5.9625    
   X5.3672       Y5.9534    
   X5.3660       Y5.9442    
   X5.3624       Y5.9357    
   X5.3568       Y5.9284    
   X5.3495       Y5.9227    
   X5.3410       Y5.9192    
   X5.3318       Y5.9180    
   X5.3226       Y5.9192    
   X5.3141       Y5.9227    
   X5.3068       Y5.9284    
   X5.3012       Y5.9357    
   X5.2976       Y5.9442    
   X5.2964       Y5.9534    
   X5.2976       Y5.9625    
   X5.3012       Y5.9711    
   X5.3068       Y5.9784    
(Pass: 5)
   Z0.1719     F60  
   X5.3141       Y5.9840     F80  
   X5.3226       Y5.9876    
   X5.3318       Y5.9888    
   X5.3410       Y5.9876    
   X5.3495       Y5.9840    
   X5.3568       Y5.9784    
   X5.3624       Y5.9711    
   X5.3660       Y5.9625    
   X5.3672       Y5.9534    
   X5.3660       Y5.9442    
   X5.3624       Y5.9357    
   X5.3568       Y5.9284    
   X5.3495       Y5.9227    
   X5.3410       Y5.9192    
   X5.3318       Y5.9180    
   X5.3226       Y5.9192    
   X5.3141       Y5.9227    
   X5.3068       Y5.9284    
   X5.3012       Y5.9357    
   X5.2976       Y5.9442    
   X5.2964       Y5.9534    
   X5.2976       Y5.9625    
   X5.3012       Y5.9711    
   X5.3068       Y5.9784    
(Pass: 6)
   Z0.1562     F60  
   X5.3141       Y5.9840     F80  
   X5.3226       Y5.9876    
   X5.3318       Y5.9888    
   X5.3410       Y5.9876    
   X5.3495       Y5.9840    
   X5.3568       Y5.9784    
   X5.3624       Y5.9711    
   X5.3660       Y5.9625    
   X5.3672       Y5.9534    
   X5.3660       Y5.9442    
   X5.3624       Y5.9357    
   X5.3568       Y5.9284    
   X5.3495       Y5.9227    
   X5.3410       Y5.9192    
   X5.3318       Y5.9180    
   X5.3226       Y5.9192    
   X5.3141       Y5.9227    
   X5.3068       Y5.9284    
   X5.3012       Y5.9357    
   X5.2976       Y5.9442    
   X5.2964       Y5.9534    
   X5.2976       Y5.9625    
   X5.3012       Y5.9711    
   X5.3068       Y5.9784    
(Pass: 7)
   Z0.1406     F60  
   X5.3141       Y5.9840     F80  
   X5.3226       Y5.9876    
   X5.3318       Y5.9888    
   X5.3410       Y5.9876    
   X5.3495       Y5.9840    
   X5.3568       Y5.9784    
   X5.3624       Y5.9711    
   X5.3660       Y5.9625    
   X5.3672       Y5.9534    
   X5.3660       Y5.9442    
   X5.3624       Y5.9357    
   X5.3568       Y5.9284    
   X5.3495       Y5.9227    
   X5.3410       Y5.9192    
   X5.3318       Y5.9180    
   X5.3226       Y5.9192    
   X5.3141       Y5.9227    
   X5.3068       Y5.9284    
   X5.3012       Y5.9357    
   X5.2976       Y5.9442    
   X5.2964       Y5.9534    
   X5.2976       Y5.9625    
   X5.3012       Y5.9711    
   X5.3068       Y5.9784    
(Pass: 8)
   Z0.1250     F60  
   X5.3141       Y5.9840     F80  
   X5.3226       Y5.9876    
   X5.3318       Y5.9888    
   X5.3410       Y5.9876    
   X5.3495       Y5.9840    
   X5.3568       Y5.9784    
   X5.3624       Y5.9711    
   X5.3660       Y5.9625    
   X5.3672       Y5.9534    
   X5.3660       Y5.9442    
   X5.3624       Y5.9357    
   X5.3568       Y5.9284    
   X5.3495       Y5.9227    
   X5.3410       Y5.9192    
   X5.3318       Y5.9180    
   X5.3226       Y5.9192    
   X5.3141       Y5.9227    
   X5.3068       Y5.9284    
   X5.3012       Y5.9357    
   X5.2976       Y5.9442    
   X5.2964       Y5.9534    
   X5.2976       Y5.9625    
   X5.3012       Y5.9711    
   X5.3068       Y5.9784    
(Pass: 9)
   Z0.1094     F60  
   X5.3141       Y5.9840     F80  
   X5.3226       Y5.9876    
   X5.3318       Y5.9888    
   X5.3410       Y5.9876    
   X5.3495       Y5.9840    
   X5.3568       Y5.9784    
   X5.3624       Y5.9711    
   X5.3660       Y5.9625    
   X5.3672       Y5.9534    
   X5.3660       Y5.9442    
   X5.3624       Y5.9357    
   X5.3568       Y5.9284    
   X5.3495       Y5.9227    
   X5.3410       Y5.9192    
   X5.3318       Y5.9180    
   X5.3226       Y5.9192    
   X5.3141       Y5.9227    
   X5.3068       Y5.9284    
   X5.3012       Y5.9357    
   X5.2976       Y5.9442    
   X5.2964       Y5.9534    
   X5.2976       Y5.9625    
   X5.3012       Y5.9711    
   X5.3068       Y5.9784    
(Pass: 10)
   Z0.0938     F60  
   X5.3141       Y5.9840     F80  
   X5.3226       Y5.9876    
   X5.3318       Y5.9888    
   X5.3410       Y5.9876    
   X5.3495       Y5.9840    
   X5.3568       Y5.9784    
   X5.3624       Y5.9711    
   X5.3660       Y5.9625    
   X5.3672       Y5.9534    
   X5.3660       Y5.9442    
   X5.3624       Y5.9357    
   X5.3568       Y5.9284    
   X5.3495       Y5.9227    
   X5.3410       Y5.9192    
   X5.3318       Y5.9180    
   X5.3226       Y5.9192    
   X5.3141       Y5.9227    
   X5.3068       Y5.9284    
   X5.3012       Y5.9357    
   X5.2976       Y5.9442    
   X5.2964       Y5.9534    
   X5.2976       Y5.9625    
   X5.3012       Y5.9711    
   X5.3068       Y5.9784    
(Pass: 11)
   Z0.0781     F60  
   X5.3141       Y5.9840     F80  
   X5.3226       Y5.9876    
   X5.3318       Y5.9888    
   X5.3410       Y5.9876    
   X5.3495       Y5.9840    
   X5.3568       Y5.9784    
   X5.3624       Y5.9711    
   X5.3660       Y5.9625    
   X5.3672       Y5.9534    
   X5.3660       Y5.9442    
   X5.3624       Y5.9357    
   X5.3568       Y5.9284    
   X5.3495       Y5.9227    
   X5.3410       Y5.9192    
   X5.3318       Y5.9180    
   X5.3226       Y5.9192    
   X5.3141       Y5.9227    
   X5.3068       Y5.9284    
   X5.3012       Y5.9357    
   X5.2976       Y5.9442    
   X5.2964       Y5.9534    
   X5.2976       Y5.9625    
   X5.3012       Y5.9711    
   X5.3068       Y5.9784    
(Pass: 12)
   Z0.0625     F60  
   X5.3141       Y5.9840     F80  
   X5.3226       Y5.9876    
   X5.3318       Y5.9888    
   X5.3410       Y5.9876    
   X5.3495       Y5.9840    
   X5.3568       Y5.9784    
   X5.3624       Y5.9711    
   X5.3660       Y5.9625    
   X5.3672       Y5.9534    
   X5.3660       Y5.9442    
   X5.3624       Y5.9357    
   X5.3568       Y5.9284    
   X5.3495       Y5.9227    
   X5.3410       Y5.9192    
   X5.3318       Y5.9180    
   X5.3226       Y5.9192    
   X5.3141       Y5.9227    
   X5.3068       Y5.9284    
   X5.3012       Y5.9357    
   X5.2976       Y5.9442    
   X5.2964       Y5.9534    
   X5.2976       Y5.9625    
   X5.3012       Y5.9711    
   X5.3068       Y5.9784    
(Pass: 13)
   Z0.0469     F60  
   X5.3141       Y5.9840     F80  
   X5.3226       Y5.9876    
   X5.3318       Y5.9888    
   X5.3410       Y5.9876    
   X5.3495       Y5.9840    
   X5.3568       Y5.9784    
   X5.3624       Y5.9711    
   X5.3660       Y5.9625    
   X5.3672       Y5.9534    
   X5.3660       Y5.9442    
   X5.3624       Y5.9357    
   X5.3568       Y5.9284    
   X5.3495       Y5.9227    
   X5.3410       Y5.9192    
   X5.3318       Y5.9180    
   X5.3226       Y5.9192    
   X5.3141       Y5.9227    
   X5.3068       Y5.9284    
   X5.3012       Y5.9357    
   X5.2976       Y5.9442    
   X5.2964       Y5.9534    
   X5.2976       Y5.9625    
   X5.3012       Y5.9711    
   X5.3068       Y5.9784    
(Pass: 14)
   Z0.0312     F60  
   X5.3141       Y5.9840     F80  
   X5.3226       Y5.9876    
   X5.3318       Y5.9888    
   X5.3410       Y5.9876    
   X5.3495       Y5.9840    
   X5.3568       Y5.9784    
   X5.3624       Y5.9711    
   X5.3660       Y5.9625    
   X5.3672       Y5.9534    
   X5.3660       Y5.9442    
   X5.3624       Y5.9357    
   X5.3568       Y5.9284    
   X5.3495       Y5.9227    
   X5.3410       Y5.9192    
   X5.3318       Y5.9180    
   X5.3226       Y5.9192    
   X5.3141       Y5.9227    
   X5.3068       Y5.9284    
   X5.3012       Y5.9357    
   X5.2976       Y5.9442    
   X5.2964       Y5.9534    
   X5.2976       Y5.9625    
   X5.3012       Y5.9711    
   X5.3068       Y5.9784    
(Pass: 15)
   Z0.0156     F60  
   X5.3141       Y5.9840     F80  
   X5.3226       Y5.9876    
   X5.3318       Y5.9888    
   X5.3410       Y5.9876    
   X5.3495       Y5.9840    
   X5.3568       Y5.9784    
   X5.3624       Y5.9711    
   X5.3660       Y5.9625    
   X5.3672       Y5.9534    
   X5.3660       Y5.9442    
   X5.3624       Y5.9357    
   X5.3568       Y5.9284    
   X5.3495       Y5.9227    
   X5.3410       Y5.9192    
   X5.3318       Y5.9180    
   X5.3226       Y5.9192    
   X5.3141       Y5.9227    
   X5.3068       Y5.9284    
   X5.3012       Y5.9357    
   X5.2976       Y5.9442    
   X5.2964       Y5.9534    
   X5.2976       Y5.9625    
   X5.3012       Y5.9711    
   X5.3068       Y5.9784    
(Pass: 16)
   Z0.0000     F60  
   X5.3141       Y5.9840     F80  
   X5.3226       Y5.9876    
   X5.3318       Y5.9888    
   X5.3410       Y5.9876    
   X5.3495       Y5.9840    
   X5.3568       Y5.9784    
   X5.3624       Y5.9711    
   X5.3660       Y5.9625    
   X5.3672       Y5.9534    
   X5.3660       Y5.9442    
   X5.3624       Y5.9357    
   X5.3568       Y5.9284    
   X5.3495       Y5.9227    
   X5.3410       Y5.9192    
   X5.3318       Y5.9180    
   X5.3226       Y5.9192    
   X5.3141       Y5.9227    
   X5.3068       Y5.9284    
   X5.3012       Y5.9357    
   X5.2976       Y5.9442    
   X5.2964       Y5.9534    
   X5.2976       Y5.9625    
   X5.3012       Y5.9711    
   X5.3068       Y5.9784    
G0   Z0.3750    
(Pass: 1)
   X5.9648       Y5.7897    
G1   Z0.2344     F60  
   X5.9684       Y5.7982     F80  
   X5.9740       Y5.8055    
   X5.9813       Y5.8112    
   X5.9899       Y5.8147    
   X5.9990       Y5.8159    
   X6.0082       Y5.8147    
   X6.0167       Y5.8112    
   X6.0240       Y5.8055    
   X6.0297       Y5.7982    
   X6.0332       Y5.7897    
   X6.0344       Y5.7805    
   X6.0332       Y5.7714    
   X6.0297       Y5.7628    
   X6.0240       Y5.7555    
   X6.0167       Y5.7499    
   X6.0082       Y5.7463    
   X5.9990       Y5.7451    
   X5.9899       Y5.7463    
   X5.9813       Y5.7499    
   X5.9740       Y5.7555    
   X5.9684       Y5.7628    
   X5.9648       Y5.7714    
   X5.9636       Y5.7805    
   X5.9648       Y5.7897    
(Pass: 2)
   Z0.2188     F60  
   X5.9684       Y5.7982     F80  
   X5.9740       Y5.8055    
   X5.9813       Y5.8112    
   X5.9899       Y5.8147    
   X5.9990       Y5.8159    
   X6.0082       Y5.8147    
   X6.0167       Y5.8112    
   X6.0240       Y5.8055    
   X6.0297       Y5.7982    
   X6.0332       Y5.7897    
   X6.0344       Y5.7805    
   X6.0332       Y5.7714    
   X6.0297       Y5.7628    
   X6.0240       Y5.7555    
   X6.0167       Y5.7499    
   X6.0082       Y5.7463    
   X5.9990       Y5.7451    
   X5.9899       Y5.7463    
   X5.9813       Y5.7499    
   X5.9740       Y5.7555    
   X5.9684       Y5.7628    
   X5.9648       Y5.7714    
   X5.9636       Y5.7805    
   X5.9648       Y5.7897    
(Pass: 3)
   Z0.2031     F60  
   X5.9684       Y5.7982     F80  
   X5.9740       Y5.8055    
   X5.9813       Y5.8112    
   X5.9899       Y5.8147    
   X5.9990       Y5.8159    
   X6.0082       Y5.8147    
   X6.0167       Y5.8112    
   X6.0240       Y5.8055    
   X6.0297       Y5.7982    
   X6.0332       Y5.7897    
   X6.0344       Y5.7805    
   X6.0332       Y5.7714    
   X6.0297       Y5.7628    
   X6.0240       Y5.7555    
   X6.0167       Y5.7499    
   X6.0082       Y5.7463    
   X5.9990       Y5.7451    
   X5.9899       Y5.7463    
   X5.9813       Y5.7499    
   X5.9740       Y5.7555    
   X5.9684       Y5.7628    
   X5.9648       Y5.7714    
   X5.9636       Y5.7805    
   X5.9648       Y5.7897    
(Pass: 4)
   Z0.1875     F60  
   X5.9684       Y5.7982     F80  
   X5.9740       Y5.8055    
   X5.9813       Y5.8112    
   X5.9899       Y5.8147    
   X5.9990       Y5.8159    
   X6.0082       Y5.8147    
   X6.0167       Y5.8112    
   X6.0240       Y5.8055    
   X6.0297       Y5.7982    
   X6.0332       Y5.7897    
   X6.0344       Y5.7805    
   X6.0332       Y5.7714    
   X6.0297       Y5.7628    
   X6.0240       Y5.7555    
   X6.0167       Y5.7499    
   X6.0082       Y5.7463    
   X5.9990       Y5.7451    
   X5.9899       Y5.7463    
   X5.9813       Y5.7499    
   X5.9740       Y5.7555    
   X5.9684       Y5.7628    
   X5.9648       Y5.7714    
   X5.9636       Y5.7805    
   X5.9648       Y5.7897    
(Pass: 5)
   Z0.1719     F60  
   X5.9684       Y5.7982     F80  
   X5.9740       Y5.8055    
   X5.9813       Y5.8112    
   X5.9899       Y5.8147    
   X5.9990       Y5.8159    
   X6.0082       Y5.8147    
   X6.0167       Y5.8112    
   X6.0240       Y5.8055    
   X6.0297       Y5.7982    
   X6.0332       Y5.7897    
   X6.0344       Y5.7805    
   X6.0332       Y5.7714    
   X6.0297       Y5.7628    
   X6.0240       Y5.7555    
   X6.0167       Y5.7499    
   X6.0082       Y5.7463    
   X5.9990       Y5.7451    
   X5.9899       Y5.7463    
   X5.9813       Y5.7499    
   X5.9740       Y5.7555    
   X5.9684       Y5.7628    
   X5.9648       Y5.7714    
   X5.9636       Y5.7805    
   X5.9648       Y5.7897    
(Pass: 6)
   Z0.1562     F60  
   X5.9684       Y5.7982     F80  
   X5.9740       Y5.8055    
   X5.9813       Y5.8112    
   X5.9899       Y5.8147    
   X5.9990       Y5.8159    
   X6.0082       Y5.8147    
   X6.0167       Y5.8112    
   X6.0240       Y5.8055    
   X6.0297       Y5.7982    
   X6.0332       Y5.7897    
   X6.0344       Y5.7805    
   X6.0332       Y5.7714    
   X6.0297       Y5.7628    
   X6.0240       Y5.7555    
   X6.0167       Y5.7499    
   X6.0082       Y5.7463    
   X5.9990       Y5.7451    
   X5.9899       Y5.7463    
   X5.9813       Y5.7499    
   X5.9740       Y5.7555    
   X5.9684       Y5.7628    
   X5.9648       Y5.7714    
   X5.9636       Y5.7805    
   X5.9648       Y5.7897    
(Pass: 7)
   Z0.1406     F60  
   X5.9684       Y5.7982     F80  
   X5.9740       Y5.8055    
   X5.9813       Y5.8112    
   X5.9899       Y5.8147    
   X5.9990       Y5.8159    
   X6.0082       Y5.8147    
   X6.0167       Y5.8112    
   X6.0240       Y5.8055    
   X6.0297       Y5.7982    
   X6.0332       Y5.7897    
   X6.0344       Y5.7805    
   X6.0332       Y5.7714    
   X6.0297       Y5.7628    
   X6.0240       Y5.7555    
   X6.0167       Y5.7499    
   X6.0082       Y5.7463    
   X5.9990       Y5.7451    
   X5.9899       Y5.7463    
   X5.9813       Y5.7499    
   X5.9740       Y5.7555    
   X5.9684       Y5.7628    
   X5.9648       Y5.7714    
   X5.9636       Y5.7805    
   X5.9648       Y5.7897    
(Pass: 8)
   Z0.1250     F60  
   X5.9684       Y5.7982     F80  
   X5.9740       Y5.8055    
   X5.9813       Y5.8112    
   X5.9899       Y5.8147    
   X5.9990       Y5.8159    
   X6.0082       Y5.8147    
   X6.0167       Y5.8112    
   X6.0240       Y5.8055    
   X6.0297       Y5.7982    
   X6.0332       Y5.7897    
   X6.0344       Y5.7805    
   X6.0332       Y5.7714    
   X6.0297       Y5.7628    
   X6.0240       Y5.7555    
   X6.0167       Y5.7499    
   X6.0082       Y5.7463    
   X5.9990       Y5.7451    
   X5.9899       Y5.7463    
   X5.9813       Y5.7499    
   X5.9740       Y5.7555    
   X5.9684       Y5.7628    
   X5.9648       Y5.7714    
   X5.9636       Y5.7805    
   X5.9648       Y5.7897    
(Pass: 9)
   Z0.1094     F60  
   X5.9684       Y5.7982     F80  
   X5.9740       Y5.8055    
   X5.9813       Y5.8112    
   X5.9899       Y5.8147    
   X5.9990       Y5.8159    
   X6.0082       Y5.8147    
   X6.0167       Y5.8112    
   X6.0240       Y5.8055    
   X6.0297       Y5.7982    
   X6.0332       Y5.7897    
   X6.0344       Y5.7805    
   X6.0332       Y5.7714    
   X6.0297       Y5.7628    
   X6.0240       Y5.7555    
   X6.0167       Y5.7499    
   X6.0082       Y5.7463    
   X5.9990       Y5.7451    
   X5.9899       Y5.7463    
   X5.9813       Y5.7499    
   X5.9740       Y5.7555    
   X5.9684       Y5.7628    
   X5.9648       Y5.7714    
   X5.9636       Y5.7805    
   X5.9648       Y5.7897    
(Pass: 10)
   Z0.0938     F60  
   X5.9684       Y5.7982     F80  
   X5.9740       Y5.8055    
   X5.9813       Y5.8112    
   X5.9899       Y5.8147    
   X5.9990       Y5.8159    
   X6.0082       Y5.8147    
   X6.0167       Y5.8112    
   X6.0240       Y5.8055    
   X6.0297       Y5.7982    
   X6.0332       Y5.7897    
   X6.0344       Y5.7805    
   X6.0332       Y5.7714    
   X6.0297       Y5.7628    
   X6.0240       Y5.7555    
   X6.0167       Y5.7499    
   X6.0082       Y5.7463    
   X5.9990       Y5.7451    
   X5.9899       Y5.7463    
   X5.9813       Y5.7499    
   X5.9740       Y5.7555    
   X5.9684       Y5.7628    
   X5.9648       Y5.7714    
   X5.9636       Y5.7805    
   X5.9648       Y5.7897    
(Pass: 11)
   Z0.0781     F60  
   X5.9684       Y5.7982     F80  
   X5.9740       Y5.8055    
   X5.9813       Y5.8112    
   X5.9899       Y5.8147    
   X5.9990       Y5.8159    
   X6.0082       Y5.8147    
   X6.0167       Y5.8112    
   X6.0240       Y5.8055    
   X6.0297       Y5.7982    
   X6.0332       Y5.7897    
   X6.0344       Y5.7805    
   X6.0332       Y5.7714    
   X6.0297       Y5.7628    
   X6.0240       Y5.7555    
   X6.0167       Y5.7499    
   X6.0082       Y5.7463    
   X5.9990       Y5.7451    
   X5.9899       Y5.7463    
   X5.9813       Y5.7499    
   X5.9740       Y5.7555    
   X5.9684       Y5.7628    
   X5.9648       Y5.7714    
   X5.9636       Y5.7805    
   X5.9648       Y5.7897    
(Pass: 12)
   Z0.0625     F60  
   X5.9684       Y5.7982     F80  
   X5.9740       Y5.8055    
   X5.9813       Y5.8112    
   X5.9899       Y5.8147    
   X5.9990       Y5.8159    
   X6.0082       Y5.8147    
   X6.0167       Y5.8112    
   X6.0240       Y5.8055    
   X6.0297       Y5.7982    
   X6.0332       Y5.7897    
   X6.0344       Y5.7805    
   X6.0332       Y5.7714    
   X6.0297       Y5.7628    
   X6.0240       Y5.7555    
   X6.0167       Y5.7499    
   X6.0082       Y5.7463    
   X5.9990       Y5.7451    
   X5.9899       Y5.7463    
   X5.9813       Y5.7499    
   X5.9740       Y5.7555    
   X5.9684       Y5.7628    
   X5.9648       Y5.7714    
   X5.9636       Y5.7805    
   X5.9648       Y5.7897    
(Pass: 13)
   Z0.0469     F60  
   X5.9684       Y5.7982     F80  
   X5.9740       Y5.8055    
   X5.9813       Y5.8112    
   X5.9899       Y5.8147    
   X5.9990       Y5.8159    
   X6.0082       Y5.8147    
   X6.0167       Y5.8112    
   X6.0240       Y5.8055    
   X6.0297       Y5.7982    
   X6.0332       Y5.7897    
   X6.0344       Y5.7805    
   X6.0332       Y5.7714    
   X6.0297       Y5.7628    
   X6.0240       Y5.7555    
   X6.0167       Y5.7499    
   X6.0082       Y5.7463    
   X5.9990       Y5.7451    
   X5.9899       Y5.7463    
   X5.9813       Y5.7499    
   X5.9740       Y5.7555    
   X5.9684       Y5.7628    
   X5.9648       Y5.7714    
   X5.9636       Y5.7805    
   X5.9648       Y5.7897    
(Pass: 14)
   Z0.0312     F60  
   X5.9684       Y5.7982     F80  
   X5.9740       Y5.8055    
   X5.9813       Y5.8112    
   X5.9899       Y5.8147    
   X5.9990       Y5.8159    
   X6.0082       Y5.8147    
   X6.0167       Y5.8112    
   X6.0240       Y5.8055    
   X6.0297       Y5.7982    
   X6.0332       Y5.7897    
   X6.0344       Y5.7805    
   X6.0332       Y5.7714    
   X6.0297       Y5.7628    
   X6.0240       Y5.7555    
   X6.0167       Y5.7499    
   X6.0082       Y5.7463    
   X5.9990       Y5.7451    
   X5.9899       Y5.7463    
   X5.9813       Y5.7499    
   X5.9740       Y5.7555    
   X5.9684       Y5.7628    
   X5.9648       Y5.7714    
   X5.9636       Y5.7805    
   X5.9648       Y5.7897    
(Pass: 15)
   Z0.0156     F60  
   X5.9684       Y5.7982     F80  
   X5.9740       Y5.8055    
   X5.9813       Y5.8112    
   X5.9899       Y5.8147    
   X5.9990       Y5.8159    
   X6.0082       Y5.8147    
   X6.0167       Y5.8112    
   X6.0240       Y5.8055    
   X6.0297       Y5.7982    
   X6.0332       Y5.7897    
   X6.0344       Y5.7805    
   X6.0332       Y5.7714    
   X6.0297       Y5.7628    
   X6.0240       Y5.7555    
   X6.0167       Y5.7499    
   X6.0082       Y5.7463    
   X5.9990       Y5.7451    
   X5.9899       Y5.7463    
   X5.9813       Y5.7499    
   X5.9740       Y5.7555    
   X5.9684       Y5.7628    
   X5.9648       Y5.7714    
   X5.9636       Y5.7805    
   X5.9648       Y5.7897    
(Pass: 16)
   Z0.0000     F60  
   X5.9684       Y5.7982     F80  
   X5.9740       Y5.8055    
   X5.9813       Y5.8112    
   X5.9899       Y5.8147    
   X5.9990       Y5.8159    
   X6.0082       Y5.8147    
   X6.0167       Y5.8112    
   X6.0240       Y5.8055    
   X6.0297       Y5.7982    
   X6.0332       Y5.7897    
   X6.0344       Y5.7805    
   X6.0332       Y5.7714    
   X6.0297       Y5.7628    
   X6.0240       Y5.7555    
   X6.0167       Y5.7499    
   X6.0082       Y5.7463    
   X5.9990       Y5.7451    
   X5.9899       Y5.7463    
   X5.9813       Y5.7499    
   X5.9740       Y5.7555    
   X5.9684       Y5.7628    
   X5.9648       Y5.7714    
   X5.9636       Y5.7805    
   X5.9648       Y5.7897    
G0   Z0.3750    
(Pass: 1)
   X5.9990       Y6.5873    
G1   Z0.2344     F60  
   X5.9899       Y6.5885     F80  
   X5.9813       Y6.5920    
   X5.9740       Y6.5976    
   X5.9684       Y6.6050    
   X5.9648       Y6.6135    
   X5.9636       Y6.6227    
   X5.9648       Y6.6318    
   X5.9684       Y6.6404    
   X5.9740       Y6.6477    
   X5.9813       Y6.6533    
   X5.9899       Y6.6568    
   X5.9990       Y6.6581    
   X6.0082       Y6.6568    
   X6.0167       Y6.6533    
   X6.0240       Y6.6477    
   X6.0297       Y6.6404    
   X6.0332       Y6.6318    
   X6.0344       Y6.6227    
   X6.0332       Y6.6135    
   X6.0297       Y6.6050    
   X6.0240       Y6.5976    
   X6.0167       Y6.5920    
   X6.0082       Y6.5885    
   X5.9990       Y6.5873    
(Pass: 2)
   Z0.2188     F60  
   X5.9899       Y6.5885     F80  
   X5.9813       Y6.5920    
   X5.9740       Y6.5976    
   X5.9684       Y6.6050    
   X5.9648       Y6.6135    
   X5.9636       Y6.6227    
   X5.9648       Y6.6318    
   X5.9684       Y6.6404    
   X5.9740       Y6.6477    
   X5.9813       Y6.6533    
   X5.9899       Y6.6568    
   X5.9990       Y6.6581    
   X6.0082       Y6.6568    
   X6.0167       Y6.6533    
   X6.0240       Y6.6477    
   X6.0297       Y6.6404    
   X6.0332       Y6.6318    
   X6.0344       Y6.6227    
   X6.0332       Y6.6135    
   X6.0297       Y6.6050    
   X6.0240       Y6.5976    
   X6.0167       Y6.5920    
   X6.0082       Y6.5885    
   X5.9990       Y6.5873    
(Pass: 3)
   Z0.2031     F60  
   X5.9899       Y6.5885     F80  
   X5.9813       Y6.5920    
   X5.9740       Y6.5976    
   X5.9684       Y6.6050    
   X5.9648       Y6.6135    
   X5.9636       Y6.6227    
   X5.9648       Y6.6318    
   X5.9684       Y6.6404    
   X5.9740       Y6.6477    
   X5.9813       Y6.6533    
   X5.9899       Y6.6568    
   X5.9990       Y6.6581    
   X6.0082       Y6.6568    
   X6.0167       Y6.6533    
   X6.0240       Y6.6477    
   X6.0297       Y6.6404    
   X6.0332       Y6.6318    
   X6.0344       Y6.6227    
   X6.0332       Y6.6135    
   X6.0297       Y6.6050    
   X6.0240       Y6.5976    
   X6.0167       Y6.5920    
   X6.0082       Y6.5885    
   X5.9990       Y6.5873    
(Pass: 4)
   Z0.1875     F60  
   X5.9899       Y6.5885     F80  
   X5.9813       Y6.5920    
   X5.9740       Y6.5976    
   X5.9684       Y6.6050    
   X5.9648       Y6.6135    
   X5.9636       Y6.6227    
   X5.9648       Y6.6318    
   X5.9684       Y6.6404    
   X5.9740       Y6.6477    
   X5.9813       Y6.6533    
   X5.9899       Y6.6568    
   X5.9990       Y6.6581    
   X6.0082       Y6.6568    
   X6.0167       Y6.6533    
   X6.0240       Y6.6477    
   X6.0297       Y6.6404    
   X6.0332       Y6.6318    
   X6.0344       Y6.6227    
   X6.0332       Y6.6135    
   X6.0297       Y6.6050    
   X6.0240       Y6.5976    
   X6.0167       Y6.5920    
   X6.0082       Y6.5885    
   X5.9990       Y6.5873    
(Pass: 5)
   Z0.1719     F60  
   X5.9899       Y6.5885     F80  
   X5.9813       Y6.5920    
   X5.9740       Y6.5976    
   X5.9684       Y6.6050    
   X5.9648       Y6.6135    
   X5.9636       Y6.6227    
   X5.9648       Y6.6318    
   X5.9684       Y6.6404    
   X5.9740       Y6.6477    
   X5.9813       Y6.6533    
   X5.9899       Y6.6568    
   X5.9990       Y6.6581    
   X6.0082       Y6.6568    
   X6.0167       Y6.6533    
   X6.0240       Y6.6477    
   X6.0297       Y6.6404    
   X6.0332       Y6.6318    
   X6.0344       Y6.6227    
   X6.0332       Y6.6135    
   X6.0297       Y6.6050    
   X6.0240       Y6.5976    
   X6.0167       Y6.5920    
   X6.0082       Y6.5885    
   X5.9990       Y6.5873    
(Pass: 6)
   Z0.1562     F60  
   X5.9899       Y6.5885     F80  
   X5.9813       Y6.5920    
   X5.9740       Y6.5976    
   X5.9684       Y6.6050    
   X5.9648       Y6.6135    
   X5.9636       Y6.6227    
   X5.9648       Y6.6318    
   X5.9684       Y6.6404    
   X5.9740       Y6.6477    
   X5.9813       Y6.6533    
   X5.9899       Y6.6568    
   X5.9990       Y6.6581    
   X6.0082       Y6.6568    
   X6.0167       Y6.6533    
   X6.0240       Y6.6477    
   X6.0297       Y6.6404    
   X6.0332       Y6.6318    
   X6.0344       Y6.6227    
   X6.0332       Y6.6135    
   X6.0297       Y6.6050    
   X6.0240       Y6.5976    
   X6.0167       Y6.5920    
   X6.0082       Y6.5885    
   X5.9990       Y6.5873    
(Pass: 7)
   Z0.1406     F60  
   X5.9899       Y6.5885     F80  
   X5.9813       Y6.5920    
   X5.9740       Y6.5976    
   X5.9684       Y6.6050    
   X5.9648       Y6.6135    
   X5.9636       Y6.6227    
   X5.9648       Y6.6318    
   X5.9684       Y6.6404    
   X5.9740       Y6.6477    
   X5.9813       Y6.6533    
   X5.9899       Y6.6568    
   X5.9990       Y6.6581    
   X6.0082       Y6.6568    
   X6.0167       Y6.6533    
   X6.0240       Y6.6477    
   X6.0297       Y6.6404    
   X6.0332       Y6.6318    
   X6.0344       Y6.6227    
   X6.0332       Y6.6135    
   X6.0297       Y6.6050    
   X6.0240       Y6.5976    
   X6.0167       Y6.5920    
   X6.0082       Y6.5885    
   X5.9990       Y6.5873    
(Pass: 8)
   Z0.1250     F60  
   X5.9899       Y6.5885     F80  
   X5.9813       Y6.5920    
   X5.9740       Y6.5976    
   X5.9684       Y6.6050    
   X5.9648       Y6.6135    
   X5.9636       Y6.6227    
   X5.9648       Y6.6318    
   X5.9684       Y6.6404    
   X5.9740       Y6.6477    
   X5.9813       Y6.6533    
   X5.9899       Y6.6568    
   X5.9990       Y6.6581    
   X6.0082       Y6.6568    
   X6.0167       Y6.6533    
   X6.0240       Y6.6477    
   X6.0297       Y6.6404    
   X6.0332       Y6.6318    
   X6.0344       Y6.6227    
   X6.0332       Y6.6135    
   X6.0297       Y6.6050    
   X6.0240       Y6.5976    
   X6.0167       Y6.5920    
   X6.0082       Y6.5885    
   X5.9990       Y6.5873    
(Pass: 9)
   Z0.1094     F60  
   X5.9899       Y6.5885     F80  
   X5.9813       Y6.5920    
   X5.9740       Y6.5976    
   X5.9684       Y6.6050    
   X5.9648       Y6.6135    
   X5.9636       Y6.6227    
   X5.9648       Y6.6318    
   X5.9684       Y6.6404    
   X5.9740       Y6.6477    
   X5.9813       Y6.6533    
   X5.9899       Y6.6568    
   X5.9990       Y6.6581    
   X6.0082       Y6.6568    
   X6.0167       Y6.6533    
   X6.0240       Y6.6477    
   X6.0297       Y6.6404    
   X6.0332       Y6.6318    
   X6.0344       Y6.6227    
   X6.0332       Y6.6135    
   X6.0297       Y6.6050    
   X6.0240       Y6.5976    
   X6.0167       Y6.5920    
   X6.0082       Y6.5885    
   X5.9990       Y6.5873    
(Pass: 10)
   Z0.0938     F60  
   X5.9899       Y6.5885     F80  
   X5.9813       Y6.5920    
   X5.9740       Y6.5976    
   X5.9684       Y6.6050    
   X5.9648       Y6.6135    
   X5.9636       Y6.6227    
   X5.9648       Y6.6318    
   X5.9684       Y6.6404    
   X5.9740       Y6.6477    
   X5.9813       Y6.6533    
   X5.9899       Y6.6568    
   X5.9990       Y6.6581    
   X6.0082       Y6.6568    
   X6.0167       Y6.6533    
   X6.0240       Y6.6477    
   X6.0297       Y6.6404    
   X6.0332       Y6.6318    
   X6.0344       Y6.6227    
   X6.0332       Y6.6135    
   X6.0297       Y6.6050    
   X6.0240       Y6.5976    
   X6.0167       Y6.5920    
   X6.0082       Y6.5885    
   X5.9990       Y6.5873    
(Pass: 11)
   Z0.0781     F60  
   X5.9899       Y6.5885     F80  
   X5.9813       Y6.5920    
   X5.9740       Y6.5976    
   X5.9684       Y6.6050    
   X5.9648       Y6.6135    
   X5.9636       Y6.6227    
   X5.9648       Y6.6318    
   X5.9684       Y6.6404    
   X5.9740       Y6.6477    
   X5.9813       Y6.6533    
   X5.9899       Y6.6568    
   X5.9990       Y6.6581    
   X6.0082       Y6.6568    
   X6.0167       Y6.6533    
   X6.0240       Y6.6477    
   X6.0297       Y6.6404    
   X6.0332       Y6.6318    
   X6.0344       Y6.6227    
   X6.0332       Y6.6135    
   X6.0297       Y6.6050    
   X6.0240       Y6.5976    
   X6.0167       Y6.5920    
   X6.0082       Y6.5885    
   X5.9990       Y6.5873    
(Pass: 12)
   Z0.0625     F60  
   X5.9899       Y6.5885     F80  
   X5.9813       Y6.5920    
   X5.9740       Y6.5976    
   X5.9684       Y6.6050    
   X5.9648       Y6.6135    
   X5.9636       Y6.6227    
   X5.9648       Y6.6318    
   X5.9684       Y6.6404    
   X5.9740       Y6.6477    
   X5.9813       Y6.6533    
   X5.9899       Y6.6568    
   X5.9990       Y6.6581    
   X6.0082       Y6.6568    
   X6.0167       Y6.6533    
   X6.0240       Y6.6477    
   X6.0297       Y6.6404    
   X6.0332       Y6.6318    
   X6.0344       Y6.6227    
   X6.0332       Y6.6135    
   X6.0297       Y6.6050    
   X6.0240       Y6.5976    
   X6.0167       Y6.5920    
   X6.0082       Y6.5885    
   X5.9990       Y6.5873    
(Pass: 13)
   Z0.0469     F60  
   X5.9899       Y6.5885     F80  
   X5.9813       Y6.5920    
   X5.9740       Y6.5976    
   X5.9684       Y6.6050    
   X5.9648       Y6.6135    
   X5.9636       Y6.6227    
   X5.9648       Y6.6318    
   X5.9684       Y6.6404    
   X5.9740       Y6.6477    
   X5.9813       Y6.6533    
   X5.9899       Y6.6568    
   X5.9990       Y6.6581    
   X6.0082       Y6.6568    
   X6.0167       Y6.6533    
   X6.0240       Y6.6477    
   X6.0297       Y6.6404    
   X6.0332       Y6.6318    
   X6.0344       Y6.6227    
   X6.0332       Y6.6135    
   X6.0297       Y6.6050    
   X6.0240       Y6.5976    
   X6.0167       Y6.5920    
   X6.0082       Y6.5885    
   X5.9990       Y6.5873    
(Pass: 14)
   Z0.0312     F60  
   X5.9899       Y6.5885     F80  
   X5.9813       Y6.5920    
   X5.9740       Y6.5976    
   X5.9684       Y6.6050    
   X5.9648       Y6.6135    
   X5.9636       Y6.6227    
   X5.9648       Y6.6318    
   X5.9684       Y6.6404    
   X5.9740       Y6.6477    
   X5.9813       Y6.6533    
   X5.9899       Y6.6568    
   X5.9990       Y6.6581    
   X6.0082       Y6.6568    
   X6.0167       Y6.6533    
   X6.0240       Y6.6477    
   X6.0297       Y6.6404    
   X6.0332       Y6.6318    
   X6.0344       Y6.6227    
   X6.0332       Y6.6135    
   X6.0297       Y6.6050    
   X6.0240       Y6.5976    
   X6.0167       Y6.5920    
   X6.0082       Y6.5885    
   X5.9990       Y6.5873    
(Pass: 15)
   Z0.0156     F60  
   X5.9899       Y6.5885     F80  
   X5.9813       Y6.5920    
   X5.9740       Y6.5976    
   X5.9684       Y6.6050    
   X5.9648       Y6.6135    
   X5.9636       Y6.6227    
   X5.9648       Y6.6318    
   X5.9684       Y6.6404    
   X5.9740       Y6.6477    
   X5.9813       Y6.6533    
   X5.9899       Y6.6568    
   X5.9990       Y6.6581    
   X6.0082       Y6.6568    
   X6.0167       Y6.6533    
   X6.0240       Y6.6477    
   X6.0297       Y6.6404    
   X6.0332       Y6.6318    
   X6.0344       Y6.6227    
   X6.0332       Y6.6135    
   X6.0297       Y6.6050    
   X6.0240       Y6.5976    
   X6.0167       Y6.5920    
   X6.0082       Y6.5885    
   X5.9990       Y6.5873    
(Pass: 16)
   Z0.0000     F60  
   X5.9899       Y6.5885     F80  
   X5.9813       Y6.5920    
   X5.9740       Y6.5976    
   X5.9684       Y6.6050    
   X5.9648       Y6.6135    
   X5.9636       Y6.6227    
   X5.9648       Y6.6318    
   X5.9684       Y6.6404    
   X5.9740       Y6.6477    
   X5.9813       Y6.6533    
   X5.9899       Y6.6568    
   X5.9990       Y6.6581    
   X6.0082       Y6.6568    
   X6.0167       Y6.6533    
   X6.0240       Y6.6477    
   X6.0297       Y6.6404    
   X6.0332       Y6.6318    
   X6.0344       Y6.6227    
   X6.0332       Y6.6135    
   X6.0297       Y6.6050    
   X6.0240       Y6.5976    
   X6.0167       Y6.5920    
   X6.0082       Y6.5885    
   X5.9990       Y6.5873    
G0   Z0.3750    
(Pass: 1)
   X6.7522       Y6.6135    
G1   Z0.2344     F60  
   X6.7510       Y6.6227     F80  
   X6.7522       Y6.6318    
   X6.7558       Y6.6404    
   X6.7614       Y6.6477    
   X6.7687       Y6.6533    
   X6.7773       Y6.6568    
   X6.7864       Y6.6581    
   X6.7956       Y6.6568    
   X6.8041       Y6.6533    
   X6.8114       Y6.6477    
   X6.8171       Y6.6404    
   X6.8206       Y6.6318    
   X6.8218       Y6.6227    
   X6.8206       Y6.6135    
   X6.8171       Y6.6050    
   X6.8114       Y6.5976    
   X6.8041       Y6.5920    
   X6.7956       Y6.5885    
   X6.7864       Y6.5873    
   X6.7773       Y6.5885    
   X6.7687       Y6.5920    
   X6.7614       Y6.5976    
   X6.7558       Y6.6050    
   X6.7522       Y6.6135    
(Pass: 2)
   Z0.2188     F60  
   X6.7510       Y6.6227     F80  
   X6.7522       Y6.6318    
   X6.7558       Y6.6404    
   X6.7614       Y6.6477    
   X6.7687       Y6.6533    
   X6.7773       Y6.6568    
   X6.7864       Y6.6581    
   X6.7956       Y6.6568    
   X6.8041       Y6.6533    
   X6.8114       Y6.6477    
   X6.8171       Y6.6404    
   X6.8206       Y6.6318    
   X6.8218       Y6.6227    
   X6.8206       Y6.6135    
   X6.8171       Y6.6050    
   X6.8114       Y6.5976    
   X6.8041       Y6.5920    
   X6.7956       Y6.5885    
   X6.7864       Y6.5873    
   X6.7773       Y6.5885    
   X6.7687       Y6.5920    
   X6.7614       Y6.5976    
   X6.7558       Y6.6050    
   X6.7522       Y6.6135    
(Pass: 3)
   Z0.2031     F60  
   X6.7510       Y6.6227     F80  
   X6.7522       Y6.6318    
   X6.7558       Y6.6404    
   X6.7614       Y6.6477    
   X6.7687       Y6.6533    
   X6.7773       Y6.6568    
   X6.7864       Y6.6581    
   X6.7956       Y6.6568    
   X6.8041       Y6.6533    
   X6.8114       Y6.6477    
   X6.8171       Y6.6404    
   X6.8206       Y6.6318    
   X6.8218       Y6.6227    
   X6.8206       Y6.6135    
   X6.8171       Y6.6050    
   X6.8114       Y6.5976    
   X6.8041       Y6.5920    
   X6.7956       Y6.5885    
   X6.7864       Y6.5873    
   X6.7773       Y6.5885    
   X6.7687       Y6.5920    
   X6.7614       Y6.5976    
   X6.7558       Y6.6050    
   X6.7522       Y6.6135    
(Pass: 4)
   Z0.1875     F60  
   X6.7510       Y6.6227     F80  
   X6.7522       Y6.6318    
   X6.7558       Y6.6404    
   X6.7614       Y6.6477    
   X6.7687       Y6.6533    
   X6.7773       Y6.6568    
   X6.7864       Y6.6581    
   X6.7956       Y6.6568    
   X6.8041       Y6.6533    
   X6.8114       Y6.6477    
   X6.8171       Y6.6404    
   X6.8206       Y6.6318    
   X6.8218       Y6.6227    
   X6.8206       Y6.6135    
   X6.8171       Y6.6050    
   X6.8114       Y6.5976    
   X6.8041       Y6.5920    
   X6.7956       Y6.5885    
   X6.7864       Y6.5873    
   X6.7773       Y6.5885    
   X6.7687       Y6.5920    
   X6.7614       Y6.5976    
   X6.7558       Y6.6050    
   X6.7522       Y6.6135    
(Pass: 5)
   Z0.1719     F60  
   X6.7510       Y6.6227     F80  
   X6.7522       Y6.6318    
   X6.7558       Y6.6404    
   X6.7614       Y6.6477    
   X6.7687       Y6.6533    
   X6.7773       Y6.6568    
   X6.7864       Y6.6581    
   X6.7956       Y6.6568    
   X6.8041       Y6.6533    
   X6.8114       Y6.6477    
   X6.8171       Y6.6404    
   X6.8206       Y6.6318    
   X6.8218       Y6.6227    
   X6.8206       Y6.6135    
   X6.8171       Y6.6050    
   X6.8114       Y6.5976    
   X6.8041       Y6.5920    
   X6.7956       Y6.5885    
   X6.7864       Y6.5873    
   X6.7773       Y6.5885    
   X6.7687       Y6.5920    
   X6.7614       Y6.5976    
   X6.7558       Y6.6050    
   X6.7522       Y6.6135    
(Pass: 6)
   Z0.1562     F60  
   X6.7510       Y6.6227     F80  
   X6.7522       Y6.6318    
   X6.7558       Y6.6404    
   X6.7614       Y6.6477    
   X6.7687       Y6.6533    
   X6.7773       Y6.6568    
   X6.7864       Y6.6581    
   X6.7956       Y6.6568    
   X6.8041       Y6.6533    
   X6.8114       Y6.6477    
   X6.8171       Y6.6404    
   X6.8206       Y6.6318    
   X6.8218       Y6.6227    
   X6.8206       Y6.6135    
   X6.8171       Y6.6050    
   X6.8114       Y6.5976    
   X6.8041       Y6.5920    
   X6.7956       Y6.5885    
   X6.7864       Y6.5873    
   X6.7773       Y6.5885    
   X6.7687       Y6.5920    
   X6.7614       Y6.5976    
   X6.7558       Y6.6050    
   X6.7522       Y6.6135    
(Pass: 7)
   Z0.1406     F60  
   X6.7510       Y6.6227     F80  
   X6.7522       Y6.6318    
   X6.7558       Y6.6404    
   X6.7614       Y6.6477    
   X6.7687       Y6.6533    
   X6.7773       Y6.6568    
   X6.7864       Y6.6581    
   X6.7956       Y6.6568    
   X6.8041       Y6.6533    
   X6.8114       Y6.6477    
   X6.8171       Y6.6404    
   X6.8206       Y6.6318    
   X6.8218       Y6.6227    
   X6.8206       Y6.6135    
   X6.8171       Y6.6050    
   X6.8114       Y6.5976    
   X6.8041       Y6.5920    
   X6.7956       Y6.5885    
   X6.7864       Y6.5873    
   X6.7773       Y6.5885    
   X6.7687       Y6.5920    
   X6.7614       Y6.5976    
   X6.7558       Y6.6050    
   X6.7522       Y6.6135    
(Pass: 8)
   Z0.1250     F60  
   X6.7510       Y6.6227     F80  
   X6.7522       Y6.6318    
   X6.7558       Y6.6404    
