%
(Generated by SketchUcam {1.2a})
(File: Plate_printouts.skp)
(Bit diameter: 1/8")
(Feed rate: 80"/min)
(Plunge Feed rate: 100"/min)
(Material Thickness: 1/8")
(Material length: 15" X width: 25")
(Overhead Gantry: true)
(Retract feed rate NOT limited to plunge feed rate)
(Multipass enabled, Depth = 1/32")
(Optimization is ON)
(Z ZERO IS TABLETOP)
(www.PhlatBoyz.com)
(Loaded profile default)
G90 G20 G49 
M3 S15000
G0   Z0.2500    
(Pass: 1)
   X1.6387       Y1.8016    
G1   Z0.0938     F100 
   X1.6264       Y1.8176     F80  
   X1.6186       Y1.8363    
   X1.6160       Y1.8564    
   X1.6186       Y1.8764    
   X1.6264       Y1.8951    
   X1.6387       Y1.9111    
   X1.6547       Y1.9235    
   X1.6734       Y1.9312    
   X1.6934       Y1.9338    
   X1.7135       Y1.9312    
   X1.7322       Y1.9235    
   X1.7482       Y1.9111    
   X1.7605       Y1.8951    
   X1.7683       Y1.8764    
   X1.7709       Y1.8564    
   X1.7683       Y1.8363    
   X1.7605       Y1.8176    
   X1.7482       Y1.8016    
   X1.7322       Y1.7893    
   X1.7135       Y1.7816    
   X1.6934       Y1.7789    
   X1.6734       Y1.7816    
   X1.6547       Y1.7893    
   X1.6387       Y1.8016    
(Pass: 2)
   Z0.0625     F100 
   X1.6264       Y1.8176     F80  
   X1.6186       Y1.8363    
   X1.6160       Y1.8564    
   X1.6186       Y1.8764    
   X1.6264       Y1.8951    
   X1.6387       Y1.9111    
   X1.6547       Y1.9235    
   X1.6734       Y1.9312    
   X1.6934       Y1.9338    
   X1.7135       Y1.9312    
   X1.7322       Y1.9235    
   X1.7482       Y1.9111    
   X1.7605       Y1.8951    
   X1.7683       Y1.8764    
   X1.7709       Y1.8564    
   X1.7683       Y1.8363    
   X1.7605       Y1.8176    
   X1.7482       Y1.8016    
   X1.7322       Y1.7893    
   X1.7135       Y1.7816    
   X1.6934       Y1.7789    
   X1.6734       Y1.7816    
   X1.6547       Y1.7893    
   X1.6387       Y1.8016    
(Pass: 3)
   Z0.0312     F100 
   X1.6264       Y1.8176     F80  
   X1.6186       Y1.8363    
   X1.6160       Y1.8564    
   X1.6186       Y1.8764    
   X1.6264       Y1.8951    
   X1.6387       Y1.9111    
   X1.6547       Y1.9235    
   X1.6734       Y1.9312    
   X1.6934       Y1.9338    
   X1.7135       Y1.9312    
   X1.7322       Y1.9235    
   X1.7482       Y1.9111    
   X1.7605       Y1.8951    
   X1.7683       Y1.8764    
   X1.7709       Y1.8564    
   X1.7683       Y1.8363    
   X1.7605       Y1.8176    
   X1.7482       Y1.8016    
   X1.7322       Y1.7893    
   X1.7135       Y1.7816    
   X1.6934       Y1.7789    
   X1.6734       Y1.7816    
   X1.6547       Y1.7893    
   X1.6387       Y1.8016    
(Pass: 4)
   Z0.0000     F100 
   X1.6264       Y1.8176     F80  
   X1.6186       Y1.8363    
   X1.6160       Y1.8564    
   X1.6186       Y1.8764    
   X1.6264       Y1.8951    
   X1.6387       Y1.9111    
   X1.6547       Y1.9235    
   X1.6734       Y1.9312    
   X1.6934       Y1.9338    
   X1.7135       Y1.9312    
   X1.7322       Y1.9235    
   X1.7482       Y1.9111    
   X1.7605       Y1.8951    
   X1.7683       Y1.8764    
   X1.7709       Y1.8564    
   X1.7683       Y1.8363    
   X1.7605       Y1.8176    
   X1.7482       Y1.8016    
   X1.7322       Y1.7893    
   X1.7135       Y1.7816    
   X1.6934       Y1.7789    
   X1.6734       Y1.7816    
   X1.6547       Y1.7893    
   X1.6387       Y1.8016    
(Pass: 5)
   Z-0.0312    F100 
   X1.6264       Y1.8176     F80  
   X1.6186       Y1.8363    
   X1.6160       Y1.8564    
   X1.6186       Y1.8764    
   X1.6264       Y1.8951    
   X1.6387       Y1.9111    
   X1.6547       Y1.9235    
   X1.6734       Y1.9312    
   X1.6934       Y1.9338    
   X1.7135       Y1.9312    
   X1.7322       Y1.9235    
   X1.7482       Y1.9111    
   X1.7605       Y1.8951    
   X1.7683       Y1.8764    
   X1.7709       Y1.8564    
   X1.7683       Y1.8363    
   X1.7605       Y1.8176    
   X1.7482       Y1.8016    
   X1.7322       Y1.7893    
   X1.7135       Y1.7816    
   X1.6934       Y1.7789    
   X1.6734       Y1.7816    
   X1.6547       Y1.7893    
   X1.6387       Y1.8016    
(Pass: 6)
   Z-0.0500    F100 
   X1.6264       Y1.8176     F80  
   X1.6186       Y1.8363    
   X1.6160       Y1.8564    
   X1.6186       Y1.8764    
   X1.6264       Y1.8951    
   X1.6387       Y1.9111    
   X1.6547       Y1.9235    
   X1.6734       Y1.9312    
   X1.6934       Y1.9338    
   X1.7135       Y1.9312    
   X1.7322       Y1.9235    
   X1.7482       Y1.9111    
   X1.7605       Y1.8951    
   X1.7683       Y1.8764    
   X1.7709       Y1.8564    
   X1.7683       Y1.8363    
   X1.7605       Y1.8176    
   X1.7482       Y1.8016    
   X1.7322       Y1.7893    
   X1.7135       Y1.7816    
   X1.6934       Y1.7789    
   X1.6734       Y1.7816    
   X1.6547       Y1.7893    
   X1.6387       Y1.8016    
(BREAK pass 6)
G0   Z0.2500    
(Pass: 1)
   X2.7034       Y2.5718    
G1   Z0.0938     F100 
   X2.6614       Y2.6347     F80  
   X2.6279       Y2.7025    
   X2.6036       Y2.7740    
   X2.5889       Y2.8482    
   X2.5844       Y2.9175    
   Y3.9215    
   X2.5889       Y3.9908    
   X2.6036       Y4.0649    
   X2.6279       Y4.1365    
   X2.6614       Y4.2043    
   X2.7034       Y4.2671    
   X2.7532       Y4.3240    
   X2.8100       Y4.3738    
   X2.8729       Y4.4158    
   X2.9407       Y4.4492    
   X3.0122       Y4.4735    
   X3.0864       Y4.4883    
   X3.1557       Y4.4928    
   X4.7109    
   X4.7802       Y4.4883    
   X4.8543       Y4.4735    
   X4.9259       Y4.4492    
   X4.9937       Y4.4158    
   X5.0565       Y4.3738    
   X5.1133       Y4.3240    
   X5.1632       Y4.2671    
   X5.2052       Y4.2043    
   X5.2386       Y4.1365    
   X5.2629       Y4.0649    
   X5.2776       Y3.9908    
   X5.2822       Y3.9215    
   Y2.9175    
   X5.2776       Y2.8482    
   X5.2629       Y2.7740    
   X5.2386       Y2.7025    
   X5.2052       Y2.6347    
   X5.1632       Y2.5718    
   X5.1133       Y2.5150    
   X5.0565       Y2.4652    
   X4.9937       Y2.4232    
   X4.9259       Y2.3897    
   X4.8543       Y2.3654    
   X4.7802       Y2.3507    
   X4.7109       Y2.3461    
   X3.1557    
   X3.0864       Y2.3507    
   X3.0122       Y2.3654    
   X2.9407       Y2.3897    
   X2.8729       Y2.4232    
   X2.8100       Y2.4652    
   X2.7532       Y2.5150    
   X2.7034       Y2.5718    
(Pass: 2)
   Z0.0625     F100 
   X2.6614       Y2.6347     F80  
   X2.6279       Y2.7025    
   X2.6036       Y2.7740    
   X2.5889       Y2.8482    
   X2.5844       Y2.9175    
   Y3.9215    
   X2.5889       Y3.9908    
   X2.6036       Y4.0649    
   X2.6279       Y4.1365    
   X2.6614       Y4.2043    
   X2.7034       Y4.2671    
   X2.7532       Y4.3240    
   X2.8100       Y4.3738    
   X2.8729       Y4.4158    
   X2.9407       Y4.4492    
   X3.0122       Y4.4735    
   X3.0864       Y4.4883    
   X3.1557       Y4.4928    
   X4.7109    
   X4.7802       Y4.4883    
   X4.8543       Y4.4735    
   X4.9259       Y4.4492    
   X4.9937       Y4.4158    
   X5.0565       Y4.3738    
   X5.1133       Y4.3240    
   X5.1632       Y4.2671    
   X5.2052       Y4.2043    
   X5.2386       Y4.1365    
   X5.2629       Y4.0649    
   X5.2776       Y3.9908    
   X5.2822       Y3.9215    
   Y2.9175    
   X5.2776       Y2.8482    
   X5.2629       Y2.7740    
   X5.2386       Y2.7025    
   X5.2052       Y2.6347    
   X5.1632       Y2.5718    
   X5.1133       Y2.5150    
   X5.0565       Y2.4652    
   X4.9937       Y2.4232    
   X4.9259       Y2.3897    
   X4.8543       Y2.3654    
   X4.7802       Y2.3507    
   X4.7109       Y2.3461    
   X3.1557    
   X3.0864       Y2.3507    
   X3.0122       Y2.3654    
   X2.9407       Y2.3897    
   X2.8729       Y2.4232    
   X2.8100       Y2.4652    
   X2.7532       Y2.5150    
   X2.7034       Y2.5718    
(Pass: 3)
   Z0.0312     F100 
   X2.6614       Y2.6347     F80  
   X2.6279       Y2.7025    
   X2.6036       Y2.7740    
   X2.5889       Y2.8482    
   X2.5844       Y2.9175    
   Y3.9215    
   X2.5889       Y3.9908    
   X2.6036       Y4.0649    
   X2.6279       Y4.1365    
   X2.6614       Y4.2043    
   X2.7034       Y4.2671    
   X2.7532       Y4.3240    
   X2.8100       Y4.3738    
   X2.8729       Y4.4158    
   X2.9407       Y4.4492    
   X3.0122       Y4.4735    
   X3.0864       Y4.4883    
   X3.1557       Y4.4928    
   X4.7109    
   X4.7802       Y4.4883    
   X4.8543       Y4.4735    
   X4.9259       Y4.4492    
   X4.9937       Y4.4158    
   X5.0565       Y4.3738    
   X5.1133       Y4.3240    
   X5.1632       Y4.2671    
   X5.2052       Y4.2043    
   X5.2386       Y4.1365    
   X5.2629       Y4.0649    
   X5.2776       Y3.9908    
   X5.2822       Y3.9215    
   Y2.9175    
   X5.2776       Y2.8482    
   X5.2629       Y2.7740    
   X5.2386       Y2.7025    
   X5.2052       Y2.6347    
   X5.1632       Y2.5718    
   X5.1133       Y2.5150    
   X5.0565       Y2.4652    
   X4.9937       Y2.4232    
   X4.9259       Y2.3897    
   X4.8543       Y2.3654    
   X4.7802       Y2.3507    
   X4.7109       Y2.3461    
   X3.1557    
   X3.0864       Y2.3507    
   X3.0122       Y2.3654    
   X2.9407       Y2.3897    
   X2.8729       Y2.4232    
   X2.8100       Y2.4652    
   X2.7532       Y2.5150    
   X2.7034       Y2.5718    
(Pass: 4)
   Z0.0000     F100 
   X2.6614       Y2.6347     F80  
   X2.6279       Y2.7025    
   X2.6036       Y2.7740    
   X2.5889       Y2.8482    
   X2.5844       Y2.9175    
   Y3.9215    
   X2.5889       Y3.9908    
   X2.6036       Y4.0649    
   X2.6279       Y4.1365    
   X2.6614       Y4.2043    
   X2.7034       Y4.2671    
   X2.7532       Y4.3240    
   X2.8100       Y4.3738    
   X2.8729       Y4.4158    
   X2.9407       Y4.4492    
   X3.0122       Y4.4735    
   X3.0864       Y4.4883    
   X3.1557       Y4.4928    
   X4.7109    
   X4.7802       Y4.4883    
   X4.8543       Y4.4735    
   X4.9259       Y4.4492    
   X4.9937       Y4.4158    
   X5.0565       Y4.3738    
   X5.1133       Y4.3240    
   X5.1632       Y4.2671    
   X5.2052       Y4.2043    
   X5.2386       Y4.1365    
   X5.2629       Y4.0649    
   X5.2776       Y3.9908    
   X5.2822       Y3.9215    
   Y2.9175    
   X5.2776       Y2.8482    
   X5.2629       Y2.7740    
   X5.2386       Y2.7025    
   X5.2052       Y2.6347    
   X5.1632       Y2.5718    
   X5.1133       Y2.5150    
   X5.0565       Y2.4652    
   X4.9937       Y2.4232    
   X4.9259       Y2.3897    
   X4.8543       Y2.3654    
   X4.7802       Y2.3507    
   X4.7109       Y2.3461    
   X3.1557    
   X3.0864       Y2.3507    
   X3.0122       Y2.3654    
   X2.9407       Y2.3897    
   X2.8729       Y2.4232    
   X2.8100       Y2.4652    
   X2.7532       Y2.5150    
   X2.7034       Y2.5718    
(Pass: 5)
   Z-0.0312    F100 
   X2.6614       Y2.6347     F80  
   X2.6279       Y2.7025    
   X2.6036       Y2.7740    
   X2.5889       Y2.8482    
   X2.5844       Y2.9175    
   Y3.9215    
   X2.5889       Y3.9908    
   X2.6036       Y4.0649    
   X2.6279       Y4.1365    
   X2.6614       Y4.2043    
   X2.7034       Y4.2671    
   X2.7532       Y4.3240    
   X2.8100       Y4.3738    
   X2.8729       Y4.4158    
   X2.9407       Y4.4492    
   X3.0122       Y4.4735    
   X3.0864       Y4.4883    
   X3.1557       Y4.4928    
   X4.7109    
   X4.7802       Y4.4883    
   X4.8543       Y4.4735    
   X4.9259       Y4.4492    
   X4.9937       Y4.4158    
   X5.0565       Y4.3738    
   X5.1133       Y4.3240    
   X5.1632       Y4.2671    
   X5.2052       Y4.2043    
   X5.2386       Y4.1365    
   X5.2629       Y4.0649    
   X5.2776       Y3.9908    
   X5.2822       Y3.9215    
   Y2.9175    
   X5.2776       Y2.8482    
   X5.2629       Y2.7740    
   X5.2386       Y2.7025    
   X5.2052       Y2.6347    
   X5.1632       Y2.5718    
   X5.1133       Y2.5150    
   X5.0565       Y2.4652    
   X4.9937       Y2.4232    
   X4.9259       Y2.3897    
   X4.8543       Y2.3654    
   X4.7802       Y2.3507    
   X4.7109       Y2.3461    
   X3.1557    
   X3.0864       Y2.3507    
   X3.0122       Y2.3654    
   X2.9407       Y2.3897    
   X2.8729       Y2.4232    
   X2.8100       Y2.4652    
   X2.7532       Y2.5150    
   X2.7034       Y2.5718    
(Pass: 6)
   Z-0.0500    F100 
   X2.6614       Y2.6347     F80  
   X2.6279       Y2.7025    
   X2.6036       Y2.7740    
   X2.5889       Y2.8482    
   X2.5844       Y2.9175    
   Y3.9215    
   X2.5889       Y3.9908    
   X2.6036       Y4.0649    
   X2.6279       Y4.1365    
   X2.6614       Y4.2043    
   X2.7034       Y4.2671    
   X2.7532       Y4.3240    
   X2.8100       Y4.3738    
   X2.8729       Y4.4158    
   X2.9407       Y4.4492    
   X3.0122       Y4.4735    
   X3.0864       Y4.4883    
   X3.1557       Y4.4928    
   X4.7109    
   X4.7802       Y4.4883    
   X4.8543       Y4.4735    
   X4.9259       Y4.4492    
   X4.9937       Y4.4158    
   X5.0565       Y4.3738    
   X5.1133       Y4.3240    
   X5.1632       Y4.2671    
   X5.2052       Y4.2043    
   X5.2386       Y4.1365    
   X5.2629       Y4.0649    
   X5.2776       Y3.9908    
   X5.2822       Y3.9215    
   Y2.9175    
   X5.2776       Y2.8482    
   X5.2629       Y2.7740    
   X5.2386       Y2.7025    
   X5.2052       Y2.6347    
   X5.1632       Y2.5718    
   X5.1133       Y2.5150    
   X5.0565       Y2.4652    
   X4.9937       Y2.4232    
   X4.9259       Y2.3897    
   X4.8543       Y2.3654    
   X4.7802       Y2.3507    
   X4.7109       Y2.3461    
   X3.1557    
   X3.0864       Y2.3507    
   X3.0122       Y2.3654    
   X2.9407       Y2.3897    
   X2.8729       Y2.4232    
   X2.8100       Y2.4652    
   X2.7532       Y2.5150    
   X2.7034       Y2.5718    
(BREAK pass 6)
G0   Z0.2500    
(Pass: 1)
   X1.7115       Y4.9308    
G1   Z0.0938     F100 
   X1.7029       Y4.9273     F80  
   X1.6938       Y4.9261    
   X1.6846       Y4.9273    
   X1.6761       Y4.9308    
   X1.6688       Y4.9365    
   X1.6631       Y4.9438    
   X1.6596       Y4.9523    
   X1.6584       Y4.9615    
   X1.6596       Y4.9707    
   X1.6631       Y4.9792    
   X1.6688       Y4.9865    
   X1.6761       Y4.9921    
   X1.6846       Y4.9957    
   X1.6938       Y4.9969    
   X1.7029       Y4.9957    
   X1.7115       Y4.9921    
   X1.7188       Y4.9865    
   X1.7244       Y4.9792    
   X1.7280       Y4.9707    
   X1.7292       Y4.9615    
   X1.7280       Y4.9523    
   X1.7244       Y4.9438    
   X1.7188       Y4.9365    
   X1.7115       Y4.9308    
(Pass: 2)
   Z0.0625     F100 
   X1.7029       Y4.9273     F80  
   X1.6938       Y4.9261    
   X1.6846       Y4.9273    
   X1.6761       Y4.9308    
   X1.6688       Y4.9365    
   X1.6631       Y4.9438    
   X1.6596       Y4.9523    
   X1.6584       Y4.9615    
   X1.6596       Y4.9707    
   X1.6631       Y4.9792    
   X1.6688       Y4.9865    
   X1.6761       Y4.9921    
   X1.6846       Y4.9957    
   X1.6938       Y4.9969    
   X1.7029       Y4.9957    
   X1.7115       Y4.9921    
   X1.7188       Y4.9865    
   X1.7244       Y4.9792    
   X1.7280       Y4.9707    
   X1.7292       Y4.9615    
   X1.7280       Y4.9523    
   X1.7244       Y4.9438    
   X1.7188       Y4.9365    
   X1.7115       Y4.9308    
(Pass: 3)
   Z0.0312     F100 
   X1.7029       Y4.9273     F80  
   X1.6938       Y4.9261    
   X1.6846       Y4.9273    
   X1.6761       Y4.9308    
   X1.6688       Y4.9365    
   X1.6631       Y4.9438    
   X1.6596       Y4.9523    
   X1.6584       Y4.9615    
   X1.6596       Y4.9707    
   X1.6631       Y4.9792    
   X1.6688       Y4.9865    
   X1.6761       Y4.9921    
   X1.6846       Y4.9957    
   X1.6938       Y4.9969    
   X1.7029       Y4.9957    
   X1.7115       Y4.9921    
   X1.7188       Y4.9865    
   X1.7244       Y4.9792    
   X1.7280       Y4.9707    
   X1.7292       Y4.9615    
   X1.7280       Y4.9523    
   X1.7244       Y4.9438    
   X1.7188       Y4.9365    
   X1.7115       Y4.9308    
(Pass: 4)
   Z0.0000     F100 
   X1.7029       Y4.9273     F80  
   X1.6938       Y4.9261    
   X1.6846       Y4.9273    
   X1.6761       Y4.9308    
   X1.6688       Y4.9365    
   X1.6631       Y4.9438    
   X1.6596       Y4.9523    
   X1.6584       Y4.9615    
   X1.6596       Y4.9707    
   X1.6631       Y4.9792    
   X1.6688       Y4.9865    
   X1.6761       Y4.9921    
   X1.6846       Y4.9957    
   X1.6938       Y4.9969    
   X1.7029       Y4.9957    
   X1.7115       Y4.9921    
   X1.7188       Y4.9865    
   X1.7244       Y4.9792    
   X1.7280       Y4.9707    
   X1.7292       Y4.9615    
   X1.7280       Y4.9523    
   X1.7244       Y4.9438    
   X1.7188       Y4.9365    
   X1.7115       Y4.9308    
(Pass: 5)
   Z-0.0312    F100 
   X1.7029       Y4.9273     F80  
   X1.6938       Y4.9261    
   X1.6846       Y4.9273    
   X1.6761       Y4.9308    
   X1.6688       Y4.9365    
   X1.6631       Y4.9438    
   X1.6596       Y4.9523    
   X1.6584       Y4.9615    
   X1.6596       Y4.9707    
   X1.6631       Y4.9792    
   X1.6688       Y4.9865    
   X1.6761       Y4.9921    
   X1.6846       Y4.9957    
   X1.6938       Y4.9969    
   X1.7029       Y4.9957    
   X1.7115       Y4.9921    
   X1.7188       Y4.9865    
   X1.7244       Y4.9792    
   X1.7280       Y4.9707    
   X1.7292       Y4.9615    
   X1.7280       Y4.9523    
   X1.7244       Y4.9438    
   X1.7188       Y4.9365    
   X1.7115       Y4.9308    
(Pass: 6)
   Z-0.0500    F100 
   X1.7029       Y4.9273     F80  
   X1.6938       Y4.9261    
   X1.6846       Y4.9273    
   X1.6761       Y4.9308    
   X1.6688       Y4.9365    
   X1.6631       Y4.9438    
   X1.6596       Y4.9523    
   X1.6584       Y4.9615    
   X1.6596       Y4.9707    
   X1.6631       Y4.9792    
   X1.6688       Y4.9865    
   X1.6761       Y4.9921    
   X1.6846       Y4.9957    
   X1.6938       Y4.9969    
   X1.7029       Y4.9957    
   X1.7115       Y4.9921    
   X1.7188       Y4.9865    
   X1.7244       Y4.9792    
   X1.7280       Y4.9707    
   X1.7292       Y4.9615    
   X1.7280       Y4.9523    
   X1.7244       Y4.9438    
   X1.7188       Y4.9365    
   X1.7115       Y4.9308    
(BREAK pass 6)
G0   Z0.2500    
(Pass: 1)
   X2.9717       Y5.3029    
G1   Z0.0938     F100 
   X2.9680       Y5.3118     F80  
   X2.9662       Y5.3255    
   Y5.6716    
   X2.9680       Y5.6853    
   X2.9717       Y5.6942    
   X2.9775       Y5.7018    
   X2.9852       Y5.7077    
   X2.9941       Y5.7114    
   X3.0037       Y5.7127    
   X3.0132       Y5.7114    
   X3.0221       Y5.7077    
   X3.0298       Y5.7018    
   X3.0357       Y5.6942    
   X3.0394       Y5.6853    
   X3.0412       Y5.6716    
   Y5.3255    
   X3.0394       Y5.3118    
   X3.0357       Y5.3029    
   X3.0298       Y5.2952    
   X3.0221       Y5.2894    
   X3.0132       Y5.2857    
   X3.0037       Y5.2844    
   X2.9941       Y5.2857    
   X2.9852       Y5.2894    
   X2.9775       Y5.2952    
   X2.9717       Y5.3029    
(Pass: 2)
   Z0.0625     F100 
   X2.9680       Y5.3118     F80  
   X2.9662       Y5.3255    
   Y5.6716    
   X2.9680       Y5.6853    
   X2.9717       Y5.6942    
   X2.9775       Y5.7018    
   X2.9852       Y5.7077    
   X2.9941       Y5.7114    
   X3.0037       Y5.7127    
   X3.0132       Y5.7114    
   X3.0221       Y5.7077    
   X3.0298       Y5.7018    
   X3.0357       Y5.6942    
   X3.0394       Y5.6853    
   X3.0412       Y5.6716    
   Y5.3255    
   X3.0394       Y5.3118    
   X3.0357       Y5.3029    
   X3.0298       Y5.2952    
   X3.0221       Y5.2894    
   X3.0132       Y5.2857    
   X3.0037       Y5.2844    
   X2.9941       Y5.2857    
   X2.9852       Y5.2894    
   X2.9775       Y5.2952    
   X2.9717       Y5.3029    
(Pass: 3)
   Z0.0312     F100 
   X2.9680       Y5.3118     F80  
   X2.9662       Y5.3255    
   Y5.6716    
   X2.9680       Y5.6853    
   X2.9717       Y5.6942    
   X2.9775       Y5.7018    
   X2.9852       Y5.7077    
   X2.9941       Y5.7114    
   X3.0037       Y5.7127    
   X3.0132       Y5.7114    
   X3.0221       Y5.7077    
   X3.0298       Y5.7018    
   X3.0357       Y5.6942    
   X3.0394       Y5.6853    
   X3.0412       Y5.6716    
   Y5.3255    
   X3.0394       Y5.3118    
   X3.0357       Y5.3029    
   X3.0298       Y5.2952    
   X3.0221       Y5.2894    
   X3.0132       Y5.2857    
   X3.0037       Y5.2844    
   X2.9941       Y5.2857    
   X2.9852       Y5.2894    
   X2.9775       Y5.2952    
   X2.9717       Y5.3029    
(Pass: 4)
   Z0.0000     F100 
   X2.9680       Y5.3118     F80  
   X2.9662       Y5.3255    
   Y5.6716    
   X2.9680       Y5.6853    
   X2.9717       Y5.6942    
   X2.9775       Y5.7018    
   X2.9852       Y5.7077    
   X2.9941       Y5.7114    
   X3.0037       Y5.7127    
   X3.0132       Y5.7114    
   X3.0221       Y5.7077    
   X3.0298       Y5.7018    
   X3.0357       Y5.6942    
   X3.0394       Y5.6853    
   X3.0412       Y5.6716    
   Y5.3255    
   X3.0394       Y5.3118    
   X3.0357       Y5.3029    
   X3.0298       Y5.2952    
   X3.0221       Y5.2894    
   X3.0132       Y5.2857    
   X3.0037       Y5.2844    
   X2.9941       Y5.2857    
   X2.9852       Y5.2894    
   X2.9775       Y5.2952    
   X2.9717       Y5.3029    
(Pass: 5)
   Z-0.0312    F100 
   X2.9680       Y5.3118     F80  
   X2.9662       Y5.3255    
   Y5.6716    
   X2.9680       Y5.6853    
   X2.9717       Y5.6942    
   X2.9775       Y5.7018    
   X2.9852       Y5.7077    
   X2.9941       Y5.7114    
   X3.0037       Y5.7127    
   X3.0132       Y5.7114    
   X3.0221       Y5.7077    
   X3.0298       Y5.7018    
   X3.0357       Y5.6942    
   X3.0394       Y5.6853    
   X3.0412       Y5.6716    
   Y5.3255    
   X3.0394       Y5.3118    
   X3.0357       Y5.3029    
   X3.0298       Y5.2952    
   X3.0221       Y5.2894    
   X3.0132       Y5.2857    
   X3.0037       Y5.2844    
   X2.9941       Y5.2857    
   X2.9852       Y5.2894    
   X2.9775       Y5.2952    
   X2.9717       Y5.3029    
(Pass: 6)
   Z-0.0500    F100 
   X2.9680       Y5.3118     F80  
   X2.9662       Y5.3255    
   Y5.6716    
   X2.9680       Y5.6853    
   X2.9717       Y5.6942    
   X2.9775       Y5.7018    
   X2.9852       Y5.7077    
   X2.9941       Y5.7114    
   X3.0037       Y5.7127    
   X3.0132       Y5.7114    
   X3.0221       Y5.7077    
   X3.0298       Y5.7018    
   X3.0357       Y5.6942    
   X3.0394       Y5.6853    
   X3.0412       Y5.6716    
   Y5.3255    
   X3.0394       Y5.3118    
   X3.0357       Y5.3029    
   X3.0298       Y5.2952    
   X3.0221       Y5.2894    
   X3.0132       Y5.2857    
   X3.0037       Y5.2844    
   X2.9941       Y5.2857    
   X2.9852       Y5.2894    
   X2.9775       Y5.2952    
   X2.9717       Y5.3029    
(BREAK pass 6)
G0   Z0.2500    
(Pass: 1)
   X3.6306       Y5.9280    
G1   Z0.0938     F100 
   X3.5625       Y6.0168     F80  
   X3.5196       Y6.1203    
   X3.5044       Y6.2355    
   Y6.6210    
   X3.5196       Y6.7361    
   X3.5625       Y6.8396    
   X3.6306       Y6.9285    
   X3.7195       Y6.9967    
   X3.8230       Y7.0395    
   X3.9341       Y7.0542    
   X4.0451       Y7.0395    
   X4.1486       Y6.9967    
   X4.2375       Y6.9285    
   X4.3057       Y6.8396    
   X4.3485       Y6.7361    
   X4.3637       Y6.6210    
   Y6.2355    
   X4.3485       Y6.1203    
   X4.3057       Y6.0168    
   X4.2375       Y5.9280    
   X4.1486       Y5.8598    
   X4.0451       Y5.8169    
   X3.9341       Y5.8023    
   X3.8230       Y5.8169    
   X3.7195       Y5.8598    
   X3.6306       Y5.9280    
(Pass: 2)
   Z0.0625     F100 
   X3.5625       Y6.0168     F80  
   X3.5196       Y6.1203    
   X3.5044       Y6.2355    
   Y6.6210    
   X3.5196       Y6.7361    
   X3.5625       Y6.8396    
   X3.6306       Y6.9285    
   X3.7195       Y6.9967    
   X3.8230       Y7.0395    
   X3.9341       Y7.0542    
   X4.0451       Y7.0395    
   X4.1486       Y6.9967    
   X4.2375       Y6.9285    
   X4.3057       Y6.8396    
   X4.3485       Y6.7361    
   X4.3637       Y6.6210    
   Y6.2355    
   X4.3485       Y6.1203    
   X4.3057       Y6.0168    
   X4.2375       Y5.9280    
   X4.1486       Y5.8598    
   X4.0451       Y5.8169    
   X3.9341       Y5.8023    
   X3.8230       Y5.8169    
   X3.7195       Y5.8598    
   X3.6306       Y5.9280    
(Pass: 3)
   Z0.0312     F100 
   X3.5625       Y6.0168     F80  
   X3.5196       Y6.1203    
   X3.5044       Y6.2355    
   Y6.6210    
   X3.5196       Y6.7361    
   X3.5625       Y6.8396    
   X3.6306       Y6.9285    
   X3.7195       Y6.9967    
   X3.8230       Y7.0395    
   X3.9341       Y7.0542    
   X4.0451       Y7.0395    
   X4.1486       Y6.9967    
   X4.2375       Y6.9285    
   X4.3057       Y6.8396    
   X4.3485       Y6.7361    
   X4.3637       Y6.6210    
   Y6.2355    
   X4.3485       Y6.1203    
   X4.3057       Y6.0168    
   X4.2375       Y5.9280    
   X4.1486       Y5.8598    
   X4.0451       Y5.8169    
   X3.9341       Y5.8023    
   X3.8230       Y5.8169    
   X3.7195       Y5.8598    
   X3.6306       Y5.9280    
(Pass: 4)
   Z0.0000     F100 
   X3.5625       Y6.0168     F80  
   X3.5196       Y6.1203    
   X3.5044       Y6.2355    
   Y6.6210    
   X3.5196       Y6.7361    
   X3.5625       Y6.8396    
   X3.6306       Y6.9285    
   X3.7195       Y6.9967    
   X3.8230       Y7.0395    
   X3.9341       Y7.0542    
   X4.0451       Y7.0395    
   X4.1486       Y6.9967    
   X4.2375       Y6.9285    
   X4.3057       Y6.8396    
   X4.3485       Y6.7361    
   X4.3637       Y6.6210    
   Y6.2355    
   X4.3485       Y6.1203    
   X4.3057       Y6.0168    
   X4.2375       Y5.9280    
   X4.1486       Y5.8598    
   X4.0451       Y5.8169    
   X3.9341       Y5.8023    
   X3.8230       Y5.8169    
   X3.7195       Y5.8598    
   X3.6306       Y5.9280    
(Pass: 5)
   Z-0.0312    F100 
   X3.5625       Y6.0168     F80  
   X3.5196       Y6.1203    
   X3.5044       Y6.2355    
   Y6.6210    
   X3.5196       Y6.7361    
   X3.5625       Y6.8396    
   X3.6306       Y6.9285    
   X3.7195       Y6.9967    
   X3.8230       Y7.0395    
   X3.9341       Y7.0542    
   X4.0451       Y7.0395    
   X4.1486       Y6.9967    
   X4.2375       Y6.9285    
   X4.3057       Y6.8396    
   X4.3485       Y6.7361    
   X4.3637       Y6.6210    
   Y6.2355    
   X4.3485       Y6.1203    
   X4.3057       Y6.0168    
   X4.2375       Y5.9280    
   X4.1486       Y5.8598    
   X4.0451       Y5.8169    
   X3.9341       Y5.8023    
   X3.8230       Y5.8169    
   X3.7195       Y5.8598    
   X3.6306       Y5.9280    
(Pass: 6)
   Z-0.0500    F100 
   X3.5625       Y6.0168     F80  
   X3.5196       Y6.1203    
   X3.5044       Y6.2355    
   Y6.6210    
   X3.5196       Y6.7361    
   X3.5625       Y6.8396    
   X3.6306       Y6.9285    
   X3.7195       Y6.9967    
   X3.8230       Y7.0395    
   X3.9341       Y7.0542    
   X4.0451       Y7.0395    
   X4.1486       Y6.9967    
   X4.2375       Y6.9285    
   X4.3057       Y6.8396    
   X4.3485       Y6.7361    
   X4.3637       Y6.6210    
   Y6.2355    
   X4.3485       Y6.1203    
   X4.3057       Y6.0168    
   X4.2375       Y5.9280    
   X4.1486       Y5.8598    
   X4.0451       Y5.8169    
   X3.9341       Y5.8023    
   X3.8230       Y5.8169    
   X3.7195       Y5.8598    
   X3.6306       Y5.9280    
(BREAK pass 6)
G0   Z0.2500    
(Pass: 1)
   X4.8280       Y5.6853    
G1   Z0.0938     F100 
   X4.8317       Y5.6942     F80  
   X4.8375       Y5.7018    
   X4.8452       Y5.7077    
   X4.8541       Y5.7114    
   X4.8637       Y5.7127    
   X4.8732       Y5.7114    
   X4.8821       Y5.7077    
   X4.8898       Y5.7018    
   X4.8957       Y5.6942    
   X4.8994       Y5.6853    
   X4.9012       Y5.6716    
   Y5.3255    
   X4.8994       Y5.3118    
   X4.8957       Y5.3029    
   X4.8898       Y5.2952    
   X4.8821       Y5.2894    
   X4.8732       Y5.2857    
   X4.8637       Y5.2844    
   X4.8541       Y5.2857    
   X4.8452       Y5.2894    
   X4.8375       Y5.2952    
   X4.8317       Y5.3029    
   X4.8280       Y5.3118    
   X4.8262       Y5.3255    
   Y5.6716    
   X4.8280       Y5.6853    
(Pass: 2)
   Z0.0625     F100 
   X4.8317       Y5.6942     F80  
   X4.8375       Y5.7018    
   X4.8452       Y5.7077    
   X4.8541       Y5.7114    
   X4.8637       Y5.7127    
   X4.8732       Y5.7114    
   X4.8821       Y5.7077    
   X4.8898       Y5.7018    
   X4.8957       Y5.6942    
   X4.8994       Y5.6853    
   X4.9012       Y5.6716    
   Y5.3255    
   X4.8994       Y5.3118    
   X4.8957       Y5.3029    
   X4.8898       Y5.2952    
   X4.8821       Y5.2894    
   X4.8732       Y5.2857    
   X4.8637       Y5.2844    
   X4.8541       Y5.2857    
   X4.8452       Y5.2894    
   X4.8375       Y5.2952    
   X4.8317       Y5.3029    
   X4.8280       Y5.3118    
   X4.8262       Y5.3255    
   Y5.6716    
   X4.8280       Y5.6853    
(Pass: 3)
   Z0.0312     F100 
   X4.8317       Y5.6942     F80  
   X4.8375       Y5.7018    
   X4.8452       Y5.7077    
   X4.8541       Y5.7114    
   X4.8637       Y5.7127    
   X4.8732       Y5.7114    
   X4.8821       Y5.7077    
   X4.8898       Y5.7018    
   X4.8957       Y5.6942    
   X4.8994       Y5.6853    
   X4.9012       Y5.6716    
   Y5.3255    
   X4.8994       Y5.3118    
   X4.8957       Y5.3029    
   X4.8898       Y5.2952    
   X4.8821       Y5.2894    
   X4.8732       Y5.2857    
   X4.8637       Y5.2844    
   X4.8541       Y5.2857    
   X4.8452       Y5.2894    
   X4.8375       Y5.2952    
   X4.8317       Y5.3029    
   X4.8280       Y5.3118    
   X4.8262       Y5.3255    
   Y5.6716    
   X4.8280       Y5.6853    
(Pass: 4)
   Z0.0000     F100 
   X4.8317       Y5.6942     F80  
   X4.8375       Y5.7018    
   X4.8452       Y5.7077    
   X4.8541       Y5.7114    
   X4.8637       Y5.7127    
   X4.8732       Y5.7114    
   X4.8821       Y5.7077    
   X4.8898       Y5.7018    
   X4.8957       Y5.6942    
   X4.8994       Y5.6853    
   X4.9012       Y5.6716    
   Y5.3255    
   X4.8994       Y5.3118    
   X4.8957       Y5.3029    
   X4.8898       Y5.2952    
   X4.8821       Y5.2894    
   X4.8732       Y5.2857    
   X4.8637       Y5.2844    
   X4.8541       Y5.2857    
   X4.8452       Y5.2894    
   X4.8375       Y5.2952    
   X4.8317       Y5.3029    
   X4.8280       Y5.3118    
   X4.8262       Y5.3255    
   Y5.6716    
   X4.8280       Y5.6853    
(Pass: 5)
   Z-0.0312    F100 
   X4.8317       Y5.6942     F80  
   X4.8375       Y5.7018    
   X4.8452       Y5.7077    
   X4.8541       Y5.7114    
   X4.8637       Y5.7127    
   X4.8732       Y5.7114    
   X4.8821       Y5.7077    
   X4.8898       Y5.7018    
   X4.8957       Y5.6942    
   X4.8994       Y5.6853    
   X4.9012       Y5.6716    
   Y5.3255    
   X4.8994       Y5.3118    
   X4.8957       Y5.3029    
   X4.8898       Y5.2952    
   X4.8821       Y5.2894    
   X4.8732       Y5.2857    
   X4.8637       Y5.2844    
   X4.8541       Y5.2857    
   X4.8452       Y5.2894    
   X4.8375       Y5.2952    
   X4.8317       Y5.3029    
   X4.8280       Y5.3118    
   X4.8262       Y5.3255    
   Y5.6716    
   X4.8280       Y5.6853    
(Pass: 6)
   Z-0.0500    F100 
   X4.8317       Y5.6942     F80  
   X4.8375       Y5.7018    
   X4.8452       Y5.7077    
   X4.8541       Y5.7114    
   X4.8637       Y5.7127    
   X4.8732       Y5.7114    
   X4.8821       Y5.7077    
   X4.8898       Y5.7018    
   X4.8957       Y5.6942    
   X4.8994       Y5.6853    
   X4.9012       Y5.6716    
   Y5.3255    
   X4.8994       Y5.3118    
   X4.8957       Y5.3029    
   X4.8898       Y5.2952    
   X4.8821       Y5.2894    
   X4.8732       Y5.2857    
   X4.8637       Y5.2844    
   X4.8541       Y5.2857    
   X4.8452       Y5.2894    
   X4.8375       Y5.2952    
   X4.8317       Y5.3029    
   X4.8280       Y5.3118    
   X4.8262       Y5.3255    
   Y5.6716    
   X4.8280       Y5.6853    
(BREAK pass 6)
G0   Z0.2500    
(Pass: 1)
   X6.1386       Y4.9707    
G1   Z0.0938     F100 
   X6.1421       Y4.9792     F80  
   X6.1477       Y4.9865    
   X6.1551       Y4.9921    
   X6.1636       Y4.9957    
   X6.1728       Y4.9969    
   X6.1819       Y4.9957    
   X6.1905       Y4.9921    
   X6.1978       Y4.9865    
   X6.2034       Y4.9792    
   X6.2069       Y4.9707    
   X6.2082       Y4.9615    
   X6.2069       Y4.9523    
   X6.2034       Y4.9438    
   X6.1978       Y4.9365    
   X6.1905       Y4.9308    
   X6.1819       Y4.9273    
   X6.1728       Y4.9261    
   X6.1636       Y4.9273    
   X6.1551       Y4.9308    
   X6.1477       Y4.9365    
   X6.1421       Y4.9438    
   X6.1386       Y4.9523    
   X6.1374       Y4.9615    
   X6.1386       Y4.9707    
(Pass: 2)
   Z0.0625     F100 
   X6.1421       Y4.9792     F80  
   X6.1477       Y4.9865    
   X6.1551       Y4.9921    
   X6.1636       Y4.9957    
   X6.1728       Y4.9969    
   X6.1819       Y4.9957    
   X6.1905       Y4.9921    
   X6.1978       Y4.9865    
   X6.2034       Y4.9792    
   X6.2069       Y4.9707    
   X6.2082       Y4.9615    
   X6.2069       Y4.9523    
   X6.2034       Y4.9438    
   X6.1978       Y4.9365    
   X6.1905       Y4.9308    
   X6.1819       Y4.9273    
   X6.1728       Y4.9261    
   X6.1636       Y4.9273    
   X6.1551       Y4.9308    
   X6.1477       Y4.9365    
   X6.1421       Y4.9438    
   X6.1386       Y4.9523    
   X6.1374       Y4.9615    
   X6.1386       Y4.9707    
(Pass: 3)
   Z0.0312     F100 
   X6.1421       Y4.9792     F80  
   X6.1477       Y4.9865    
   X6.1551       Y4.9921    
   X6.1636       Y4.9957    
   X6.1728       Y4.9969    
   X6.1819       Y4.9957    
   X6.1905       Y4.9921    
   X6.1978       Y4.9865    
   X6.2034       Y4.9792    
   X6.2069       Y4.9707    
   X6.2082       Y4.9615    
   X6.2069       Y4.9523    
   X6.2034       Y4.9438    
   X6.1978       Y4.9365    
   X6.1905       Y4.9308    
   X6.1819       Y4.9273    
   X6.1728       Y4.9261    
   X6.1636       Y4.9273    
   X6.1551       Y4.9308    
   X6.1477       Y4.9365    
   X6.1421       Y4.9438    
   X6.1386       Y4.9523    
   X6.1374       Y4.9615    
   X6.1386       Y4.9707    
(Pass: 4)
   Z0.0000     F100 
   X6.1421       Y4.9792     F80  
   X6.1477       Y4.9865    
   X6.1551       Y4.9921    
   X6.1636       Y4.9957    
   X6.1728       Y4.9969    
   X6.1819       Y4.9957    
   X6.1905       Y4.9921    
   X6.1978       Y4.9865    
   X6.2034       Y4.9792    
   X6.2069       Y4.9707    
   X6.2082       Y4.9615    
   X6.2069       Y4.9523    
   X6.2034       Y4.9438    
   X6.1978       Y4.9365    
   X6.1905       Y4.9308    
   X6.1819       Y4.9273    
   X6.1728       Y4.9261    
   X6.1636       Y4.9273    
   X6.1551       Y4.9308    
   X6.1477       Y4.9365    
   X6.1421       Y4.9438    
   X6.1386       Y4.9523    
   X6.1374       Y4.9615    
   X6.1386       Y4.9707    
(Pass: 5)
   Z-0.0312    F100 
   X6.1421       Y4.9792     F80  
   X6.1477       Y4.9865    
   X6.1551       Y4.9921    
   X6.1636       Y4.9957    
   X6.1728       Y4.9969    
   X6.1819       Y4.9957    
   X6.1905       Y4.9921    
   X6.1978       Y4.9865    
   X6.2034       Y4.9792    
   X6.2069       Y4.9707    
   X6.2082       Y4.9615    
   X6.2069       Y4.9523    
   X6.2034       Y4.9438    
   X6.1978       Y4.9365    
   X6.1905       Y4.9308    
   X6.1819       Y4.9273    
   X6.1728       Y4.9261    
   X6.1636       Y4.9273    
   X6.1551       Y4.9308    
   X6.1477       Y4.9365    
   X6.1421       Y4.9438    
   X6.1386       Y4.9523    
   X6.1374       Y4.9615    
   X6.1386       Y4.9707    
(Pass: 6)
   Z-0.0500    F100 
   X6.1421       Y4.9792     F80  
   X6.1477       Y4.9865    
   X6.1551       Y4.9921    
   X6.1636       Y4.9957    
   X6.1728       Y4.9969    
   X6.1819       Y4.9957    
   X6.1905       Y4.9921    
   X6.1978       Y4.9865    
   X6.2034       Y4.9792    
   X6.2069       Y4.9707    
   X6.2082       Y4.9615    
   X6.2069       Y4.9523    
   X6.2034       Y4.9438    
   X6.1978       Y4.9365    
   X6.1905       Y4.9308    
   X6.1819       Y4.9273    
   X6.1728       Y4.9261    
   X6.1636       Y4.9273    
   X6.1551       Y4.9308    
   X6.1477       Y4.9365    
   X6.1421       Y4.9438    
   X6.1386       Y4.9523    
   X6.1374       Y4.9615    
   X6.1386       Y4.9707    
(BREAK pass 6)
G0   Z0.2500    
(Pass: 1)
   X5.2870       Y6.7178    
G1   Z0.0938     F100 
   X5.2764       Y6.7134     F80  
   X5.2651       Y6.7119    
   X5.2537       Y6.7134    
   X5.2431       Y6.7178    
   X5.2340       Y6.7247    
   X5.2271       Y6.7338    
   X5.2227       Y6.7444    
   X5.2212       Y6.7557    
   X5.2227       Y6.7671    
   X5.2271       Y6.7777    
   X5.2340       Y6.7868    
   X5.2431       Y6.7937    
   X5.2537       Y6.7981    
   X5.2651       Y6.7996    
   X5.2764       Y6.7981    
   X5.2870       Y6.7937    
   X5.2961       Y6.7868    
   X5.3030       Y6.7777    
   X5.3074       Y6.7671    
   X5.3089       Y6.7557    
   X5.3074       Y6.7444    
   X5.3030       Y6.7338    
   X5.2961       Y6.7247    
   X5.2870       Y6.7178    
(Pass: 2)
   Z0.0625     F100 
   X5.2764       Y6.7134     F80  
   X5.2651       Y6.7119    
   X5.2537       Y6.7134    
   X5.2431       Y6.7178    
   X5.2340       Y6.7247    
   X5.2271       Y6.7338    
   X5.2227       Y6.7444    
   X5.2212       Y6.7557    
   X5.2227       Y6.7671    
   X5.2271       Y6.7777    
   X5.2340       Y6.7868    
   X5.2431       Y6.7937    
   X5.2537       Y6.7981    
   X5.2651       Y6.7996    
   X5.2764       Y6.7981    
   X5.2870       Y6.7937    
   X5.2961       Y6.7868    
   X5.3030       Y6.7777    
   X5.3074       Y6.7671    
   X5.3089       Y6.7557    
   X5.3074       Y6.7444    
   X5.3030       Y6.7338    
   X5.2961       Y6.7247    
   X5.2870       Y6.7178    
(Pass: 3)
   Z0.0312     F100 
   X5.2764       Y6.7134     F80  
   X5.2651       Y6.7119    
   X5.2537       Y6.7134    
   X5.2431       Y6.7178    
   X5.2340       Y6.7247    
   X5.2271       Y6.7338    
   X5.2227       Y6.7444    
   X5.2212       Y6.7557    
   X5.2227       Y6.7671    
   X5.2271       Y6.7777    
   X5.2340       Y6.7868    
   X5.2431       Y6.7937    
   X5.2537       Y6.7981    
   X5.2651       Y6.7996    
   X5.2764       Y6.7981    
   X5.2870       Y6.7937    
   X5.2961       Y6.7868    
   X5.3030       Y6.7777    
   X5.3074       Y6.7671    
   X5.3089       Y6.7557    
   X5.3074       Y6.7444    
   X5.3030       Y6.7338    
   X5.2961       Y6.7247    
   X5.2870       Y6.7178    
(Pass: 4)
   Z0.0000     F100 
   X5.2764       Y6.7134     F80  
   X5.2651       Y6.7119    
   X5.2537       Y6.7134    
   X5.2431       Y6.7178    
   X5.2340       Y6.7247    
   X5.2271       Y6.7338    
   X5.2227       Y6.7444    
   X5.2212       Y6.7557    
   X5.2227       Y6.7671    
   X5.2271       Y6.7777    
   X5.2340       Y6.7868    
   X5.2431       Y6.7937    
   X5.2537       Y6.7981    
   X5.2651       Y6.7996    
   X5.2764       Y6.7981    
   X5.2870       Y6.7937    
   X5.2961       Y6.7868    
   X5.3030       Y6.7777    
   X5.3074       Y6.7671    
   X5.3089       Y6.7557    
   X5.3074       Y6.7444    
   X5.3030       Y6.7338    
   X5.2961       Y6.7247    
   X5.2870       Y6.7178    
(Pass: 5)
   Z-0.0312    F100 
   X5.2764       Y6.7134     F80  
   X5.2651       Y6.7119    
   X5.2537       Y6.7134    
   X5.2431       Y6.7178    
   X5.2340       Y6.7247    
   X5.2271       Y6.7338    
   X5.2227       Y6.7444    
   X5.2212       Y6.7557    
   X5.2227       Y6.7671    
   X5.2271       Y6.7777    
   X5.2340       Y6.7868    
   X5.2431       Y6.7937    
   X5.2537       Y6.7981    
   X5.2651       Y6.7996    
   X5.2764       Y6.7981    
   X5.2870       Y6.7937    
   X5.2961       Y6.7868    
   X5.3030       Y6.7777    
   X5.3074       Y6.7671    
   X5.3089       Y6.7557    
   X5.3074       Y6.7444    
   X5.3030       Y6.7338    
   X5.2961       Y6.7247    
   X5.2870       Y6.7178    
(Pass: 6)
   Z-0.0500    F100 
   X5.2764       Y6.7134     F80  
   X5.2651       Y6.7119    
   X5.2537       Y6.7134    
   X5.2431       Y6.7178    
   X5.2340       Y6.7247    
   X5.2271       Y6.7338    
   X5.2227       Y6.7444    
   X5.2212       Y6.7557    
   X5.2227       Y6.7671    
   X5.2271       Y6.7777    
   X5.2340       Y6.7868    
   X5.2431       Y6.7937    
   X5.2537       Y6.7981    
   X5.2651       Y6.7996    
   X5.2764       Y6.7981    
   X5.2870       Y6.7937    
   X5.2961       Y6.7868    
   X5.3030       Y6.7777    
   X5.3074       Y6.7671    
   X5.3089       Y6.7557    
   X5.3074       Y6.7444    
   X5.3030       Y6.7338    
   X5.2961       Y6.7247    
   X5.2870       Y6.7178    
(BREAK pass 6)
G0   Z0.2500    
(Pass: 1)
   X4.8898       Y7.1552    
G1   Z0.0938     F100 
   X4.8821       Y7.1493     F80  
   X4.8732       Y7.1457    
   X4.8637       Y7.1444    
   X4.8541       Y7.1457    
   X4.8452       Y7.1493    
   X4.8375       Y7.1552    
   X4.8317       Y7.1629    
   X4.8280       Y7.1718    
   X4.8262       Y7.1855    
   Y7.5316    
   X4.8280       Y7.5453    
   X4.8317       Y7.5542    
   X4.8375       Y7.5618    
   X4.8452       Y7.5677    
   X4.8541       Y7.5714    
   X4.8637       Y7.5726    
   X4.8732       Y7.5714    
   X4.8821       Y7.5677    
   X4.8898       Y7.5618    
   X4.8957       Y7.5542    
   X4.8994       Y7.5453    
   X4.9012       Y7.5316    
   Y7.1855    
   X4.8994       Y7.1718    
   X4.8957       Y7.1629    
   X4.8898       Y7.1552    
(Pass: 2)
   Z0.0625     F100 
   X4.8821       Y7.1493     F80  
   X4.8732       Y7.1457    
   X4.8637       Y7.1444    
   X4.8541       Y7.1457    
   X4.8452       Y7.1493    
   X4.8375       Y7.1552    
   X4.8317       Y7.1629    
   X4.8280       Y7.1718    
   X4.8262       Y7.1855    
   Y7.5316    
   X4.8280       Y7.5453    
   X4.8317       Y7.5542    
   X4.8375       Y7.5618    
   X4.8452       Y7.5677    
   X4.8541       Y7.5714    
   X4.8637       Y7.5726    
   X4.8732       Y7.5714    
   X4.8821       Y7.5677    
   X4.8898       Y7.5618    
   X4.8957       Y7.5542    
   X4.8994       Y7.5453    
   X4.9012       Y7.5316    
   Y7.1855    
   X4.8994       Y7.1718    
   X4.8957       Y7.1629    
   X4.8898       Y7.1552    
(Pass: 3)
   Z0.0312     F100 
   X4.8821       Y7.1493     F80  
   X4.8732       Y7.1457    
   X4.8637       Y7.1444    
   X4.8541       Y7.1457    
   X4.8452       Y7.1493    
   X4.8375       Y7.1552    
   X4.8317       Y7.1629    
   X4.8280       Y7.1718    
   X4.8262       Y7.1855    
   Y7.5316    
   X4.8280       Y7.5453    
   X4.8317       Y7.5542    
   X4.8375       Y7.5618    
   X4.8452       Y7.5677    
   X4.8541       Y7.5714    
   X4.8637       Y7.5726    
   X4.8732       Y7.5714    
   X4.8821       Y7.5677    
   X4.8898       Y7.5618    
   X4.8957       Y7.5542    
   X4.8994       Y7.5453    
   X4.9012       Y7.5316    
   Y7.1855    
   X4.8994       Y7.1718    
   X4.8957       Y7.1629    
   X4.8898       Y7.1552    
(Pass: 4)
   Z0.0000     F100 
   X4.8821       Y7.1493     F80  
   X4.8732       Y7.1457    
   X4.8637       Y7.1444    
   X4.8541       Y7.1457    
   X4.8452       Y7.1493    
   X4.8375       Y7.1552    
   X4.8317       Y7.1629    
   X4.8280       Y7.1718    
   X4.8262       Y7.1855    
   Y7.5316    
   X4.8280       Y7.5453    
   X4.8317       Y7.5542    
   X4.8375       Y7.5618    
   X4.8452       Y7.5677    
   X4.8541       Y7.5714    
   X4.8637       Y7.5726    
   X4.8732       Y7.5714    
   X4.8821       Y7.5677    
   X4.8898       Y7.5618    
   X4.8957       Y7.5542    
   X4.8994       Y7.5453    
   X4.9012       Y7.5316    
   Y7.1855    
   X4.8994       Y7.1718    
   X4.8957       Y7.1629    
   X4.8898       Y7.1552    
(Pass: 5)
   Z-0.0312    F100 
   X4.8821       Y7.1493     F80  
   X4.8732       Y7.1457    
   X4.8637       Y7.1444    
   X4.8541       Y7.1457    
   X4.8452       Y7.1493    
   X4.8375       Y7.1552    
   X4.8317       Y7.1629    
   X4.8280       Y7.1718    
   X4.8262       Y7.1855    
   Y7.5316    
   X4.8280       Y7.5453    
   X4.8317       Y7.5542    
   X4.8375       Y7.5618    
   X4.8452       Y7.5677    
   X4.8541       Y7.5714    
   X4.8637       Y7.5726    
   X4.8732       Y7.5714    
   X4.8821       Y7.5677    
   X4.8898       Y7.5618    
   X4.8957       Y7.5542    
   X4.8994       Y7.5453    
   X4.9012       Y7.5316    
   Y7.1855    
   X4.8994       Y7.1718    
   X4.8957       Y7.1629    
   X4.8898       Y7.1552    
(Pass: 6)
   Z-0.0500    F100 
   X4.8821       Y7.1493     F80  
   X4.8732       Y7.1457    
   X4.8637       Y7.1444    
   X4.8541       Y7.1457    
   X4.8452       Y7.1493    
   X4.8375       Y7.1552    
   X4.8317       Y7.1629    
   X4.8280       Y7.1718    
   X4.8262       Y7.1855    
   Y7.5316    
   X4.8280       Y7.5453    
   X4.8317       Y7.5542    
   X4.8375       Y7.5618    
   X4.8452       Y7.5677    
   X4.8541       Y7.5714    
   X4.8637       Y7.5726    
   X4.8732       Y7.5714    
   X4.8821       Y7.5677    
   X4.8898       Y7.5618    
   X4.8957       Y7.5542    
   X4.8994       Y7.5453    
   X4.9012       Y7.5316    
   Y7.1855    
   X4.8994       Y7.1718    
   X4.8957       Y7.1629    
   X4.8898       Y7.1552    
(BREAK pass 6)
G0   Z0.2500    
(Pass: 1)
   X4.6478       Y7.9160    
G1   Z0.0938     F100 
   X4.6364       Y7.9146     F80  
   X4.6251       Y7.9160    
   X4.6145       Y7.9204    
   X4.6054       Y7.9274    
   X4.5984       Y7.9365    
   X4.5940       Y7.9471    
   X4.5925       Y7.9584    
   X4.5940       Y7.9698    
   X4.5984       Y7.9804    
   X4.6054       Y7.9894    
   X4.6145       Y7.9964    
   X4.6251       Y8.0008    
   X4.6364       Y8.0023    
   X4.6478       Y8.0008    
   X4.6583       Y7.9964    
   X4.6674       Y7.9894    
   X4.6744       Y7.9804    
   X4.6788       Y7.9698    
   X4.6803       Y7.9584    
   X4.6788       Y7.9471    
   X4.6744       Y7.9365    
   X4.6674       Y7.9274    
   X4.6583       Y7.9204    
   X4.6478       Y7.9160    
(Pass: 2)
   Z0.0625     F100 
   X4.6364       Y7.9146     F80  
   X4.6251       Y7.9160    
   X4.6145       Y7.9204    
   X4.6054       Y7.9274    
   X4.5984       Y7.9365    
   X4.5940       Y7.9471    
   X4.5925       Y7.9584    
   X4.5940       Y7.9698    
   X4.5984       Y7.9804    
   X4.6054       Y7.9894    
   X4.6145       Y7.9964    
   X4.6251       Y8.0008    
   X4.6364       Y8.0023    
   X4.6478       Y8.0008    
   X4.6583       Y7.9964    
   X4.6674       Y7.9894    
   X4.6744       Y7.9804    
   X4.6788       Y7.9698    
   X4.6803       Y7.9584    
   X4.6788       Y7.9471    
   X4.6744       Y7.9365    
   X4.6674       Y7.9274    
   X4.6583       Y7.9204    
   X4.6478       Y7.9160    
(Pass: 3)
   Z0.0312     F100 
   X4.6364       Y7.9146     F80  
   X4.6251       Y7.9160    
   X4.6145       Y7.9204    
   X4.6054       Y7.9274    
   X4.5984       Y7.9365    
   X4.5940       Y7.9471    
   X4.5925       Y7.9584    
   X4.5940       Y7.9698    
   X4.5984       Y7.9804    
   X4.6054       Y7.9894    
   X4.6145       Y7.9964    
   X4.6251       Y8.0008    
   X4.6364       Y8.0023    
   X4.6478       Y8.0008    
   X4.6583       Y7.9964    
   X4.6674       Y7.9894    
   X4.6744       Y7.9804    
   X4.6788       Y7.9698    
   X4.6803       Y7.9584    
   X4.6788       Y7.9471    
   X4.6744       Y7.9365    
   X4.6674       Y7.9274    
   X4.6583       Y7.9204    
   X4.6478       Y7.9160    
(Pass: 4)
   Z0.0000     F100 
   X4.6364       Y7.9146     F80  
   X4.6251       Y7.9160    
   X4.6145       Y7.9204    
   X4.6054       Y7.9274    
   X4.5984       Y7.9365    
   X4.5940       Y7.9471    
   X4.5925       Y7.9584    
   X4.5940       Y7.9698    
   X4.5984       Y7.9804    
   X4.6054       Y7.9894    
   X4.6145       Y7.9964    
   X4.6251       Y8.0008    
   X4.6364       Y8.0023    
   X4.6478       Y8.0008    
   X4.6583       Y7.9964    
   X4.6674       Y7.9894    
   X4.6744       Y7.9804    
   X4.6788       Y7.9698    
   X4.6803       Y7.9584    
   X4.6788       Y7.9471    
   X4.6744       Y7.9365    
   X4.6674       Y7.9274    
   X4.6583       Y7.9204    
   X4.6478       Y7.9160    
(Pass: 5)
   Z-0.0312    F100 
   X4.6364       Y7.9146     F80  
   X4.6251       Y7.9160    
   X4.6145       Y7.9204    
   X4.6054       Y7.9274    
   X4.5984       Y7.9365    
   X4.5940       Y7.9471    
   X4.5925       Y7.9584    
   X4.5940       Y7.9698    
   X4.5984       Y7.9804    
   X4.6054       Y7.9894    
   X4.6145       Y7.9964    
   X4.6251       Y8.0008    
   X4.6364       Y8.0023    
   X4.6478       Y8.0008    
   X4.6583       Y7.9964    
   X4.6674       Y7.9894    
   X4.6744       Y7.9804    
   X4.6788       Y7.9698    
   X4.6803       Y7.9584    
   X4.6788       Y7.9471    
   X4.6744       Y7.9365    
   X4.6674       Y7.9274    
   X4.6583       Y7.9204    
   X4.6478       Y7.9160    
(Pass: 6)
   Z-0.0500    F100 
   X4.6364       Y7.9146     F80  
   X4.6251       Y7.9160    
   X4.6145       Y7.9204    
   X4.6054       Y7.9274    
   X4.5984       Y7.9365    
   X4.5940       Y7.9471    
   X4.5925       Y7.9584    
   X4.5940       Y7.9698    
   X4.5984       Y7.9804    
   X4.6054       Y7.9894    
   X4.6145       Y7.9964    
   X4.6251       Y8.0008    
   X4.6364       Y8.0023    
   X4.6478       Y8.0008    
   X4.6583       Y7.9964    
   X4.6674       Y7.9894    
   X4.6744       Y7.9804    
   X4.6788       Y7.9698    
   X4.6803       Y7.9584    
   X4.6788       Y7.9471    
   X4.6744       Y7.9365    
   X4.6674       Y7.9274    
   X4.6583       Y7.9204    
   X4.6478       Y7.9160    
(BREAK pass 6)
G0   Z0.2500    
(Pass: 1)
   X3.2740       Y7.9584    
G1   Z0.0938     F100 
   X3.2725       Y7.9471     F80  
   X3.2681       Y7.9365    
   X3.2612       Y7.9274    
   X3.2521       Y7.9204    
   X3.2415       Y7.9160    
   X3.2301       Y7.9146    
   X3.2188       Y7.9160    
   X3.2082       Y7.9204    
   X3.1991       Y7.9274    
   X3.1921       Y7.9365    
   X3.1878       Y7.9471    
   X3.1863       Y7.9584    
   X3.1878       Y7.9698    
   X3.1921       Y7.9804    
   X3.1991       Y7.9894    
   X3.2082       Y7.9964    
   X3.2188       Y8.0008    
   X3.2301       Y8.0023    
   X3.2415       Y8.0008    
   X3.2521       Y7.9964    
   X3.2612       Y7.9894    
   X3.2681       Y7.9804    
   X3.2725       Y7.9698    
   X3.2740       Y7.9584    
(Pass: 2)
   Z0.0625     F100 
   X3.2725       Y7.9471     F80  
   X3.2681       Y7.9365    
   X3.2612       Y7.9274    
   X3.2521       Y7.9204    
   X3.2415       Y7.9160    
   X3.2301       Y7.9146    
   X3.2188       Y7.9160    
   X3.2082       Y7.9204    
   X3.1991       Y7.9274    
   X3.1921       Y7.9365    
   X3.1878       Y7.9471    
   X3.1863       Y7.9584    
   X3.1878       Y7.9698    
   X3.1921       Y7.9804    
   X3.1991       Y7.9894    
   X3.2082       Y7.9964    
   X3.2188       Y8.0008    
   X3.2301       Y8.0023    
   X3.2415       Y8.0008    
   X3.2521       Y7.9964    
   X3.2612       Y7.9894    
   X3.2681       Y7.9804    
   X3.2725       Y7.9698    
   X3.2740       Y7.9584    
(Pass: 3)
   Z0.0312     F100 
   X3.2725       Y7.9471     F80  
   X3.2681       Y7.9365    
   X3.2612       Y7.9274    
   X3.2521       Y7.9204    
   X3.2415       Y7.9160    
   X3.2301       Y7.9146    
   X3.2188       Y7.9160    
   X3.2082       Y7.9204    
   X3.1991       Y7.9274    
   X3.1921       Y7.9365    
   X3.1878       Y7.9471    
   X3.1863       Y7.9584    
   X3.1878       Y7.9698    
   X3.1921       Y7.9804    
   X3.1991       Y7.9894    
   X3.2082       Y7.9964    
   X3.2188       Y8.0008    
   X3.2301       Y8.0023    
   X3.2415       Y8.0008    
   X3.2521       Y7.9964    
   X3.2612       Y7.9894    
   X3.2681       Y7.9804    
   X3.2725       Y7.9698    
   X3.2740       Y7.9584    
(Pass: 4)
   Z0.0000     F100 
   X3.2725       Y7.9471     F80  
   X3.2681       Y7.9365    
   X3.2612       Y7.9274    
   X3.2521       Y7.9204    
   X3.2415       Y7.9160    
   X3.2301       Y7.9146    
   X3.2188       Y7.9160    
   X3.2082       Y7.9204    
   X3.1991       Y7.9274    
   X3.1921       Y7.9365    
   X3.1878       Y7.9471    
   X3.1863       Y7.9584    
   X3.1878       Y7.9698    
   X3.1921       Y7.9804    
   X3.1991       Y7.9894    
   X3.2082       Y7.9964    
   X3.2188       Y8.0008    
   X3.2301       Y8.0023    
   X3.2415       Y8.0008    
   X3.2521       Y7.9964    
   X3.2612       Y7.9894    
   X3.2681       Y7.9804    
   X3.2725       Y7.9698    
   X3.2740       Y7.9584    
(Pass: 5)
   Z-0.0312    F100 
   X3.2725       Y7.9471     F80  
   X3.2681       Y7.9365    
   X3.2612       Y7.9274    
   X3.2521       Y7.9204    
   X3.2415       Y7.9160    
   X3.2301       Y7.9146    
   X3.2188       Y7.9160    
   X3.2082       Y7.9204    
   X3.1991       Y7.9274    
   X3.1921       Y7.9365    
   X3.1878       Y7.9471    
   X3.1863       Y7.9584    
   X3.1878       Y7.9698    
   X3.1921       Y7.9804    
   X3.1991       Y7.9894    
   X3.2082       Y7.9964    
   X3.2188       Y8.0008    
   X3.2301       Y8.0023    
   X3.2415       Y8.0008    
   X3.2521       Y7.9964    
   X3.2612       Y7.9894    
   X3.2681       Y7.9804    
   X3.2725       Y7.9698    
   X3.2740       Y7.9584    
(Pass: 6)
   Z-0.0500    F100 
   X3.2725       Y7.9471     F80  
   X3.2681       Y7.9365    
   X3.2612       Y7.9274    
   X3.2521       Y7.9204    
   X3.2415       Y7.9160    
   X3.2301       Y7.9146    
   X3.2188       Y7.9160    
   X3.2082       Y7.9204    
   X3.1991       Y7.9274    
   X3.1921       Y7.9365    
   X3.1878       Y7.9471    
   X3.1863       Y7.9584    
   X3.1878       Y7.9698    
   X3.1921       Y7.9804    
   X3.1991       Y7.9894    
   X3.2082       Y7.9964    
   X3.2188       Y8.0008    
   X3.2301       Y8.0023    
   X3.2415       Y8.0008    
   X3.2521       Y7.9964    
   X3.2612       Y7.9894    
   X3.2681       Y7.9804    
   X3.2725       Y7.9698    
   X3.2740       Y7.9584    
(BREAK pass 6)
G0   Z0.2500    
(Pass: 1)
   X3.0221       Y7.5677    
G1   Z0.0938     F100 
   X3.0298       Y7.5618     F80  
   X3.0357       Y7.5542    
   X3.0394       Y7.5453    
   X3.0412       Y7.5316    
   Y7.1855    
   X3.0394       Y7.1718    
   X3.0357       Y7.1629    
   X3.0298       Y7.1552    
   X3.0221       Y7.1493    
   X3.0132       Y7.1457    
   X3.0037       Y7.1444    
   X2.9941       Y7.1457    
   X2.9852       Y7.1493    
   X2.9775       Y7.1552    
   X2.9717       Y7.1629    
   X2.9680       Y7.1718    
   X2.9662       Y7.1855    
   Y7.5316    
   X2.9680       Y7.5453    
   X2.9717       Y7.5542    
   X2.9775       Y7.5618    
   X2.9852       Y7.5677    
   X2.9941       Y7.5714    
   X3.0037       Y7.5726    
   X3.0132       Y7.5714    
   X3.0221       Y7.5677    
(Pass: 2)
   Z0.0625     F100 
   X3.0298       Y7.5618     F80  
   X3.0357       Y7.5542    
   X3.0394       Y7.5453    
   X3.0412       Y7.5316    
   Y7.1855    
   X3.0394       Y7.1718    
   X3.0357       Y7.1629    
   X3.0298       Y7.1552    
   X3.0221       Y7.1493    
   X3.0132       Y7.1457    
   X3.0037       Y7.1444    
   X2.9941       Y7.1457    
   X2.9852       Y7.1493    
   X2.9775       Y7.1552    
   X2.9717       Y7.1629    
   X2.9680       Y7.1718    
   X2.9662       Y7.1855    
   Y7.5316    
   X2.9680       Y7.5453    
   X2.9717       Y7.5542    
   X2.9775       Y7.5618    
   X2.9852       Y7.5677    
   X2.9941       Y7.5714    
   X3.0037       Y7.5726    
   X3.0132       Y7.5714    
   X3.0221       Y7.5677    
(Pass: 3)
   Z0.0312     F100 
   X3.0298       Y7.5618     F80  
   X3.0357       Y7.5542    
   X3.0394       Y7.5453    
   X3.0412       Y7.5316    
   Y7.1855    
   X3.0394       Y7.1718    
   X3.0357       Y7.1629    
   X3.0298       Y7.1552    
   X3.0221       Y7.1493    
   X3.0132       Y7.1457    
   X3.0037       Y7.1444    
   X2.9941       Y7.1457    
   X2.9852       Y7.1493    
   X2.9775       Y7.1552    
   X2.9717       Y7.1629    
   X2.9680       Y7.1718    
   X2.9662       Y7.1855    
   Y7.5316    
   X2.9680       Y7.5453    
   X2.9717       Y7.5542    
   X2.9775       Y7.5618    
   X2.9852       Y7.5677    
   X2.9941       Y7.5714    
   X3.0037       Y7.5726    
   X3.0132       Y7.5714    
   X3.0221       Y7.5677    
(Pass: 4)
   Z0.0000     F100 
   X3.0298       Y7.5618     F80  
   X3.0357       Y7.5542    
   X3.0394       Y7.5453    
   X3.0412       Y7.5316    
   Y7.1855    
   X3.0394       Y7.1718    
   X3.0357       Y7.1629    
   X3.0298       Y7.1552    
   X3.0221       Y7.1493    
   X3.0132       Y7.1457    
   X3.0037       Y7.1444    
   X2.9941       Y7.1457    
   X2.9852       Y7.1493    
   X2.9775       Y7.1552    
   X2.9717       Y7.1629    
   X2.9680       Y7.1718    
   X2.9662       Y7.1855    
   Y7.5316    
   X2.9680       Y7.5453    
   X2.9717       Y7.5542    
   X2.9775       Y7.5618    
   X2.9852       Y7.5677    
   X2.9941       Y7.5714    
   X3.0037       Y7.5726    
   X3.0132       Y7.5714    
   X3.0221       Y7.5677    
(Pass: 5)
   Z-0.0312    F100 
   X3.0298       Y7.5618     F80  
   X3.0357       Y7.5542    
   X3.0394       Y7.5453    
   X3.0412       Y7.5316    
   Y7.1855    
   X3.0394       Y7.1718    
   X3.0357       Y7.1629    
   X3.0298       Y7.1552    
   X3.0221       Y7.1493    
   X3.0132       Y7.1457    
   X3.0037       Y7.1444    
   X2.9941       Y7.1457    
   X2.9852       Y7.1493    
   X2.9775       Y7.1552    
   X2.9717       Y7.1629    
   X2.9680       Y7.1718    
   X2.9662       Y7.1855    
   Y7.5316    
   X2.9680       Y7.5453    
   X2.9717       Y7.5542    
   X2.9775       Y7.5618    
   X2.9852       Y7.5677    
   X2.9941       Y7.5714    
   X3.0037       Y7.5726    
   X3.0132       Y7.5714    
   X3.0221       Y7.5677    
(Pass: 6)
   Z-0.0500    F100 
   X3.0298       Y7.5618     F80  
   X3.0357       Y7.5542    
   X3.0394       Y7.5453    
   X3.0412       Y7.5316    
   Y7.1855    
   X3.0394       Y7.1718    
   X3.0357       Y7.1629    
   X3.0298       Y7.1552    
   X3.0221       Y7.1493    
   X3.0132       Y7.1457    
   X3.0037       Y7.1444    
   X2.9941       Y7.1457    
   X2.9852       Y7.1493    
   X2.9775       Y7.1552    
   X2.9717       Y7.1629    
   X2.9680       Y7.1718    
   X2.9662       Y7.1855    
   Y7.5316    
   X2.9680       Y7.5453    
   X2.9717       Y7.5542    
   X2.9775       Y7.5618    
   X2.9852       Y7.5677    
   X2.9941       Y7.5714    
   X3.0037       Y7.5726    
   X3.0132       Y7.5714    
   X3.0221       Y7.5677    
(BREAK pass 6)
G0   Z0.2500    
(Pass: 1)
   X2.6250       Y6.7937    
G1   Z0.0938     F100 
   X2.6341       Y6.7868     F80  
   X2.6411       Y6.7777    
   X2.6454       Y6.7671    
   X2.6469       Y6.7557    
   X2.6454       Y6.7444    
   X2.6411       Y6.7338    
   X2.6341       Y6.7247    
   X2.6250       Y6.7178    
   X2.6144       Y6.7134    
   X2.6031       Y6.7119    
   X2.5917       Y6.7134    
   X2.5811       Y6.7178    
   X2.5720       Y6.7247    
   X2.5651       Y6.7338    
   X2.5607       Y6.7444    
   X2.5592       Y6.7557    
   X2.5607       Y6.7671    
   X2.5651       Y6.7777    
   X2.5720       Y6.7868    
   X2.5811       Y6.7937    
   X2.5917       Y6.7981    
   X2.6031       Y6.7996    
   X2.6144       Y6.7981    
   X2.6250       Y6.7937    
(Pass: 2)
   Z0.0625     F100 
   X2.6341       Y6.7868     F80  
   X2.6411       Y6.7777    
   X2.6454       Y6.7671    
   X2.6469       Y6.7557    
   X2.6454       Y6.7444    
   X2.6411       Y6.7338    
   X2.6341       Y6.7247    
   X2.6250       Y6.7178    
   X2.6144       Y6.7134    
   X2.6031       Y6.7119    
   X2.5917       Y6.7134    
   X2.5811       Y6.7178    
   X2.5720       Y6.7247    
   X2.5651       Y6.7338    
   X2.5607       Y6.7444    
   X2.5592       Y6.7557    
   X2.5607       Y6.7671    
   X2.5651       Y6.7777    
   X2.5720       Y6.7868    
   X2.5811       Y6.7937    
   X2.5917       Y6.7981    
   X2.6031       Y6.7996    
   X2.6144       Y6.7981    
   X2.6250       Y6.7937    
(Pass: 3)
   Z0.0312     F100 
   X2.6341       Y6.7868     F80  
   X2.6411       Y6.7777    
   X2.6454       Y6.7671    
   X2.6469       Y6.7557    
   X2.6454       Y6.7444    
   X2.6411       Y6.7338    
   X2.6341       Y6.7247    
   X2.6250       Y6.7178    
   X2.6144       Y6.7134    
   X2.6031       Y6.7119    
   X2.5917       Y6.7134    
   X2.5811       Y6.7178    
   X2.5720       Y6.7247    
   X2.5651       Y6.7338    
   X2.5607       Y6.7444    
   X2.5592       Y6.7557    
   X2.5607       Y6.7671    
   X2.5651       Y6.7777    
   X2.5720       Y6.7868    
   X2.5811       Y6.7937    
   X2.5917       Y6.7981    
   X2.6031       Y6.7996    
   X2.6144       Y6.7981    
   X2.6250       Y6.7937    
(Pass: 4)
   Z0.0000     F100 
   X2.6341       Y6.7868     F80  
   X2.6411       Y6.7777    
   X2.6454       Y6.7671    
   X2.6469       Y6.7557    
   X2.6454       Y6.7444    
   X2.6411       Y6.7338    
   X2.6341       Y6.7247    
   X2.6250       Y6.7178    
   X2.6144       Y6.7134    
   X2.6031       Y6.7119    
   X2.5917       Y6.7134    
   X2.5811       Y6.7178    
   X2.5720       Y6.7247    
   X2.5651       Y6.7338    
   X2.5607       Y6.7444    
   X2.5592       Y6.7557    
   X2.5607       Y6.7671    
   X2.5651       Y6.7777    
   X2.5720       Y6.7868    
   X2.5811       Y6.7937    
   X2.5917       Y6.7981    
   X2.6031       Y6.7996    
   X2.6144       Y6.7981    
   X2.6250       Y6.7937    
(Pass: 5)
   Z-0.0312    F100 
   X2.6341       Y6.7868     F80  
   X2.6411       Y6.7777    
   X2.6454       Y6.7671    
   X2.6469       Y6.7557    
   X2.6454       Y6.7444    
   X2.6411       Y6.7338    
   X2.6341       Y6.7247    
   X2.6250       Y6.7178    
   X2.6144       Y6.7134    
   X2.6031       Y6.7119    
   X2.5917       Y6.7134    
   X2.5811       Y6.7178    
   X2.5720       Y6.7247    
   X2.5651       Y6.7338    
   X2.5607       Y6.7444    
   X2.5592       Y6.7557    
   X2.5607       Y6.7671    
   X2.5651       Y6.7777    
   X2.5720       Y6.7868    
   X2.5811       Y6.7937    
   X2.5917       Y6.7981    
   X2.6031       Y6.7996    
   X2.6144       Y6.7981    
   X2.6250       Y6.7937    
(Pass: 6)
   Z-0.0500    F100 
   X2.6341       Y6.7868     F80  
   X2.6411       Y6.7777    
   X2.6454       Y6.7671    
   X2.6469       Y6.7557    
   X2.6454       Y6.7444    
   X2.6411       Y6.7338    
   X2.6341       Y6.7247    
   X2.6250       Y6.7178    
   X2.6144       Y6.7134    
   X2.6031       Y6.7119    
   X2.5917       Y6.7134    
   X2.5811       Y6.7178    
   X2.5720       Y6.7247    
   X2.5651       Y6.7338    
   X2.5607       Y6.7444    
   X2.5592       Y6.7557    
   X2.5607       Y6.7671    
   X2.5651       Y6.7777    
   X2.5720       Y6.7868    
   X2.5811       Y6.7937    
   X2.5917       Y6.7981    
   X2.6031       Y6.7996    
   X2.6144       Y6.7981    
   X2.6250       Y6.7937    
(BREAK pass 6)
G0   Z0.2500    
(Pass: 1)
   X6.1183       Y1.9111    
G1   Z0.0938     F100 
   X6.1344       Y1.9235     F80  
   X6.1531       Y1.9312    
   X6.1731       Y1.9338    
   X6.1931       Y1.9312    
   X6.2118       Y1.9235    
   X6.2279       Y1.9111    
   X6.2402       Y1.8951    
   X6.2479       Y1.8764    
   X6.2506       Y1.8564    
   X6.2479       Y1.8363    
   X6.2402       Y1.8176    
   X6.2279       Y1.8016    
   X6.2118       Y1.7893    
   X6.1931       Y1.7816    
   X6.1731       Y1.7789    
   X6.1531       Y1.7816    
   X6.1344       Y1.7893    
   X6.1183       Y1.8016    
   X6.1060       Y1.8176    
   X6.0983       Y1.8363    
   X6.0956       Y1.8564    
   X6.0983       Y1.8764    
   X6.1060       Y1.8951    
   X6.1183       Y1.9111    
(Pass: 2)
   Z0.0625     F100 
   X6.1344       Y1.9235     F80  
   X6.1531       Y1.9312    
   X6.1731       Y1.9338    
   X6.1931       Y1.9312    
   X6.2118       Y1.9235    
   X6.2279       Y1.9111    
   X6.2402       Y1.8951    
   X6.2479       Y1.8764    
   X6.2506       Y1.8564    
   X6.2479       Y1.8363    
   X6.2402       Y1.8176    
   X6.2279       Y1.8016    
   X6.2118       Y1.7893    
   X6.1931       Y1.7816    
   X6.1731       Y1.7789    
   X6.1531       Y1.7816    
   X6.1344       Y1.7893    
   X6.1183       Y1.8016    
   X6.1060       Y1.8176    
   X6.0983       Y1.8363    
   X6.0956       Y1.8564    
   X6.0983       Y1.8764    
   X6.1060       Y1.8951    
   X6.1183       Y1.9111    
(Pass: 3)
   Z0.0312     F100 
   X6.1344       Y1.9235     F80  
   X6.1531       Y1.9312    
   X6.1731       Y1.9338    
   X6.1931       Y1.9312    
   X6.2118       Y1.9235    
   X6.2279       Y1.9111    
   X6.2402       Y1.8951    
   X6.2479       Y1.8764    
   X6.2506       Y1.8564    
   X6.2479       Y1.8363    
   X6.2402       Y1.8176    
   X6.2279       Y1.8016    
   X6.2118       Y1.7893    
   X6.1931       Y1.7816    
   X6.1731       Y1.7789    
   X6.1531       Y1.7816    
   X6.1344       Y1.7893    
   X6.1183       Y1.8016    
   X6.1060       Y1.8176    
   X6.0983       Y1.8363    
   X6.0956       Y1.8564    
   X6.0983       Y1.8764    
   X6.1060       Y1.8951    
   X6.1183       Y1.9111    
(Pass: 4)
   Z0.0000     F100 
   X6.1344       Y1.9235     F80  
   X6.1531       Y1.9312    
   X6.1731       Y1.9338    
   X6.1931       Y1.9312    
   X6.2118       Y1.9235    
   X6.2279       Y1.9111    
   X6.2402       Y1.8951    
   X6.2479       Y1.8764    
   X6.2506       Y1.8564    
   X6.2479       Y1.8363    
   X6.2402       Y1.8176    
   X6.2279       Y1.8016    
   X6.2118       Y1.7893    
   X6.1931       Y1.7816    
   X6.1731       Y1.7789    
   X6.1531       Y1.7816    
   X6.1344       Y1.7893    
   X6.1183       Y1.8016    
   X6.1060       Y1.8176    
   X6.0983       Y1.8363    
   X6.0956       Y1.8564    
   X6.0983       Y1.8764    
   X6.1060       Y1.8951    
   X6.1183       Y1.9111    
(Pass: 5)
   Z-0.0312    F100 
   X6.1344       Y1.9235     F80  
   X6.1531       Y1.9312    
   X6.1731       Y1.9338    
   X6.1931       Y1.9312    
   X6.2118       Y1.9235    
   X6.2279       Y1.9111    
   X6.2402       Y1.8951    
   X6.2479       Y1.8764    
   X6.2506       Y1.8564    
   X6.2479       Y1.8363    
   X6.2402       Y1.8176    
   X6.2279       Y1.8016    
   X6.2118       Y1.7893    
   X6.1931       Y1.7816    
   X6.1731       Y1.7789    
   X6.1531       Y1.7816    
   X6.1344       Y1.7893    
   X6.1183       Y1.8016    
   X6.1060       Y1.8176    
   X6.0983       Y1.8363    
   X6.0956       Y1.8564    
   X6.0983       Y1.8764    
   X6.1060       Y1.8951    
   X6.1183       Y1.9111    
(Pass: 6)
   Z-0.0500    F100 
   X6.1344       Y1.9235     F80  
   X6.1531       Y1.9312    
   X6.1731       Y1.9338    
   X6.1931       Y1.9312    
   X6.2118       Y1.9235    
   X6.2279       Y1.9111    
   X6.2402       Y1.8951    
   X6.2479       Y1.8764    
   X6.2506       Y1.8564    
   X6.2479       Y1.8363    
   X6.2402       Y1.8176    
   X6.2279       Y1.8016    
   X6.2118       Y1.7893    
   X6.1931       Y1.7816    
   X6.1731       Y1.7789    
   X6.1531       Y1.7816    
   X6.1344       Y1.7893    
   X6.1183       Y1.8016    
   X6.1060       Y1.8176    
   X6.0983       Y1.8363    
   X6.0956       Y1.8564    
   X6.0983       Y1.8764    
   X6.1060       Y1.8951    
   X6.1183       Y1.9111    
(BREAK pass 6)
G0   Z0.2500    
G0 X0 Y0 (home)
M05
M30
%
