%
(Generated by SketchUcam {1.2a})
(File: Plate_printouts_side.skp)
(Bit diameter: 1/8")
(Feed rate: 80"/min)
(Plunge Feed rate: 60"/min)
(Material Thickness: 1/4")
(Material length: 15" X width: 25")
(Overhead Gantry: true)
(Retract feed rate NOT limited to plunge feed rate)
(Multipass enabled, Depth = 1/64")
(Optimization is ON)
(Z ZERO IS TABLETOP)
(www.PhlatBoyz.com)
G90 G20 G49 
M3 S15000
G0   Z0.3750    
(Pass: 1)
   X1.0607       Y3.5094    
G1   Z0.2344     F60  
   X1.0522       Y3.5130     F80  
   X1.0699       Y3.5082    
   X1.0607       Y3.5094    
   X1.0790    
   X1.0699       Y3.5082    
   X1.0876       Y3.5130    
   X1.0790       Y3.5094    
   X1.0949       Y3.5186    
   X1.0876       Y3.5130    
   X1.1005       Y3.5259    
   X1.0949       Y3.5186    
   X1.1041       Y3.5344    
   X1.1005       Y3.5259    
   X1.1053       Y3.5436    
   X1.1041       Y3.5344    
   Y3.5528    
   X1.1053       Y3.5436    
   X1.1005       Y3.5613    
   X1.1041       Y3.5528    
   X1.0949       Y3.5686    
   X1.1005       Y3.5613    
   X1.0876       Y3.5742    
   X1.0949       Y3.5686    
   X1.0790       Y3.5778    
   X1.0876       Y3.5742    
   X1.0699       Y3.5790    
   X1.0790       Y3.5778    
   X1.0607    
   X1.0699       Y3.5790    
   X1.0522       Y3.5742    
   X1.0607       Y3.5778    
   X1.0449       Y3.5686    
   X1.0522       Y3.5742    
   X1.0392       Y3.5613    
   X1.0449       Y3.5686    
   X1.0357       Y3.5528    
   X1.0392       Y3.5613    
   X1.0345       Y3.5436    
   X1.0357       Y3.5528    
   Y3.5344    
   X1.0345       Y3.5436    
   X1.0392       Y3.5259    
   X1.0357       Y3.5344    
   X1.0449       Y3.5186    
   X1.0392       Y3.5259    
   X1.0522       Y3.5130    
   X1.0449       Y3.5186    
(Pass: 2)
   X1.0607       Y3.5094    
   Z0.2188     F60  
   X1.0522       Y3.5130     F80  
   X1.0699       Y3.5082    
   X1.0607       Y3.5094    
   X1.0790    
   X1.0699       Y3.5082    
   X1.0876       Y3.5130    
   X1.0790       Y3.5094    
   X1.0949       Y3.5186    
   X1.0876       Y3.5130    
   X1.1005       Y3.5259    
   X1.0949       Y3.5186    
   X1.1041       Y3.5344    
   X1.1005       Y3.5259    
   X1.1053       Y3.5436    
   X1.1041       Y3.5344    
   Y3.5528    
   X1.1053       Y3.5436    
   X1.1005       Y3.5613    
   X1.1041       Y3.5528    
   X1.0949       Y3.5686    
   X1.1005       Y3.5613    
   X1.0876       Y3.5742    
   X1.0949       Y3.5686    
   X1.0790       Y3.5778    
   X1.0876       Y3.5742    
   X1.0699       Y3.5790    
   X1.0790       Y3.5778    
   X1.0607    
   X1.0699       Y3.5790    
   X1.0522       Y3.5742    
   X1.0607       Y3.5778    
   X1.0449       Y3.5686    
   X1.0522       Y3.5742    
   X1.0392       Y3.5613    
   X1.0449       Y3.5686    
   X1.0357       Y3.5528    
   X1.0392       Y3.5613    
   X1.0345       Y3.5436    
   X1.0357       Y3.5528    
   Y3.5344    
   X1.0345       Y3.5436    
   X1.0392       Y3.5259    
   X1.0357       Y3.5344    
   X1.0449       Y3.5186    
   X1.0392       Y3.5259    
   X1.0522       Y3.5130    
   X1.0449       Y3.5186    
(Pass: 3)
   X1.0607       Y3.5094    
   Z0.2031     F60  
   X1.0522       Y3.5130     F80  
   X1.0699       Y3.5082    
   X1.0607       Y3.5094    
   X1.0790    
   X1.0699       Y3.5082    
   X1.0876       Y3.5130    
   X1.0790       Y3.5094    
   X1.0949       Y3.5186    
   X1.0876       Y3.5130    
   X1.1005       Y3.5259    
   X1.0949       Y3.5186    
   X1.1041       Y3.5344    
   X1.1005       Y3.5259    
   X1.1053       Y3.5436    
   X1.1041       Y3.5344    
   Y3.5528    
   X1.1053       Y3.5436    
   X1.1005       Y3.5613    
   X1.1041       Y3.5528    
   X1.0949       Y3.5686    
   X1.1005       Y3.5613    
   X1.0876       Y3.5742    
   X1.0949       Y3.5686    
   X1.0790       Y3.5778    
   X1.0876       Y3.5742    
   X1.0699       Y3.5790    
   X1.0790       Y3.5778    
   X1.0607    
   X1.0699       Y3.5790    
   X1.0522       Y3.5742    
   X1.0607       Y3.5778    
   X1.0449       Y3.5686    
   X1.0522       Y3.5742    
   X1.0392       Y3.5613    
   X1.0449       Y3.5686    
   X1.0357       Y3.5528    
   X1.0392       Y3.5613    
   X1.0345       Y3.5436    
   X1.0357       Y3.5528    
   Y3.5344    
   X1.0345       Y3.5436    
   X1.0392       Y3.5259    
   X1.0357       Y3.5344    
   X1.0449       Y3.5186    
   X1.0392       Y3.5259    
   X1.0522       Y3.5130    
   X1.0449       Y3.5186    
(Pass: 4)
   X1.0607       Y3.5094    
   Z0.1875     F60  
   X1.0522       Y3.5130     F80  
   X1.0699       Y3.5082    
   X1.0607       Y3.5094    
   X1.0790    
   X1.0699       Y3.5082    
   X1.0876       Y3.5130    
   X1.0790       Y3.5094    
   X1.0949       Y3.5186    
   X1.0876       Y3.5130    
   X1.1005       Y3.5259    
   X1.0949       Y3.5186    
   X1.1041       Y3.5344    
   X1.1005       Y3.5259    
   X1.1053       Y3.5436    
   X1.1041       Y3.5344    
   Y3.5528    
   X1.1053       Y3.5436    
   X1.1005       Y3.5613    
   X1.1041       Y3.5528    
   X1.0949       Y3.5686    
   X1.1005       Y3.5613    
   X1.0876       Y3.5742    
   X1.0949       Y3.5686    
   X1.0790       Y3.5778    
   X1.0876       Y3.5742    
   X1.0699       Y3.5790    
   X1.0790       Y3.5778    
   X1.0607    
   X1.0699       Y3.5790    
   X1.0522       Y3.5742    
   X1.0607       Y3.5778    
   X1.0449       Y3.5686    
   X1.0522       Y3.5742    
   X1.0392       Y3.5613    
   X1.0449       Y3.5686    
   X1.0357       Y3.5528    
   X1.0392       Y3.5613    
   X1.0345       Y3.5436    
   X1.0357       Y3.5528    
   Y3.5344    
   X1.0345       Y3.5436    
   X1.0392       Y3.5259    
   X1.0357       Y3.5344    
   X1.0449       Y3.5186    
   X1.0392       Y3.5259    
   X1.0522       Y3.5130    
   X1.0449       Y3.5186    
(Pass: 5)
   X1.0607       Y3.5094    
   Z0.1719     F60  
   X1.0522       Y3.5130     F80  
   X1.0699       Y3.5082    
   X1.0607       Y3.5094    
   X1.0790    
   X1.0699       Y3.5082    
   X1.0876       Y3.5130    
   X1.0790       Y3.5094    
   X1.0949       Y3.5186    
   X1.0876       Y3.5130    
   X1.1005       Y3.5259    
   X1.0949       Y3.5186    
   X1.1041       Y3.5344    
   X1.1005       Y3.5259    
   X1.1053       Y3.5436    
   X1.1041       Y3.5344    
   Y3.5528    
   X1.1053       Y3.5436    
   X1.1005       Y3.5613    
   X1.1041       Y3.5528    
   X1.0949       Y3.5686    
   X1.1005       Y3.5613    
   X1.0876       Y3.5742    
   X1.0949       Y3.5686    
   X1.0790       Y3.5778    
   X1.0876       Y3.5742    
   X1.0699       Y3.5790    
   X1.0790       Y3.5778    
   X1.0607    
   X1.0699       Y3.5790    
   X1.0522       Y3.5742    
   X1.0607       Y3.5778    
   X1.0449       Y3.5686    
   X1.0522       Y3.5742    
   X1.0392       Y3.5613    
   X1.0449       Y3.5686    
   X1.0357       Y3.5528    
   X1.0392       Y3.5613    
   X1.0345       Y3.5436    
   X1.0357       Y3.5528    
   Y3.5344    
   X1.0345       Y3.5436    
   X1.0392       Y3.5259    
   X1.0357       Y3.5344    
   X1.0449       Y3.5186    
   X1.0392       Y3.5259    
   X1.0522       Y3.5130    
   X1.0449       Y3.5186    
(Pass: 6)
   X1.0607       Y3.5094    
   Z0.1562     F60  
   X1.0522       Y3.5130     F80  
   X1.0699       Y3.5082    
   X1.0607       Y3.5094    
   X1.0790    
   X1.0699       Y3.5082    
   X1.0876       Y3.5130    
   X1.0790       Y3.5094    
   X1.0949       Y3.5186    
   X1.0876       Y3.5130    
   X1.1005       Y3.5259    
   X1.0949       Y3.5186    
   X1.1041       Y3.5344    
   X1.1005       Y3.5259    
   X1.1053       Y3.5436    
   X1.1041       Y3.5344    
   Y3.5528    
   X1.1053       Y3.5436    
   X1.1005       Y3.5613    
   X1.1041       Y3.5528    
   X1.0949       Y3.5686    
   X1.1005       Y3.5613    
   X1.0876       Y3.5742    
   X1.0949       Y3.5686    
   X1.0790       Y3.5778    
   X1.0876       Y3.5742    
   X1.0699       Y3.5790    
   X1.0790       Y3.5778    
   X1.0607    
   X1.0699       Y3.5790    
   X1.0522       Y3.5742    
   X1.0607       Y3.5778    
   X1.0449       Y3.5686    
   X1.0522       Y3.5742    
   X1.0392       Y3.5613    
   X1.0449       Y3.5686    
   X1.0357       Y3.5528    
   X1.0392       Y3.5613    
   X1.0345       Y3.5436    
   X1.0357       Y3.5528    
   Y3.5344    
   X1.0345       Y3.5436    
   X1.0392       Y3.5259    
   X1.0357       Y3.5344    
   X1.0449       Y3.5186    
   X1.0392       Y3.5259    
   X1.0522       Y3.5130    
   X1.0449       Y3.5186    
(Pass: 7)
   X1.0607       Y3.5094    
   Z0.1406     F60  
   X1.0522       Y3.5130     F80  
   X1.0699       Y3.5082    
   X1.0607       Y3.5094    
   X1.0790    
   X1.0699       Y3.5082    
   X1.0876       Y3.5130    
   X1.0790       Y3.5094    
   X1.0949       Y3.5186    
   X1.0876       Y3.5130    
   X1.1005       Y3.5259    
   X1.0949       Y3.5186    
   X1.1041       Y3.5344    
   X1.1005       Y3.5259    
   X1.1053       Y3.5436    
   X1.1041       Y3.5344    
   Y3.5528    
   X1.1053       Y3.5436    
   X1.1005       Y3.5613    
   X1.1041       Y3.5528    
   X1.0949       Y3.5686    
   X1.1005       Y3.5613    
   X1.0876       Y3.5742    
   X1.0949       Y3.5686    
   X1.0790       Y3.5778    
   X1.0876       Y3.5742    
   X1.0699       Y3.5790    
   X1.0790       Y3.5778    
   X1.0607    
   X1.0699       Y3.5790    
   X1.0522       Y3.5742    
   X1.0607       Y3.5778    
   X1.0449       Y3.5686    
   X1.0522       Y3.5742    
   X1.0392       Y3.5613    
   X1.0449       Y3.5686    
   X1.0357       Y3.5528    
   X1.0392       Y3.5613    
   X1.0345       Y3.5436    
   X1.0357       Y3.5528    
   Y3.5344    
   X1.0345       Y3.5436    
   X1.0392       Y3.5259    
   X1.0357       Y3.5344    
   X1.0449       Y3.5186    
   X1.0392       Y3.5259    
   X1.0522       Y3.5130    
   X1.0449       Y3.5186    
(Pass: 8)
   X1.0607       Y3.5094    
   Z0.1250     F60  
   X1.0522       Y3.5130     F80  
   X1.0699       Y3.5082    
   X1.0607       Y3.5094    
   X1.0790    
   X1.0699       Y3.5082    
   X1.0876       Y3.5130    
   X1.0790       Y3.5094    
   X1.0949       Y3.5186    
   X1.0876       Y3.5130    
   X1.1005       Y3.5259    
   X1.0949       Y3.5186    
   X1.1041       Y3.5344    
   X1.1005       Y3.5259    
   X1.1053       Y3.5436    
   X1.1041       Y3.5344    
   Y3.5528    
   X1.1053       Y3.5436    
   X1.1005       Y3.5613    
   X1.1041       Y3.5528    
   X1.0949       Y3.5686    
   X1.1005       Y3.5613    
   X1.0876       Y3.5742    
   X1.0949       Y3.5686    
   X1.0790       Y3.5778    
   X1.0876       Y3.5742    
   X1.0699       Y3.5790    
   X1.0790       Y3.5778    
   X1.0607    
   X1.0699       Y3.5790    
   X1.0522       Y3.5742    
   X1.0607       Y3.5778    
   X1.0449       Y3.5686    
   X1.0522       Y3.5742    
   X1.0392       Y3.5613    
   X1.0449       Y3.5686    
   X1.0357       Y3.5528    
   X1.0392       Y3.5613    
   X1.0345       Y3.5436    
   X1.0357       Y3.5528    
   Y3.5344    
   X1.0345       Y3.5436    
   X1.0392       Y3.5259    
   X1.0357       Y3.5344    
   X1.0449       Y3.5186    
   X1.0392       Y3.5259    
   X1.0522       Y3.5130    
   X1.0449       Y3.5186    
(Pass: 9)
   X1.0607       Y3.5094    
   Z0.1094     F60  
   X1.0522       Y3.5130     F80  
   X1.0699       Y3.5082    
   X1.0607       Y3.5094    
   X1.0790    
   X1.0699       Y3.5082    
   X1.0876       Y3.5130    
   X1.0790       Y3.5094    
   X1.0949       Y3.5186    
   X1.0876       Y3.5130    
   X1.1005       Y3.5259    
   X1.0949       Y3.5186    
   X1.1041       Y3.5344    
   X1.1005       Y3.5259    
   X1.1053       Y3.5436    
   X1.1041       Y3.5344    
   Y3.5528    
   X1.1053       Y3.5436    
   X1.1005       Y3.5613    
   X1.1041       Y3.5528    
   X1.0949       Y3.5686    
   X1.1005       Y3.5613    
   X1.0876       Y3.5742    
   X1.0949       Y3.5686    
   X1.0790       Y3.5778    
   X1.0876       Y3.5742    
   X1.0699       Y3.5790    
   X1.0790       Y3.5778    
   X1.0607    
   X1.0699       Y3.5790    
   X1.0522       Y3.5742    
   X1.0607       Y3.5778    
   X1.0449       Y3.5686    
   X1.0522       Y3.5742    
   X1.0392       Y3.5613    
   X1.0449       Y3.5686    
   X1.0357       Y3.5528    
   X1.0392       Y3.5613    
   X1.0345       Y3.5436    
   X1.0357       Y3.5528    
   Y3.5344    
   X1.0345       Y3.5436    
   X1.0392       Y3.5259    
   X1.0357       Y3.5344    
   X1.0449       Y3.5186    
   X1.0392       Y3.5259    
   X1.0522       Y3.5130    
   X1.0449       Y3.5186    
(Pass: 10)
   X1.0607       Y3.5094    
   Z0.0938     F60  
   X1.0522       Y3.5130     F80  
   X1.0699       Y3.5082    
   X1.0607       Y3.5094    
   X1.0790    
   X1.0699       Y3.5082    
   X1.0876       Y3.5130    
   X1.0790       Y3.5094    
   X1.0949       Y3.5186    
   X1.0876       Y3.5130    
   X1.1005       Y3.5259    
   X1.0949       Y3.5186    
   X1.1041       Y3.5344    
   X1.1005       Y3.5259    
   X1.1053       Y3.5436    
   X1.1041       Y3.5344    
   Y3.5528    
   X1.1053       Y3.5436    
   X1.1005       Y3.5613    
   X1.1041       Y3.5528    
   X1.0949       Y3.5686    
   X1.1005       Y3.5613    
   X1.0876       Y3.5742    
   X1.0949       Y3.5686    
   X1.0790       Y3.5778    
   X1.0876       Y3.5742    
   X1.0699       Y3.5790    
   X1.0790       Y3.5778    
   X1.0607    
   X1.0699       Y3.5790    
   X1.0522       Y3.5742    
   X1.0607       Y3.5778    
   X1.0449       Y3.5686    
   X1.0522       Y3.5742    
   X1.0392       Y3.5613    
   X1.0449       Y3.5686    
   X1.0357       Y3.5528    
   X1.0392       Y3.5613    
   X1.0345       Y3.5436    
   X1.0357       Y3.5528    
   Y3.5344    
   X1.0345       Y3.5436    
   X1.0392       Y3.5259    
   X1.0357       Y3.5344    
   X1.0449       Y3.5186    
   X1.0392       Y3.5259    
   X1.0522       Y3.5130    
   X1.0449       Y3.5186    
(Pass: 11)
   X1.0607       Y3.5094    
   Z0.0781     F60  
   X1.0522       Y3.5130     F80  
   X1.0699       Y3.5082    
   X1.0607       Y3.5094    
   X1.0790    
   X1.0699       Y3.5082    
   X1.0876       Y3.5130    
   X1.0790       Y3.5094    
   X1.0949       Y3.5186    
   X1.0876       Y3.5130    
   X1.1005       Y3.5259    
   X1.0949       Y3.5186    
   X1.1041       Y3.5344    
   X1.1005       Y3.5259    
   X1.1053       Y3.5436    
   X1.1041       Y3.5344    
   Y3.5528    
   X1.1053       Y3.5436    
   X1.1005       Y3.5613    
   X1.1041       Y3.5528    
   X1.0949       Y3.5686    
   X1.1005       Y3.5613    
   X1.0876       Y3.5742    
   X1.0949       Y3.5686    
   X1.0790       Y3.5778    
   X1.0876       Y3.5742    
   X1.0699       Y3.5790    
   X1.0790       Y3.5778    
   X1.0607    
   X1.0699       Y3.5790    
   X1.0522       Y3.5742    
   X1.0607       Y3.5778    
   X1.0449       Y3.5686    
   X1.0522       Y3.5742    
   X1.0392       Y3.5613    
   X1.0449       Y3.5686    
   X1.0357       Y3.5528    
   X1.0392       Y3.5613    
   X1.0345       Y3.5436    
   X1.0357       Y3.5528    
   Y3.5344    
   X1.0345       Y3.5436    
   X1.0392       Y3.5259    
   X1.0357       Y3.5344    
   X1.0449       Y3.5186    
   X1.0392       Y3.5259    
   X1.0522       Y3.5130    
   X1.0449       Y3.5186    
(Pass: 12)
   X1.0607       Y3.5094    
   Z0.0625     F60  
   X1.0522       Y3.5130     F80  
   X1.0699       Y3.5082    
   X1.0607       Y3.5094    
   X1.0790    
   X1.0699       Y3.5082    
   X1.0876       Y3.5130    
   X1.0790       Y3.5094    
   X1.0949       Y3.5186    
   X1.0876       Y3.5130    
   X1.1005       Y3.5259    
   X1.0949       Y3.5186    
   X1.1041       Y3.5344    
   X1.1005       Y3.5259    
   X1.1053       Y3.5436    
   X1.1041       Y3.5344    
   Y3.5528    
   X1.1053       Y3.5436    
   X1.1005       Y3.5613    
   X1.1041       Y3.5528    
   X1.0949       Y3.5686    
   X1.1005       Y3.5613    
   X1.0876       Y3.5742    
   X1.0949       Y3.5686    
   X1.0790       Y3.5778    
   X1.0876       Y3.5742    
   X1.0699       Y3.5790    
   X1.0790       Y3.5778    
   X1.0607    
   X1.0699       Y3.5790    
   X1.0522       Y3.5742    
   X1.0607       Y3.5778    
   X1.0449       Y3.5686    
   X1.0522       Y3.5742    
   X1.0392       Y3.5613    
   X1.0449       Y3.5686    
   X1.0357       Y3.5528    
   X1.0392       Y3.5613    
   X1.0345       Y3.5436    
   X1.0357       Y3.5528    
   Y3.5344    
   X1.0345       Y3.5436    
   X1.0392       Y3.5259    
   X1.0357       Y3.5344    
   X1.0449       Y3.5186    
   X1.0392       Y3.5259    
   X1.0522       Y3.5130    
   X1.0449       Y3.5186    
(Pass: 13)
   X1.0607       Y3.5094    
   Z0.0469     F60  
   X1.0522       Y3.5130     F80  
   X1.0699       Y3.5082    
   X1.0607       Y3.5094    
   X1.0790    
   X1.0699       Y3.5082    
   X1.0876       Y3.5130    
   X1.0790       Y3.5094    
   X1.0949       Y3.5186    
   X1.0876       Y3.5130    
   X1.1005       Y3.5259    
   X1.0949       Y3.5186    
   X1.1041       Y3.5344    
   X1.1005       Y3.5259    
   X1.1053       Y3.5436    
   X1.1041       Y3.5344    
   Y3.5528    
   X1.1053       Y3.5436    
   X1.1005       Y3.5613    
   X1.1041       Y3.5528    
   X1.0949       Y3.5686    
   X1.1005       Y3.5613    
   X1.0876       Y3.5742    
   X1.0949       Y3.5686    
   X1.0790       Y3.5778    
   X1.0876       Y3.5742    
   X1.0699       Y3.5790    
   X1.0790       Y3.5778    
   X1.0607    
   X1.0699       Y3.5790    
   X1.0522       Y3.5742    
   X1.0607       Y3.5778    
   X1.0449       Y3.5686    
   X1.0522       Y3.5742    
   X1.0392       Y3.5613    
   X1.0449       Y3.5686    
   X1.0357       Y3.5528    
   X1.0392       Y3.5613    
   X1.0345       Y3.5436    
   X1.0357       Y3.5528    
   Y3.5344    
   X1.0345       Y3.5436    
   X1.0392       Y3.5259    
   X1.0357       Y3.5344    
   X1.0449       Y3.5186    
   X1.0392       Y3.5259    
   X1.0522       Y3.5130    
   X1.0449       Y3.5186    
(Pass: 14)
   X1.0607       Y3.5094    
   Z0.0312     F60  
   X1.0522       Y3.5130     F80  
   X1.0699       Y3.5082    
   X1.0607       Y3.5094    
   X1.0790    
   X1.0699       Y3.5082    
   X1.0876       Y3.5130    
   X1.0790       Y3.5094    
   X1.0949       Y3.5186    
   X1.0876       Y3.5130    
   X1.1005       Y3.5259    
   X1.0949       Y3.5186    
   X1.1041       Y3.5344    
   X1.1005       Y3.5259    
   X1.1053       Y3.5436    
   X1.1041       Y3.5344    
   Y3.5528    
   X1.1053       Y3.5436    
   X1.1005       Y3.5613    
   X1.1041       Y3.5528    
   X1.0949       Y3.5686    
   X1.1005       Y3.5613    
   X1.0876       Y3.5742    
   X1.0949       Y3.5686    
   X1.0790       Y3.5778    
   X1.0876       Y3.5742    
   X1.0699       Y3.5790    
   X1.0790       Y3.5778    
   X1.0607    
   X1.0699       Y3.5790    
   X1.0522       Y3.5742    
   X1.0607       Y3.5778    
   X1.0449       Y3.5686    
   X1.0522       Y3.5742    
   X1.0392       Y3.5613    
   X1.0449       Y3.5686    
   X1.0357       Y3.5528    
   X1.0392       Y3.5613    
   X1.0345       Y3.5436    
   X1.0357       Y3.5528    
   Y3.5344    
   X1.0345       Y3.5436    
   X1.0392       Y3.5259    
   X1.0357       Y3.5344    
   X1.0449       Y3.5186    
   X1.0392       Y3.5259    
   X1.0522       Y3.5130    
   X1.0449       Y3.5186    
(Pass: 15)
   X1.0607       Y3.5094    
   Z0.0156     F60  
   X1.0522       Y3.5130     F80  
   X1.0699       Y3.5082    
   X1.0607       Y3.5094    
   X1.0790    
   X1.0699       Y3.5082    
   X1.0876       Y3.5130    
   X1.0790       Y3.5094    
   X1.0949       Y3.5186    
   X1.0876       Y3.5130    
   X1.1005       Y3.5259    
   X1.0949       Y3.5186    
   X1.1041       Y3.5344    
   X1.1005       Y3.5259    
   X1.1053       Y3.5436    
   X1.1041       Y3.5344    
   Y3.5528    
   X1.1053       Y3.5436    
   X1.1005       Y3.5613    
   X1.1041       Y3.5528    
   X1.0949       Y3.5686    
   X1.1005       Y3.5613    
   X1.0876       Y3.5742    
   X1.0949       Y3.5686    
   X1.0790       Y3.5778    
   X1.0876       Y3.5742    
   X1.0699       Y3.5790    
   X1.0790       Y3.5778    
   X1.0607    
   X1.0699       Y3.5790    
   X1.0522       Y3.5742    
   X1.0607       Y3.5778    
   X1.0449       Y3.5686    
   X1.0522       Y3.5742    
   X1.0392       Y3.5613    
   X1.0449       Y3.5686    
   X1.0357       Y3.5528    
   X1.0392       Y3.5613    
   X1.0345       Y3.5436    
   X1.0357       Y3.5528    
   Y3.5344    
   X1.0345       Y3.5436    
   X1.0392       Y3.5259    
   X1.0357       Y3.5344    
   X1.0449       Y3.5186    
   X1.0392       Y3.5259    
   X1.0522       Y3.5130    
   X1.0449       Y3.5186    
(Pass: 16)
   X1.0607       Y3.5094    
   Z0.0000     F60  
   X1.0522       Y3.5130     F80  
   X1.0699       Y3.5082    
   X1.0607       Y3.5094    
   X1.0790    
   X1.0699       Y3.5082    
   X1.0876       Y3.5130    
   X1.0790       Y3.5094    
   X1.0949       Y3.5186    
   X1.0876       Y3.5130    
   X1.1005       Y3.5259    
   X1.0949       Y3.5186    
   X1.1041       Y3.5344    
   X1.1005       Y3.5259    
   X1.1053       Y3.5436    
   X1.1041       Y3.5344    
   Y3.5528    
   X1.1053       Y3.5436    
   X1.1005       Y3.5613    
   X1.1041       Y3.5528    
   X1.0949       Y3.5686    
   X1.1005       Y3.5613    
   X1.0876       Y3.5742    
   X1.0949       Y3.5686    
   X1.0790       Y3.5778    
   X1.0876       Y3.5742    
   X1.0699       Y3.5790    
   X1.0790       Y3.5778    
   X1.0607    
   X1.0699       Y3.5790    
   X1.0522       Y3.5742    
   X1.0607       Y3.5778    
   X1.0449       Y3.5686    
   X1.0522       Y3.5742    
   X1.0392       Y3.5613    
   X1.0449       Y3.5686    
   X1.0357       Y3.5528    
   X1.0392       Y3.5613    
   X1.0345       Y3.5436    
   X1.0357       Y3.5528    
   Y3.5344    
   X1.0345       Y3.5436    
   X1.0392       Y3.5259    
   X1.0357       Y3.5344    
   X1.0449       Y3.5186    
   X1.0392       Y3.5259    
   X1.0522       Y3.5130    
   X1.0449       Y3.5186    
G0   Z0.3750    
(Pass: 1)
   X1.0687       Y4.2703    
G1   Z0.2344     F60  
   X1.0596       Y4.2715     F80  
   X1.0779    
   X1.0687       Y4.2703    
   X1.0864       Y4.2750    
   X1.0779       Y4.2715    
   X1.0938       Y4.2807    
   X1.0864       Y4.2750    
   X1.0994       Y4.2880    
   X1.0938       Y4.2807    
   X1.1029       Y4.2965    
   X1.0994       Y4.2880    
   X1.1047       Y4.3098    
   X1.1029       Y4.2965    
   X1.1047       Y5.1284    
   Y4.3098    
   X1.1029       Y5.1416    
   X1.1047       Y5.1284    
   X1.0994       Y5.1502    
   X1.1029       Y5.1416    
   X1.0938       Y5.1575    
   X1.0994       Y5.1502    
   X1.0864       Y5.1631    
   X1.0938       Y5.1575    
   X1.0779       Y5.1666    
   X1.0864       Y5.1631    
   X1.0687       Y5.1679    
   X1.0779       Y5.1666    
   X1.0596    
   X1.0687       Y5.1679    
   X1.0510       Y5.1631    
   X1.0596       Y5.1666    
   X1.0437       Y5.1575    
   X1.0510       Y5.1631    
   X1.0381       Y5.1502    
   X1.0437       Y5.1575    
   X1.0346       Y5.1416    
   X1.0381       Y5.1502    
   X1.0328       Y5.1284    
   X1.0346       Y5.1416    
   X1.0328       Y4.3098    
   Y5.1284    
   X1.0346       Y4.2965    
   X1.0328       Y4.3098    
   X1.0381       Y4.2880    
   X1.0346       Y4.2965    
   X1.0437       Y4.2807    
   X1.0381       Y4.2880    
   X1.0510       Y4.2750    
   X1.0437       Y4.2807    
   X1.0596       Y4.2715    
   X1.0510       Y4.2750    
(Pass: 2)
   X1.0687       Y4.2703    
   Z0.2188     F60  
   X1.0596       Y4.2715     F80  
   X1.0779    
   X1.0687       Y4.2703    
   X1.0864       Y4.2750    
   X1.0779       Y4.2715    
   X1.0938       Y4.2807    
   X1.0864       Y4.2750    
   X1.0994       Y4.2880    
   X1.0938       Y4.2807    
   X1.1029       Y4.2965    
   X1.0994       Y4.2880    
   X1.1047       Y4.3098    
   X1.1029       Y4.2965    
   X1.1047       Y5.1284    
   Y4.3098    
   X1.1029       Y5.1416    
   X1.1047       Y5.1284    
   X1.0994       Y5.1502    
   X1.1029       Y5.1416    
   X1.0938       Y5.1575    
   X1.0994       Y5.1502    
   X1.0864       Y5.1631    
   X1.0938       Y5.1575    
   X1.0779       Y5.1666    
   X1.0864       Y5.1631    
   X1.0687       Y5.1679    
   X1.0779       Y5.1666    
   X1.0596    
   X1.0687       Y5.1679    
   X1.0510       Y5.1631    
   X1.0596       Y5.1666    
   X1.0437       Y5.1575    
   X1.0510       Y5.1631    
   X1.0381       Y5.1502    
   X1.0437       Y5.1575    
   X1.0346       Y5.1416    
   X1.0381       Y5.1502    
   X1.0328       Y5.1284    
   X1.0346       Y5.1416    
   X1.0328       Y4.3098    
   Y5.1284    
   X1.0346       Y4.2965    
   X1.0328       Y4.3098    
   X1.0381       Y4.2880    
   X1.0346       Y4.2965    
   X1.0437       Y4.2807    
   X1.0381       Y4.2880    
   X1.0510       Y4.2750    
   X1.0437       Y4.2807    
   X1.0596       Y4.2715    
   X1.0510       Y4.2750    
(Pass: 3)
   X1.0687       Y4.2703    
   Z0.2031     F60  
   X1.0596       Y4.2715     F80  
   X1.0779    
   X1.0687       Y4.2703    
   X1.0864       Y4.2750    
   X1.0779       Y4.2715    
   X1.0938       Y4.2807    
   X1.0864       Y4.2750    
   X1.0994       Y4.2880    
   X1.0938       Y4.2807    
   X1.1029       Y4.2965    
   X1.0994       Y4.2880    
   X1.1047       Y4.3098    
   X1.1029       Y4.2965    
   X1.1047       Y5.1284    
   Y4.3098    
   X1.1029       Y5.1416    
   X1.1047       Y5.1284    
   X1.0994       Y5.1502    
   X1.1029       Y5.1416    
   X1.0938       Y5.1575    
   X1.0994       Y5.1502    
   X1.0864       Y5.1631    
   X1.0938       Y5.1575    
   X1.0779       Y5.1666    
   X1.0864       Y5.1631    
   X1.0687       Y5.1679    
   X1.0779       Y5.1666    
   X1.0596    
   X1.0687       Y5.1679    
   X1.0510       Y5.1631    
   X1.0596       Y5.1666    
   X1.0437       Y5.1575    
   X1.0510       Y5.1631    
   X1.0381       Y5.1502    
   X1.0437       Y5.1575    
   X1.0346       Y5.1416    
   X1.0381       Y5.1502    
   X1.0328       Y5.1284    
   X1.0346       Y5.1416    
   X1.0328       Y4.3098    
   Y5.1284    
   X1.0346       Y4.2965    
   X1.0328       Y4.3098    
   X1.0381       Y4.2880    
   X1.0346       Y4.2965    
   X1.0437       Y4.2807    
   X1.0381       Y4.2880    
   X1.0510       Y4.2750    
   X1.0437       Y4.2807    
   X1.0596       Y4.2715    
   X1.0510       Y4.2750    
(Pass: 4)
   X1.0687       Y4.2703    
   Z0.1875     F60  
   X1.0596       Y4.2715     F80  
   X1.0779    
   X1.0687       Y4.2703    
   X1.0864       Y4.2750    
   X1.0779       Y4.2715    
   X1.0938       Y4.2807    
   X1.0864       Y4.2750    
   X1.0994       Y4.2880    
   X1.0938       Y4.2807    
   X1.1029       Y4.2965    
   X1.0994       Y4.2880    
   X1.1047       Y4.3098    
   X1.1029       Y4.2965    
   X1.1047       Y5.1284    
   Y4.3098    
   X1.1029       Y5.1416    
   X1.1047       Y5.1284    
   X1.0994       Y5.1502    
   X1.1029       Y5.1416    
   X1.0938       Y5.1575    
   X1.0994       Y5.1502    
   X1.0864       Y5.1631    
   X1.0938       Y5.1575    
   X1.0779       Y5.1666    
   X1.0864       Y5.1631    
   X1.0687       Y5.1679    
   X1.0779       Y5.1666    
   X1.0596    
   X1.0687       Y5.1679    
   X1.0510       Y5.1631    
   X1.0596       Y5.1666    
   X1.0437       Y5.1575    
   X1.0510       Y5.1631    
   X1.0381       Y5.1502    
   X1.0437       Y5.1575    
   X1.0346       Y5.1416    
   X1.0381       Y5.1502    
   X1.0328       Y5.1284    
   X1.0346       Y5.1416    
   X1.0328       Y4.3098    
   Y5.1284    
   X1.0346       Y4.2965    
   X1.0328       Y4.3098    
   X1.0381       Y4.2880    
   X1.0346       Y4.2965    
   X1.0437       Y4.2807    
   X1.0381       Y4.2880    
   X1.0510       Y4.2750    
   X1.0437       Y4.2807    
   X1.0596       Y4.2715    
   X1.0510       Y4.2750    
(Pass: 5)
   X1.0687       Y4.2703    
   Z0.1719     F60  
   X1.0596       Y4.2715     F80  
   X1.0779    
   X1.0687       Y4.2703    
   X1.0864       Y4.2750    
   X1.0779       Y4.2715    
   X1.0938       Y4.2807    
   X1.0864       Y4.2750    
   X1.0994       Y4.2880    
   X1.0938       Y4.2807    
   X1.1029       Y4.2965    
   X1.0994       Y4.2880    
   X1.1047       Y4.3098    
   X1.1029       Y4.2965    
   X1.1047       Y5.1284    
   Y4.3098    
   X1.1029       Y5.1416    
   X1.1047       Y5.1284    
   X1.0994       Y5.1502    
   X1.1029       Y5.1416    
   X1.0938       Y5.1575    
   X1.0994       Y5.1502    
   X1.0864       Y5.1631    
   X1.0938       Y5.1575    
   X1.0779       Y5.1666    
   X1.0864       Y5.1631    
   X1.0687       Y5.1679    
   X1.0779       Y5.1666    
   X1.0596    
   X1.0687       Y5.1679    
   X1.0510       Y5.1631    
   X1.0596       Y5.1666    
   X1.0437       Y5.1575    
   X1.0510       Y5.1631    
   X1.0381       Y5.1502    
   X1.0437       Y5.1575    
   X1.0346       Y5.1416    
   X1.0381       Y5.1502    
   X1.0328       Y5.1284    
   X1.0346       Y5.1416    
   X1.0328       Y4.3098    
   Y5.1284    
   X1.0346       Y4.2965    
   X1.0328       Y4.3098    
   X1.0381       Y4.2880    
   X1.0346       Y4.2965    
   X1.0437       Y4.2807    
   X1.0381       Y4.2880    
   X1.0510       Y4.2750    
   X1.0437       Y4.2807    
   X1.0596       Y4.2715    
   X1.0510       Y4.2750    
(Pass: 6)
   X1.0687       Y4.2703    
   Z0.1562     F60  
   X1.0596       Y4.2715     F80  
   X1.0779    
   X1.0687       Y4.2703    
   X1.0864       Y4.2750    
   X1.0779       Y4.2715    
   X1.0938       Y4.2807    
   X1.0864       Y4.2750    
   X1.0994       Y4.2880    
   X1.0938       Y4.2807    
   X1.1029       Y4.2965    
   X1.0994       Y4.2880    
   X1.1047       Y4.3098    
   X1.1029       Y4.2965    
   X1.1047       Y5.1284    
   Y4.3098    
   X1.1029       Y5.1416    
   X1.1047       Y5.1284    
   X1.0994       Y5.1502    
   X1.1029       Y5.1416    
   X1.0938       Y5.1575    
   X1.0994       Y5.1502    
   X1.0864       Y5.1631    
   X1.0938       Y5.1575    
   X1.0779       Y5.1666    
   X1.0864       Y5.1631    
   X1.0687       Y5.1679    
   X1.0779       Y5.1666    
   X1.0596    
   X1.0687       Y5.1679    
   X1.0510       Y5.1631    
   X1.0596       Y5.1666    
   X1.0437       Y5.1575    
   X1.0510       Y5.1631    
   X1.0381       Y5.1502    
   X1.0437       Y5.1575    
   X1.0346       Y5.1416    
   X1.0381       Y5.1502    
   X1.0328       Y5.1284    
   X1.0346       Y5.1416    
   X1.0328       Y4.3098    
   Y5.1284    
   X1.0346       Y4.2965    
   X1.0328       Y4.3098    
   X1.0381       Y4.2880    
   X1.0346       Y4.2965    
   X1.0437       Y4.2807    
   X1.0381       Y4.2880    
   X1.0510       Y4.2750    
   X1.0437       Y4.2807    
   X1.0596       Y4.2715    
   X1.0510       Y4.2750    
(Pass: 7)
   X1.0687       Y4.2703    
   Z0.1406     F60  
   X1.0596       Y4.2715     F80  
   X1.0779    
   X1.0687       Y4.2703    
   X1.0864       Y4.2750    
   X1.0779       Y4.2715    
   X1.0938       Y4.2807    
   X1.0864       Y4.2750    
   X1.0994       Y4.2880    
   X1.0938       Y4.2807    
   X1.1029       Y4.2965    
   X1.0994       Y4.2880    
   X1.1047       Y4.3098    
   X1.1029       Y4.2965    
   X1.1047       Y5.1284    
   Y4.3098    
   X1.1029       Y5.1416    
   X1.1047       Y5.1284    
   X1.0994       Y5.1502    
   X1.1029       Y5.1416    
   X1.0938       Y5.1575    
   X1.0994       Y5.1502    
   X1.0864       Y5.1631    
   X1.0938       Y5.1575    
   X1.0779       Y5.1666    
   X1.0864       Y5.1631    
   X1.0687       Y5.1679    
   X1.0779       Y5.1666    
   X1.0596    
   X1.0687       Y5.1679    
   X1.0510       Y5.1631    
   X1.0596       Y5.1666    
   X1.0437       Y5.1575    
   X1.0510       Y5.1631    
   X1.0381       Y5.1502    
   X1.0437       Y5.1575    
   X1.0346       Y5.1416    
   X1.0381       Y5.1502    
   X1.0328       Y5.1284    
   X1.0346       Y5.1416    
   X1.0328       Y4.3098    
   Y5.1284    
   X1.0346       Y4.2965    
   X1.0328       Y4.3098    
   X1.0381       Y4.2880    
   X1.0346       Y4.2965    
   X1.0437       Y4.2807    
   X1.0381       Y4.2880    
   X1.0510       Y4.2750    
   X1.0437       Y4.2807    
   X1.0596       Y4.2715    
   X1.0510       Y4.2750    
(Pass: 8)
   X1.0687       Y4.2703    
   Z0.1250     F60  
   X1.0596       Y4.2715     F80  
   X1.0779    
   X1.0687       Y4.2703    
   X1.0864       Y4.2750    
   X1.0779       Y4.2715    
   X1.0938       Y4.2807    
   X1.0864       Y4.2750    
   X1.0994       Y4.2880    
   X1.0938       Y4.2807    
   X1.1029       Y4.2965    
   X1.0994       Y4.2880    
   X1.1047       Y4.3098    
   X1.1029       Y4.2965    
   X1.1047       Y5.1284    
   Y4.3098    
   X1.1029       Y5.1416    
   X1.1047       Y5.1284    
   X1.0994       Y5.1502    
   X1.1029       Y5.1416    
   X1.0938       Y5.1575    
   X1.0994       Y5.1502    
   X1.0864       Y5.1631    
   X1.0938       Y5.1575    
   X1.0779       Y5.1666    
   X1.0864       Y5.1631    
   X1.0687       Y5.1679    
   X1.0779       Y5.1666    
   X1.0596    
   X1.0687       Y5.1679    
   X1.0510       Y5.1631    
   X1.0596       Y5.1666    
   X1.0437       Y5.1575    
   X1.0510       Y5.1631    
   X1.0381       Y5.1502    
   X1.0437       Y5.1575    
   X1.0346       Y5.1416    
   X1.0381       Y5.1502    
   X1.0328       Y5.1284    
   X1.0346       Y5.1416    
   X1.0328       Y4.3098    
   Y5.1284    
   X1.0346       Y4.2965    
   X1.0328       Y4.3098    
   X1.0381       Y4.2880    
   X1.0346       Y4.2965    
   X1.0437       Y4.2807    
   X1.0381       Y4.2880    
   X1.0510       Y4.2750    
   X1.0437       Y4.2807    
   X1.0596       Y4.2715    
   X1.0510       Y4.2750    
(Pass: 9)
   X1.0687       Y4.2703    
   Z0.1094     F60  
   X1.0596       Y4.2715     F80  
   X1.0779    
   X1.0687       Y4.2703    
   X1.0864       Y4.2750    
   X1.0779       Y4.2715    
   X1.0938       Y4.2807    
   X1.0864       Y4.2750    
   X1.0994       Y4.2880    
   X1.0938       Y4.2807    
   X1.1029       Y4.2965    
   X1.0994       Y4.2880    
   X1.1047       Y4.3098    
   X1.1029       Y4.2965    
   X1.1047       Y5.1284    
   Y4.3098    
   X1.1029       Y5.1416    
   X1.1047       Y5.1284    
   X1.0994       Y5.1502    
   X1.1029       Y5.1416    
   X1.0938       Y5.1575    
   X1.0994       Y5.1502    
   X1.0864       Y5.1631    
   X1.0938       Y5.1575    
   X1.0779       Y5.1666    
   X1.0864       Y5.1631    
   X1.0687       Y5.1679    
   X1.0779       Y5.1666    
   X1.0596    
   X1.0687       Y5.1679    
   X1.0510       Y5.1631    
   X1.0596       Y5.1666    
   X1.0437       Y5.1575    
   X1.0510       Y5.1631    
   X1.0381       Y5.1502    
   X1.0437       Y5.1575    
   X1.0346       Y5.1416    
   X1.0381       Y5.1502    
   X1.0328       Y5.1284    
   X1.0346       Y5.1416    
   X1.0328       Y4.3098    
   Y5.1284    
   X1.0346       Y4.2965    
   X1.0328       Y4.3098    
   X1.0381       Y4.2880    
   X1.0346       Y4.2965    
   X1.0437       Y4.2807    
   X1.0381       Y4.2880    
   X1.0510       Y4.2750    
   X1.0437       Y4.2807    
   X1.0596       Y4.2715    
   X1.0510       Y4.2750    
(Pass: 10)
   X1.0687       Y4.2703    
   Z0.0938     F60  
   X1.0596       Y4.2715     F80  
   X1.0779    
   X1.0687       Y4.2703    
   X1.0864       Y4.2750    
   X1.0779       Y4.2715    
   X1.0938       Y4.2807    
   X1.0864       Y4.2750    
   X1.0994       Y4.2880    
   X1.0938       Y4.2807    
   X1.1029       Y4.2965    
   X1.0994       Y4.2880    
   X1.1047       Y4.3098    
   X1.1029       Y4.2965    
   X1.1047       Y5.1284    
   Y4.3098    
   X1.1029       Y5.1416    
   X1.1047       Y5.1284    
   X1.0994       Y5.1502    
   X1.1029       Y5.1416    
   X1.0938       Y5.1575    
   X1.0994       Y5.1502    
   X1.0864       Y5.1631    
   X1.0938       Y5.1575    
   X1.0779       Y5.1666    
   X1.0864       Y5.1631    
   X1.0687       Y5.1679    
   X1.0779       Y5.1666    
   X1.0596    
   X1.0687       Y5.1679    
   X1.0510       Y5.1631    
   X1.0596       Y5.1666    
   X1.0437       Y5.1575    
   X1.0510       Y5.1631    
   X1.0381       Y5.1502    
   X1.0437       Y5.1575    
   X1.0346       Y5.1416    
   X1.0381       Y5.1502    
   X1.0328       Y5.1284    
   X1.0346       Y5.1416    
   X1.0328       Y4.3098    
   Y5.1284    
   X1.0346       Y4.2965    
   X1.0328       Y4.3098    
   X1.0381       Y4.2880    
   X1.0346       Y4.2965    
   X1.0437       Y4.2807    
   X1.0381       Y4.2880    
   X1.0510       Y4.2750    
   X1.0437       Y4.2807    
   X1.0596       Y4.2715    
   X1.0510       Y4.2750    
(Pass: 11)
   X1.0687       Y4.2703    
   Z0.0781     F60  
   X1.0596       Y4.2715     F80  
   X1.0779    
   X1.0687       Y4.2703    
   X1.0864       Y4.2750    
   X1.0779       Y4.2715    
   X1.0938       Y4.2807    
   X1.0864       Y4.2750    
   X1.0994       Y4.2880    
   X1.0938       Y4.2807    
   X1.1029       Y4.2965    
   X1.0994       Y4.2880    
   X1.1047       Y4.3098    
   X1.1029       Y4.2965    
   X1.1047       Y5.1284    
   Y4.3098    
   X1.1029       Y5.1416    
   X1.1047       Y5.1284    
   X1.0994       Y5.1502    
   X1.1029       Y5.1416    
   X1.0938       Y5.1575    
   X1.0994       Y5.1502    
   X1.0864       Y5.1631    
   X1.0938       Y5.1575    
   X1.0779       Y5.1666    
   X1.0864       Y5.1631    
   X1.0687       Y5.1679    
   X1.0779       Y5.1666    
   X1.0596    
   X1.0687       Y5.1679    
   X1.0510       Y5.1631    
   X1.0596       Y5.1666    
   X1.0437       Y5.1575    
   X1.0510       Y5.1631    
   X1.0381       Y5.1502    
   X1.0437       Y5.1575    
   X1.0346       Y5.1416    
   X1.0381       Y5.1502    
   X1.0328       Y5.1284    
   X1.0346       Y5.1416    
   X1.0328       Y4.3098    
   Y5.1284    
   X1.0346       Y4.2965    
   X1.0328       Y4.3098    
   X1.0381       Y4.2880    
   X1.0346       Y4.2965    
   X1.0437       Y4.2807    
   X1.0381       Y4.2880    
   X1.0510       Y4.2750    
   X1.0437       Y4.2807    
   X1.0596       Y4.2715    
   X1.0510       Y4.2750    
(Pass: 12)
   X1.0687       Y4.2703    
   Z0.0625     F60  
   X1.0596       Y4.2715     F80  
   X1.0779    
   X1.0687       Y4.2703    
   X1.0864       Y4.2750    
   X1.0779       Y4.2715    
   X1.0938       Y4.2807    
   X1.0864       Y4.2750    
   X1.0994       Y4.2880    
   X1.0938       Y4.2807    
   X1.1029       Y4.2965    
   X1.0994       Y4.2880    
   X1.1047       Y4.3098    
   X1.1029       Y4.2965    
   X1.1047       Y5.1284    
   Y4.3098    
   X1.1029       Y5.1416    
   X1.1047       Y5.1284    
   X1.0994       Y5.1502    
   X1.1029       Y5.1416    
   X1.0938       Y5.1575    
   X1.0994       Y5.1502    
   X1.0864       Y5.1631    
   X1.0938       Y5.1575    
   X1.0779       Y5.1666    
   X1.0864       Y5.1631    
   X1.0687       Y5.1679    
   X1.0779       Y5.1666    
   X1.0596    
   X1.0687       Y5.1679    
   X1.0510       Y5.1631    
   X1.0596       Y5.1666    
   X1.0437       Y5.1575    
   X1.0510       Y5.1631    
   X1.0381       Y5.1502    
   X1.0437       Y5.1575    
   X1.0346       Y5.1416    
   X1.0381       Y5.1502    
   X1.0328       Y5.1284    
   X1.0346       Y5.1416    
   X1.0328       Y4.3098    
   Y5.1284    
   X1.0346       Y4.2965    
   X1.0328       Y4.3098    
   X1.0381       Y4.2880    
   X1.0346       Y4.2965    
   X1.0437       Y4.2807    
   X1.0381       Y4.2880    
   X1.0510       Y4.2750    
   X1.0437       Y4.2807    
   X1.0596       Y4.2715    
   X1.0510       Y4.2750    
(Pass: 13)
   X1.0687       Y4.2703    
   Z0.0469     F60  
   X1.0596       Y4.2715     F80  
   X1.0779    
   X1.0687       Y4.2703    
   X1.0864       Y4.2750    
   X1.0779       Y4.2715    
   X1.0938       Y4.2807    
   X1.0864       Y4.2750    
   X1.0994       Y4.2880    
   X1.0938       Y4.2807    
   X1.1029       Y4.2965    
   X1.0994       Y4.2880    
   X1.1047       Y4.3098    
   X1.1029       Y4.2965    
   X1.1047       Y5.1284    
   Y4.3098    
   X1.1029       Y5.1416    
   X1.1047       Y5.1284    
   X1.0994       Y5.1502    
   X1.1029       Y5.1416    
   X1.0938       Y5.1575    
   X1.0994       Y5.1502    
   X1.0864       Y5.1631    
   X1.0938       Y5.1575    
   X1.0779       Y5.1666    
   X1.0864       Y5.1631    
   X1.0687       Y5.1679    
   X1.0779       Y5.1666    
   X1.0596    
   X1.0687       Y5.1679    
   X1.0510       Y5.1631    
   X1.0596       Y5.1666    
   X1.0437       Y5.1575    
   X1.0510       Y5.1631    
   X1.0381       Y5.1502    
   X1.0437       Y5.1575    
   X1.0346       Y5.1416    
   X1.0381       Y5.1502    
   X1.0328       Y5.1284    
   X1.0346       Y5.1416    
   X1.0328       Y4.3098    
   Y5.1284    
   X1.0346       Y4.2965    
   X1.0328       Y4.3098    
   X1.0381       Y4.2880    
   X1.0346       Y4.2965    
   X1.0437       Y4.2807    
   X1.0381       Y4.2880    
   X1.0510       Y4.2750    
   X1.0437       Y4.2807    
   X1.0596       Y4.2715    
   X1.0510       Y4.2750    
(Pass: 14)
   X1.0687       Y4.2703    
   Z0.0312     F60  
   X1.0596       Y4.2715     F80  
   X1.0779    
   X1.0687       Y4.2703    
   X1.0864       Y4.2750    
   X1.0779       Y4.2715    
   X1.0938       Y4.2807    
   X1.0864       Y4.2750    
   X1.0994       Y4.2880    
   X1.0938       Y4.2807    
   X1.1029       Y4.2965    
   X1.0994       Y4.2880    
   X1.1047       Y4.3098    
   X1.1029       Y4.2965    
   X1.1047       Y5.1284    
   Y4.3098    
   X1.1029       Y5.1416    
   X1.1047       Y5.1284    
   X1.0994       Y5.1502    
   X1.1029       Y5.1416    
   X1.0938       Y5.1575    
   X1.0994       Y5.1502    
   X1.0864       Y5.1631    
   X1.0938       Y5.1575    
   X1.0779       Y5.1666    
   X1.0864       Y5.1631    
   X1.0687       Y5.1679    
   X1.0779       Y5.1666    
   X1.0596    
   X1.0687       Y5.1679    
   X1.0510       Y5.1631    
   X1.0596       Y5.1666    
   X1.0437       Y5.1575    
   X1.0510       Y5.1631    
   X1.0381       Y5.1502    
   X1.0437       Y5.1575    
   X1.0346       Y5.1416    
   X1.0381       Y5.1502    
   X1.0328       Y5.1284    
   X1.0346       Y5.1416    
   X1.0328       Y4.3098    
   Y5.1284    
   X1.0346       Y4.2965    
   X1.0328       Y4.3098    
   X1.0381       Y4.2880    
   X1.0346       Y4.2965    
   X1.0437       Y4.2807    
   X1.0381       Y4.2880    
   X1.0510       Y4.2750    
   X1.0437       Y4.2807    
   X1.0596       Y4.2715    
   X1.0510       Y4.2750    
(Pass: 15)
   X1.0687       Y4.2703    
   Z0.0156     F60  
   X1.0596       Y4.2715     F80  
   X1.0779    
   X1.0687       Y4.2703    
   X1.0864       Y4.2750    
   X1.0779       Y4.2715    
   X1.0938       Y4.2807    
   X1.0864       Y4.2750    
   X1.0994       Y4.2880    
   X1.0938       Y4.2807    
   X1.1029       Y4.2965    
   X1.0994       Y4.2880    
   X1.1047       Y4.3098    
   X1.1029       Y4.2965    
   X1.1047       Y5.1284    
   Y4.3098    
   X1.1029       Y5.1416    
   X1.1047       Y5.1284    
   X1.0994       Y5.1502    
   X1.1029       Y5.1416    
   X1.0938       Y5.1575    
   X1.0994       Y5.1502    
   X1.0864       Y5.1631    
   X1.0938       Y5.1575    
   X1.0779       Y5.1666    
   X1.0864       Y5.1631    
   X1.0687       Y5.1679    
   X1.0779       Y5.1666    
   X1.0596    
   X1.0687       Y5.1679    
   X1.0510       Y5.1631    
   X1.0596       Y5.1666    
   X1.0437       Y5.1575    
   X1.0510       Y5.1631    
   X1.0381       Y5.1502    
   X1.0437       Y5.1575    
   X1.0346       Y5.1416    
   X1.0381       Y5.1502    
   X1.0328       Y5.1284    
   X1.0346       Y5.1416    
   X1.0328       Y4.3098    
   Y5.1284    
   X1.0346       Y4.2965    
   X1.0328       Y4.3098    
   X1.0381       Y4.2880    
   X1.0346       Y4.2965    
   X1.0437       Y4.2807    
   X1.0381       Y4.2880    
   X1.0510       Y4.2750    
   X1.0437       Y4.2807    
   X1.0596       Y4.2715    
   X1.0510       Y4.2750    
(Pass: 16)
   X1.0687       Y4.2703    
   Z0.0000     F60  
   X1.0596       Y4.2715     F80  
   X1.0779    
   X1.0687       Y4.2703    
   X1.0864       Y4.2750    
   X1.0779       Y4.2715    
   X1.0938       Y4.2807    
   X1.0864       Y4.2750    
   X1.0994       Y4.2880    
   X1.0938       Y4.2807    
   X1.1029       Y4.2965    
   X1.0994       Y4.2880    
   X1.1047       Y4.3098    
   X1.1029       Y4.2965    
   X1.1047       Y5.1284    
   Y4.3098    
   X1.1029       Y5.1416    
   X1.1047       Y5.1284    
   X1.0994       Y5.1502    
   X1.1029       Y5.1416    
   X1.0938       Y5.1575    
   X1.0994       Y5.1502    
   X1.0864       Y5.1631    
   X1.0938       Y5.1575    
   X1.0779       Y5.1666    
   X1.0864       Y5.1631    
   X1.0687       Y5.1679    
   X1.0779       Y5.1666    
   X1.0596    
   X1.0687       Y5.1679    
   X1.0510       Y5.1631    
   X1.0596       Y5.1666    
   X1.0437       Y5.1575    
   X1.0510       Y5.1631    
   X1.0381       Y5.1502    
   X1.0437       Y5.1575    
   X1.0346       Y5.1416    
   X1.0381       Y5.1502    
   X1.0328       Y5.1284    
   X1.0346       Y5.1416    
   X1.0328       Y4.3098    
   Y5.1284    
   X1.0346       Y4.2965    
   X1.0328       Y4.3098    
   X1.0381       Y4.2880    
   X1.0346       Y4.2965    
   X1.0437       Y4.2807    
   X1.0381       Y4.2880    
   X1.0510       Y4.2750    
   X1.0437       Y4.2807    
   X1.0596       Y4.2715    
   X1.0510       Y4.2750    
G0   Z0.3750    
(Pass: 1)
   X0.7890       Y4.9601    
G1   Z0.2344     F60  
   X0.7827       Y4.9588     F80  
   X0.7898       Y4.9660    
   Y4.9601    
   Y5.0000    
   Y4.9660    
   Y5.2732    
   Y5.0000    
   Y5.3045    
   Y5.2732    
   Y5.3054    
   X0.7188    
   X0.7885    
   X0.7179    
   Y4.9604    
   Y5.3048    
   Y4.9595    
   X0.7827    
   X0.7185    
(Pass: 2)
   X0.7890    
   Z0.2188     F60  
   X0.7827       Y4.9588     F80  
   X0.7898       Y4.9660    
   Y4.9601    
   Y5.0000    
   Y4.9660    
   Y5.2732    
   Y5.0000    
   Y5.3045    
   Y5.2732    
   Y5.3054    
   X0.7188    
   X0.7885    
   X0.7179    
   Y4.9604    
   Y5.3048    
   Y4.9595    
   X0.7827    
   X0.7185    
(Pass: 3)
   X0.7890    
   Z0.2031     F60  
   X0.7827       Y4.9588     F80  
   X0.7898       Y4.9660    
   Y4.9601    
   Y5.0000    
   Y4.9660    
   Y5.2732    
   Y5.0000    
   Y5.3045    
   Y5.2732    
   Y5.3054    
   X0.7188    
   X0.7885    
   X0.7179    
   Y4.9604    
   Y5.3048    
   Y4.9595    
   X0.7827    
   X0.7185    
(Pass: 4)
   X0.7890    
   Z0.1875     F60  
   X0.7827       Y4.9588     F80  
   X0.7898       Y4.9660    
   Y4.9601    
   Y5.0000    
   Y4.9660    
   Y5.2732    
   Y5.0000    
   Y5.3045    
   Y5.2732    
   Y5.3054    
   X0.7188    
   X0.7885    
   X0.7179    
   Y4.9604    
   Y5.3048    
   Y4.9595    
   X0.7827    
   X0.7185    
(Pass: 5)
   X0.7890    
   Z0.1719     F60  
   X0.7827       Y4.9588     F80  
   X0.7898       Y4.9660    
   Y4.9601    
   Y5.0000    
   Y4.9660    
   Y5.2732    
   Y5.0000    
   Y5.3045    
   Y5.2732    
   Y5.3054    
   X0.7188    
   X0.7885    
   X0.7179    
   Y4.9604    
   Y5.3048    
   Y4.9595    
   X0.7827    
   X0.7185    
(Pass: 6)
   X0.7890    
   Z0.1562     F60  
   X0.7827       Y4.9588     F80  
   X0.7898       Y4.9660    
   Y4.9601    
   Y5.0000    
   Y4.9660    
   Y5.2732    
   Y5.0000    
   Y5.3045    
   Y5.2732    
   Y5.3054    
   X0.7188    
   X0.7885    
   X0.7179    
   Y4.9604    
   Y5.3048    
   Y4.9595    
   X0.7827    
   X0.7185    
(Pass: 7)
   X0.7890    
   Z0.1406     F60  
   X0.7827       Y4.9588     F80  
   X0.7898       Y4.9660    
   Y4.9601    
   Y5.0000    
   Y4.9660    
   Y5.2732    
   Y5.0000    
   Y5.3045    
   Y5.2732    
   Y5.3054    
   X0.7188    
   X0.7885    
   X0.7179    
   Y4.9604    
   Y5.3048    
   Y4.9595    
   X0.7827    
   X0.7185    
(Pass: 8)
   X0.7890    
   Z0.1250     F60  
   X0.7827       Y4.9588     F80  
   X0.7898       Y4.9660    
   Y4.9601    
   Y5.0000    
   Y4.9660    
   Y5.2732    
   Y5.0000    
   Y5.3045    
   Y5.2732    
   Y5.3054    
   X0.7188    
   X0.7885    
   X0.7179    
   Y4.9604    
   Y5.3048    
   Y4.9595    
   X0.7827    
   X0.7185    
(Pass: 9)
   X0.7890    
   Z0.1094     F60  
   X0.7827       Y4.9588     F80  
   X0.7898       Y4.9660    
   Y4.9601    
   Y5.0000    
   Y4.9660    
   Y5.2732    
   Y5.0000    
   Y5.3045    
   Y5.2732    
   Y5.3054    
   X0.7188    
   X0.7885    
   X0.7179    
   Y4.9604    
   Y5.3048    
   Y4.9595    
   X0.7827    
   X0.7185    
(Pass: 10)
   X0.7890    
   Z0.0938     F60  
   X0.7827       Y4.9588     F80  
   X0.7898       Y4.9660    
   Y4.9601    
   Y5.0000    
   Y4.9660    
   Y5.2732    
   Y5.0000    
   Y5.3045    
   Y5.2732    
   Y5.3054    
   X0.7188    
   X0.7885    
   X0.7179    
   Y4.9604    
   Y5.3048    
   Y4.9595    
   X0.7827    
   X0.7185    
(Pass: 11)
   X0.7890    
   Z0.0781     F60  
   X0.7827       Y4.9588     F80  
   X0.7898       Y4.9660    
   Y4.9601    
   Y5.0000    
   Y4.9660    
   Y5.2732    
   Y5.0000    
   Y5.3045    
   Y5.2732    
   Y5.3054    
   X0.7188    
   X0.7885    
   X0.7179    
   Y4.9604    
   Y5.3048    
   Y4.9595    
   X0.7827    
   X0.7185    
(Pass: 12)
   X0.7890    
   Z0.0625     F60  
   X0.7827       Y4.9588     F80  
   X0.7898       Y4.9660    
   Y4.9601    
   Y5.0000    
   Y4.9660    
   Y5.2732    
   Y5.0000    
   Y5.3045    
   Y5.2732    
   Y5.3054    
   X0.7188    
   X0.7885    
   X0.7179    
   Y4.9604    
   Y5.3048    
   Y4.9595    
   X0.7827    
   X0.7185    
(Pass: 13)
   X0.7890    
   Z0.0469     F60  
   X0.7827       Y4.9588     F80  
   X0.7898       Y4.9660    
   Y4.9601    
   Y5.0000    
   Y4.9660    
   Y5.2732    
   Y5.0000    
   Y5.3045    
   Y5.2732    
   Y5.3054    
   X0.7188    
   X0.7885    
   X0.7179    
   Y4.9604    
   Y5.3048    
   Y4.9595    
   X0.7827    
   X0.7185    
(Pass: 14)
   X0.7890    
   Z0.0312     F60  
   X0.7827       Y4.9588     F80  
   X0.7898       Y4.9660    
   Y4.9601    
   Y5.0000    
   Y4.9660    
   Y5.2732    
   Y5.0000    
   Y5.3045    
   Y5.2732    
   Y5.3054    
   X0.7188    
   X0.7885    
   X0.7179    
   Y4.9604    
   Y5.3048    
   Y4.9595    
   X0.7827    
   X0.7185    
(Pass: 15)
   X0.7890    
   Z0.0156     F60  
   X0.7827       Y4.9588     F80  
   X0.7898       Y4.9660    
   Y4.9601    
   Y5.0000    
   Y4.9660    
   Y5.2732    
   Y5.0000    
   Y5.3045    
   Y5.2732    
   Y5.3054    
   X0.7188    
   X0.7885    
   X0.7179    
   Y4.9604    
   Y5.3048    
   Y4.9595    
   X0.7827    
   X0.7185    
(Pass: 16)
   X0.7890    
   Z0.0000     F60  
   X0.7827       Y4.9588     F80  
   X0.7898       Y4.9660    
   Y4.9601    
   Y5.0000    
   Y4.9660    
   Y5.2732    
   Y5.0000    
   Y5.3045    
   Y5.2732    
   Y5.3054    
   X0.7188    
   X0.7885    
   X0.7179    
   Y4.9604    
   Y5.3048    
   Y4.9595    
   X0.7827    
   X0.7185    
G0   Z0.3750    
(Pass: 1)
   X0.8624       Y5.7465    
G1   Z0.2344     F60  
   X0.8549       Y5.7491     F80  
   X0.8702       Y5.7450    
   X0.8624       Y5.7465    
   X0.8802       Y5.7443    
   X0.8702    
   X1.2581    
   X0.8802    
   X1.2680    
   X1.2581    
   X1.2758       Y5.7465    
   X1.2680       Y5.7450    
   X1.2834       Y5.7491    
   X1.2758       Y5.7465    
   X1.2905       Y5.7526    
   X1.2834       Y5.7491    
   X1.2971       Y5.7570    
   X1.2905       Y5.7526    
   X1.3031       Y5.7623    
   X1.2971       Y5.7570    
   X1.3084       Y5.7682    
   X1.3031       Y5.7623    
   X1.3128       Y5.7749    
   X1.3084       Y5.7682    
   X1.3163       Y5.7820    
   X1.3128       Y5.7749    
   X1.3189       Y5.7895    
   X1.3163       Y5.7820    
   X1.3204       Y5.7973    
   X1.3189       Y5.7895    
   X1.3211       Y5.8073    
   Y5.7973    
   Y6.8752    
   Y5.8073    
   Y6.8852    
   Y6.8752    
   X1.3189       Y6.8930    
   X1.3204       Y6.8852    
   X1.3163       Y6.9005    
   X1.3189       Y6.8930    
   X1.3128       Y6.9077    
   X1.3163       Y6.9005    
   X1.3084       Y6.9143    
   X1.3128       Y6.9077    
   X1.3031       Y6.9203    
   X1.3084       Y6.9143    
   X1.2971       Y6.9255    
   X1.3031       Y6.9203    
   X1.2905       Y6.9299    
   X1.2971       Y6.9255    
   X1.2834       Y6.9334    
   X1.2905       Y6.9299    
   X1.2758       Y6.9360    
   X1.2834       Y6.9334    
   X1.2680       Y6.9376    
   X1.2758       Y6.9360    
   X1.2581       Y6.9382    
   X1.2680    
   X1.0185    
   X1.2581    
   X0.9905       Y6.9364    
   X1.0185       Y6.9382    
   X0.9650       Y6.9313    
   X0.9905       Y6.9364    
   X0.9403       Y6.9229    
   X0.9650       Y6.9313    
   X0.9169       Y6.9114    
   X0.9403       Y6.9229    
   X0.8953       Y6.8969    
   X0.9169       Y6.9114    
   X0.8757       Y6.8798    
   X0.8953       Y6.8969    
   X0.8585       Y6.8602    
   X0.8757       Y6.8798    
   X0.8440       Y6.8385    
   X0.8585       Y6.8602    
   X0.8325       Y6.8151    
   X0.8440       Y6.8385    
   X0.8241       Y6.7905    
   X0.8325       Y6.8151    
   X0.8191       Y6.7649    
   X0.8241       Y6.7905    
   X0.8172       Y6.7369    
   X0.8191       Y6.7649    
   X0.8172       Y5.8073    
   Y6.7369    
   Y5.7973    
   Y5.8073    
   X0.8194       Y5.7895    
   X0.8179       Y5.7973    
   X0.8220       Y5.7820    
   X0.8194       Y5.7895    
   X0.8255       Y5.7749    
   X0.8220       Y5.7820    
   X0.8299       Y5.7682    
   X0.8255       Y5.7749    
   X0.8352       Y5.7623    
   X0.8299       Y5.7682    
   X0.8412       Y5.7570    
   X0.8352       Y5.7623    
   X0.8478       Y5.7526    
   X0.8412       Y5.7570    
   X0.8549       Y5.7491    
   X0.8478       Y5.7526    
(Pass: 2)
   X0.8624       Y5.7465    
   Z0.2188     F60  
   X0.8549       Y5.7491     F80  
   X0.8702       Y5.7450    
   X0.8624       Y5.7465    
   X0.8802       Y5.7443    
   X0.8702    
   X1.2581    
   X0.8802    
   X1.2680    
   X1.2581    
   X1.2758       Y5.7465    
   X1.2680       Y5.7450    
   X1.2834       Y5.7491    
   X1.2758       Y5.7465    
   X1.2905       Y5.7526    
   X1.2834       Y5.7491    
   X1.2971       Y5.7570    
   X1.2905       Y5.7526    
   X1.3031       Y5.7623    
   X1.2971       Y5.7570    
   X1.3084       Y5.7682    
   X1.3031       Y5.7623    
   X1.3128       Y5.7749    
   X1.3084       Y5.7682    
   X1.3163       Y5.7820    
   X1.3128       Y5.7749    
   X1.3189       Y5.7895    
   X1.3163       Y5.7820    
   X1.3204       Y5.7973    
   X1.3189       Y5.7895    
   X1.3211       Y5.8073    
   Y5.7973    
   Y6.8752    
   Y5.8073    
   Y6.8852    
   Y6.8752    
   X1.3189       Y6.8930    
   X1.3204       Y6.8852    
   X1.3163       Y6.9005    
   X1.3189       Y6.8930    
   X1.3128       Y6.9077    
   X1.3163       Y6.9005    
   X1.3084       Y6.9143    
   X1.3128       Y6.9077    
   X1.3031       Y6.9203    
   X1.3084       Y6.9143    
   X1.2971       Y6.9255    
   X1.3031       Y6.9203    
   X1.2905       Y6.9299    
   X1.2971       Y6.9255    
   X1.2834       Y6.9334    
   X1.2905       Y6.9299    
   X1.2758       Y6.9360    
   X1.2834       Y6.9334    
   X1.2680       Y6.9376    
   X1.2758       Y6.9360    
   X1.2581       Y6.9382    
   X1.2680    
   X1.0185    
   X1.2581    
   X0.9905       Y6.9364    
   X1.0185       Y6.9382    
   X0.9650       Y6.9313    
   X0.9905       Y6.9364    
   X0.9403       Y6.9229    
   X0.9650       Y6.9313    
   X0.9169       Y6.9114    
   X0.9403       Y6.9229    
   X0.8953       Y6.8969    
   X0.9169       Y6.9114    
   X0.8757       Y6.8798    
   X0.8953       Y6.8969    
   X0.8585       Y6.8602    
   X0.8757       Y6.8798    
   X0.8440       Y6.8385    
   X0.8585       Y6.8602    
   X0.8325       Y6.8151    
   X0.8440       Y6.8385    
   X0.8241       Y6.7905    
   X0.8325       Y6.8151    
   X0.8191       Y6.7649    
   X0.8241       Y6.7905    
   X0.8172       Y6.7369    
   X0.8191       Y6.7649    
   X0.8172       Y5.8073    
   Y6.7369    
   Y5.7973    
   Y5.8073    
   X0.8194       Y5.7895    
   X0.8179       Y5.7973    
   X0.8220       Y5.7820    
   X0.8194       Y5.7895    
   X0.8255       Y5.7749    
   X0.8220       Y5.7820    
   X0.8299       Y5.7682    
   X0.8255       Y5.7749    
   X0.8352       Y5.7623    
   X0.8299       Y5.7682    
   X0.8412       Y5.7570    
   X0.8352       Y5.7623    
   X0.8478       Y5.7526    
   X0.8412       Y5.7570    
   X0.8549       Y5.7491    
   X0.8478       Y5.7526    
(Pass: 3)
   X0.8624       Y5.7465    
   Z0.2031     F60  
   X0.8549       Y5.7491     F80  
   X0.8702       Y5.7450    
   X0.8624       Y5.7465    
   X0.8802       Y5.7443    
   X0.8702    
   X1.2581    
   X0.8802    
   X1.2680    
   X1.2581    
   X1.2758       Y5.7465    
   X1.2680       Y5.7450    
   X1.2834       Y5.7491    
   X1.2758       Y5.7465    
   X1.2905       Y5.7526    
   X1.2834       Y5.7491    
   X1.2971       Y5.7570    
   X1.2905       Y5.7526    
   X1.3031       Y5.7623    
   X1.2971       Y5.7570    
   X1.3084       Y5.7682    
   X1.3031       Y5.7623    
   X1.3128       Y5.7749    
   X1.3084       Y5.7682    
   X1.3163       Y5.7820    
   X1.3128       Y5.7749    
   X1.3189       Y5.7895    
   X1.3163       Y5.7820    
   X1.3204       Y5.7973    
   X1.3189       Y5.7895    
   X1.3211       Y5.8073    
   Y5.7973    
   Y6.8752    
   Y5.8073    
   Y6.8852    
   Y6.8752    
   X1.3189       Y6.8930    
   X1.3204       Y6.8852    
   X1.3163       Y6.9005    
   X1.3189       Y6.8930    
   X1.3128       Y6.9077    
   X1.3163       Y6.9005    
   X1.3084       Y6.9143    
   X1.3128       Y6.9077    
   X1.3031       Y6.9203    
   X1.3084       Y6.9143    
   X1.2971       Y6.9255    
   X1.3031       Y6.9203    
   X1.2905       Y6.9299    
   X1.2971       Y6.9255    
   X1.2834       Y6.9334    
   X1.2905       Y6.9299    
   X1.2758       Y6.9360    
   X1.2834       Y6.9334    
   X1.2680       Y6.9376    
   X1.2758       Y6.9360    
   X1.2581       Y6.9382    
   X1.2680    
   X1.0185    
   X1.2581    
   X0.9905       Y6.9364    
   X1.0185       Y6.9382    
   X0.9650       Y6.9313    
   X0.9905       Y6.9364    
   X0.9403       Y6.9229    
   X0.9650       Y6.9313    
   X0.9169       Y6.9114    
   X0.9403       Y6.9229    
   X0.8953       Y6.8969    
   X0.9169       Y6.9114    
   X0.8757       Y6.8798    
   X0.8953       Y6.8969    
   X0.8585       Y6.8602    
   X0.8757       Y6.8798    
   X0.8440       Y6.8385    
   X0.8585       Y6.8602    
   X0.8325       Y6.8151    
   X0.8440       Y6.8385    
   X0.8241       Y6.7905    
   X0.8325       Y6.8151    
   X0.8191       Y6.7649    
   X0.8241       Y6.7905    
   X0.8172       Y6.7369    
   X0.8191       Y6.7649    
   X0.8172       Y5.8073    
   Y6.7369    
   Y5.7973    
   Y5.8073    
   X0.8194       Y5.7895    
   X0.8179       Y5.7973    
   X0.8220       Y5.7820    
   X0.8194       Y5.7895    
   X0.8255       Y5.7749    
   X0.8220       Y5.7820    
   X0.8299       Y5.7682    
   X0.8255       Y5.7749    
   X0.8352       Y5.7623    
   X0.8299       Y5.7682    
   X0.8412       Y5.7570    
   X0.8352       Y5.7623    
   X0.8478       Y5.7526    
   X0.8412       Y5.7570    
   X0.8549       Y5.7491    
   X0.8478       Y5.7526    
(Pass: 4)
   X0.8624       Y5.7465    
   Z0.1875     F60  
   X0.8549       Y5.7491     F80  
   X0.8702       Y5.7450    
   X0.8624       Y5.7465    
   X0.8802       Y5.7443    
   X0.8702    
   X1.2581    
   X0.8802    
   X1.2680    
   X1.2581    
   X1.2758       Y5.7465    
   X1.2680       Y5.7450    
   X1.2834       Y5.7491    
   X1.2758       Y5.7465    
   X1.2905       Y5.7526    
   X1.2834       Y5.7491    
   X1.2971       Y5.7570    
   X1.2905       Y5.7526    
   X1.3031       Y5.7623    
   X1.2971       Y5.7570    
   X1.3084       Y5.7682    
   X1.3031       Y5.7623    
   X1.3128       Y5.7749    
   X1.3084       Y5.7682    
   X1.3163       Y5.7820    
   X1.3128       Y5.7749    
   X1.3189       Y5.7895    
   X1.3163       Y5.7820    
   X1.3204       Y5.7973    
   X1.3189       Y5.7895    
   X1.3211       Y5.8073    
   Y5.7973    
   Y6.8752    
   Y5.8073    
   Y6.8852    
   Y6.8752    
   X1.3189       Y6.8930    
   X1.3204       Y6.8852    
   X1.3163       Y6.9005    
   X1.3189       Y6.8930    
   X1.3128       Y6.9077    
   X1.3163       Y6.9005    
   X1.3084       Y6.9143    
   X1.3128       Y6.9077    
   X1.3031       Y6.9203    
   X1.3084       Y6.9143    
   X1.2971       Y6.9255    
   X1.3031       Y6.9203    
   X1.2905       Y6.9299    
   X1.2971       Y6.9255    
   X1.2834       Y6.9334    
   X1.2905       Y6.9299    
   X1.2758       Y6.9360    
   X1.2834       Y6.9334    
   X1.2680       Y6.9376    
   X1.2758       Y6.9360    
   X1.2581       Y6.9382    
   X1.2680    
   X1.0185    
   X1.2581    
   X0.9905       Y6.9364    
   X1.0185       Y6.9382    
   X0.9650       Y6.9313    
   X0.9905       Y6.9364    
   X0.9403       Y6.9229    
   X0.9650       Y6.9313    
   X0.9169       Y6.9114    
   X0.9403       Y6.9229    
   X0.8953       Y6.8969    
   X0.9169       Y6.9114    
   X0.8757       Y6.8798    
   X0.8953       Y6.8969    
   X0.8585       Y6.8602    
   X0.8757       Y6.8798    
   X0.8440       Y6.8385    
   X0.8585       Y6.8602    
   X0.8325       Y6.8151    
   X0.8440       Y6.8385    
   X0.8241       Y6.7905    
   X0.8325       Y6.8151    
   X0.8191       Y6.7649    
   X0.8241       Y6.7905    
   X0.8172       Y6.7369    
   X0.8191       Y6.7649    
   X0.8172       Y5.8073    
   Y6.7369    
   Y5.7973    
   Y5.8073    
   X0.8194       Y5.7895    
   X0.8179       Y5.7973    
   X0.8220       Y5.7820    
   X0.8194       Y5.7895    
   X0.8255       Y5.7749    
   X0.8220       Y5.7820    
   X0.8299       Y5.7682    
   X0.8255       Y5.7749    
   X0.8352       Y5.7623    
   X0.8299       Y5.7682    
   X0.8412       Y5.7570    
   X0.8352       Y5.7623    
   X0.8478       Y5.7526    
   X0.8412       Y5.7570    
   X0.8549       Y5.7491    
   X0.8478       Y5.7526    
(Pass: 5)
   X0.8624       Y5.7465    
   Z0.1719     F60  
   X0.8549       Y5.7491     F80  
   X0.8702       Y5.7450    
   X0.8624       Y5.7465    
   X0.8802       Y5.7443    
   X0.8702    
   X1.2581    
   X0.8802    
   X1.2680    
   X1.2581    
   X1.2758       Y5.7465    
   X1.2680       Y5.7450    
   X1.2834       Y5.7491    
   X1.2758       Y5.7465    
   X1.2905       Y5.7526    
   X1.2834       Y5.7491    
   X1.2971       Y5.7570    
   X1.2905       Y5.7526    
   X1.3031       Y5.7623    
   X1.2971       Y5.7570    
   X1.3084       Y5.7682    
   X1.3031       Y5.7623    
   X1.3128       Y5.7749    
   X1.3084       Y5.7682    
   X1.3163       Y5.7820    
   X1.3128       Y5.7749    
   X1.3189       Y5.7895    
   X1.3163       Y5.7820    
   X1.3204       Y5.7973    
   X1.3189       Y5.7895    
   X1.3211       Y5.8073    
   Y5.7973    
   Y6.8752    
   Y5.8073    
   Y6.8852    
   Y6.8752    
   X1.3189       Y6.8930    
   X1.3204       Y6.8852    
   X1.3163       Y6.9005    
   X1.3189       Y6.8930    
   X1.3128       Y6.9077    
   X1.3163       Y6.9005    
   X1.3084       Y6.9143    
   X1.3128       Y6.9077    
   X1.3031       Y6.9203    
   X1.3084       Y6.9143    
   X1.2971       Y6.9255    
   X1.3031       Y6.9203    
   X1.2905       Y6.9299    
   X1.2971       Y6.9255    
   X1.2834       Y6.9334    
   X1.2905       Y6.9299    
   X1.2758       Y6.9360    
   X1.2834       Y6.9334    
   X1.2680       Y6.9376    
   X1.2758       Y6.9360    
   X1.2581       Y6.9382    
   X1.2680    
   X1.0185    
   X1.2581    
   X0.9905       Y6.9364    
   X1.0185       Y6.9382    
   X0.9650       Y6.9313    
   X0.9905       Y6.9364    
   X0.9403       Y6.9229    
   X0.9650       Y6.9313    
   X0.9169       Y6.9114    
   X0.9403       Y6.9229    
   X0.8953       Y6.8969    
   X0.9169       Y6.9114    
   X0.8757       Y6.8798    
   X0.8953       Y6.8969    
   X0.8585       Y6.8602    
   X0.8757       Y6.8798    
   X0.8440       Y6.8385    
   X0.8585       Y6.8602    
   X0.8325       Y6.8151    
   X0.8440       Y6.8385    
   X0.8241       Y6.7905    
   X0.8325       Y6.8151    
   X0.8191       Y6.7649    
   X0.8241       Y6.7905    
   X0.8172       Y6.7369    
   X0.8191       Y6.7649    
   X0.8172       Y5.8073    
   Y6.7369    
   Y5.7973    
   Y5.8073    
   X0.8194       Y5.7895    
   X0.8179       Y5.7973    
   X0.8220       Y5.7820    
   X0.8194       Y5.7895    
   X0.8255       Y5.7749    
   X0.8220       Y5.7820    
   X0.8299       Y5.7682    
   X0.8255       Y5.7749    
   X0.8352       Y5.7623    
   X0.8299       Y5.7682    
   X0.8412       Y5.7570    
   X0.8352       Y5.7623    
   X0.8478       Y5.7526    
   X0.8412       Y5.7570    
   X0.8549       Y5.7491    
   X0.8478       Y5.7526    
(Pass: 6)
   X0.8624       Y5.7465    
   Z0.1562     F60  
   X0.8549       Y5.7491     F80  
   X0.8702       Y5.7450    
   X0.8624       Y5.7465    
   X0.8802       Y5.7443    
   X0.8702    
   X1.2581    
   X0.8802    
   X1.2680    
   X1.2581    
   X1.2758       Y5.7465    
   X1.2680       Y5.7450    
   X1.2834       Y5.7491    
   X1.2758       Y5.7465    
   X1.2905       Y5.7526    
   X1.2834       Y5.7491    
   X1.2971       Y5.7570    
   X1.2905       Y5.7526    
   X1.3031       Y5.7623    
   X1.2971       Y5.7570    
   X1.3084       Y5.7682    
   X1.3031       Y5.7623    
   X1.3128       Y5.7749    
   X1.3084       Y5.7682    
   X1.3163       Y5.7820    
   X1.3128       Y5.7749    
   X1.3189       Y5.7895    
   X1.3163       Y5.7820    
   X1.3204       Y5.7973    
   X1.3189       Y5.7895    
   X1.3211       Y5.8073    
   Y5.7973    
   Y6.8752    
   Y5.8073    
   Y6.8852    
   Y6.8752    
   X1.3189       Y6.8930    
   X1.3204       Y6.8852    
   X1.3163       Y6.9005    
   X1.3189       Y6.8930    
   X1.3128       Y6.9077    
   X1.3163       Y6.9005    
   X1.3084       Y6.9143    
   X1.3128       Y6.9077    
   X1.3031       Y6.9203    
   X1.3084       Y6.9143    
   X1.2971       Y6.9255    
   X1.3031       Y6.9203    
   X1.2905       Y6.9299    
   X1.2971       Y6.9255    
   X1.2834       Y6.9334    
   X1.2905       Y6.9299    
   X1.2758       Y6.9360    
   X1.2834       Y6.9334    
   X1.2680       Y6.9376    
   X1.2758       Y6.9360    
   X1.2581       Y6.9382    
   X1.2680    
   X1.0185    
   X1.2581    
   X0.9905       Y6.9364    
   X1.0185       Y6.9382    
   X0.9650       Y6.9313    
   X0.9905       Y6.9364    
   X0.9403       Y6.9229    
   X0.9650       Y6.9313    
   X0.9169       Y6.9114    
   X0.9403       Y6.9229    
   X0.8953       Y6.8969    
   X0.9169       Y6.9114    
   X0.8757       Y6.8798    
   X0.8953       Y6.8969    
   X0.8585       Y6.8602    
   X0.8757       Y6.8798    
   X0.8440       Y6.8385    
   X0.8585       Y6.8602    
   X0.8325       Y6.8151    
   X0.8440       Y6.8385    
   X0.8241       Y6.7905    
   X0.8325       Y6.8151    
   X0.8191       Y6.7649    
   X0.8241       Y6.7905    
   X0.8172       Y6.7369    
   X0.8191       Y6.7649    
   X0.8172       Y5.8073    
   Y6.7369    
   Y5.7973    
   Y5.8073    
   X0.8194       Y5.7895    
   X0.8179       Y5.7973    
   X0.8220       Y5.7820    
   X0.8194       Y5.7895    
   X0.8255       Y5.7749    
   X0.8220       Y5.7820    
   X0.8299       Y5.7682    
   X0.8255       Y5.7749    
   X0.8352       Y5.7623    
   X0.8299       Y5.7682    
   X0.8412       Y5.7570    
   X0.8352       Y5.7623    
   X0.8478       Y5.7526    
   X0.8412       Y5.7570    
   X0.8549       Y5.7491    
   X0.8478       Y5.7526    
(Pass: 7)
   X0.8624       Y5.7465    
   Z0.1406     F60  
   X0.8549       Y5.7491     F80  
   X0.8702       Y5.7450    
   X0.8624       Y5.7465    
   X0.8802       Y5.7443    
   X0.8702    
   X1.2581    
   X0.8802    
   X1.2680    
   X1.2581    
   X1.2758       Y5.7465    
   X1.2680       Y5.7450    
   X1.2834       Y5.7491    
   X1.2758       Y5.7465    
   X1.2905       Y5.7526    
   X1.2834       Y5.7491    
   X1.2971       Y5.7570    
   X1.2905       Y5.7526    
   X1.3031       Y5.7623    
   X1.2971       Y5.7570    
   X1.3084       Y5.7682    
   X1.3031       Y5.7623    
   X1.3128       Y5.7749    
   X1.3084       Y5.7682    
   X1.3163       Y5.7820    
   X1.3128       Y5.7749    
   X1.3189       Y5.7895    
   X1.3163       Y5.7820    
   X1.3204       Y5.7973    
   X1.3189       Y5.7895    
   X1.3211       Y5.8073    
   Y5.7973    
   Y6.8752    
   Y5.8073    
   Y6.8852    
   Y6.8752    
   X1.3189       Y6.8930    
   X1.3204       Y6.8852    
   X1.3163       Y6.9005    
   X1.3189       Y6.8930    
   X1.3128       Y6.9077    
   X1.3163       Y6.9005    
   X1.3084       Y6.9143    
   X1.3128       Y6.9077    
   X1.3031       Y6.9203    
   X1.3084       Y6.9143    
   X1.2971       Y6.9255    
   X1.3031       Y6.9203    
   X1.2905       Y6.9299    
   X1.2971       Y6.9255    
   X1.2834       Y6.9334    
   X1.2905       Y6.9299    
   X1.2758       Y6.9360    
   X1.2834       Y6.9334    
   X1.2680       Y6.9376    
   X1.2758       Y6.9360    
   X1.2581       Y6.9382    
   X1.2680    
   X1.0185    
   X1.2581    
   X0.9905       Y6.9364    
   X1.0185       Y6.9382    
   X0.9650       Y6.9313    
   X0.9905       Y6.9364    
   X0.9403       Y6.9229    
   X0.9650       Y6.9313    
   X0.9169       Y6.9114    
   X0.9403       Y6.9229    
   X0.8953       Y6.8969    
   X0.9169       Y6.9114    
   X0.8757       Y6.8798    
   X0.8953       Y6.8969    
   X0.8585       Y6.8602    
   X0.8757       Y6.8798    
   X0.8440       Y6.8385    
   X0.8585       Y6.8602    
   X0.8325       Y6.8151    
   X0.8440       Y6.8385    
   X0.8241       Y6.7905    
   X0.8325       Y6.8151    
   X0.8191       Y6.7649    
   X0.8241       Y6.7905    
   X0.8172       Y6.7369    
   X0.8191       Y6.7649    
   X0.8172       Y5.8073    
   Y6.7369    
   Y5.7973    
   Y5.8073    
   X0.8194       Y5.7895    
   X0.8179       Y5.7973    
   X0.8220       Y5.7820    
   X0.8194       Y5.7895    
   X0.8255       Y5.7749    
   X0.8220       Y5.7820    
   X0.8299       Y5.7682    
   X0.8255       Y5.7749    
   X0.8352       Y5.7623    
   X0.8299       Y5.7682    
   X0.8412       Y5.7570    
   X0.8352       Y5.7623    
   X0.8478       Y5.7526    
   X0.8412       Y5.7570    
   X0.8549       Y5.7491    
   X0.8478       Y5.7526    
(Pass: 8)
   X0.8624       Y5.7465    
   Z0.1250     F60  
   X0.8549       Y5.7491     F80  
   X0.8702       Y5.7450    
   X0.8624       Y5.7465    
   X0.8802       Y5.7443    
   X0.8702    
   X1.2581    
   X0.8802    
   X1.2680    
   X1.2581    
   X1.2758       Y5.7465    
   X1.2680       Y5.7450    
   X1.2834       Y5.7491    
   X1.2758       Y5.7465    
   X1.2905       Y5.7526    
   X1.2834       Y5.7491    
   X1.2971       Y5.7570    
   X1.2905       Y5.7526    
   X1.3031       Y5.7623    
   X1.2971       Y5.7570    
   X1.3084       Y5.7682    
   X1.3031       Y5.7623    
   X1.3128       Y5.7749    
   X1.3084       Y5.7682    
   X1.3163       Y5.7820    
   X1.3128       Y5.7749    
   X1.3189       Y5.7895    
   X1.3163       Y5.7820    
   X1.3204       Y5.7973    
   X1.3189       Y5.7895    
   X1.3211       Y5.8073    
   Y5.7973    
   Y6.8752    
   Y5.8073    
   Y6.8852    
   Y6.8752    
   X1.3189       Y6.8930    
   X1.3204       Y6.8852    
   X1.3163       Y6.9005    
   X1.3189       Y6.8930    
   X1.3128       Y6.9077    
   X1.3163       Y6.9005    
   X1.3084       Y6.9143    
   X1.3128       Y6.9077    
   X1.3031       Y6.9203    
   X1.3084       Y6.9143    
   X1.2971       Y6.9255    
   X1.3031       Y6.9203    
   X1.2905       Y6.9299    
   X1.2971       Y6.9255    
   X1.2834       Y6.9334    
   X1.2905       Y6.9299    
   X1.2758       Y6.9360    
   X1.2834       Y6.9334    
   X1.2680       Y6.9376    
   X1.2758       Y6.9360    
   X1.2581       Y6.9382    
   X1.2680    
   X1.0185    
   X1.2581    
   X0.9905       Y6.9364    
   X1.0185       Y6.9382    
   X0.9650       Y6.9313    
   X0.9905       Y6.9364    
   X0.9403       Y6.9229    
   X0.9650       Y6.9313    
   X0.9169       Y6.9114    
   X0.9403       Y6.9229    
   X0.8953       Y6.8969    
   X0.9169       Y6.9114    
   X0.8757       Y6.8798    
   X0.8953       Y6.8969    
   X0.8585       Y6.8602    
   X0.8757       Y6.8798    
   X0.8440       Y6.8385    
   X0.8585       Y6.8602    
   X0.8325       Y6.8151    
   X0.8440       Y6.8385    
   X0.8241       Y6.7905    
   X0.8325       Y6.8151    
   X0.8191       Y6.7649    
   X0.8241       Y6.7905    
   X0.8172       Y6.7369    
   X0.8191       Y6.7649    
   X0.8172       Y5.8073    
   Y6.7369    
   Y5.7973    
   Y5.8073    
   X0.8194       Y5.7895    
   X0.8179       Y5.7973    
   X0.8220       Y5.7820    
   X0.8194       Y5.7895    
   X0.8255       Y5.7749    
   X0.8220       Y5.7820    
   X0.8299       Y5.7682    
   X0.8255       Y5.7749    
   X0.8352       Y5.7623    
   X0.8299       Y5.7682    
   X0.8412       Y5.7570    
   X0.8352       Y5.7623    
   X0.8478       Y5.7526    
   X0.8412       Y5.7570    
   X0.8549       Y5.7491    
   X0.8478       Y5.7526    
(Pass: 9)
   X0.8624       Y5.7465    
   Z0.1094     F60  
   X0.8549       Y5.7491     F80  
   X0.8702       Y5.7450    
   X0.8624       Y5.7465    
   X0.8802       Y5.7443    
   X0.8702    
   X1.2581    
   X0.8802    
   X1.2680    
   X1.2581    
   X1.2758       Y5.7465    
   X1.2680       Y5.7450    
   X1.2834       Y5.7491    
   X1.2758       Y5.7465    
   X1.2905       Y5.7526    
   X1.2834       Y5.7491    
   X1.2971       Y5.7570    
   X1.2905       Y5.7526    
   X1.3031       Y5.7623    
   X1.2971       Y5.7570    
   X1.3084       Y5.7682    
   X1.3031       Y5.7623    
   X1.3128       Y5.7749    
   X1.3084       Y5.7682    
   X1.3163       Y5.7820    
   X1.3128       Y5.7749    
   X1.3189       Y5.7895    
   X1.3163       Y5.7820    
   X1.3204       Y5.7973    
   X1.3189       Y5.7895    
   X1.3211       Y5.8073    
   Y5.7973    
   Y6.8752    
   Y5.8073    
   Y6.8852    
   Y6.8752    
   X1.3189       Y6.8930    
   X1.3204       Y6.8852    
   X1.3163       Y6.9005    
   X1.3189       Y6.8930    
   X1.3128       Y6.9077    
   X1.3163       Y6.9005    
   X1.3084       Y6.9143    
   X1.3128       Y6.9077    
   X1.3031       Y6.9203    
   X1.3084       Y6.9143    
   X1.2971       Y6.9255    
   X1.3031       Y6.9203    
   X1.2905       Y6.9299    
   X1.2971       Y6.9255    
   X1.2834       Y6.9334    
   X1.2905       Y6.9299    
   X1.2758       Y6.9360    
   X1.2834       Y6.9334    
   X1.2680       Y6.9376    
   X1.2758       Y6.9360    
   X1.2581       Y6.9382    
   X1.2680    
   X1.0185    
   X1.2581    
   X0.9905       Y6.9364    
   X1.0185       Y6.9382    
   X0.9650       Y6.9313    
   X0.9905       Y6.9364    
   X0.9403       Y6.9229    
   X0.9650       Y6.9313    
   X0.9169       Y6.9114    
   X0.9403       Y6.9229    
   X0.8953       Y6.8969    
   X0.9169       Y6.9114    
   X0.8757       Y6.8798    
   X0.8953       Y6.8969    
   X0.8585       Y6.8602    
   X0.8757       Y6.8798    
   X0.8440       Y6.8385    
   X0.8585       Y6.8602    
   X0.8325       Y6.8151    
   X0.8440       Y6.8385    
   X0.8241       Y6.7905    
   X0.8325       Y6.8151    
   X0.8191       Y6.7649    
   X0.8241       Y6.7905    
   X0.8172       Y6.7369    
   X0.8191       Y6.7649    
   X0.8172       Y5.8073    
   Y6.7369    
   Y5.7973    
   Y5.8073    
   X0.8194       Y5.7895    
   X0.8179       Y5.7973    
   X0.8220       Y5.7820    
   X0.8194       Y5.7895    
   X0.8255       Y5.7749    
   X0.8220       Y5.7820    
   X0.8299       Y5.7682    
   X0.8255       Y5.7749    
   X0.8352       Y5.7623    
   X0.8299       Y5.7682    
   X0.8412       Y5.7570    
   X0.8352       Y5.7623    
   X0.8478       Y5.7526    
   X0.8412       Y5.7570    
   X0.8549       Y5.7491    
   X0.8478       Y5.7526    
(Pass: 10)
   X0.8624       Y5.7465    
   Z0.0938     F60  
   X0.8549       Y5.7491     F80  
   X0.8702       Y5.7450    
   X0.8624       Y5.7465    
   X0.8802       Y5.7443    
   X0.8702    
   X1.2581    
   X0.8802    
   X1.2680    
   X1.2581    
   X1.2758       Y5.7465    
   X1.2680       Y5.7450    
   X1.2834       Y5.7491    
   X1.2758       Y5.7465    
   X1.2905       Y5.7526    
   X1.2834       Y5.7491    
   X1.2971       Y5.7570    
   X1.2905       Y5.7526    
   X1.3031       Y5.7623    
   X1.2971       Y5.7570    
   X1.3084       Y5.7682    
   X1.3031       Y5.7623    
   X1.3128       Y5.7749    
   X1.3084       Y5.7682    
   X1.3163       Y5.7820    
   X1.3128       Y5.7749    
   X1.3189       Y5.7895    
   X1.3163       Y5.7820    
   X1.3204       Y5.7973    
   X1.3189       Y5.7895    
   X1.3211       Y5.8073    
   Y5.7973    
   Y6.8752    
   Y5.8073    
   Y6.8852    
   Y6.8752    
   X1.3189       Y6.8930    
   X1.3204       Y6.8852    
   X1.3163       Y6.9005    
   X1.3189       Y6.8930    
   X1.3128       Y6.9077    
   X1.3163       Y6.9005    
   X1.3084       Y6.9143    
   X1.3128       Y6.9077    
   X1.3031       Y6.9203    
   X1.3084       Y6.9143    
   X1.2971       Y6.9255    
   X1.3031       Y6.9203    
   X1.2905       Y6.9299    
   X1.2971       Y6.9255    
   X1.2834       Y6.9334    
   X1.2905       Y6.9299    
   X1.2758       Y6.9360    
   X1.2834       Y6.9334    
   X1.2680       Y6.9376    
   X1.2758       Y6.9360    
   X1.2581       Y6.9382    
   X1.2680    
   X1.0185    
   X1.2581    
   X0.9905       Y6.9364    
   X1.0185       Y6.9382    
   X0.9650       Y6.9313    
   X0.9905       Y6.9364    
   X0.9403       Y6.9229    
   X0.9650       Y6.9313    
   X0.9169       Y6.9114    
   X0.9403       Y6.9229    
   X0.8953       Y6.8969    
   X0.9169       Y6.9114    
   X0.8757       Y6.8798    
   X0.8953       Y6.8969    
   X0.8585       Y6.8602    
   X0.8757       Y6.8798    
   X0.8440       Y6.8385    
   X0.8585       Y6.8602    
   X0.8325       Y6.8151    
   X0.8440       Y6.8385    
   X0.8241       Y6.7905    
   X0.8325       Y6.8151    
   X0.8191       Y6.7649    
   X0.8241       Y6.7905    
   X0.8172       Y6.7369    
   X0.8191       Y6.7649    
   X0.8172       Y5.8073    
   Y6.7369    
   Y5.7973    
   Y5.8073    
   X0.8194       Y5.7895    
   X0.8179       Y5.7973    
   X0.8220       Y5.7820    
   X0.8194       Y5.7895    
   X0.8255       Y5.7749    
   X0.8220       Y5.7820    
   X0.8299       Y5.7682    
   X0.8255       Y5.7749    
   X0.8352       Y5.7623    
   X0.8299       Y5.7682    
   X0.8412       Y5.7570    
   X0.8352       Y5.7623    
   X0.8478       Y5.7526    
   X0.8412       Y5.7570    
   X0.8549       Y5.7491    
   X0.8478       Y5.7526    
(Pass: 11)
   X0.8624       Y5.7465    
   Z0.0781     F60  
   X0.8549       Y5.7491     F80  
   X0.8702       Y5.7450    
   X0.8624       Y5.7465    
   X0.8802       Y5.7443    
   X0.8702    
   X1.2581    
   X0.8802    
   X1.2680    
   X1.2581    
   X1.2758       Y5.7465    
   X1.2680       Y5.7450    
   X1.2834       Y5.7491    
   X1.2758       Y5.7465    
   X1.2905       Y5.7526    
   X1.2834       Y5.7491    
   X1.2971       Y5.7570    
   X1.2905       Y5.7526    
   X1.3031       Y5.7623    
   X1.2971       Y5.7570    
   X1.3084       Y5.7682    
   X1.3031       Y5.7623    
   X1.3128       Y5.7749    
   X1.3084       Y5.7682    
   X1.3163       Y5.7820    
   X1.3128       Y5.7749    
   X1.3189       Y5.7895    
   X1.3163       Y5.7820    
   X1.3204       Y5.7973    
   X1.3189       Y5.7895    
   X1.3211       Y5.8073    
   Y5.7973    
   Y6.8752    
   Y5.8073    
   Y6.8852    
   Y6.8752    
   X1.3189       Y6.8930    
   X1.3204       Y6.8852    
   X1.3163       Y6.9005    
   X1.3189       Y6.8930    
   X1.3128       Y6.9077    
   X1.3163       Y6.9005    
   X1.3084       Y6.9143    
   X1.3128       Y6.9077    
   X1.3031       Y6.9203    
   X1.3084       Y6.9143    
   X1.2971       Y6.9255    
   X1.3031       Y6.9203    
   X1.2905       Y6.9299    
   X1.2971       Y6.9255    
   X1.2834       Y6.9334    
   X1.2905       Y6.9299    
   X1.2758       Y6.9360    
   X1.2834       Y6.9334    
   X1.2680       Y6.9376    
   X1.2758       Y6.9360    
   X1.2581       Y6.9382    
   X1.2680    
   X1.0185    
   X1.2581    
   X0.9905       Y6.9364    
   X1.0185       Y6.9382    
   X0.9650       Y6.9313    
   X0.9905       Y6.9364    
   X0.9403       Y6.9229    
   X0.9650       Y6.9313    
   X0.9169       Y6.9114    
   X0.9403       Y6.9229    
   X0.8953       Y6.8969    
   X0.9169       Y6.9114    
   X0.8757       Y6.8798    
   X0.8953       Y6.8969    
   X0.8585       Y6.8602    
   X0.8757       Y6.8798    
   X0.8440       Y6.8385    
   X0.8585       Y6.8602    
   X0.8325       Y6.8151    
   X0.8440       Y6.8385    
   X0.8241       Y6.7905    
   X0.8325       Y6.8151    
   X0.8191       Y6.7649    
   X0.8241       Y6.7905    
   X0.8172       Y6.7369    
   X0.8191       Y6.7649    
   X0.8172       Y5.8073    
   Y6.7369    
   Y5.7973    
   Y5.8073    
   X0.8194       Y5.7895    
   X0.8179       Y5.7973    
   X0.8220       Y5.7820    
   X0.8194       Y5.7895    
   X0.8255       Y5.7749    
   X0.8220       Y5.7820    
   X0.8299       Y5.7682    
   X0.8255       Y5.7749    
   X0.8352       Y5.7623    
   X0.8299       Y5.7682    
   X0.8412       Y5.7570    
   X0.8352       Y5.7623    
   X0.8478       Y5.7526    
   X0.8412       Y5.7570    
   X0.8549       Y5.7491    
   X0.8478       Y5.7526    
(Pass: 12)
   X0.8624       Y5.7465    
   Z0.0625     F60  
   X0.8549       Y5.7491     F80  
   X0.8702       Y5.7450    
   X0.8624       Y5.7465    
   X0.8802       Y5.7443    
   X0.8702    
   X1.2581    
   X0.8802    
   X1.2680    
   X1.2581    
   X1.2758       Y5.7465    
   X1.2680       Y5.7450    
   X1.2834       Y5.7491    
   X1.2758       Y5.7465    
   X1.2905       Y5.7526    
   X1.2834       Y5.7491    
   X1.2971       Y5.7570    
   X1.2905       Y5.7526    
   X1.3031       Y5.7623    
   X1.2971       Y5.7570    
   X1.3084       Y5.7682    
   X1.3031       Y5.7623    
   X1.3128       Y5.7749    
   X1.3084       Y5.7682    
   X1.3163       Y5.7820    
   X1.3128       Y5.7749    
   X1.3189       Y5.7895    
   X1.3163       Y5.7820    
   X1.3204       Y5.7973    
   X1.3189       Y5.7895    
   X1.3211       Y5.8073    
   Y5.7973    
   Y6.8752    
   Y5.8073    
   Y6.8852    
   Y6.8752    
   X1.3189       Y6.8930    
   X1.3204       Y6.8852    
   X1.3163       Y6.9005    
   X1.3189       Y6.8930    
   X1.3128       Y6.9077    
   X1.3163       Y6.9005    
   X1.3084       Y6.9143    
   X1.3128       Y6.9077    
   X1.3031       Y6.9203    
   X1.3084       Y6.9143    
   X1.2971       Y6.9255    
   X1.3031       Y6.9203    
   X1.2905       Y6.9299    
   X1.2971       Y6.9255    
   X1.2834       Y6.9334    
   X1.2905       Y6.9299    
   X1.2758       Y6.9360    
   X1.2834       Y6.9334    
   X1.2680       Y6.9376    
   X1.2758       Y6.9360    
   X1.2581       Y6.9382    
   X1.2680    
   X1.0185    
   X1.2581    
   X0.9905       Y6.9364    
   X1.0185       Y6.9382    
   X0.9650       Y6.9313    
   X0.9905       Y6.9364    
   X0.9403       Y6.9229    
   X0.9650       Y6.9313    
   X0.9169       Y6.9114    
   X0.9403       Y6.9229    
   X0.8953       Y6.8969    
   X0.9169       Y6.9114    
   X0.8757       Y6.8798    
   X0.8953       Y6.8969    
   X0.8585       Y6.8602    
   X0.8757       Y6.8798    
   X0.8440       Y6.8385    
   X0.8585       Y6.8602    
   X0.8325       Y6.8151    
   X0.8440       Y6.8385    
   X0.8241       Y6.7905    
   X0.8325       Y6.8151    
   X0.8191       Y6.7649    
   X0.8241       Y6.7905    
   X0.8172       Y6.7369    
   X0.8191       Y6.7649    
   X0.8172       Y5.8073    
   Y6.7369    
   Y5.7973    
   Y5.8073    
   X0.8194       Y5.7895    
   X0.8179       Y5.7973    
   X0.8220       Y5.7820    
   X0.8194       Y5.7895    
   X0.8255       Y5.7749    
   X0.8220       Y5.7820    
   X0.8299       Y5.7682    
   X0.8255       Y5.7749    
   X0.8352       Y5.7623    
   X0.8299       Y5.7682    
   X0.8412       Y5.7570    
   X0.8352       Y5.7623    
   X0.8478       Y5.7526    
   X0.8412       Y5.7570    
   X0.8549       Y5.7491    
   X0.8478       Y5.7526    
(Pass: 13)
   X0.8624       Y5.7465    
   Z0.0469     F60  
   X0.8549       Y5.7491     F80  
   X0.8702       Y5.7450    
   X0.8624       Y5.7465    
   X0.8802       Y5.7443    
   X0.8702    
   X1.2581    
   X0.8802    
   X1.2680    
   X1.2581    
   X1.2758       Y5.7465    
   X1.2680       Y5.7450    
   X1.2834       Y5.7491    
   X1.2758       Y5.7465    
   X1.2905       Y5.7526    
   X1.2834       Y5.7491    
   X1.2971       Y5.7570    
   X1.2905       Y5.7526    
   X1.3031       Y5.7623    
   X1.2971       Y5.7570    
   X1.3084       Y5.7682    
   X1.3031       Y5.7623    
   X1.3128       Y5.7749    
   X1.3084       Y5.7682    
   X1.3163       Y5.7820    
   X1.3128       Y5.7749    
   X1.3189       Y5.7895    
   X1.3163       Y5.7820    
   X1.3204       Y5.7973    
   X1.3189       Y5.7895    
   X1.3211       Y5.8073    
   Y5.7973    
   Y6.8752    
   Y5.8073    
   Y6.8852    
   Y6.8752    
   X1.3189       Y6.8930    
   X1.3204       Y6.8852    
   X1.3163       Y6.9005    
   X1.3189       Y6.8930    
   X1.3128       Y6.9077    
   X1.3163       Y6.9005    
   X1.3084       Y6.9143    
   X1.3128       Y6.9077    
   X1.3031       Y6.9203    
   X1.3084       Y6.9143    
   X1.2971       Y6.9255    
   X1.3031       Y6.9203    
   X1.2905       Y6.9299    
   X1.2971       Y6.9255    
   X1.2834       Y6.9334    
   X1.2905       Y6.9299    
   X1.2758       Y6.9360    
   X1.2834       Y6.9334    
   X1.2680       Y6.9376    
   X1.2758       Y6.9360    
   X1.2581       Y6.9382    
   X1.2680    
   X1.0185    
   X1.2581    
   X0.9905       Y6.9364    
   X1.0185       Y6.9382    
   X0.9650       Y6.9313    
   X0.9905       Y6.9364    
   X0.9403       Y6.9229    
   X0.9650       Y6.9313    
   X0.9169       Y6.9114    
   X0.9403       Y6.9229    
   X0.8953       Y6.8969    
   X0.9169       Y6.9114    
   X0.8757       Y6.8798    
   X0.8953       Y6.8969    
   X0.8585       Y6.8602    
   X0.8757       Y6.8798    
   X0.8440       Y6.8385    
   X0.8585       Y6.8602    
   X0.8325       Y6.8151    
   X0.8440       Y6.8385    
   X0.8241       Y6.7905    
   X0.8325       Y6.8151    
   X0.8191       Y6.7649    
   X0.8241       Y6.7905    
   X0.8172       Y6.7369    
   X0.8191       Y6.7649    
   X0.8172       Y5.8073    
   Y6.7369    
   Y5.7973    
   Y5.8073    
   X0.8194       Y5.7895    
   X0.8179       Y5.7973    
   X0.8220       Y5.7820    
   X0.8194       Y5.7895    
   X0.8255       Y5.7749    
   X0.8220       Y5.7820    
   X0.8299       Y5.7682    
   X0.8255       Y5.7749    
   X0.8352       Y5.7623    
   X0.8299       Y5.7682    
   X0.8412       Y5.7570    
   X0.8352       Y5.7623    
   X0.8478       Y5.7526    
   X0.8412       Y5.7570    
   X0.8549       Y5.7491    
   X0.8478       Y5.7526    
(Pass: 14)
   X0.8624       Y5.7465    
   Z0.0312     F60  
   X0.8549       Y5.7491     F80  
   X0.8702       Y5.7450    
   X0.8624       Y5.7465    
   X0.8802       Y5.7443    
   X0.8702    
   X1.2581    
   X0.8802    
   X1.2680    
   X1.2581    
   X1.2758       Y5.7465    
   X1.2680       Y5.7450    
   X1.2834       Y5.7491    
   X1.2758       Y5.7465    
   X1.2905       Y5.7526    
   X1.2834       Y5.7491    
   X1.2971       Y5.7570    
   X1.2905       Y5.7526    
   X1.3031       Y5.7623    
   X1.2971       Y5.7570    
   X1.3084       Y5.7682    
   X1.3031       Y5.7623    
   X1.3128       Y5.7749    
   X1.3084       Y5.7682    
   X1.3163       Y5.7820    
   X1.3128       Y5.7749    
   X1.3189       Y5.7895    
   X1.3163       Y5.7820    
   X1.3204       Y5.7973    
   X1.3189       Y5.7895    
   X1.3211       Y5.8073    
   Y5.7973    
   Y6.8752    
   Y5.8073    
   Y6.8852    
   Y6.8752    
   X1.3189       Y6.8930    
   X1.3204       Y6.8852    
   X1.3163       Y6.9005    
   X1.3189       Y6.8930    
   X1.3128       Y6.9077    
   X1.3163       Y6.9005    
   X1.3084       Y6.9143    
   X1.3128       Y6.9077    
   X1.3031       Y6.9203    
   X1.3084       Y6.9143    
   X1.2971       Y6.9255    
   X1.3031       Y6.9203    
   X1.2905       Y6.9299    
   X1.2971       Y6.9255    
   X1.2834       Y6.9334    
   X1.2905       Y6.9299    
   X1.2758       Y6.9360    
   X1.2834       Y6.9334    
   X1.2680       Y6.9376    
   X1.2758       Y6.9360    
   X1.2581       Y6.9382    
   X1.2680    
   X1.0185    
   X1.2581    
   X0.9905       Y6.9364    
   X1.0185       Y6.9382    
   X0.9650       Y6.9313    
   X0.9905       Y6.9364    
   X0.9403       Y6.9229    
   X0.9650       Y6.9313    
   X0.9169       Y6.9114    
   X0.9403       Y6.9229    
   X0.8953       Y6.8969    
   X0.9169       Y6.9114    
   X0.8757       Y6.8798    
   X0.8953       Y6.8969    
   X0.8585       Y6.8602    
   X0.8757       Y6.8798    
   X0.8440       Y6.8385    
   X0.8585       Y6.8602    
   X0.8325       Y6.8151    
   X0.8440       Y6.8385    
   X0.8241       Y6.7905    
   X0.8325       Y6.8151    
   X0.8191       Y6.7649    
   X0.8241       Y6.7905    
   X0.8172       Y6.7369    
   X0.8191       Y6.7649    
   X0.8172       Y5.8073    
   Y6.7369    
   Y5.7973    
   Y5.8073    
   X0.8194       Y5.7895    
   X0.8179       Y5.7973    
   X0.8220       Y5.7820    
   X0.8194       Y5.7895    
   X0.8255       Y5.7749    
   X0.8220       Y5.7820    
   X0.8299       Y5.7682    
   X0.8255       Y5.7749    
   X0.8352       Y5.7623    
   X0.8299       Y5.7682    
   X0.8412       Y5.7570    
   X0.8352       Y5.7623    
   X0.8478       Y5.7526    
   X0.8412       Y5.7570    
   X0.8549       Y5.7491    
   X0.8478       Y5.7526    
(Pass: 15)
   X0.8624       Y5.7465    
   Z0.0156     F60  
   X0.8549       Y5.7491     F80  
   X0.8702       Y5.7450    
   X0.8624       Y5.7465    
   X0.8802       Y5.7443    
   X0.8702    
   X1.2581    
   X0.8802    
   X1.2680    
   X1.2581    
   X1.2758       Y5.7465    
   X1.2680       Y5.7450    
   X1.2834       Y5.7491    
   X1.2758       Y5.7465    
   X1.2905       Y5.7526    
   X1.2834       Y5.7491    
   X1.2971       Y5.7570    
   X1.2905       Y5.7526    
   X1.3031       Y5.7623    
   X1.2971       Y5.7570    
   X1.3084       Y5.7682    
   X1.3031       Y5.7623    
   X1.3128       Y5.7749    
   X1.3084       Y5.7682    
   X1.3163       Y5.7820    
   X1.3128       Y5.7749    
   X1.3189       Y5.7895    
   X1.3163       Y5.7820    
   X1.3204       Y5.7973    
   X1.3189       Y5.7895    
   X1.3211       Y5.8073    
   Y5.7973    
   Y6.8752    
   Y5.8073    
   Y6.8852    
   Y6.8752    
   X1.3189       Y6.8930    
   X1.3204       Y6.8852    
   X1.3163       Y6.9005    
   X1.3189       Y6.8930    
   X1.3128       Y6.9077    
   X1.3163       Y6.9005    
   X1.3084       Y6.9143    
   X1.3128       Y6.9077    
   X1.3031       Y6.9203    
   X1.3084       Y6.9143    
   X1.2971       Y6.9255    
   X1.3031       Y6.9203    
   X1.2905       Y6.9299    
   X1.2971       Y6.9255    
   X1.2834       Y6.9334    
   X1.2905       Y6.9299    
   X1.2758       Y6.9360    
   X1.2834       Y6.9334    
   X1.2680       Y6.9376    
   X1.2758       Y6.9360    
   X1.2581       Y6.9382    
   X1.2680    
   X1.0185    
   X1.2581    
   X0.9905       Y6.9364    
   X1.0185       Y6.9382    
   X0.9650       Y6.9313    
   X0.9905       Y6.9364    
   X0.9403       Y6.9229    
   X0.9650       Y6.9313    
   X0.9169       Y6.9114    
   X0.9403       Y6.9229    
   X0.8953       Y6.8969    
   X0.9169       Y6.9114    
   X0.8757       Y6.8798    
   X0.8953       Y6.8969    
   X0.8585       Y6.8602    
   X0.8757       Y6.8798    
   X0.8440       Y6.8385    
   X0.8585       Y6.8602    
   X0.8325       Y6.8151    
   X0.8440       Y6.8385    
   X0.8241       Y6.7905    
   X0.8325       Y6.8151    
   X0.8191       Y6.7649    
   X0.8241       Y6.7905    
   X0.8172       Y6.7369    
   X0.8191       Y6.7649    
   X0.8172       Y5.8073    
   Y6.7369    
   Y5.7973    
   Y5.8073    
   X0.8194       Y5.7895    
   X0.8179       Y5.7973    
   X0.8220       Y5.7820    
   X0.8194       Y5.7895    
   X0.8255       Y5.7749    
   X0.8220       Y5.7820    
   X0.8299       Y5.7682    
   X0.8255       Y5.7749    
   X0.8352       Y5.7623    
   X0.8299       Y5.7682    
   X0.8412       Y5.7570    
   X0.8352       Y5.7623    
   X0.8478       Y5.7526    
   X0.8412       Y5.7570    
   X0.8549       Y5.7491    
   X0.8478       Y5.7526    
(Pass: 16)
   X0.8624       Y5.7465    
   Z0.0000     F60  
   X0.8549       Y5.7491     F80  
   X0.8702       Y5.7450    
   X0.8624       Y5.7465    
   X0.8802       Y5.7443    
   X0.8702    
   X1.2581    
   X0.8802    
   X1.2680    
   X1.2581    
   X1.2758       Y5.7465    
   X1.2680       Y5.7450    
   X1.2834       Y5.7491    
   X1.2758       Y5.7465    
   X1.2905       Y5.7526    
   X1.2834       Y5.7491    
   X1.2971       Y5.7570    
   X1.2905       Y5.7526    
   X1.3031       Y5.7623    
   X1.2971       Y5.7570    
   X1.3084       Y5.7682    
   X1.3031       Y5.7623    
   X1.3128       Y5.7749    
   X1.3084       Y5.7682    
   X1.3163       Y5.7820    
   X1.3128       Y5.7749    
   X1.3189       Y5.7895    
   X1.3163       Y5.7820    
   X1.3204       Y5.7973    
   X1.3189       Y5.7895    
   X1.3211       Y5.8073    
   Y5.7973    
   Y6.8752    
   Y5.8073    
   Y6.8852    
   Y6.8752    
   X1.3189       Y6.8930    
   X1.3204       Y6.8852    
   X1.3163       Y6.9005    
   X1.3189       Y6.8930    
   X1.3128       Y6.9077    
   X1.3163       Y6.9005    
   X1.3084       Y6.9143    
   X1.3128       Y6.9077    
   X1.3031       Y6.9203    
   X1.3084       Y6.9143    
   X1.2971       Y6.9255    
   X1.3031       Y6.9203    
   X1.2905       Y6.9299    
   X1.2971       Y6.9255    
   X1.2834       Y6.9334    
   X1.2905       Y6.9299    
   X1.2758       Y6.9360    
   X1.2834       Y6.9334    
   X1.2680       Y6.9376    
   X1.2758       Y6.9360    
   X1.2581       Y6.9382    
   X1.2680    
   X1.0185    
   X1.2581    
   X0.9905       Y6.9364    
   X1.0185       Y6.9382    
   X0.9650       Y6.9313    
   X0.9905       Y6.9364    
   X0.9403       Y6.9229    
   X0.9650       Y6.9313    
   X0.9169       Y6.9114    
   X0.9403       Y6.9229    
   X0.8953       Y6.8969    
   X0.9169       Y6.9114    
   X0.8757       Y6.8798    
   X0.8953       Y6.8969    
   X0.8585       Y6.8602    
   X0.8757       Y6.8798    
   X0.8440       Y6.8385    
   X0.8585       Y6.8602    
   X0.8325       Y6.8151    
   X0.8440       Y6.8385    
   X0.8241       Y6.7905    
   X0.8325       Y6.8151    
   X0.8191       Y6.7649    
   X0.8241       Y6.7905    
   X0.8172       Y6.7369    
   X0.8191       Y6.7649    
   X0.8172       Y5.8073    
   Y6.7369    
   Y5.7973    
   Y5.8073    
   X0.8194       Y5.7895    
   X0.8179       Y5.7973    
   X0.8220       Y5.7820    
   X0.8194       Y5.7895    
   X0.8255       Y5.7749    
   X0.8220       Y5.7820    
   X0.8299       Y5.7682    
   X0.8255       Y5.7749    
   X0.8352       Y5.7623    
   X0.8299       Y5.7682    
   X0.8412       Y5.7570    
   X0.8352       Y5.7623    
   X0.8478       Y5.7526    
   X0.8412       Y5.7570    
   X0.8549       Y5.7491    
   X0.8478       Y5.7526    
G0   Z0.3750    
(Pass: 1)
   X1.8237       Y5.9347    
G1   Z0.2344     F60  
   X1.8249       Y5.9439     F80  
   Y5.9256    
   X1.8237       Y5.9347    
   X1.8285       Y5.9170    
   X1.8249       Y5.9256    
   X1.8341       Y5.9097    
   X1.8285       Y5.9170    
   X1.8414       Y5.9041    
   X1.8341       Y5.9097    
   X1.8499       Y5.9006    
   X1.8414       Y5.9041    
   X1.8591       Y5.8993    
   X1.8499       Y5.9006    
   X1.8683    
   X1.8591       Y5.8993    
   X1.8768       Y5.9041    
   X1.8683       Y5.9006    
   X1.8841       Y5.9097    
   X1.8768       Y5.9041    
   X1.8897       Y5.9170    
   X1.8841       Y5.9097    
   X1.8933       Y5.9256    
   X1.8897       Y5.9170    
   X1.8945       Y5.9347    
   X1.8933       Y5.9256    
   Y5.9439    
   X1.8945       Y5.9347    
   X1.8897       Y5.9524    
   X1.8933       Y5.9439    
   X1.8841       Y5.9598    
   X1.8897       Y5.9524    
   X1.8768       Y5.9654    
   X1.8841       Y5.9598    
   X1.8683       Y5.9689    
   X1.8768       Y5.9654    
   X1.8591       Y5.9701    
   X1.8683       Y5.9689    
   X1.8499    
   X1.8591       Y5.9701    
   X1.8414       Y5.9654    
   X1.8499       Y5.9689    
   X1.8341       Y5.9598    
   X1.8414       Y5.9654    
   X1.8285       Y5.9524    
   X1.8341       Y5.9598    
   X1.8249       Y5.9439    
   X1.8285       Y5.9524    
(Pass: 2)
   X1.8237       Y5.9347    
   Z0.2188     F60  
   X1.8249       Y5.9439     F80  
   Y5.9256    
   X1.8237       Y5.9347    
   X1.8285       Y5.9170    
   X1.8249       Y5.9256    
   X1.8341       Y5.9097    
   X1.8285       Y5.9170    
   X1.8414       Y5.9041    
   X1.8341       Y5.9097    
   X1.8499       Y5.9006    
   X1.8414       Y5.9041    
   X1.8591       Y5.8993    
   X1.8499       Y5.9006    
   X1.8683    
   X1.8591       Y5.8993    
   X1.8768       Y5.9041    
   X1.8683       Y5.9006    
   X1.8841       Y5.9097    
   X1.8768       Y5.9041    
   X1.8897       Y5.9170    
   X1.8841       Y5.9097    
   X1.8933       Y5.9256    
   X1.8897       Y5.9170    
   X1.8945       Y5.9347    
   X1.8933       Y5.9256    
   Y5.9439    
   X1.8945       Y5.9347    
   X1.8897       Y5.9524    
   X1.8933       Y5.9439    
   X1.8841       Y5.9598    
   X1.8897       Y5.9524    
   X1.8768       Y5.9654    
   X1.8841       Y5.9598    
   X1.8683       Y5.9689    
   X1.8768       Y5.9654    
   X1.8591       Y5.9701    
   X1.8683       Y5.9689    
   X1.8499    
   X1.8591       Y5.9701    
   X1.8414       Y5.9654    
   X1.8499       Y5.9689    
   X1.8341       Y5.9598    
   X1.8414       Y5.9654    
   X1.8285       Y5.9524    
   X1.8341       Y5.9598    
   X1.8249       Y5.9439    
   X1.8285       Y5.9524    
(Pass: 3)
   X1.8237       Y5.9347    
   Z0.2031     F60  
