%
(Generated by SketchUcam {1.2a})
(File: Plate_printouts.skp)
(Bit diameter: 1/8")
(Feed rate: 50"/min)
(Material Thickness: 1/8")
(Material length: 6" X width: 12")
(Overhead Gantry: true)
(Retract feed rate NOT limited to plunge feed rate)
(Multipass enabled, Depth = 1/32")
(Optimization is ON)
(www.PhlatBoyz.com)
(Z plat)
G90 G20 G49 
M3 S15000
G0   Z0.1250    
(Pass: 1)
   X1.8200       Y2.1697    
G1   Z-0.0312    F50  
   X1.8109       Y2.1767    
   X1.8039       Y2.1858    
   X1.7995       Y2.1964    
   X1.7980       Y2.2077    
   X1.7995       Y2.2191    
   X1.8039       Y2.2297    
   X1.8109       Y2.2388    
   X1.8200       Y2.2457    
   X1.8305       Y2.2501    
   X1.8419       Y2.2516    
   X1.8532       Y2.2501    
   X1.8638       Y2.2457    
   X1.8729       Y2.2388    
   X1.8799       Y2.2297    
   X1.8843       Y2.2191    
   X1.8858       Y2.2077    
   X1.8843       Y2.1964    
   X1.8799       Y2.1858    
   X1.8729       Y2.1767    
   X1.8638       Y2.1697    
   X1.8532       Y2.1654    
   X1.8419       Y2.1639    
   X1.8305       Y2.1654    
   X1.8200       Y2.1697    
(Pass: 2)
   Z-0.0625   
   X1.8109       Y2.1767    
   X1.8039       Y2.1858    
   X1.7995       Y2.1964    
   X1.7980       Y2.2077    
   X1.7995       Y2.2191    
   X1.8039       Y2.2297    
   X1.8109       Y2.2388    
   X1.8200       Y2.2457    
   X1.8305       Y2.2501    
   X1.8419       Y2.2516    
   X1.8532       Y2.2501    
   X1.8638       Y2.2457    
   X1.8729       Y2.2388    
   X1.8799       Y2.2297    
   X1.8843       Y2.2191    
   X1.8858       Y2.2077    
   X1.8843       Y2.1964    
   X1.8799       Y2.1858    
   X1.8729       Y2.1767    
   X1.8638       Y2.1697    
   X1.8532       Y2.1654    
   X1.8419       Y2.1639    
   X1.8305       Y2.1654    
   X1.8200       Y2.1697    
(Pass: 3)
   Z-0.0938   
   X1.8109       Y2.1767    
   X1.8039       Y2.1858    
   X1.7995       Y2.1964    
   X1.7980       Y2.2077    
   X1.7995       Y2.2191    
   X1.8039       Y2.2297    
   X1.8109       Y2.2388    
   X1.8200       Y2.2457    
   X1.8305       Y2.2501    
   X1.8419       Y2.2516    
   X1.8532       Y2.2501    
   X1.8638       Y2.2457    
   X1.8729       Y2.2388    
   X1.8799       Y2.2297    
   X1.8843       Y2.2191    
   X1.8858       Y2.2077    
   X1.8843       Y2.1964    
   X1.8799       Y2.1858    
   X1.8729       Y2.1767    
   X1.8638       Y2.1697    
   X1.8532       Y2.1654    
   X1.8419       Y2.1639    
   X1.8305       Y2.1654    
   X1.8200       Y2.1697    
(Pass: 4)
   Z-0.1250   
   X1.8109       Y2.1767    
   X1.8039       Y2.1858    
   X1.7995       Y2.1964    
   X1.7980       Y2.2077    
   X1.7995       Y2.2191    
   X1.8039       Y2.2297    
   X1.8109       Y2.2388    
   X1.8200       Y2.2457    
   X1.8305       Y2.2501    
   X1.8419       Y2.2516    
   X1.8532       Y2.2501    
   X1.8638       Y2.2457    
   X1.8729       Y2.2388    
   X1.8799       Y2.2297    
   X1.8843       Y2.2191    
   X1.8858       Y2.2077    
   X1.8843       Y2.1964    
   X1.8799       Y2.1858    
   X1.8729       Y2.1767    
   X1.8638       Y2.1697    
   X1.8532       Y2.1654    
   X1.8419       Y2.1639    
   X1.8305       Y2.1654    
   X1.8200       Y2.1697    
(Pass: 5)
   Z-0.1562   
   X1.8109       Y2.1767    
   X1.8039       Y2.1858    
   X1.7995       Y2.1964    
   X1.7980       Y2.2077    
   X1.7995       Y2.2191    
   X1.8039       Y2.2297    
   X1.8109       Y2.2388    
   X1.8200       Y2.2457    
   X1.8305       Y2.2501    
   X1.8419       Y2.2516    
   X1.8532       Y2.2501    
   X1.8638       Y2.2457    
   X1.8729       Y2.2388    
   X1.8799       Y2.2297    
   X1.8843       Y2.2191    
   X1.8858       Y2.2077    
   X1.8843       Y2.1964    
   X1.8799       Y2.1858    
   X1.8729       Y2.1767    
   X1.8638       Y2.1697    
   X1.8532       Y2.1654    
   X1.8419       Y2.1639    
   X1.8305       Y2.1654    
   X1.8200       Y2.1697    
(Pass: 6)
   Z-0.1750   
   X1.8109       Y2.1767    
   X1.8039       Y2.1858    
   X1.7995       Y2.1964    
   X1.7980       Y2.2077    
   X1.7995       Y2.2191    
   X1.8039       Y2.2297    
   X1.8109       Y2.2388    
   X1.8200       Y2.2457    
   X1.8305       Y2.2501    
   X1.8419       Y2.2516    
   X1.8532       Y2.2501    
   X1.8638       Y2.2457    
   X1.8729       Y2.2388    
   X1.8799       Y2.2297    
   X1.8843       Y2.2191    
   X1.8858       Y2.2077    
   X1.8843       Y2.1964    
   X1.8799       Y2.1858    
   X1.8729       Y2.1767    
   X1.8638       Y2.1697    
   X1.8532       Y2.1654    
   X1.8419       Y2.1639    
   X1.8305       Y2.1654    
   X1.8200       Y2.1697    
(BREAK pass 6)
G0   Z0.1250    
(Pass: 1)
   X2.2289       Y1.9908    
G1   Z-0.0312    F50  
   X2.2326       Y1.9997    
   X2.2385       Y2.0074    
   X2.2461       Y2.0133    
   X2.2551       Y2.0170    
   X2.2687       Y2.0188    
   X2.6149    
   X2.6285       Y2.0170    
   X2.6374       Y2.0133    
   X2.6451       Y2.0074    
   X2.6510       Y1.9997    
   X2.6547       Y1.9908    
   X2.6559       Y1.9813    
   X2.6547       Y1.9717    
   X2.6510       Y1.9628    
   X2.6451       Y1.9551    
   X2.6374       Y1.9493    
   X2.6285       Y1.9456    
   X2.6149       Y1.9438    
   X2.2687    
   X2.2551       Y1.9456    
   X2.2461       Y1.9493    
   X2.2385       Y1.9551    
   X2.2326       Y1.9628    
   X2.2289       Y1.9717    
   X2.2277       Y1.9813    
   X2.2289       Y1.9908    
(Pass: 2)
   Z-0.0625   
   X2.2326       Y1.9997    
   X2.2385       Y2.0074    
   X2.2461       Y2.0133    
   X2.2551       Y2.0170    
   X2.2687       Y2.0188    
   X2.6149    
   X2.6285       Y2.0170    
   X2.6374       Y2.0133    
   X2.6451       Y2.0074    
   X2.6510       Y1.9997    
   X2.6547       Y1.9908    
   X2.6559       Y1.9813    
   X2.6547       Y1.9717    
   X2.6510       Y1.9628    
   X2.6451       Y1.9551    
   X2.6374       Y1.9493    
   X2.6285       Y1.9456    
   X2.6149       Y1.9438    
   X2.2687    
   X2.2551       Y1.9456    
   X2.2461       Y1.9493    
   X2.2385       Y1.9551    
   X2.2326       Y1.9628    
   X2.2289       Y1.9717    
   X2.2277       Y1.9813    
   X2.2289       Y1.9908    
(Pass: 3)
   Z-0.0938   
   X2.2326       Y1.9997    
   X2.2385       Y2.0074    
   X2.2461       Y2.0133    
   X2.2551       Y2.0170    
   X2.2687       Y2.0188    
   X2.6149    
   X2.6285       Y2.0170    
   X2.6374       Y2.0133    
   X2.6451       Y2.0074    
   X2.6510       Y1.9997    
   X2.6547       Y1.9908    
   X2.6559       Y1.9813    
   X2.6547       Y1.9717    
   X2.6510       Y1.9628    
   X2.6451       Y1.9551    
   X2.6374       Y1.9493    
   X2.6285       Y1.9456    
   X2.6149       Y1.9438    
   X2.2687    
   X2.2551       Y1.9456    
   X2.2461       Y1.9493    
   X2.2385       Y1.9551    
   X2.2326       Y1.9628    
   X2.2289       Y1.9717    
   X2.2277       Y1.9813    
   X2.2289       Y1.9908    
(Pass: 4)
   Z-0.1250   
   X2.2326       Y1.9997    
   X2.2385       Y2.0074    
   X2.2461       Y2.0133    
   X2.2551       Y2.0170    
   X2.2687       Y2.0188    
   X2.6149    
   X2.6285       Y2.0170    
   X2.6374       Y2.0133    
   X2.6451       Y2.0074    
   X2.6510       Y1.9997    
   X2.6547       Y1.9908    
   X2.6559       Y1.9813    
   X2.6547       Y1.9717    
   X2.6510       Y1.9628    
   X2.6451       Y1.9551    
   X2.6374       Y1.9493    
   X2.6285       Y1.9456    
   X2.6149       Y1.9438    
   X2.2687    
   X2.2551       Y1.9456    
   X2.2461       Y1.9493    
   X2.2385       Y1.9551    
   X2.2326       Y1.9628    
   X2.2289       Y1.9717    
   X2.2277       Y1.9813    
   X2.2289       Y1.9908    
(Pass: 5)
   Z-0.1562   
   X2.2326       Y1.9997    
   X2.2385       Y2.0074    
   X2.2461       Y2.0133    
   X2.2551       Y2.0170    
   X2.2687       Y2.0188    
   X2.6149    
   X2.6285       Y2.0170    
   X2.6374       Y2.0133    
   X2.6451       Y2.0074    
   X2.6510       Y1.9997    
   X2.6547       Y1.9908    
   X2.6559       Y1.9813    
   X2.6547       Y1.9717    
   X2.6510       Y1.9628    
   X2.6451       Y1.9551    
   X2.6374       Y1.9493    
   X2.6285       Y1.9456    
   X2.6149       Y1.9438    
   X2.2687    
   X2.2551       Y1.9456    
   X2.2461       Y1.9493    
   X2.2385       Y1.9551    
   X2.2326       Y1.9628    
   X2.2289       Y1.9717    
   X2.2277       Y1.9813    
   X2.2289       Y1.9908    
(Pass: 6)
   Z-0.1750   
   X2.2326       Y1.9997    
   X2.2385       Y2.0074    
   X2.2461       Y2.0133    
   X2.2551       Y2.0170    
   X2.2687       Y2.0188    
   X2.6149    
   X2.6285       Y2.0170    
   X2.6374       Y2.0133    
   X2.6451       Y2.0074    
   X2.6510       Y1.9997    
   X2.6547       Y1.9908    
   X2.6559       Y1.9813    
   X2.6547       Y1.9717    
   X2.6510       Y1.9628    
   X2.6451       Y1.9551    
   X2.6374       Y1.9493    
   X2.6285       Y1.9456    
   X2.6149       Y1.9438    
   X2.2687    
   X2.2551       Y1.9456    
   X2.2461       Y1.9493    
   X2.2385       Y1.9551    
   X2.2326       Y1.9628    
   X2.2289       Y1.9717    
   X2.2277       Y1.9813    
   X2.2289       Y1.9908    
(BREAK pass 6)
G0   Z0.1250    
(Pass: 1)
   X3.0022       Y1.5920    
G1   Z-0.0312    F50  
   X3.0066       Y1.6026    
   X3.0135       Y1.6117    
   X3.0226       Y1.6187    
   X3.0332       Y1.6230    
   X3.0446       Y1.6245    
   X3.0559       Y1.6230    
   X3.0665       Y1.6187    
   X3.0756       Y1.6117    
   X3.0826       Y1.6026    
   X3.0869       Y1.5920    
   X3.0884       Y1.5807    
   X3.0869       Y1.5693    
   X3.0826       Y1.5587    
   X3.0756       Y1.5496    
   X3.0665       Y1.5427    
   X3.0559       Y1.5383    
   X3.0446       Y1.5368    
   X3.0332       Y1.5383    
   X3.0226       Y1.5427    
   X3.0135       Y1.5496    
   X3.0066       Y1.5587    
   X3.0022       Y1.5693    
   X3.0007       Y1.5807    
   X3.0022       Y1.5920    
(Pass: 2)
   Z-0.0625   
   X3.0066       Y1.6026    
   X3.0135       Y1.6117    
   X3.0226       Y1.6187    
   X3.0332       Y1.6230    
   X3.0446       Y1.6245    
   X3.0559       Y1.6230    
   X3.0665       Y1.6187    
   X3.0756       Y1.6117    
   X3.0826       Y1.6026    
   X3.0869       Y1.5920    
   X3.0884       Y1.5807    
   X3.0869       Y1.5693    
   X3.0826       Y1.5587    
   X3.0756       Y1.5496    
   X3.0665       Y1.5427    
   X3.0559       Y1.5383    
   X3.0446       Y1.5368    
   X3.0332       Y1.5383    
   X3.0226       Y1.5427    
   X3.0135       Y1.5496    
   X3.0066       Y1.5587    
   X3.0022       Y1.5693    
   X3.0007       Y1.5807    
   X3.0022       Y1.5920    
(Pass: 3)
   Z-0.0938   
   X3.0066       Y1.6026    
   X3.0135       Y1.6117    
   X3.0226       Y1.6187    
   X3.0332       Y1.6230    
   X3.0446       Y1.6245    
   X3.0559       Y1.6230    
   X3.0665       Y1.6187    
   X3.0756       Y1.6117    
   X3.0826       Y1.6026    
   X3.0869       Y1.5920    
   X3.0884       Y1.5807    
   X3.0869       Y1.5693    
   X3.0826       Y1.5587    
   X3.0756       Y1.5496    
   X3.0665       Y1.5427    
   X3.0559       Y1.5383    
   X3.0446       Y1.5368    
   X3.0332       Y1.5383    
   X3.0226       Y1.5427    
   X3.0135       Y1.5496    
   X3.0066       Y1.5587    
   X3.0022       Y1.5693    
   X3.0007       Y1.5807    
   X3.0022       Y1.5920    
(Pass: 4)
   Z-0.1250   
   X3.0066       Y1.6026    
   X3.0135       Y1.6117    
   X3.0226       Y1.6187    
   X3.0332       Y1.6230    
   X3.0446       Y1.6245    
   X3.0559       Y1.6230    
   X3.0665       Y1.6187    
   X3.0756       Y1.6117    
   X3.0826       Y1.6026    
   X3.0869       Y1.5920    
   X3.0884       Y1.5807    
   X3.0869       Y1.5693    
   X3.0826       Y1.5587    
   X3.0756       Y1.5496    
   X3.0665       Y1.5427    
   X3.0559       Y1.5383    
   X3.0446       Y1.5368    
   X3.0332       Y1.5383    
   X3.0226       Y1.5427    
   X3.0135       Y1.5496    
   X3.0066       Y1.5587    
   X3.0022       Y1.5693    
   X3.0007       Y1.5807    
   X3.0022       Y1.5920    
(Pass: 5)
   Z-0.1562   
   X3.0066       Y1.6026    
   X3.0135       Y1.6117    
   X3.0226       Y1.6187    
   X3.0332       Y1.6230    
   X3.0446       Y1.6245    
   X3.0559       Y1.6230    
   X3.0665       Y1.6187    
   X3.0756       Y1.6117    
   X3.0826       Y1.6026    
   X3.0869       Y1.5920    
   X3.0884       Y1.5807    
   X3.0869       Y1.5693    
   X3.0826       Y1.5587    
   X3.0756       Y1.5496    
   X3.0665       Y1.5427    
   X3.0559       Y1.5383    
   X3.0446       Y1.5368    
   X3.0332       Y1.5383    
   X3.0226       Y1.5427    
   X3.0135       Y1.5496    
   X3.0066       Y1.5587    
   X3.0022       Y1.5693    
   X3.0007       Y1.5807    
   X3.0022       Y1.5920    
(Pass: 6)
   Z-0.1750   
   X3.0066       Y1.6026    
   X3.0135       Y1.6117    
   X3.0226       Y1.6187    
   X3.0332       Y1.6230    
   X3.0446       Y1.6245    
   X3.0559       Y1.6230    
   X3.0665       Y1.6187    
   X3.0756       Y1.6117    
   X3.0826       Y1.6026    
   X3.0869       Y1.5920    
   X3.0884       Y1.5807    
   X3.0869       Y1.5693    
   X3.0826       Y1.5587    
   X3.0756       Y1.5496    
   X3.0665       Y1.5427    
   X3.0559       Y1.5383    
   X3.0446       Y1.5368    
   X3.0332       Y1.5383    
   X3.0226       Y1.5427    
   X3.0135       Y1.5496    
   X3.0066       Y1.5587    
   X3.0022       Y1.5693    
   X3.0007       Y1.5807    
   X3.0022       Y1.5920    
(BREAK pass 6)
G0   Z0.1250    
(Pass: 1)
   X3.1793       Y2.4820    
G1   Z-0.0312    F50  
   X3.0642       Y2.4972    
   X2.9607       Y2.5401    
   X2.8718       Y2.6082    
   X2.8036       Y2.6971    
   X2.7608       Y2.8006    
   X2.7462       Y2.9117    
   X2.7608       Y3.0227    
   X2.8036       Y3.1262    
   X2.8718       Y3.2151    
   X2.9607       Y3.2833    
   X3.0642       Y3.3261    
   X3.1793       Y3.3413    
   X3.5648    
   X3.6800       Y3.3261    
   X3.7835       Y3.2833    
   X3.8724       Y3.2151    
   X3.9405       Y3.1262    
   X3.9834       Y3.0227    
   X3.9980       Y2.9117    
   X3.9834       Y2.8006    
   X3.9405       Y2.6971    
   X3.8724       Y2.6082    
   X3.7835       Y2.5401    
   X3.6800       Y2.4972    
   X3.5648       Y2.4820    
   X3.1793    
(Pass: 2)
   Z-0.0625   
   X3.0642       Y2.4972    
   X2.9607       Y2.5401    
   X2.8718       Y2.6082    
   X2.8036       Y2.6971    
   X2.7608       Y2.8006    
   X2.7462       Y2.9117    
   X2.7608       Y3.0227    
   X2.8036       Y3.1262    
   X2.8718       Y3.2151    
   X2.9607       Y3.2833    
   X3.0642       Y3.3261    
   X3.1793       Y3.3413    
   X3.5648    
   X3.6800       Y3.3261    
   X3.7835       Y3.2833    
   X3.8724       Y3.2151    
   X3.9405       Y3.1262    
   X3.9834       Y3.0227    
   X3.9980       Y2.9117    
   X3.9834       Y2.8006    
   X3.9405       Y2.6971    
   X3.8724       Y2.6082    
   X3.7835       Y2.5401    
   X3.6800       Y2.4972    
   X3.5648       Y2.4820    
   X3.1793    
(Pass: 3)
   Z-0.0938   
   X3.0642       Y2.4972    
   X2.9607       Y2.5401    
   X2.8718       Y2.6082    
   X2.8036       Y2.6971    
   X2.7608       Y2.8006    
   X2.7462       Y2.9117    
   X2.7608       Y3.0227    
   X2.8036       Y3.1262    
   X2.8718       Y3.2151    
   X2.9607       Y3.2833    
   X3.0642       Y3.3261    
   X3.1793       Y3.3413    
   X3.5648    
   X3.6800       Y3.3261    
   X3.7835       Y3.2833    
   X3.8724       Y3.2151    
   X3.9405       Y3.1262    
   X3.9834       Y3.0227    
   X3.9980       Y2.9117    
   X3.9834       Y2.8006    
   X3.9405       Y2.6971    
   X3.8724       Y2.6082    
   X3.7835       Y2.5401    
   X3.6800       Y2.4972    
   X3.5648       Y2.4820    
   X3.1793    
(Pass: 4)
   Z-0.1250   
   X3.0642       Y2.4972    
   X2.9607       Y2.5401    
   X2.8718       Y2.6082    
   X2.8036       Y2.6971    
   X2.7608       Y2.8006    
   X2.7462       Y2.9117    
   X2.7608       Y3.0227    
   X2.8036       Y3.1262    
   X2.8718       Y3.2151    
   X2.9607       Y3.2833    
   X3.0642       Y3.3261    
   X3.1793       Y3.3413    
   X3.5648    
   X3.6800       Y3.3261    
   X3.7835       Y3.2833    
   X3.8724       Y3.2151    
   X3.9405       Y3.1262    
   X3.9834       Y3.0227    
   X3.9980       Y2.9117    
   X3.9834       Y2.8006    
   X3.9405       Y2.6971    
   X3.8724       Y2.6082    
   X3.7835       Y2.5401    
   X3.6800       Y2.4972    
   X3.5648       Y2.4820    
   X3.1793    
(Pass: 5)
   Z-0.1562   
   X3.0642       Y2.4972    
   X2.9607       Y2.5401    
   X2.8718       Y2.6082    
   X2.8036       Y2.6971    
   X2.7608       Y2.8006    
   X2.7462       Y2.9117    
   X2.7608       Y3.0227    
   X2.8036       Y3.1262    
   X2.8718       Y3.2151    
   X2.9607       Y3.2833    
   X3.0642       Y3.3261    
   X3.1793       Y3.3413    
   X3.5648    
   X3.6800       Y3.3261    
   X3.7835       Y3.2833    
   X3.8724       Y3.2151    
   X3.9405       Y3.1262    
   X3.9834       Y3.0227    
   X3.9980       Y2.9117    
   X3.9834       Y2.8006    
   X3.9405       Y2.6971    
   X3.8724       Y2.6082    
   X3.7835       Y2.5401    
   X3.6800       Y2.4972    
   X3.5648       Y2.4820    
   X3.1793    
(Pass: 6)
   Z-0.1750   
   X3.0642       Y2.4972    
   X2.9607       Y2.5401    
   X2.8718       Y2.6082    
   X2.8036       Y2.6971    
   X2.7608       Y2.8006    
   X2.7462       Y2.9117    
   X2.7608       Y3.0227    
   X2.8036       Y3.1262    
   X2.8718       Y3.2151    
   X2.9607       Y3.2833    
   X3.0642       Y3.3261    
   X3.1793       Y3.3413    
   X3.5648    
   X3.6800       Y3.3261    
   X3.7835       Y3.2833    
   X3.8724       Y3.2151    
   X3.9405       Y3.1262    
   X3.9834       Y3.0227    
   X3.9980       Y2.9117    
   X3.9834       Y2.8006    
   X3.9405       Y2.6971    
   X3.8724       Y2.6082    
   X3.7835       Y2.5401    
   X3.6800       Y2.4972    
   X3.5648       Y2.4820    
   X3.1793    
(BREAK pass 6)
G0   Z0.1250    
(Pass: 1)
   X2.6374       Y3.8093    
G1   Z-0.0312    F50  
   X2.6285       Y3.8056    
   X2.6149       Y3.8038    
   X2.2687    
   X2.2551       Y3.8056    
   X2.2461       Y3.8093    
   X2.2385       Y3.8151    
   X2.2326       Y3.8228    
   X2.2289       Y3.8317    
   X2.2277       Y3.8413    
   X2.2289       Y3.8508    
   X2.2326       Y3.8597    
   X2.2385       Y3.8674    
   X2.2461       Y3.8733    
   X2.2551       Y3.8770    
   X2.2687       Y3.8788    
   X2.6149    
   X2.6285       Y3.8770    
   X2.6374       Y3.8733    
   X2.6451       Y3.8674    
   X2.6510       Y3.8597    
   X2.6547       Y3.8508    
   X2.6559       Y3.8413    
   X2.6547       Y3.8317    
   X2.6510       Y3.8228    
   X2.6451       Y3.8151    
   X2.6374       Y3.8093    
(Pass: 2)
   Z-0.0625   
   X2.6285       Y3.8056    
   X2.6149       Y3.8038    
   X2.2687    
   X2.2551       Y3.8056    
   X2.2461       Y3.8093    
   X2.2385       Y3.8151    
   X2.2326       Y3.8228    
   X2.2289       Y3.8317    
   X2.2277       Y3.8413    
   X2.2289       Y3.8508    
   X2.2326       Y3.8597    
   X2.2385       Y3.8674    
   X2.2461       Y3.8733    
   X2.2551       Y3.8770    
   X2.2687       Y3.8788    
   X2.6149    
   X2.6285       Y3.8770    
   X2.6374       Y3.8733    
   X2.6451       Y3.8674    
   X2.6510       Y3.8597    
   X2.6547       Y3.8508    
   X2.6559       Y3.8413    
   X2.6547       Y3.8317    
   X2.6510       Y3.8228    
   X2.6451       Y3.8151    
   X2.6374       Y3.8093    
(Pass: 3)
   Z-0.0938   
   X2.6285       Y3.8056    
   X2.6149       Y3.8038    
   X2.2687    
   X2.2551       Y3.8056    
   X2.2461       Y3.8093    
   X2.2385       Y3.8151    
   X2.2326       Y3.8228    
   X2.2289       Y3.8317    
   X2.2277       Y3.8413    
   X2.2289       Y3.8508    
   X2.2326       Y3.8597    
   X2.2385       Y3.8674    
   X2.2461       Y3.8733    
   X2.2551       Y3.8770    
   X2.2687       Y3.8788    
   X2.6149    
   X2.6285       Y3.8770    
   X2.6374       Y3.8733    
   X2.6451       Y3.8674    
   X2.6510       Y3.8597    
   X2.6547       Y3.8508    
   X2.6559       Y3.8413    
   X2.6547       Y3.8317    
   X2.6510       Y3.8228    
   X2.6451       Y3.8151    
   X2.6374       Y3.8093    
(Pass: 4)
   Z-0.1250   
   X2.6285       Y3.8056    
   X2.6149       Y3.8038    
   X2.2687    
   X2.2551       Y3.8056    
   X2.2461       Y3.8093    
   X2.2385       Y3.8151    
   X2.2326       Y3.8228    
   X2.2289       Y3.8317    
   X2.2277       Y3.8413    
   X2.2289       Y3.8508    
   X2.2326       Y3.8597    
   X2.2385       Y3.8674    
   X2.2461       Y3.8733    
   X2.2551       Y3.8770    
   X2.2687       Y3.8788    
   X2.6149    
   X2.6285       Y3.8770    
   X2.6374       Y3.8733    
   X2.6451       Y3.8674    
   X2.6510       Y3.8597    
   X2.6547       Y3.8508    
   X2.6559       Y3.8413    
   X2.6547       Y3.8317    
   X2.6510       Y3.8228    
   X2.6451       Y3.8151    
   X2.6374       Y3.8093    
(Pass: 5)
   Z-0.1562   
   X2.6285       Y3.8056    
   X2.6149       Y3.8038    
   X2.2687    
   X2.2551       Y3.8056    
   X2.2461       Y3.8093    
   X2.2385       Y3.8151    
   X2.2326       Y3.8228    
   X2.2289       Y3.8317    
   X2.2277       Y3.8413    
   X2.2289       Y3.8508    
   X2.2326       Y3.8597    
   X2.2385       Y3.8674    
   X2.2461       Y3.8733    
   X2.2551       Y3.8770    
   X2.2687       Y3.8788    
   X2.6149    
   X2.6285       Y3.8770    
   X2.6374       Y3.8733    
   X2.6451       Y3.8674    
   X2.6510       Y3.8597    
   X2.6547       Y3.8508    
   X2.6559       Y3.8413    
   X2.6547       Y3.8317    
   X2.6510       Y3.8228    
   X2.6451       Y3.8151    
   X2.6374       Y3.8093    
(Pass: 6)
   Z-0.1750   
   X2.6285       Y3.8056    
   X2.6149       Y3.8038    
   X2.2687    
   X2.2551       Y3.8056    
   X2.2461       Y3.8093    
   X2.2385       Y3.8151    
   X2.2326       Y3.8228    
   X2.2289       Y3.8317    
   X2.2277       Y3.8413    
   X2.2289       Y3.8508    
   X2.2326       Y3.8597    
   X2.2385       Y3.8674    
   X2.2461       Y3.8733    
   X2.2551       Y3.8770    
   X2.2687       Y3.8788    
   X2.6149    
   X2.6285       Y3.8770    
   X2.6374       Y3.8733    
   X2.6451       Y3.8674    
   X2.6510       Y3.8597    
   X2.6547       Y3.8508    
   X2.6559       Y3.8413    
   X2.6547       Y3.8317    
   X2.6510       Y3.8228    
   X2.6451       Y3.8151    
   X2.6374       Y3.8093    
(BREAK pass 6)
G0   Z0.1250    
(Pass: 1)
   X1.8843       Y3.6254    
G1   Z-0.0312    F50  
   X1.8858       Y3.6140    
   X1.8843       Y3.6027    
   X1.8799       Y3.5921    
   X1.8729       Y3.5830    
   X1.8638       Y3.5760    
   X1.8532       Y3.5716    
   X1.8419       Y3.5701    
   X1.8305       Y3.5716    
   X1.8200       Y3.5760    
   X1.8109       Y3.5830    
   X1.8039       Y3.5921    
   X1.7995       Y3.6027    
   X1.7980       Y3.6140    
   X1.7995       Y3.6254    
   X1.8039       Y3.6359    
   X1.8109       Y3.6450    
   X1.8200       Y3.6520    
   X1.8305       Y3.6564    
   X1.8419       Y3.6579    
   X1.8532       Y3.6564    
   X1.8638       Y3.6520    
   X1.8729       Y3.6450    
   X1.8799       Y3.6359    
   X1.8843       Y3.6254    
(Pass: 2)
   Z-0.0625   
   X1.8858       Y3.6140    
   X1.8843       Y3.6027    
   X1.8799       Y3.5921    
   X1.8729       Y3.5830    
   X1.8638       Y3.5760    
   X1.8532       Y3.5716    
   X1.8419       Y3.5701    
   X1.8305       Y3.5716    
   X1.8200       Y3.5760    
   X1.8109       Y3.5830    
   X1.8039       Y3.5921    
   X1.7995       Y3.6027    
   X1.7980       Y3.6140    
   X1.7995       Y3.6254    
   X1.8039       Y3.6359    
   X1.8109       Y3.6450    
   X1.8200       Y3.6520    
   X1.8305       Y3.6564    
   X1.8419       Y3.6579    
   X1.8532       Y3.6564    
   X1.8638       Y3.6520    
   X1.8729       Y3.6450    
   X1.8799       Y3.6359    
   X1.8843       Y3.6254    
(Pass: 3)
   Z-0.0938   
   X1.8858       Y3.6140    
   X1.8843       Y3.6027    
   X1.8799       Y3.5921    
   X1.8729       Y3.5830    
   X1.8638       Y3.5760    
   X1.8532       Y3.5716    
   X1.8419       Y3.5701    
   X1.8305       Y3.5716    
   X1.8200       Y3.5760    
   X1.8109       Y3.5830    
   X1.8039       Y3.5921    
   X1.7995       Y3.6027    
   X1.7980       Y3.6140    
   X1.7995       Y3.6254    
   X1.8039       Y3.6359    
   X1.8109       Y3.6450    
   X1.8200       Y3.6520    
   X1.8305       Y3.6564    
   X1.8419       Y3.6579    
   X1.8532       Y3.6564    
   X1.8638       Y3.6520    
   X1.8729       Y3.6450    
   X1.8799       Y3.6359    
   X1.8843       Y3.6254    
(Pass: 4)
   Z-0.1250   
   X1.8858       Y3.6140    
   X1.8843       Y3.6027    
   X1.8799       Y3.5921    
   X1.8729       Y3.5830    
   X1.8638       Y3.5760    
   X1.8532       Y3.5716    
   X1.8419       Y3.5701    
   X1.8305       Y3.5716    
   X1.8200       Y3.5760    
   X1.8109       Y3.5830    
   X1.8039       Y3.5921    
   X1.7995       Y3.6027    
   X1.7980       Y3.6140    
   X1.7995       Y3.6254    
   X1.8039       Y3.6359    
   X1.8109       Y3.6450    
   X1.8200       Y3.6520    
   X1.8305       Y3.6564    
   X1.8419       Y3.6579    
   X1.8532       Y3.6564    
   X1.8638       Y3.6520    
   X1.8729       Y3.6450    
   X1.8799       Y3.6359    
   X1.8843       Y3.6254    
(Pass: 5)
   Z-0.1562   
   X1.8858       Y3.6140    
   X1.8843       Y3.6027    
   X1.8799       Y3.5921    
   X1.8729       Y3.5830    
   X1.8638       Y3.5760    
   X1.8532       Y3.5716    
   X1.8419       Y3.5701    
   X1.8305       Y3.5716    
   X1.8200       Y3.5760    
   X1.8109       Y3.5830    
   X1.8039       Y3.5921    
   X1.7995       Y3.6027    
   X1.7980       Y3.6140    
   X1.7995       Y3.6254    
   X1.8039       Y3.6359    
   X1.8109       Y3.6450    
   X1.8200       Y3.6520    
   X1.8305       Y3.6564    
   X1.8419       Y3.6579    
   X1.8532       Y3.6564    
   X1.8638       Y3.6520    
   X1.8729       Y3.6450    
   X1.8799       Y3.6359    
   X1.8843       Y3.6254    
(Pass: 6)
   Z-0.1750   
   X1.8858       Y3.6140    
   X1.8843       Y3.6027    
   X1.8799       Y3.5921    
   X1.8729       Y3.5830    
   X1.8638       Y3.5760    
   X1.8532       Y3.5716    
   X1.8419       Y3.5701    
   X1.8305       Y3.5716    
   X1.8200       Y3.5760    
   X1.8109       Y3.5830    
   X1.8039       Y3.5921    
   X1.7995       Y3.6027    
   X1.7980       Y3.6140    
   X1.7995       Y3.6254    
   X1.8039       Y3.6359    
   X1.8109       Y3.6450    
   X1.8200       Y3.6520    
   X1.8305       Y3.6564    
   X1.8419       Y3.6579    
   X1.8532       Y3.6564    
   X1.8638       Y3.6520    
   X1.8729       Y3.6450    
   X1.8799       Y3.6359    
   X1.8843       Y3.6254    
(BREAK pass 6)
G0   Z0.1250    
(Pass: 1)
   X3.0066       Y4.2207    
G1   Z-0.0312    F50  
   X3.0022       Y4.2313    
   X3.0007       Y4.2427    
   X3.0022       Y4.2540    
   X3.0066       Y4.2646    
   X3.0135       Y4.2737    
   X3.0226       Y4.2806    
   X3.0332       Y4.2850    
   X3.0446       Y4.2865    
   X3.0559       Y4.2850    
   X3.0665       Y4.2806    
   X3.0756       Y4.2737    
   X3.0826       Y4.2646    
   X3.0869       Y4.2540    
   X3.0884       Y4.2427    
   X3.0869       Y4.2313    
   X3.0826       Y4.2207    
   X3.0756       Y4.2116    
   X3.0665       Y4.2047    
   X3.0559       Y4.2003    
   X3.0446       Y4.1988    
   X3.0332       Y4.2003    
   X3.0226       Y4.2047    
   X3.0135       Y4.2116    
   X3.0066       Y4.2207    
(Pass: 2)
   Z-0.0625   
   X3.0022       Y4.2313    
   X3.0007       Y4.2427    
   X3.0022       Y4.2540    
   X3.0066       Y4.2646    
   X3.0135       Y4.2737    
   X3.0226       Y4.2806    
   X3.0332       Y4.2850    
   X3.0446       Y4.2865    
   X3.0559       Y4.2850    
   X3.0665       Y4.2806    
   X3.0756       Y4.2737    
   X3.0826       Y4.2646    
   X3.0869       Y4.2540    
   X3.0884       Y4.2427    
   X3.0869       Y4.2313    
   X3.0826       Y4.2207    
   X3.0756       Y4.2116    
   X3.0665       Y4.2047    
   X3.0559       Y4.2003    
   X3.0446       Y4.1988    
   X3.0332       Y4.2003    
   X3.0226       Y4.2047    
   X3.0135       Y4.2116    
   X3.0066       Y4.2207    
(Pass: 3)
   Z-0.0938   
   X3.0022       Y4.2313    
   X3.0007       Y4.2427    
   X3.0022       Y4.2540    
   X3.0066       Y4.2646    
   X3.0135       Y4.2737    
   X3.0226       Y4.2806    
   X3.0332       Y4.2850    
   X3.0446       Y4.2865    
   X3.0559       Y4.2850    
   X3.0665       Y4.2806    
   X3.0756       Y4.2737    
   X3.0826       Y4.2646    
   X3.0869       Y4.2540    
   X3.0884       Y4.2427    
   X3.0869       Y4.2313    
   X3.0826       Y4.2207    
   X3.0756       Y4.2116    
   X3.0665       Y4.2047    
   X3.0559       Y4.2003    
   X3.0446       Y4.1988    
   X3.0332       Y4.2003    
   X3.0226       Y4.2047    
   X3.0135       Y4.2116    
   X3.0066       Y4.2207    
(Pass: 4)
   Z-0.1250   
   X3.0022       Y4.2313    
   X3.0007       Y4.2427    
   X3.0022       Y4.2540    
   X3.0066       Y4.2646    
   X3.0135       Y4.2737    
   X3.0226       Y4.2806    
   X3.0332       Y4.2850    
   X3.0446       Y4.2865    
   X3.0559       Y4.2850    
   X3.0665       Y4.2806    
   X3.0756       Y4.2737    
   X3.0826       Y4.2646    
   X3.0869       Y4.2540    
   X3.0884       Y4.2427    
   X3.0869       Y4.2313    
   X3.0826       Y4.2207    
   X3.0756       Y4.2116    
   X3.0665       Y4.2047    
   X3.0559       Y4.2003    
   X3.0446       Y4.1988    
   X3.0332       Y4.2003    
   X3.0226       Y4.2047    
   X3.0135       Y4.2116    
   X3.0066       Y4.2207    
(Pass: 5)
   Z-0.1562   
   X3.0022       Y4.2313    
   X3.0007       Y4.2427    
   X3.0022       Y4.2540    
   X3.0066       Y4.2646    
   X3.0135       Y4.2737    
   X3.0226       Y4.2806    
   X3.0332       Y4.2850    
   X3.0446       Y4.2865    
   X3.0559       Y4.2850    
   X3.0665       Y4.2806    
   X3.0756       Y4.2737    
   X3.0826       Y4.2646    
   X3.0869       Y4.2540    
   X3.0884       Y4.2427    
   X3.0869       Y4.2313    
   X3.0826       Y4.2207    
   X3.0756       Y4.2116    
   X3.0665       Y4.2047    
   X3.0559       Y4.2003    
   X3.0446       Y4.1988    
   X3.0332       Y4.2003    
   X3.0226       Y4.2047    
   X3.0135       Y4.2116    
   X3.0066       Y4.2207    
(Pass: 6)
   Z-0.1750   
   X3.0022       Y4.2313    
   X3.0007       Y4.2427    
   X3.0022       Y4.2540    
   X3.0066       Y4.2646    
   X3.0135       Y4.2737    
   X3.0226       Y4.2806    
   X3.0332       Y4.2850    
   X3.0446       Y4.2865    
   X3.0559       Y4.2850    
   X3.0665       Y4.2806    
   X3.0756       Y4.2737    
   X3.0826       Y4.2646    
   X3.0869       Y4.2540    
   X3.0884       Y4.2427    
   X3.0869       Y4.2313    
   X3.0826       Y4.2207    
   X3.0756       Y4.2116    
   X3.0665       Y4.2047    
   X3.0559       Y4.2003    
   X3.0446       Y4.1988    
   X3.0332       Y4.2003    
   X3.0226       Y4.2047    
   X3.0135       Y4.2116    
   X3.0066       Y4.2207    
(BREAK pass 6)
G0   Z0.1250    
(Pass: 1)
   X4.0889       Y3.8508    
G1   Z-0.0312    F50  
   X4.0926       Y3.8597    
   X4.0985       Y3.8674    
   X4.1061       Y3.8733    
   X4.1150       Y3.8770    
   X4.1287       Y3.8788    
   X4.4748    
   X4.4885       Y3.8770    
   X4.4974       Y3.8733    
   X4.5051       Y3.8674    
   X4.5110       Y3.8597    
   X4.5146       Y3.8508    
   X4.5159       Y3.8413    
   X4.5146       Y3.8317    
   X4.5110       Y3.8228    
   X4.5051       Y3.8151    
   X4.4974       Y3.8093    
   X4.4885       Y3.8056    
   X4.4748       Y3.8038    
   X4.1287    
   X4.1150       Y3.8056    
   X4.1061       Y3.8093    
   X4.0985       Y3.8151    
   X4.0926       Y3.8228    
   X4.0889       Y3.8317    
   X4.0877       Y3.8413    
   X4.0889       Y3.8508    
(Pass: 2)
   Z-0.0625   
   X4.0926       Y3.8597    
   X4.0985       Y3.8674    
   X4.1061       Y3.8733    
   X4.1150       Y3.8770    
   X4.1287       Y3.8788    
   X4.4748    
   X4.4885       Y3.8770    
   X4.4974       Y3.8733    
   X4.5051       Y3.8674    
   X4.5110       Y3.8597    
   X4.5146       Y3.8508    
   X4.5159       Y3.8413    
   X4.5146       Y3.8317    
   X4.5110       Y3.8228    
   X4.5051       Y3.8151    
   X4.4974       Y3.8093    
   X4.4885       Y3.8056    
   X4.4748       Y3.8038    
   X4.1287    
   X4.1150       Y3.8056    
   X4.1061       Y3.8093    
   X4.0985       Y3.8151    
   X4.0926       Y3.8228    
   X4.0889       Y3.8317    
   X4.0877       Y3.8413    
   X4.0889       Y3.8508    
(Pass: 3)
   Z-0.0938   
   X4.0926       Y3.8597    
   X4.0985       Y3.8674    
   X4.1061       Y3.8733    
   X4.1150       Y3.8770    
   X4.1287       Y3.8788    
   X4.4748    
   X4.4885       Y3.8770    
   X4.4974       Y3.8733    
   X4.5051       Y3.8674    
   X4.5110       Y3.8597    
   X4.5146       Y3.8508    
   X4.5159       Y3.8413    
   X4.5146       Y3.8317    
   X4.5110       Y3.8228    
   X4.5051       Y3.8151    
   X4.4974       Y3.8093    
   X4.4885       Y3.8056    
   X4.4748       Y3.8038    
   X4.1287    
   X4.1150       Y3.8056    
   X4.1061       Y3.8093    
   X4.0985       Y3.8151    
   X4.0926       Y3.8228    
   X4.0889       Y3.8317    
   X4.0877       Y3.8413    
   X4.0889       Y3.8508    
(Pass: 4)
   Z-0.1250   
   X4.0926       Y3.8597    
   X4.0985       Y3.8674    
   X4.1061       Y3.8733    
   X4.1150       Y3.8770    
   X4.1287       Y3.8788    
   X4.4748    
   X4.4885       Y3.8770    
   X4.4974       Y3.8733    
   X4.5051       Y3.8674    
   X4.5110       Y3.8597    
   X4.5146       Y3.8508    
   X4.5159       Y3.8413    
   X4.5146       Y3.8317    
   X4.5110       Y3.8228    
   X4.5051       Y3.8151    
   X4.4974       Y3.8093    
   X4.4885       Y3.8056    
   X4.4748       Y3.8038    
   X4.1287    
   X4.1150       Y3.8056    
   X4.1061       Y3.8093    
   X4.0985       Y3.8151    
   X4.0926       Y3.8228    
   X4.0889       Y3.8317    
   X4.0877       Y3.8413    
   X4.0889       Y3.8508    
(Pass: 5)
   Z-0.1562   
   X4.0926       Y3.8597    
   X4.0985       Y3.8674    
   X4.1061       Y3.8733    
   X4.1150       Y3.8770    
   X4.1287       Y3.8788    
   X4.4748    
   X4.4885       Y3.8770    
   X4.4974       Y3.8733    
   X4.5051       Y3.8674    
   X4.5110       Y3.8597    
   X4.5146       Y3.8508    
   X4.5159       Y3.8413    
   X4.5146       Y3.8317    
   X4.5110       Y3.8228    
   X4.5051       Y3.8151    
   X4.4974       Y3.8093    
   X4.4885       Y3.8056    
   X4.4748       Y3.8038    
   X4.1287    
   X4.1150       Y3.8056    
   X4.1061       Y3.8093    
   X4.0985       Y3.8151    
   X4.0926       Y3.8228    
   X4.0889       Y3.8317    
   X4.0877       Y3.8413    
   X4.0889       Y3.8508    
(Pass: 6)
   Z-0.1750   
   X4.0926       Y3.8597    
   X4.0985       Y3.8674    
   X4.1061       Y3.8733    
   X4.1150       Y3.8770    
   X4.1287       Y3.8788    
   X4.4748    
   X4.4885       Y3.8770    
   X4.4974       Y3.8733    
   X4.5051       Y3.8674    
   X4.5110       Y3.8597    
   X4.5146       Y3.8508    
   X4.5159       Y3.8413    
   X4.5146       Y3.8317    
   X4.5110       Y3.8228    
   X4.5051       Y3.8151    
   X4.4974       Y3.8093    
   X4.4885       Y3.8056    
   X4.4748       Y3.8038    
   X4.1287    
   X4.1150       Y3.8056    
   X4.1061       Y3.8093    
   X4.0985       Y3.8151    
   X4.0926       Y3.8228    
   X4.0889       Y3.8317    
   X4.0877       Y3.8413    
   X4.0889       Y3.8508    
(BREAK pass 6)
G0   Z0.1250    
(Pass: 1)
   X4.8211       Y5.1197    
G1   Z-0.0312    F50  
   X4.8138       Y5.1253    
   X4.8082       Y5.1327    
   X4.8046       Y5.1412    
   X4.8034       Y5.1504    
   X4.8046       Y5.1595    
   X4.8082       Y5.1681    
   X4.8138       Y5.1754    
   X4.8211       Y5.1810    
   X4.8297       Y5.1845    
   X4.8388       Y5.1857    
   X4.8480       Y5.1845    
   X4.8565       Y5.1810    
   X4.8638       Y5.1754    
   X4.8695       Y5.1681    
   X4.8730       Y5.1595    
   X4.8742       Y5.1504    
   X4.8730       Y5.1412    
   X4.8695       Y5.1327    
   X4.8638       Y5.1253    
   X4.8565       Y5.1197    
   X4.8480       Y5.1162    
   X4.8388       Y5.1150    
   X4.8297       Y5.1162    
   X4.8211       Y5.1197    
(Pass: 2)
   Z-0.0625   
   X4.8138       Y5.1253    
   X4.8082       Y5.1327    
   X4.8046       Y5.1412    
   X4.8034       Y5.1504    
   X4.8046       Y5.1595    
   X4.8082       Y5.1681    
   X4.8138       Y5.1754    
   X4.8211       Y5.1810    
   X4.8297       Y5.1845    
   X4.8388       Y5.1857    
   X4.8480       Y5.1845    
   X4.8565       Y5.1810    
   X4.8638       Y5.1754    
   X4.8695       Y5.1681    
   X4.8730       Y5.1595    
   X4.8742       Y5.1504    
   X4.8730       Y5.1412    
   X4.8695       Y5.1327    
   X4.8638       Y5.1253    
   X4.8565       Y5.1197    
   X4.8480       Y5.1162    
   X4.8388       Y5.1150    
   X4.8297       Y5.1162    
   X4.8211       Y5.1197    
(Pass: 3)
   Z-0.0938   
   X4.8138       Y5.1253    
   X4.8082       Y5.1327    
   X4.8046       Y5.1412    
   X4.8034       Y5.1504    
   X4.8046       Y5.1595    
   X4.8082       Y5.1681    
   X4.8138       Y5.1754    
   X4.8211       Y5.1810    
   X4.8297       Y5.1845    
   X4.8388       Y5.1857    
   X4.8480       Y5.1845    
   X4.8565       Y5.1810    
   X4.8638       Y5.1754    
   X4.8695       Y5.1681    
   X4.8730       Y5.1595    
   X4.8742       Y5.1504    
   X4.8730       Y5.1412    
   X4.8695       Y5.1327    
   X4.8638       Y5.1253    
   X4.8565       Y5.1197    
   X4.8480       Y5.1162    
   X4.8388       Y5.1150    
   X4.8297       Y5.1162    
   X4.8211       Y5.1197    
(Pass: 4)
   Z-0.1250   
   X4.8138       Y5.1253    
   X4.8082       Y5.1327    
   X4.8046       Y5.1412    
   X4.8034       Y5.1504    
   X4.8046       Y5.1595    
   X4.8082       Y5.1681    
   X4.8138       Y5.1754    
   X4.8211       Y5.1810    
   X4.8297       Y5.1845    
   X4.8388       Y5.1857    
   X4.8480       Y5.1845    
   X4.8565       Y5.1810    
   X4.8638       Y5.1754    
   X4.8695       Y5.1681    
   X4.8730       Y5.1595    
   X4.8742       Y5.1504    
   X4.8730       Y5.1412    
   X4.8695       Y5.1327    
   X4.8638       Y5.1253    
   X4.8565       Y5.1197    
   X4.8480       Y5.1162    
   X4.8388       Y5.1150    
   X4.8297       Y5.1162    
   X4.8211       Y5.1197    
(Pass: 5)
   Z-0.1562   
   X4.8138       Y5.1253    
   X4.8082       Y5.1327    
   X4.8046       Y5.1412    
   X4.8034       Y5.1504    
   X4.8046       Y5.1595    
   X4.8082       Y5.1681    
   X4.8138       Y5.1754    
   X4.8211       Y5.1810    
   X4.8297       Y5.1845    
   X4.8388       Y5.1857    
   X4.8480       Y5.1845    
   X4.8565       Y5.1810    
   X4.8638       Y5.1754    
   X4.8695       Y5.1681    
   X4.8730       Y5.1595    
   X4.8742       Y5.1504    
   X4.8730       Y5.1412    
   X4.8695       Y5.1327    
   X4.8638       Y5.1253    
   X4.8565       Y5.1197    
   X4.8480       Y5.1162    
   X4.8388       Y5.1150    
   X4.8297       Y5.1162    
   X4.8211       Y5.1197    
(Pass: 6)
   Z-0.1750   
   X4.8138       Y5.1253    
   X4.8082       Y5.1327    
   X4.8046       Y5.1412    
   X4.8034       Y5.1504    
   X4.8046       Y5.1595    
   X4.8082       Y5.1681    
   X4.8138       Y5.1754    
   X4.8211       Y5.1810    
   X4.8297       Y5.1845    
   X4.8388       Y5.1857    
   X4.8480       Y5.1845    
   X4.8565       Y5.1810    
   X4.8638       Y5.1754    
   X4.8695       Y5.1681    
   X4.8730       Y5.1595    
   X4.8742       Y5.1504    
   X4.8730       Y5.1412    
   X4.8695       Y5.1327    
   X4.8638       Y5.1253    
   X4.8565       Y5.1197    
   X4.8480       Y5.1162    
   X4.8388       Y5.1150    
   X4.8297       Y5.1162    
   X4.8211       Y5.1197    
(BREAK pass 6)
G0   Z0.1250    
(Pass: 1)
   X7.8665       Y5.1507    
G1   Z-0.0312    F50  
   X7.8691       Y5.1707    
   X7.8769       Y5.1894    
   X7.8892       Y5.2055    
   X7.9052       Y5.2178    
   X7.9239       Y5.2255    
   X7.9439       Y5.2282    
   X7.9640       Y5.2255    
   X7.9827       Y5.2178    
   X7.9987       Y5.2055    
   X8.0110       Y5.1894    
   X8.0187       Y5.1707    
   X8.0214       Y5.1507    
   X8.0187       Y5.1307    
   X8.0110       Y5.1120    
   X7.9987       Y5.0959    
   X7.9827       Y5.0836    
   X7.9640       Y5.0759    
   X7.9439       Y5.0732    
   X7.9239       Y5.0759    
   X7.9052       Y5.0836    
   X7.8892       Y5.0959    
   X7.8769       Y5.1120    
   X7.8691       Y5.1307    
   X7.8665       Y5.1507    
(Pass: 2)
   Z-0.0625   
   X7.8691       Y5.1707    
   X7.8769       Y5.1894    
   X7.8892       Y5.2055    
   X7.9052       Y5.2178    
   X7.9239       Y5.2255    
   X7.9439       Y5.2282    
   X7.9640       Y5.2255    
   X7.9827       Y5.2178    
   X7.9987       Y5.2055    
   X8.0110       Y5.1894    
   X8.0187       Y5.1707    
   X8.0214       Y5.1507    
   X8.0187       Y5.1307    
   X8.0110       Y5.1120    
   X7.9987       Y5.0959    
   X7.9827       Y5.0836    
   X7.9640       Y5.0759    
   X7.9439       Y5.0732    
   X7.9239       Y5.0759    
   X7.9052       Y5.0836    
   X7.8892       Y5.0959    
   X7.8769       Y5.1120    
   X7.8691       Y5.1307    
   X7.8665       Y5.1507    
(Pass: 3)
   Z-0.0938   
   X7.8691       Y5.1707    
   X7.8769       Y5.1894    
   X7.8892       Y5.2055    
   X7.9052       Y5.2178    
   X7.9239       Y5.2255    
   X7.9439       Y5.2282    
   X7.9640       Y5.2255    
   X7.9827       Y5.2178    
   X7.9987       Y5.2055    
   X8.0110       Y5.1894    
   X8.0187       Y5.1707    
   X8.0214       Y5.1507    
   X8.0187       Y5.1307    
   X8.0110       Y5.1120    
   X7.9987       Y5.0959    
   X7.9827       Y5.0836    
   X7.9640       Y5.0759    
   X7.9439       Y5.0732    
   X7.9239       Y5.0759    
   X7.9052       Y5.0836    
   X7.8892       Y5.0959    
   X7.8769       Y5.1120    
   X7.8691       Y5.1307    
   X7.8665       Y5.1507    
(Pass: 4)
   Z-0.1250   
   X7.8691       Y5.1707    
   X7.8769       Y5.1894    
   X7.8892       Y5.2055    
   X7.9052       Y5.2178    
   X7.9239       Y5.2255    
   X7.9439       Y5.2282    
   X7.9640       Y5.2255    
   X7.9827       Y5.2178    
   X7.9987       Y5.2055    
   X8.0110       Y5.1894    
   X8.0187       Y5.1707    
   X8.0214       Y5.1507    
   X8.0187       Y5.1307    
   X8.0110       Y5.1120    
   X7.9987       Y5.0959    
   X7.9827       Y5.0836    
   X7.9640       Y5.0759    
   X7.9439       Y5.0732    
   X7.9239       Y5.0759    
   X7.9052       Y5.0836    
   X7.8892       Y5.0959    
   X7.8769       Y5.1120    
   X7.8691       Y5.1307    
   X7.8665       Y5.1507    
(Pass: 5)
   Z-0.1562   
   X7.8691       Y5.1707    
   X7.8769       Y5.1894    
   X7.8892       Y5.2055    
   X7.9052       Y5.2178    
   X7.9239       Y5.2255    
   X7.9439       Y5.2282    
   X7.9640       Y5.2255    
   X7.9827       Y5.2178    
   X7.9987       Y5.2055    
   X8.0110       Y5.1894    
   X8.0187       Y5.1707    
   X8.0214       Y5.1507    
   X8.0187       Y5.1307    
   X8.0110       Y5.1120    
   X7.9987       Y5.0959    
   X7.9827       Y5.0836    
   X7.9640       Y5.0759    
   X7.9439       Y5.0732    
   X7.9239       Y5.0759    
   X7.9052       Y5.0836    
   X7.8892       Y5.0959    
   X7.8769       Y5.1120    
   X7.8691       Y5.1307    
   X7.8665       Y5.1507    
(Pass: 6)
   Z-0.1750   
   X7.8691       Y5.1707    
   X7.8769       Y5.1894    
   X7.8892       Y5.2055    
   X7.9052       Y5.2178    
   X7.9239       Y5.2255    
   X7.9439       Y5.2282    
   X7.9640       Y5.2255    
   X7.9827       Y5.2178    
   X7.9987       Y5.2055    
   X8.0110       Y5.1894    
   X8.0187       Y5.1707    
   X8.0214       Y5.1507    
   X8.0187       Y5.1307    
   X8.0110       Y5.1120    
   X7.9987       Y5.0959    
   X7.9827       Y5.0836    
   X7.9640       Y5.0759    
   X7.9439       Y5.0732    
   X7.9239       Y5.0759    
   X7.9052       Y5.0836    
   X7.8892       Y5.0959    
   X7.8769       Y5.1120    
   X7.8691       Y5.1307    
   X7.8665       Y5.1507    
(BREAK pass 6)
G0   Z0.1250    
(Pass: 1)
   X7.1656       Y4.1828    
G1   Z-0.0312    F50  
   X7.2285       Y4.1408    
   X7.2853       Y4.0909    
   X7.3352       Y4.0341    
   X7.3771       Y3.9713    
   X7.4106       Y3.9035    
   X7.4349       Y3.8319    
   X7.4496       Y3.7578    
   X7.4542       Y3.6885    
   Y2.1333    
   X7.4496       Y2.0640    
   X7.4349       Y1.9898    
   X7.4106       Y1.9183    
   X7.3771       Y1.8505    
   X7.3352       Y1.7876    
   X7.2853       Y1.7308    
   X7.2285       Y1.6810    
   X7.1656       Y1.6390    
   X7.0978       Y1.6055    
   X7.0263       Y1.5812    
   X6.9521       Y1.5665    
   X6.8829       Y1.5620    
   X5.8788    
   X5.8095       Y1.5665    
   X5.7354       Y1.5812    
   X5.6638       Y1.6055    
   X5.5960       Y1.6390    
   X5.5332       Y1.6810    
   X5.4764       Y1.7308    
   X5.4265       Y1.7876    
   X5.3845       Y1.8505    
   X5.3511       Y1.9183    
   X5.3268       Y1.9898    
   X5.3121       Y2.0640    
   X5.3075       Y2.1333    
   Y3.6885    
   X5.3121       Y3.7578    
   X5.3268       Y3.8319    
   X5.3511       Y3.9035    
   X5.3845       Y3.9713    
   X5.4265       Y4.0341    
   X5.4764       Y4.0909    
   X5.5332       Y4.1408    
   X5.5960       Y4.1828    
   X5.6638       Y4.2162    
   X5.7354       Y4.2405    
   X5.8095       Y4.2552    
   X5.8788       Y4.2598    
   X6.8829    
   X6.9521       Y4.2552    
   X7.0263       Y4.2405    
   X7.0978       Y4.2162    
   X7.1656       Y4.1828    
(Pass: 2)
   Z-0.0625   
   X7.2285       Y4.1408    
   X7.2853       Y4.0909    
   X7.3352       Y4.0341    
   X7.3771       Y3.9713    
   X7.4106       Y3.9035    
   X7.4349       Y3.8319    
   X7.4496       Y3.7578    
   X7.4542       Y3.6885    
   Y2.1333    
   X7.4496       Y2.0640    
   X7.4349       Y1.9898    
   X7.4106       Y1.9183    
   X7.3771       Y1.8505    
   X7.3352       Y1.7876    
   X7.2853       Y1.7308    
   X7.2285       Y1.6810    
   X7.1656       Y1.6390    
   X7.0978       Y1.6055    
   X7.0263       Y1.5812    
   X6.9521       Y1.5665    
   X6.8829       Y1.5620    
   X5.8788    
   X5.8095       Y1.5665    
   X5.7354       Y1.5812    
   X5.6638       Y1.6055    
   X5.5960       Y1.6390    
   X5.5332       Y1.6810    
   X5.4764       Y1.7308    
   X5.4265       Y1.7876    
   X5.3845       Y1.8505    
   X5.3511       Y1.9183    
   X5.3268       Y1.9898    
   X5.3121       Y2.0640    
   X5.3075       Y2.1333    
   Y3.6885    
   X5.3121       Y3.7578    
   X5.3268       Y3.8319    
   X5.3511       Y3.9035    
   X5.3845       Y3.9713    
   X5.4265       Y4.0341    
   X5.4764       Y4.0909    
   X5.5332       Y4.1408    
   X5.5960       Y4.1828    
   X5.6638       Y4.2162    
   X5.7354       Y4.2405    
   X5.8095       Y4.2552    
   X5.8788       Y4.2598    
   X6.8829    
   X6.9521       Y4.2552    
   X7.0263       Y4.2405    
   X7.0978       Y4.2162    
   X7.1656       Y4.1828    
(Pass: 3)
   Z-0.0938   
   X7.2285       Y4.1408    
   X7.2853       Y4.0909    
   X7.3352       Y4.0341    
   X7.3771       Y3.9713    
   X7.4106       Y3.9035    
   X7.4349       Y3.8319    
   X7.4496       Y3.7578    
   X7.4542       Y3.6885    
   Y2.1333    
   X7.4496       Y2.0640    
   X7.4349       Y1.9898    
   X7.4106       Y1.9183    
   X7.3771       Y1.8505    
   X7.3352       Y1.7876    
   X7.2853       Y1.7308    
   X7.2285       Y1.6810    
   X7.1656       Y1.6390    
   X7.0978       Y1.6055    
   X7.0263       Y1.5812    
   X6.9521       Y1.5665    
   X6.8829       Y1.5620    
   X5.8788    
   X5.8095       Y1.5665    
   X5.7354       Y1.5812    
   X5.6638       Y1.6055    
   X5.5960       Y1.6390    
   X5.5332       Y1.6810    
   X5.4764       Y1.7308    
   X5.4265       Y1.7876    
   X5.3845       Y1.8505    
   X5.3511       Y1.9183    
   X5.3268       Y1.9898    
   X5.3121       Y2.0640    
   X5.3075       Y2.1333    
   Y3.6885    
   X5.3121       Y3.7578    
   X5.3268       Y3.8319    
   X5.3511       Y3.9035    
   X5.3845       Y3.9713    
   X5.4265       Y4.0341    
   X5.4764       Y4.0909    
   X5.5332       Y4.1408    
   X5.5960       Y4.1828    
   X5.6638       Y4.2162    
   X5.7354       Y4.2405    
   X5.8095       Y4.2552    
   X5.8788       Y4.2598    
   X6.8829    
   X6.9521       Y4.2552    
   X7.0263       Y4.2405    
   X7.0978       Y4.2162    
   X7.1656       Y4.1828    
(Pass: 4)
   Z-0.1250   
   X7.2285       Y4.1408    
   X7.2853       Y4.0909    
   X7.3352       Y4.0341    
   X7.3771       Y3.9713    
   X7.4106       Y3.9035    
   X7.4349       Y3.8319    
   X7.4496       Y3.7578    
   X7.4542       Y3.6885    
   Y2.1333    
   X7.4496       Y2.0640    
   X7.4349       Y1.9898    
   X7.4106       Y1.9183    
   X7.3771       Y1.8505    
   X7.3352       Y1.7876    
   X7.2853       Y1.7308    
   X7.2285       Y1.6810    
   X7.1656       Y1.6390    
   X7.0978       Y1.6055    
   X7.0263       Y1.5812    
   X6.9521       Y1.5665    
   X6.8829       Y1.5620    
   X5.8788    
   X5.8095       Y1.5665    
   X5.7354       Y1.5812    
   X5.6638       Y1.6055    
   X5.5960       Y1.6390    
   X5.5332       Y1.6810    
   X5.4764       Y1.7308    
   X5.4265       Y1.7876    
   X5.3845       Y1.8505    
   X5.3511       Y1.9183    
   X5.3268       Y1.9898    
   X5.3121       Y2.0640    
   X5.3075       Y2.1333    
   Y3.6885    
   X5.3121       Y3.7578    
   X5.3268       Y3.8319    
   X5.3511       Y3.9035    
   X5.3845       Y3.9713    
   X5.4265       Y4.0341    
   X5.4764       Y4.0909    
   X5.5332       Y4.1408    
   X5.5960       Y4.1828    
   X5.6638       Y4.2162    
   X5.7354       Y4.2405    
   X5.8095       Y4.2552    
   X5.8788       Y4.2598    
   X6.8829    
   X6.9521       Y4.2552    
   X7.0263       Y4.2405    
   X7.0978       Y4.2162    
   X7.1656       Y4.1828    
(Pass: 5)
   Z-0.1562   
   X7.2285       Y4.1408    
   X7.2853       Y4.0909    
   X7.3352       Y4.0341    
   X7.3771       Y3.9713    
   X7.4106       Y3.9035    
   X7.4349       Y3.8319    
   X7.4496       Y3.7578    
   X7.4542       Y3.6885    
   Y2.1333    
   X7.4496       Y2.0640    
   X7.4349       Y1.9898    
   X7.4106       Y1.9183    
   X7.3771       Y1.8505    
   X7.3352       Y1.7876    
   X7.2853       Y1.7308    
   X7.2285       Y1.6810    
   X7.1656       Y1.6390    
   X7.0978       Y1.6055    
   X7.0263       Y1.5812    
   X6.9521       Y1.5665    
   X6.8829       Y1.5620    
   X5.8788    
   X5.8095       Y1.5665    
   X5.7354       Y1.5812    
   X5.6638       Y1.6055    
   X5.5960       Y1.6390    
   X5.5332       Y1.6810    
   X5.4764       Y1.7308    
   X5.4265       Y1.7876    
   X5.3845       Y1.8505    
   X5.3511       Y1.9183    
   X5.3268       Y1.9898    
   X5.3121       Y2.0640    
   X5.3075       Y2.1333    
   Y3.6885    
   X5.3121       Y3.7578    
   X5.3268       Y3.8319    
   X5.3511       Y3.9035    
   X5.3845       Y3.9713    
   X5.4265       Y4.0341    
   X5.4764       Y4.0909    
   X5.5332       Y4.1408    
   X5.5960       Y4.1828    
   X5.6638       Y4.2162    
   X5.7354       Y4.2405    
   X5.8095       Y4.2552    
   X5.8788       Y4.2598    
   X6.8829    
   X6.9521       Y4.2552    
   X7.0263       Y4.2405    
   X7.0978       Y4.2162    
   X7.1656       Y4.1828    
(Pass: 6)
   Z-0.1750   
   X7.2285       Y4.1408    
   X7.2853       Y4.0909    
   X7.3352       Y4.0341    
   X7.3771       Y3.9713    
   X7.4106       Y3.9035    
   X7.4349       Y3.8319    
   X7.4496       Y3.7578    
   X7.4542       Y3.6885    
   Y2.1333    
   X7.4496       Y2.0640    
   X7.4349       Y1.9898    
   X7.4106       Y1.9183    
   X7.3771       Y1.8505    
   X7.3352       Y1.7876    
   X7.2853       Y1.7308    
   X7.2285       Y1.6810    
   X7.1656       Y1.6390    
   X7.0978       Y1.6055    
   X7.0263       Y1.5812    
   X6.9521       Y1.5665    
   X6.8829       Y1.5620    
   X5.8788    
   X5.8095       Y1.5665    
   X5.7354       Y1.5812    
   X5.6638       Y1.6055    
   X5.5960       Y1.6390    
   X5.5332       Y1.6810    
   X5.4764       Y1.7308    
   X5.4265       Y1.7876    
   X5.3845       Y1.8505    
   X5.3511       Y1.9183    
   X5.3268       Y1.9898    
   X5.3121       Y2.0640    
   X5.3075       Y2.1333    
   Y3.6885    
   X5.3121       Y3.7578    
   X5.3268       Y3.8319    
   X5.3511       Y3.9035    
   X5.3845       Y3.9713    
   X5.4265       Y4.0341    
   X5.4764       Y4.0909    
   X5.5332       Y4.1408    
   X5.5960       Y4.1828    
   X5.6638       Y4.2162    
   X5.7354       Y4.2405    
   X5.8095       Y4.2552    
   X5.8788       Y4.2598    
   X6.8829    
   X6.9521       Y4.2552    
   X7.0263       Y4.2405    
   X7.0978       Y4.2162    
   X7.1656       Y4.1828    
(BREAK pass 6)
G0   Z0.1250    
(Pass: 1)
   X4.5051       Y2.0074    
G1   Z-0.0312    F50  
   X4.5110       Y1.9997    
   X4.5146       Y1.9908    
   X4.5159       Y1.9813    
   X4.5146       Y1.9717    
   X4.5110       Y1.9628    
   X4.5051       Y1.9551    
   X4.4974       Y1.9493    
   X4.4885       Y1.9456    
   X4.4748       Y1.9438    
   X4.1287    
   X4.1150       Y1.9456    
   X4.1061       Y1.9493    
   X4.0985       Y1.9551    
   X4.0926       Y1.9628    
   X4.0889       Y1.9717    
   X4.0877       Y1.9813    
   X4.0889       Y1.9908    
   X4.0926       Y1.9997    
   X4.0985       Y2.0074    
   X4.1061       Y2.0133    
   X4.1150       Y2.0170    
   X4.1287       Y2.0188    
   X4.4748    
   X4.4885       Y2.0170    
   X4.4974       Y2.0133    
   X4.5051       Y2.0074    
(Pass: 2)
   Z-0.0625   
   X4.5110       Y1.9997    
   X4.5146       Y1.9908    
   X4.5159       Y1.9813    
   X4.5146       Y1.9717    
   X4.5110       Y1.9628    
   X4.5051       Y1.9551    
   X4.4974       Y1.9493    
   X4.4885       Y1.9456    
   X4.4748       Y1.9438    
   X4.1287    
   X4.1150       Y1.9456    
   X4.1061       Y1.9493    
   X4.0985       Y1.9551    
   X4.0926       Y1.9628    
   X4.0889       Y1.9717    
   X4.0877       Y1.9813    
   X4.0889       Y1.9908    
   X4.0926       Y1.9997    
   X4.0985       Y2.0074    
   X4.1061       Y2.0133    
   X4.1150       Y2.0170    
   X4.1287       Y2.0188    
   X4.4748    
   X4.4885       Y2.0170    
   X4.4974       Y2.0133    
   X4.5051       Y2.0074    
(Pass: 3)
   Z-0.0938   
   X4.5110       Y1.9997    
   X4.5146       Y1.9908    
   X4.5159       Y1.9813    
   X4.5146       Y1.9717    
   X4.5110       Y1.9628    
   X4.5051       Y1.9551    
   X4.4974       Y1.9493    
   X4.4885       Y1.9456    
   X4.4748       Y1.9438    
   X4.1287    
   X4.1150       Y1.9456    
   X4.1061       Y1.9493    
   X4.0985       Y1.9551    
   X4.0926       Y1.9628    
   X4.0889       Y1.9717    
   X4.0877       Y1.9813    
   X4.0889       Y1.9908    
   X4.0926       Y1.9997    
   X4.0985       Y2.0074    
   X4.1061       Y2.0133    
   X4.1150       Y2.0170    
   X4.1287       Y2.0188    
   X4.4748    
   X4.4885       Y2.0170    
   X4.4974       Y2.0133    
   X4.5051       Y2.0074    
(Pass: 4)
   Z-0.1250   
   X4.5110       Y1.9997    
   X4.5146       Y1.9908    
   X4.5159       Y1.9813    
   X4.5146       Y1.9717    
   X4.5110       Y1.9628    
   X4.5051       Y1.9551    
   X4.4974       Y1.9493    
   X4.4885       Y1.9456    
   X4.4748       Y1.9438    
   X4.1287    
   X4.1150       Y1.9456    
   X4.1061       Y1.9493    
   X4.0985       Y1.9551    
   X4.0926       Y1.9628    
   X4.0889       Y1.9717    
   X4.0877       Y1.9813    
   X4.0889       Y1.9908    
   X4.0926       Y1.9997    
   X4.0985       Y2.0074    
   X4.1061       Y2.0133    
   X4.1150       Y2.0170    
   X4.1287       Y2.0188    
   X4.4748    
   X4.4885       Y2.0170    
   X4.4974       Y2.0133    
   X4.5051       Y2.0074    
(Pass: 5)
   Z-0.1562   
   X4.5110       Y1.9997    
   X4.5146       Y1.9908    
   X4.5159       Y1.9813    
   X4.5146       Y1.9717    
   X4.5110       Y1.9628    
   X4.5051       Y1.9551    
   X4.4974       Y1.9493    
   X4.4885       Y1.9456    
   X4.4748       Y1.9438    
   X4.1287    
   X4.1150       Y1.9456    
   X4.1061       Y1.9493    
   X4.0985       Y1.9551    
   X4.0926       Y1.9628    
   X4.0889       Y1.9717    
   X4.0877       Y1.9813    
   X4.0889       Y1.9908    
   X4.0926       Y1.9997    
   X4.0985       Y2.0074    
   X4.1061       Y2.0133    
   X4.1150       Y2.0170    
   X4.1287       Y2.0188    
   X4.4748    
   X4.4885       Y2.0170    
   X4.4974       Y2.0133    
   X4.5051       Y2.0074    
(Pass: 6)
   Z-0.1750   
   X4.5110       Y1.9997    
   X4.5146       Y1.9908    
   X4.5159       Y1.9813    
   X4.5146       Y1.9717    
   X4.5110       Y1.9628    
   X4.5051       Y1.9551    
   X4.4974       Y1.9493    
   X4.4885       Y1.9456    
   X4.4748       Y1.9438    
   X4.1287    
   X4.1150       Y1.9456    
   X4.1061       Y1.9493    
   X4.0985       Y1.9551    
   X4.0926       Y1.9628    
   X4.0889       Y1.9717    
   X4.0877       Y1.9813    
   X4.0889       Y1.9908    
   X4.0926       Y1.9997    
   X4.0985       Y2.0074    
   X4.1061       Y2.0133    
   X4.1150       Y2.0170    
   X4.1287       Y2.0188    
   X4.4748    
   X4.4885       Y2.0170    
   X4.4974       Y2.0133    
   X4.5051       Y2.0074    
(BREAK pass 6)
G0   Z0.1250    
(Pass: 1)
   X4.8297       Y0.7056    
G1   Z-0.0312    F50  
   X4.8388       Y0.7068    
   X4.8480       Y0.7056    
   X4.8565       Y0.7020    
   X4.8638       Y0.6964    
   X4.8695       Y0.6891    
   X4.8730       Y0.6805    
   X4.8742       Y0.6714    
   X4.8730       Y0.6622    
   X4.8695       Y0.6537    
   X4.8638       Y0.6464    
   X4.8565       Y0.6407    
   X4.8480       Y0.6372    
   X4.8388       Y0.6360    
   X4.8297       Y0.6372    
   X4.8211       Y0.6407    
   X4.8138       Y0.6464    
   X4.8082       Y0.6537    
   X4.8046       Y0.6622    
   X4.8034       Y0.6714    
   X4.8046       Y0.6805    
   X4.8082       Y0.6891    
   X4.8138       Y0.6964    
   X4.8211       Y0.7020    
   X4.8297       Y0.7056    
(Pass: 2)
   Z-0.0625   
   X4.8388       Y0.7068    
   X4.8480       Y0.7056    
   X4.8565       Y0.7020    
   X4.8638       Y0.6964    
   X4.8695       Y0.6891    
   X4.8730       Y0.6805    
   X4.8742       Y0.6714    
   X4.8730       Y0.6622    
   X4.8695       Y0.6537    
   X4.8638       Y0.6464    
   X4.8565       Y0.6407    
   X4.8480       Y0.6372    
   X4.8388       Y0.6360    
   X4.8297       Y0.6372    
   X4.8211       Y0.6407    
   X4.8138       Y0.6464    
   X4.8082       Y0.6537    
   X4.8046       Y0.6622    
   X4.8034       Y0.6714    
   X4.8046       Y0.6805    
   X4.8082       Y0.6891    
   X4.8138       Y0.6964    
   X4.8211       Y0.7020    
   X4.8297       Y0.7056    
(Pass: 3)
   Z-0.0938   
   X4.8388       Y0.7068    
   X4.8480       Y0.7056    
   X4.8565       Y0.7020    
   X4.8638       Y0.6964    
   X4.8695       Y0.6891    
   X4.8730       Y0.6805    
   X4.8742       Y0.6714    
   X4.8730       Y0.6622    
   X4.8695       Y0.6537    
   X4.8638       Y0.6464    
   X4.8565       Y0.6407    
   X4.8480       Y0.6372    
   X4.8388       Y0.6360    
   X4.8297       Y0.6372    
   X4.8211       Y0.6407    
   X4.8138       Y0.6464    
   X4.8082       Y0.6537    
   X4.8046       Y0.6622    
   X4.8034       Y0.6714    
   X4.8046       Y0.6805    
   X4.8082       Y0.6891    
   X4.8138       Y0.6964    
   X4.8211       Y0.7020    
   X4.8297       Y0.7056    
(Pass: 4)
   Z-0.1250   
   X4.8388       Y0.7068    
   X4.8480       Y0.7056    
   X4.8565       Y0.7020    
   X4.8638       Y0.6964    
   X4.8695       Y0.6891    
   X4.8730       Y0.6805    
   X4.8742       Y0.6714    
   X4.8730       Y0.6622    
   X4.8695       Y0.6537    
   X4.8638       Y0.6464    
   X4.8565       Y0.6407    
   X4.8480       Y0.6372    
   X4.8388       Y0.6360    
   X4.8297       Y0.6372    
   X4.8211       Y0.6407    
   X4.8138       Y0.6464    
   X4.8082       Y0.6537    
   X4.8046       Y0.6622    
   X4.8034       Y0.6714    
   X4.8046       Y0.6805    
   X4.8082       Y0.6891    
   X4.8138       Y0.6964    
   X4.8211       Y0.7020    
   X4.8297       Y0.7056    
(Pass: 5)
   Z-0.1562   
   X4.8388       Y0.7068    
   X4.8480       Y0.7056    
   X4.8565       Y0.7020    
   X4.8638       Y0.6964    
   X4.8695       Y0.6891    
   X4.8730       Y0.6805    
   X4.8742       Y0.6714    
   X4.8730       Y0.6622    
   X4.8695       Y0.6537    
   X4.8638       Y0.6464    
   X4.8565       Y0.6407    
   X4.8480       Y0.6372    
   X4.8388       Y0.6360    
   X4.8297       Y0.6372    
   X4.8211       Y0.6407    
   X4.8138       Y0.6464    
   X4.8082       Y0.6537    
   X4.8046       Y0.6622    
   X4.8034       Y0.6714    
   X4.8046       Y0.6805    
   X4.8082       Y0.6891    
   X4.8138       Y0.6964    
   X4.8211       Y0.7020    
   X4.8297       Y0.7056    
(Pass: 6)
   Z-0.1750   
   X4.8388       Y0.7068    
   X4.8480       Y0.7056    
   X4.8565       Y0.7020    
   X4.8638       Y0.6964    
   X4.8695       Y0.6891    
   X4.8730       Y0.6805    
   X4.8742       Y0.6714    
   X4.8730       Y0.6622    
   X4.8695       Y0.6537    
   X4.8638       Y0.6464    
   X4.8565       Y0.6407    
   X4.8480       Y0.6372    
   X4.8388       Y0.6360    
   X4.8297       Y0.6372    
   X4.8211       Y0.6407    
   X4.8138       Y0.6464    
   X4.8082       Y0.6537    
   X4.8046       Y0.6622    
   X4.8034       Y0.6714    
   X4.8046       Y0.6805    
   X4.8082       Y0.6891    
   X4.8138       Y0.6964    
   X4.8211       Y0.7020    
   X4.8297       Y0.7056    
(BREAK pass 6)
G0   Z0.1250    
(Pass: 1)
   X7.8665       Y0.6710    
G1   Z-0.0312    F50  
   X7.8691       Y0.6911    
   X7.8769       Y0.7098    
   X7.8892       Y0.7258    
   X7.9052       Y0.7381    
   X7.9239       Y0.7459    
   X7.9439       Y0.7485    
   X7.9640       Y0.7459    
   X7.9827       Y0.7381    
   X7.9987       Y0.7258    
   X8.0110       Y0.7098    
   X8.0187       Y0.6911    
   X8.0214       Y0.6710    
   X8.0187       Y0.6510    
   X8.0110       Y0.6323    
   X7.9987       Y0.6163    
   X7.9827       Y0.6040    
   X7.9640       Y0.5962    
   X7.9439       Y0.5936    
   X7.9239       Y0.5962    
   X7.9052       Y0.6040    
   X7.8892       Y0.6163    
   X7.8769       Y0.6323    
   X7.8691       Y0.6510    
   X7.8665       Y0.6710    
(Pass: 2)
   Z-0.0625   
   X7.8691       Y0.6911    
   X7.8769       Y0.7098    
   X7.8892       Y0.7258    
   X7.9052       Y0.7381    
   X7.9239       Y0.7459    
   X7.9439       Y0.7485    
   X7.9640       Y0.7459    
   X7.9827       Y0.7381    
   X7.9987       Y0.7258    
   X8.0110       Y0.7098    
   X8.0187       Y0.6911    
   X8.0214       Y0.6710    
   X8.0187       Y0.6510    
   X8.0110       Y0.6323    
   X7.9987       Y0.6163    
   X7.9827       Y0.6040    
   X7.9640       Y0.5962    
   X7.9439       Y0.5936    
   X7.9239       Y0.5962    
   X7.9052       Y0.6040    
   X7.8892       Y0.6163    
   X7.8769       Y0.6323    
   X7.8691       Y0.6510    
   X7.8665       Y0.6710    
(Pass: 3)
   Z-0.0938   
   X7.8691       Y0.6911    
   X7.8769       Y0.7098    
   X7.8892       Y0.7258    
   X7.9052       Y0.7381    
   X7.9239       Y0.7459    
   X7.9439       Y0.7485    
   X7.9640       Y0.7459    
   X7.9827       Y0.7381    
   X7.9987       Y0.7258    
   X8.0110       Y0.7098    
   X8.0187       Y0.6911    
   X8.0214       Y0.6710    
   X8.0187       Y0.6510    
   X8.0110       Y0.6323    
   X7.9987       Y0.6163    
   X7.9827       Y0.6040    
   X7.9640       Y0.5962    
   X7.9439       Y0.5936    
   X7.9239       Y0.5962    
   X7.9052       Y0.6040    
   X7.8892       Y0.6163    
   X7.8769       Y0.6323    
   X7.8691       Y0.6510    
   X7.8665       Y0.6710    
(Pass: 4)
   Z-0.1250   
   X7.8691       Y0.6911    
   X7.8769       Y0.7098    
   X7.8892       Y0.7258    
   X7.9052       Y0.7381    
   X7.9239       Y0.7459    
   X7.9439       Y0.7485    
   X7.9640       Y0.7459    
   X7.9827       Y0.7381    
   X7.9987       Y0.7258    
   X8.0110       Y0.7098    
   X8.0187       Y0.6911    
   X8.0214       Y0.6710    
   X8.0187       Y0.6510    
   X8.0110       Y0.6323    
   X7.9987       Y0.6163    
   X7.9827       Y0.6040    
   X7.9640       Y0.5962    
   X7.9439       Y0.5936    
   X7.9239       Y0.5962    
   X7.9052       Y0.6040    
   X7.8892       Y0.6163    
   X7.8769       Y0.6323    
   X7.8691       Y0.6510    
   X7.8665       Y0.6710    
(Pass: 5)
   Z-0.1562   
   X7.8691       Y0.6911    
   X7.8769       Y0.7098    
   X7.8892       Y0.7258    
   X7.9052       Y0.7381    
   X7.9239       Y0.7459    
   X7.9439       Y0.7485    
   X7.9640       Y0.7459    
   X7.9827       Y0.7381    
   X7.9987       Y0.7258    
   X8.0110       Y0.7098    
   X8.0187       Y0.6911    
   X8.0214       Y0.6710    
   X8.0187       Y0.6510    
   X8.0110       Y0.6323    
   X7.9987       Y0.6163    
   X7.9827       Y0.6040    
   X7.9640       Y0.5962    
   X7.9439       Y0.5936    
   X7.9239       Y0.5962    
   X7.9052       Y0.6040    
   X7.8892       Y0.6163    
   X7.8769       Y0.6323    
   X7.8691       Y0.6510    
   X7.8665       Y0.6710    
(Pass: 6)
   Z-0.1750   
   X7.8691       Y0.6911    
   X7.8769       Y0.7098    
   X7.8892       Y0.7258    
   X7.9052       Y0.7381    
   X7.9239       Y0.7459    
   X7.9439       Y0.7485    
   X7.9640       Y0.7459    
   X7.9827       Y0.7381    
   X7.9987       Y0.7258    
   X8.0110       Y0.7098    
   X8.0187       Y0.6911    
   X8.0214       Y0.6710    
   X8.0187       Y0.6510    
   X8.0110       Y0.6323    
   X7.9987       Y0.6163    
   X7.9827       Y0.6040    
   X7.9640       Y0.5962    
   X7.9439       Y0.5936    
   X7.9239       Y0.5962    
   X7.9052       Y0.6040    
   X7.8892       Y0.6163    
   X7.8769       Y0.6323    
   X7.8691       Y0.6510    
   X7.8665       Y0.6710    
(BREAK pass 6)
G0   Z0.1250    
G0 X0 Y0 (home)
M05
M30
%
