%
(Generated by SketchUcam {1.2a})
(File: Plate_printouts.skp)
(Bit diameter: 1/8")
(Feed rate: 100"/min)
(Plunge Feed rate: 40"/min)
(Material Thickness: 1/4")
(Material length: 15" X width: 25")
(Overhead Gantry: true)
(Retract feed rate NOT limited to plunge feed rate)
(Multipass enabled, Depth = 1/32")
(Optimization is ON)
(www.PhlatBoyz.com)
(Loaded profile default)
G90 G20 G49 
M3 S15000
G0   Z0.1250    
(Pass: 1)
   X0.7335       Y0.8565    
G1   Z-0.0312    F40  
   X0.7175       Y0.8688     F100 
   X0.7052       Y0.8848    
   X0.6974       Y0.9035    
   X0.6948       Y0.9236    
   X0.6974       Y0.9436    
   X0.7052       Y0.9623    
   X0.7175       Y0.9783    
   X0.7335       Y0.9906    
   X0.7522       Y0.9984    
   X0.7722       Y1.0010    
   X0.7923       Y0.9984    
   X0.8110       Y0.9906    
   X0.8270       Y0.9783    
   X0.8393       Y0.9623    
   X0.8470       Y0.9436    
   X0.8497       Y0.9236    
   X0.8470       Y0.9035    
   X0.8393       Y0.8848    
   X0.8270       Y0.8688    
   X0.8110       Y0.8565    
   X0.7923       Y0.8487    
   X0.7722       Y0.8461    
   X0.7522       Y0.8487    
   X0.7335       Y0.8565    
(Pass: 2)
   Z-0.0625    F40  
   X0.7175       Y0.8688     F100 
   X0.7052       Y0.8848    
   X0.6974       Y0.9035    
   X0.6948       Y0.9236    
   X0.6974       Y0.9436    
   X0.7052       Y0.9623    
   X0.7175       Y0.9783    
   X0.7335       Y0.9906    
   X0.7522       Y0.9984    
   X0.7722       Y1.0010    
   X0.7923       Y0.9984    
   X0.8110       Y0.9906    
   X0.8270       Y0.9783    
   X0.8393       Y0.9623    
   X0.8470       Y0.9436    
   X0.8497       Y0.9236    
   X0.8470       Y0.9035    
   X0.8393       Y0.8848    
   X0.8270       Y0.8688    
   X0.8110       Y0.8565    
   X0.7923       Y0.8487    
   X0.7722       Y0.8461    
   X0.7522       Y0.8487    
   X0.7335       Y0.8565    
(Pass: 3)
   Z-0.0938    F40  
   X0.7175       Y0.8688     F100 
   X0.7052       Y0.8848    
   X0.6974       Y0.9035    
   X0.6948       Y0.9236    
   X0.6974       Y0.9436    
   X0.7052       Y0.9623    
   X0.7175       Y0.9783    
   X0.7335       Y0.9906    
   X0.7522       Y0.9984    
   X0.7722       Y1.0010    
   X0.7923       Y0.9984    
   X0.8110       Y0.9906    
   X0.8270       Y0.9783    
   X0.8393       Y0.9623    
   X0.8470       Y0.9436    
   X0.8497       Y0.9236    
   X0.8470       Y0.9035    
   X0.8393       Y0.8848    
   X0.8270       Y0.8688    
   X0.8110       Y0.8565    
   X0.7923       Y0.8487    
   X0.7722       Y0.8461    
   X0.7522       Y0.8487    
   X0.7335       Y0.8565    
(Pass: 4)
   Z-0.1250    F40  
   X0.7175       Y0.8688     F100 
   X0.7052       Y0.8848    
   X0.6974       Y0.9035    
   X0.6948       Y0.9236    
   X0.6974       Y0.9436    
   X0.7052       Y0.9623    
   X0.7175       Y0.9783    
   X0.7335       Y0.9906    
   X0.7522       Y0.9984    
   X0.7722       Y1.0010    
   X0.7923       Y0.9984    
   X0.8110       Y0.9906    
   X0.8270       Y0.9783    
   X0.8393       Y0.9623    
   X0.8470       Y0.9436    
   X0.8497       Y0.9236    
   X0.8470       Y0.9035    
   X0.8393       Y0.8848    
   X0.8270       Y0.8688    
   X0.8110       Y0.8565    
   X0.7923       Y0.8487    
   X0.7722       Y0.8461    
   X0.7522       Y0.8487    
   X0.7335       Y0.8565    
(Pass: 5)
   Z-0.1562    F40  
   X0.7175       Y0.8688     F100 
   X0.7052       Y0.8848    
   X0.6974       Y0.9035    
   X0.6948       Y0.9236    
   X0.6974       Y0.9436    
   X0.7052       Y0.9623    
   X0.7175       Y0.9783    
   X0.7335       Y0.9906    
   X0.7522       Y0.9984    
   X0.7722       Y1.0010    
   X0.7923       Y0.9984    
   X0.8110       Y0.9906    
   X0.8270       Y0.9783    
   X0.8393       Y0.9623    
   X0.8470       Y0.9436    
   X0.8497       Y0.9236    
   X0.8470       Y0.9035    
   X0.8393       Y0.8848    
   X0.8270       Y0.8688    
   X0.8110       Y0.8565    
   X0.7923       Y0.8487    
   X0.7722       Y0.8461    
   X0.7522       Y0.8487    
   X0.7335       Y0.8565    
(Pass: 6)
   Z-0.1875    F40  
   X0.7175       Y0.8688     F100 
   X0.7052       Y0.8848    
   X0.6974       Y0.9035    
   X0.6948       Y0.9236    
   X0.6974       Y0.9436    
   X0.7052       Y0.9623    
   X0.7175       Y0.9783    
   X0.7335       Y0.9906    
   X0.7522       Y0.9984    
   X0.7722       Y1.0010    
   X0.7923       Y0.9984    
   X0.8110       Y0.9906    
   X0.8270       Y0.9783    
   X0.8393       Y0.9623    
   X0.8470       Y0.9436    
   X0.8497       Y0.9236    
   X0.8470       Y0.9035    
   X0.8393       Y0.8848    
   X0.8270       Y0.8688    
   X0.8110       Y0.8565    
   X0.7923       Y0.8487    
   X0.7722       Y0.8461    
   X0.7522       Y0.8487    
   X0.7335       Y0.8565    
(Pass: 7)
   Z-0.2188    F40  
   X0.7175       Y0.8688     F100 
   X0.7052       Y0.8848    
   X0.6974       Y0.9035    
   X0.6948       Y0.9236    
   X0.6974       Y0.9436    
   X0.7052       Y0.9623    
   X0.7175       Y0.9783    
   X0.7335       Y0.9906    
   X0.7522       Y0.9984    
   X0.7722       Y1.0010    
   X0.7923       Y0.9984    
   X0.8110       Y0.9906    
   X0.8270       Y0.9783    
   X0.8393       Y0.9623    
   X0.8470       Y0.9436    
   X0.8497       Y0.9236    
   X0.8470       Y0.9035    
   X0.8393       Y0.8848    
   X0.8270       Y0.8688    
   X0.8110       Y0.8565    
   X0.7923       Y0.8487    
   X0.7722       Y0.8461    
   X0.7522       Y0.8487    
   X0.7335       Y0.8565    
(Pass: 8)
   Z-0.2500    F40  
   X0.7175       Y0.8688     F100 
   X0.7052       Y0.8848    
   X0.6974       Y0.9035    
   X0.6948       Y0.9236    
   X0.6974       Y0.9436    
   X0.7052       Y0.9623    
   X0.7175       Y0.9783    
   X0.7335       Y0.9906    
   X0.7522       Y0.9984    
   X0.7722       Y1.0010    
   X0.7923       Y0.9984    
   X0.8110       Y0.9906    
   X0.8270       Y0.9783    
   X0.8393       Y0.9623    
   X0.8470       Y0.9436    
   X0.8497       Y0.9236    
   X0.8470       Y0.9035    
   X0.8393       Y0.8848    
   X0.8270       Y0.8688    
   X0.8110       Y0.8565    
   X0.7923       Y0.8487    
   X0.7722       Y0.8461    
   X0.7522       Y0.8487    
   X0.7335       Y0.8565    
(Pass: 9)
   Z-0.2812    F40  
   X0.7175       Y0.8688     F100 
   X0.7052       Y0.8848    
   X0.6974       Y0.9035    
   X0.6948       Y0.9236    
   X0.6974       Y0.9436    
   X0.7052       Y0.9623    
   X0.7175       Y0.9783    
   X0.7335       Y0.9906    
   X0.7522       Y0.9984    
   X0.7722       Y1.0010    
   X0.7923       Y0.9984    
   X0.8110       Y0.9906    
   X0.8270       Y0.9783    
   X0.8393       Y0.9623    
   X0.8470       Y0.9436    
   X0.8497       Y0.9236    
   X0.8470       Y0.9035    
   X0.8393       Y0.8848    
   X0.8270       Y0.8688    
   X0.8110       Y0.8565    
   X0.7923       Y0.8487    
   X0.7722       Y0.8461    
   X0.7522       Y0.8487    
   X0.7335       Y0.8565    
(Pass: 10)
   Z-0.3125    F40  
   X0.7175       Y0.8688     F100 
   X0.7052       Y0.8848    
   X0.6974       Y0.9035    
   X0.6948       Y0.9236    
   X0.6974       Y0.9436    
   X0.7052       Y0.9623    
   X0.7175       Y0.9783    
   X0.7335       Y0.9906    
   X0.7522       Y0.9984    
   X0.7722       Y1.0010    
   X0.7923       Y0.9984    
   X0.8110       Y0.9906    
   X0.8270       Y0.9783    
   X0.8393       Y0.9623    
   X0.8470       Y0.9436    
   X0.8497       Y0.9236    
   X0.8470       Y0.9035    
   X0.8393       Y0.8848    
   X0.8270       Y0.8688    
   X0.8110       Y0.8565    
   X0.7923       Y0.8487    
   X0.7722       Y0.8461    
   X0.7522       Y0.8487    
   X0.7335       Y0.8565    
(BREAK pass 10)
G0   Z0.1250    
(Pass: 1)
   X0.7722       Y3.2286    
G1   Z-0.0312    F40  
   X0.7631       Y3.2298     F100 
   X0.7545       Y3.2334    
   X0.7472       Y3.2390    
   X0.7416       Y3.2463    
   X0.7380       Y3.2548    
   X0.7368       Y3.2640    
   X0.7380       Y3.2732    
   X0.7416       Y3.2817    
   X0.7472       Y3.2890    
   X0.7545       Y3.2946    
   X0.7631       Y3.2982    
   X0.7722       Y3.2994    
   X0.7814       Y3.2982    
   X0.7899       Y3.2946    
   X0.7973       Y3.2890    
   X0.8029       Y3.2817    
   X0.8064       Y3.2732    
   X0.8076       Y3.2640    
   X0.8064       Y3.2548    
   X0.8029       Y3.2463    
   X0.7973       Y3.2390    
   X0.7899       Y3.2334    
   X0.7814       Y3.2298    
   X0.7722       Y3.2286    
(Pass: 2)
   Z-0.0625    F40  
   X0.7631       Y3.2298     F100 
   X0.7545       Y3.2334    
   X0.7472       Y3.2390    
   X0.7416       Y3.2463    
   X0.7380       Y3.2548    
   X0.7368       Y3.2640    
   X0.7380       Y3.2732    
   X0.7416       Y3.2817    
   X0.7472       Y3.2890    
   X0.7545       Y3.2946    
   X0.7631       Y3.2982    
   X0.7722       Y3.2994    
   X0.7814       Y3.2982    
   X0.7899       Y3.2946    
   X0.7973       Y3.2890    
   X0.8029       Y3.2817    
   X0.8064       Y3.2732    
   X0.8076       Y3.2640    
   X0.8064       Y3.2548    
   X0.8029       Y3.2463    
   X0.7973       Y3.2390    
   X0.7899       Y3.2334    
   X0.7814       Y3.2298    
   X0.7722       Y3.2286    
(Pass: 3)
   Z-0.0938    F40  
   X0.7631       Y3.2298     F100 
   X0.7545       Y3.2334    
   X0.7472       Y3.2390    
   X0.7416       Y3.2463    
   X0.7380       Y3.2548    
   X0.7368       Y3.2640    
   X0.7380       Y3.2732    
   X0.7416       Y3.2817    
   X0.7472       Y3.2890    
   X0.7545       Y3.2946    
   X0.7631       Y3.2982    
   X0.7722       Y3.2994    
   X0.7814       Y3.2982    
   X0.7899       Y3.2946    
   X0.7973       Y3.2890    
   X0.8029       Y3.2817    
   X0.8064       Y3.2732    
   X0.8076       Y3.2640    
   X0.8064       Y3.2548    
   X0.8029       Y3.2463    
   X0.7973       Y3.2390    
   X0.7899       Y3.2334    
   X0.7814       Y3.2298    
   X0.7722       Y3.2286    
(Pass: 4)
   Z-0.1250    F40  
   X0.7631       Y3.2298     F100 
   X0.7545       Y3.2334    
   X0.7472       Y3.2390    
   X0.7416       Y3.2463    
   X0.7380       Y3.2548    
   X0.7368       Y3.2640    
   X0.7380       Y3.2732    
   X0.7416       Y3.2817    
   X0.7472       Y3.2890    
   X0.7545       Y3.2946    
   X0.7631       Y3.2982    
   X0.7722       Y3.2994    
   X0.7814       Y3.2982    
   X0.7899       Y3.2946    
   X0.7973       Y3.2890    
   X0.8029       Y3.2817    
   X0.8064       Y3.2732    
   X0.8076       Y3.2640    
   X0.8064       Y3.2548    
   X0.8029       Y3.2463    
   X0.7973       Y3.2390    
   X0.7899       Y3.2334    
   X0.7814       Y3.2298    
   X0.7722       Y3.2286    
(Pass: 5)
   Z-0.1562    F40  
   X0.7631       Y3.2298     F100 
   X0.7545       Y3.2334    
   X0.7472       Y3.2390    
   X0.7416       Y3.2463    
   X0.7380       Y3.2548    
   X0.7368       Y3.2640    
   X0.7380       Y3.2732    
   X0.7416       Y3.2817    
   X0.7472       Y3.2890    
   X0.7545       Y3.2946    
   X0.7631       Y3.2982    
   X0.7722       Y3.2994    
   X0.7814       Y3.2982    
   X0.7899       Y3.2946    
   X0.7973       Y3.2890    
   X0.8029       Y3.2817    
   X0.8064       Y3.2732    
   X0.8076       Y3.2640    
   X0.8064       Y3.2548    
   X0.8029       Y3.2463    
   X0.7973       Y3.2390    
   X0.7899       Y3.2334    
   X0.7814       Y3.2298    
   X0.7722       Y3.2286    
(Pass: 6)
   Z-0.1875    F40  
   X0.7631       Y3.2298     F100 
   X0.7545       Y3.2334    
   X0.7472       Y3.2390    
   X0.7416       Y3.2463    
   X0.7380       Y3.2548    
   X0.7368       Y3.2640    
   X0.7380       Y3.2732    
   X0.7416       Y3.2817    
   X0.7472       Y3.2890    
   X0.7545       Y3.2946    
   X0.7631       Y3.2982    
   X0.7722       Y3.2994    
   X0.7814       Y3.2982    
   X0.7899       Y3.2946    
   X0.7973       Y3.2890    
   X0.8029       Y3.2817    
   X0.8064       Y3.2732    
   X0.8076       Y3.2640    
   X0.8064       Y3.2548    
   X0.8029       Y3.2463    
   X0.7973       Y3.2390    
   X0.7899       Y3.2334    
   X0.7814       Y3.2298    
   X0.7722       Y3.2286    
(Pass: 7)
   Z-0.2188    F40  
   X0.7631       Y3.2298     F100 
   X0.7545       Y3.2334    
   X0.7472       Y3.2390    
   X0.7416       Y3.2463    
   X0.7380       Y3.2548    
   X0.7368       Y3.2640    
   X0.7380       Y3.2732    
   X0.7416       Y3.2817    
   X0.7472       Y3.2890    
   X0.7545       Y3.2946    
   X0.7631       Y3.2982    
   X0.7722       Y3.2994    
   X0.7814       Y3.2982    
   X0.7899       Y3.2946    
   X0.7973       Y3.2890    
   X0.8029       Y3.2817    
   X0.8064       Y3.2732    
   X0.8076       Y3.2640    
   X0.8064       Y3.2548    
   X0.8029       Y3.2463    
   X0.7973       Y3.2390    
   X0.7899       Y3.2334    
   X0.7814       Y3.2298    
   X0.7722       Y3.2286    
(Pass: 8)
   Z-0.2500    F40  
   X0.7631       Y3.2298     F100 
   X0.7545       Y3.2334    
   X0.7472       Y3.2390    
   X0.7416       Y3.2463    
   X0.7380       Y3.2548    
   X0.7368       Y3.2640    
   X0.7380       Y3.2732    
   X0.7416       Y3.2817    
   X0.7472       Y3.2890    
   X0.7545       Y3.2946    
   X0.7631       Y3.2982    
   X0.7722       Y3.2994    
   X0.7814       Y3.2982    
   X0.7899       Y3.2946    
   X0.7973       Y3.2890    
   X0.8029       Y3.2817    
   X0.8064       Y3.2732    
   X0.8076       Y3.2640    
   X0.8064       Y3.2548    
   X0.8029       Y3.2463    
   X0.7973       Y3.2390    
   X0.7899       Y3.2334    
   X0.7814       Y3.2298    
   X0.7722       Y3.2286    
(Pass: 9)
   Z-0.2812    F40  
   X0.7631       Y3.2298     F100 
   X0.7545       Y3.2334    
   X0.7472       Y3.2390    
   X0.7416       Y3.2463    
   X0.7380       Y3.2548    
   X0.7368       Y3.2640    
   X0.7380       Y3.2732    
   X0.7416       Y3.2817    
   X0.7472       Y3.2890    
   X0.7545       Y3.2946    
   X0.7631       Y3.2982    
   X0.7722       Y3.2994    
   X0.7814       Y3.2982    
   X0.7899       Y3.2946    
   X0.7973       Y3.2890    
   X0.8029       Y3.2817    
   X0.8064       Y3.2732    
   X0.8076       Y3.2640    
   X0.8064       Y3.2548    
   X0.8029       Y3.2463    
   X0.7973       Y3.2390    
   X0.7899       Y3.2334    
   X0.7814       Y3.2298    
   X0.7722       Y3.2286    
(Pass: 10)
   Z-0.3125    F40  
   X0.7631       Y3.2298     F100 
   X0.7545       Y3.2334    
   X0.7472       Y3.2390    
   X0.7416       Y3.2463    
   X0.7380       Y3.2548    
   X0.7368       Y3.2640    
   X0.7380       Y3.2732    
   X0.7416       Y3.2817    
   X0.7472       Y3.2890    
   X0.7545       Y3.2946    
   X0.7631       Y3.2982    
   X0.7722       Y3.2994    
   X0.7814       Y3.2982    
   X0.7899       Y3.2946    
   X0.7973       Y3.2890    
   X0.8029       Y3.2817    
   X0.8064       Y3.2732    
   X0.8076       Y3.2640    
   X0.8064       Y3.2548    
   X0.8029       Y3.2463    
   X0.7973       Y3.2390    
   X0.7899       Y3.2334    
   X0.7814       Y3.2298    
   X0.7722       Y3.2286    
(BREAK pass 10)
G0   Z0.1250    
(Pass: 1)
   X1.4952       Y3.8692    
G1   Z-0.0312    F40  
   X1.4896       Y3.8765     F100 
   X1.4861       Y3.8850    
   X1.4849       Y3.8942    
   X1.4861       Y3.9034    
   X1.4896       Y3.9119    
   X1.4952       Y3.9192    
   X1.5026       Y3.9248    
   X1.5111       Y3.9284    
   X1.5203       Y3.9296    
   X1.5294       Y3.9284    
   X1.5380       Y3.9248    
   X1.5453       Y3.9192    
   X1.5509       Y3.9119    
   X1.5544       Y3.9034    
   X1.5556       Y3.8942    
   X1.5544       Y3.8850    
   X1.5509       Y3.8765    
   X1.5453       Y3.8692    
   X1.5380       Y3.8636    
   X1.5294       Y3.8600    
   X1.5203       Y3.8588    
   X1.5111       Y3.8600    
   X1.5026       Y3.8636    
   X1.4952       Y3.8692    
(Pass: 2)
   Z-0.0625    F40  
   X1.4896       Y3.8765     F100 
   X1.4861       Y3.8850    
   X1.4849       Y3.8942    
   X1.4861       Y3.9034    
   X1.4896       Y3.9119    
   X1.4952       Y3.9192    
   X1.5026       Y3.9248    
   X1.5111       Y3.9284    
   X1.5203       Y3.9296    
   X1.5294       Y3.9284    
   X1.5380       Y3.9248    
   X1.5453       Y3.9192    
   X1.5509       Y3.9119    
   X1.5544       Y3.9034    
   X1.5556       Y3.8942    
   X1.5544       Y3.8850    
   X1.5509       Y3.8765    
   X1.5453       Y3.8692    
   X1.5380       Y3.8636    
   X1.5294       Y3.8600    
   X1.5203       Y3.8588    
   X1.5111       Y3.8600    
   X1.5026       Y3.8636    
   X1.4952       Y3.8692    
(Pass: 3)
   Z-0.0938    F40  
   X1.4896       Y3.8765     F100 
   X1.4861       Y3.8850    
   X1.4849       Y3.8942    
   X1.4861       Y3.9034    
   X1.4896       Y3.9119    
   X1.4952       Y3.9192    
   X1.5026       Y3.9248    
   X1.5111       Y3.9284    
   X1.5203       Y3.9296    
   X1.5294       Y3.9284    
   X1.5380       Y3.9248    
   X1.5453       Y3.9192    
   X1.5509       Y3.9119    
   X1.5544       Y3.9034    
   X1.5556       Y3.8942    
   X1.5544       Y3.8850    
   X1.5509       Y3.8765    
   X1.5453       Y3.8692    
   X1.5380       Y3.8636    
   X1.5294       Y3.8600    
   X1.5203       Y3.8588    
   X1.5111       Y3.8600    
   X1.5026       Y3.8636    
   X1.4952       Y3.8692    
(Pass: 4)
   Z-0.1250    F40  
   X1.4896       Y3.8765     F100 
   X1.4861       Y3.8850    
   X1.4849       Y3.8942    
   X1.4861       Y3.9034    
   X1.4896       Y3.9119    
   X1.4952       Y3.9192    
   X1.5026       Y3.9248    
   X1.5111       Y3.9284    
   X1.5203       Y3.9296    
   X1.5294       Y3.9284    
   X1.5380       Y3.9248    
   X1.5453       Y3.9192    
   X1.5509       Y3.9119    
   X1.5544       Y3.9034    
   X1.5556       Y3.8942    
   X1.5544       Y3.8850    
   X1.5509       Y3.8765    
   X1.5453       Y3.8692    
   X1.5380       Y3.8636    
   X1.5294       Y3.8600    
   X1.5203       Y3.8588    
   X1.5111       Y3.8600    
   X1.5026       Y3.8636    
   X1.4952       Y3.8692    
(Pass: 5)
   Z-0.1562    F40  
   X1.4896       Y3.8765     F100 
   X1.4861       Y3.8850    
   X1.4849       Y3.8942    
   X1.4861       Y3.9034    
   X1.4896       Y3.9119    
   X1.4952       Y3.9192    
   X1.5026       Y3.9248    
   X1.5111       Y3.9284    
   X1.5203       Y3.9296    
   X1.5294       Y3.9284    
   X1.5380       Y3.9248    
   X1.5453       Y3.9192    
   X1.5509       Y3.9119    
   X1.5544       Y3.9034    
   X1.5556       Y3.8942    
   X1.5544       Y3.8850    
   X1.5509       Y3.8765    
   X1.5453       Y3.8692    
   X1.5380       Y3.8636    
   X1.5294       Y3.8600    
   X1.5203       Y3.8588    
   X1.5111       Y3.8600    
   X1.5026       Y3.8636    
   X1.4952       Y3.8692    
(Pass: 6)
   Z-0.1875    F40  
   X1.4896       Y3.8765     F100 
   X1.4861       Y3.8850    
   X1.4849       Y3.8942    
   X1.4861       Y3.9034    
   X1.4896       Y3.9119    
   X1.4952       Y3.9192    
   X1.5026       Y3.9248    
   X1.5111       Y3.9284    
   X1.5203       Y3.9296    
   X1.5294       Y3.9284    
   X1.5380       Y3.9248    
   X1.5453       Y3.9192    
   X1.5509       Y3.9119    
   X1.5544       Y3.9034    
   X1.5556       Y3.8942    
   X1.5544       Y3.8850    
   X1.5509       Y3.8765    
   X1.5453       Y3.8692    
   X1.5380       Y3.8636    
   X1.5294       Y3.8600    
   X1.5203       Y3.8588    
   X1.5111       Y3.8600    
   X1.5026       Y3.8636    
   X1.4952       Y3.8692    
(Pass: 7)
   Z-0.2188    F40  
   X1.4896       Y3.8765     F100 
   X1.4861       Y3.8850    
   X1.4849       Y3.8942    
   X1.4861       Y3.9034    
   X1.4896       Y3.9119    
   X1.4952       Y3.9192    
   X1.5026       Y3.9248    
   X1.5111       Y3.9284    
   X1.5203       Y3.9296    
   X1.5294       Y3.9284    
   X1.5380       Y3.9248    
   X1.5453       Y3.9192    
   X1.5509       Y3.9119    
   X1.5544       Y3.9034    
   X1.5556       Y3.8942    
   X1.5544       Y3.8850    
   X1.5509       Y3.8765    
   X1.5453       Y3.8692    
   X1.5380       Y3.8636    
   X1.5294       Y3.8600    
   X1.5203       Y3.8588    
   X1.5111       Y3.8600    
   X1.5026       Y3.8636    
   X1.4952       Y3.8692    
(Pass: 8)
   Z-0.2500    F40  
   X1.4896       Y3.8765     F100 
   X1.4861       Y3.8850    
   X1.4849       Y3.8942    
   X1.4861       Y3.9034    
   X1.4896       Y3.9119    
   X1.4952       Y3.9192    
   X1.5026       Y3.9248    
   X1.5111       Y3.9284    
   X1.5203       Y3.9296    
   X1.5294       Y3.9284    
   X1.5380       Y3.9248    
   X1.5453       Y3.9192    
   X1.5509       Y3.9119    
   X1.5544       Y3.9034    
   X1.5556       Y3.8942    
   X1.5544       Y3.8850    
   X1.5509       Y3.8765    
   X1.5453       Y3.8692    
   X1.5380       Y3.8636    
   X1.5294       Y3.8600    
   X1.5203       Y3.8588    
   X1.5111       Y3.8600    
   X1.5026       Y3.8636    
   X1.4952       Y3.8692    
(Pass: 9)
   Z-0.2812    F40  
   X1.4896       Y3.8765     F100 
   X1.4861       Y3.8850    
   X1.4849       Y3.8942    
   X1.4861       Y3.9034    
   X1.4896       Y3.9119    
   X1.4952       Y3.9192    
   X1.5026       Y3.9248    
   X1.5111       Y3.9284    
   X1.5203       Y3.9296    
   X1.5294       Y3.9284    
   X1.5380       Y3.9248    
   X1.5453       Y3.9192    
   X1.5509       Y3.9119    
   X1.5544       Y3.9034    
   X1.5556       Y3.8942    
   X1.5544       Y3.8850    
   X1.5509       Y3.8765    
   X1.5453       Y3.8692    
   X1.5380       Y3.8636    
   X1.5294       Y3.8600    
   X1.5203       Y3.8588    
   X1.5111       Y3.8600    
   X1.5026       Y3.8636    
   X1.4952       Y3.8692    
(Pass: 10)
   Z-0.3125    F40  
   X1.4896       Y3.8765     F100 
   X1.4861       Y3.8850    
   X1.4849       Y3.8942    
   X1.4861       Y3.9034    
   X1.4896       Y3.9119    
   X1.4952       Y3.9192    
   X1.5026       Y3.9248    
   X1.5111       Y3.9284    
   X1.5203       Y3.9296    
   X1.5294       Y3.9284    
   X1.5380       Y3.9248    
   X1.5453       Y3.9192    
   X1.5509       Y3.9119    
   X1.5544       Y3.9034    
   X1.5556       Y3.8942    
   X1.5544       Y3.8850    
   X1.5509       Y3.8765    
   X1.5453       Y3.8692    
   X1.5380       Y3.8636    
   X1.5294       Y3.8600    
   X1.5203       Y3.8588    
   X1.5111       Y3.8600    
   X1.5026       Y3.8636    
   X1.4952       Y3.8692    
(BREAK pass 10)
G0   Z0.1250    
(Pass: 1)
   X1.6840       Y4.5272    
G1   Z-0.0312    F40  
   X1.6754       Y4.5308     F100 
   X1.6681       Y4.5364    
   X1.6625       Y4.5437    
   X1.6589       Y4.5523    
   X1.6577       Y4.5614    
   X1.6589       Y4.5706    
   X1.6625       Y4.5791    
   X1.6681       Y4.5864    
   X1.6754       Y4.5921    
   X1.6840       Y4.5956    
   X1.6931       Y4.5968    
   X1.7023       Y4.5956    
   X1.7108       Y4.5921    
   X1.7181       Y4.5864    
   X1.7238       Y4.5791    
   X1.7273       Y4.5706    
   X1.7285       Y4.5614    
   X1.7273       Y4.5523    
   X1.7238       Y4.5437    
   X1.7181       Y4.5364    
   X1.7108       Y4.5308    
   X1.7023       Y4.5272    
   X1.6931       Y4.5260    
   X1.6840       Y4.5272    
(Pass: 2)
   Z-0.0625    F40  
   X1.6754       Y4.5308     F100 
   X1.6681       Y4.5364    
   X1.6625       Y4.5437    
   X1.6589       Y4.5523    
   X1.6577       Y4.5614    
   X1.6589       Y4.5706    
   X1.6625       Y4.5791    
   X1.6681       Y4.5864    
   X1.6754       Y4.5921    
   X1.6840       Y4.5956    
   X1.6931       Y4.5968    
   X1.7023       Y4.5956    
   X1.7108       Y4.5921    
   X1.7181       Y4.5864    
   X1.7238       Y4.5791    
   X1.7273       Y4.5706    
   X1.7285       Y4.5614    
   X1.7273       Y4.5523    
   X1.7238       Y4.5437    
   X1.7181       Y4.5364    
   X1.7108       Y4.5308    
   X1.7023       Y4.5272    
   X1.6931       Y4.5260    
   X1.6840       Y4.5272    
(Pass: 3)
   Z-0.0938    F40  
   X1.6754       Y4.5308     F100 
   X1.6681       Y4.5364    
   X1.6625       Y4.5437    
   X1.6589       Y4.5523    
   X1.6577       Y4.5614    
   X1.6589       Y4.5706    
   X1.6625       Y4.5791    
   X1.6681       Y4.5864    
   X1.6754       Y4.5921    
   X1.6840       Y4.5956    
   X1.6931       Y4.5968    
   X1.7023       Y4.5956    
   X1.7108       Y4.5921    
   X1.7181       Y4.5864    
   X1.7238       Y4.5791    
   X1.7273       Y4.5706    
   X1.7285       Y4.5614    
   X1.7273       Y4.5523    
   X1.7238       Y4.5437    
   X1.7181       Y4.5364    
   X1.7108       Y4.5308    
   X1.7023       Y4.5272    
   X1.6931       Y4.5260    
   X1.6840       Y4.5272    
(Pass: 4)
   Z-0.1250    F40  
   X1.6754       Y4.5308     F100 
   X1.6681       Y4.5364    
   X1.6625       Y4.5437    
   X1.6589       Y4.5523    
   X1.6577       Y4.5614    
   X1.6589       Y4.5706    
   X1.6625       Y4.5791    
   X1.6681       Y4.5864    
   X1.6754       Y4.5921    
   X1.6840       Y4.5956    
   X1.6931       Y4.5968    
   X1.7023       Y4.5956    
   X1.7108       Y4.5921    
   X1.7181       Y4.5864    
   X1.7238       Y4.5791    
   X1.7273       Y4.5706    
   X1.7285       Y4.5614    
   X1.7273       Y4.5523    
   X1.7238       Y4.5437    
   X1.7181       Y4.5364    
   X1.7108       Y4.5308    
   X1.7023       Y4.5272    
   X1.6931       Y4.5260    
   X1.6840       Y4.5272    
(Pass: 5)
   Z-0.1562    F40  
   X1.6754       Y4.5308     F100 
   X1.6681       Y4.5364    
   X1.6625       Y4.5437    
   X1.6589       Y4.5523    
   X1.6577       Y4.5614    
   X1.6589       Y4.5706    
   X1.6625       Y4.5791    
   X1.6681       Y4.5864    
   X1.6754       Y4.5921    
   X1.6840       Y4.5956    
   X1.6931       Y4.5968    
   X1.7023       Y4.5956    
   X1.7108       Y4.5921    
   X1.7181       Y4.5864    
   X1.7238       Y4.5791    
   X1.7273       Y4.5706    
   X1.7285       Y4.5614    
   X1.7273       Y4.5523    
   X1.7238       Y4.5437    
   X1.7181       Y4.5364    
   X1.7108       Y4.5308    
   X1.7023       Y4.5272    
   X1.6931       Y4.5260    
   X1.6840       Y4.5272    
(Pass: 6)
   Z-0.1875    F40  
   X1.6754       Y4.5308     F100 
   X1.6681       Y4.5364    
   X1.6625       Y4.5437    
   X1.6589       Y4.5523    
   X1.6577       Y4.5614    
   X1.6589       Y4.5706    
   X1.6625       Y4.5791    
   X1.6681       Y4.5864    
   X1.6754       Y4.5921    
   X1.6840       Y4.5956    
   X1.6931       Y4.5968    
   X1.7023       Y4.5956    
   X1.7108       Y4.5921    
   X1.7181       Y4.5864    
   X1.7238       Y4.5791    
   X1.7273       Y4.5706    
   X1.7285       Y4.5614    
   X1.7273       Y4.5523    
   X1.7238       Y4.5437    
   X1.7181       Y4.5364    
   X1.7108       Y4.5308    
   X1.7023       Y4.5272    
   X1.6931       Y4.5260    
   X1.6840       Y4.5272    
(Pass: 7)
   Z-0.2188    F40  
   X1.6754       Y4.5308     F100 
   X1.6681       Y4.5364    
   X1.6625       Y4.5437    
   X1.6589       Y4.5523    
   X1.6577       Y4.5614    
   X1.6589       Y4.5706    
   X1.6625       Y4.5791    
   X1.6681       Y4.5864    
   X1.6754       Y4.5921    
   X1.6840       Y4.5956    
   X1.6931       Y4.5968    
   X1.7023       Y4.5956    
   X1.7108       Y4.5921    
   X1.7181       Y4.5864    
   X1.7238       Y4.5791    
   X1.7273       Y4.5706    
   X1.7285       Y4.5614    
   X1.7273       Y4.5523    
   X1.7238       Y4.5437    
   X1.7181       Y4.5364    
   X1.7108       Y4.5308    
   X1.7023       Y4.5272    
   X1.6931       Y4.5260    
   X1.6840       Y4.5272    
(Pass: 8)
   Z-0.2500    F40  
   X1.6754       Y4.5308     F100 
   X1.6681       Y4.5364    
   X1.6625       Y4.5437    
   X1.6589       Y4.5523    
   X1.6577       Y4.5614    
   X1.6589       Y4.5706    
   X1.6625       Y4.5791    
   X1.6681       Y4.5864    
   X1.6754       Y4.5921    
   X1.6840       Y4.5956    
   X1.6931       Y4.5968    
   X1.7023       Y4.5956    
   X1.7108       Y4.5921    
   X1.7181       Y4.5864    
   X1.7238       Y4.5791    
   X1.7273       Y4.5706    
   X1.7285       Y4.5614    
   X1.7273       Y4.5523    
   X1.7238       Y4.5437    
   X1.7181       Y4.5364    
   X1.7108       Y4.5308    
   X1.7023       Y4.5272    
   X1.6931       Y4.5260    
   X1.6840       Y4.5272    
(Pass: 9)
   Z-0.2812    F40  
   X1.6754       Y4.5308     F100 
   X1.6681       Y4.5364    
   X1.6625       Y4.5437    
   X1.6589       Y4.5523    
   X1.6577       Y4.5614    
   X1.6589       Y4.5706    
   X1.6625       Y4.5791    
   X1.6681       Y4.5864    
   X1.6754       Y4.5921    
   X1.6840       Y4.5956    
   X1.6931       Y4.5968    
   X1.7023       Y4.5956    
   X1.7108       Y4.5921    
   X1.7181       Y4.5864    
   X1.7238       Y4.5791    
   X1.7273       Y4.5706    
   X1.7285       Y4.5614    
   X1.7273       Y4.5523    
   X1.7238       Y4.5437    
   X1.7181       Y4.5364    
   X1.7108       Y4.5308    
   X1.7023       Y4.5272    
   X1.6931       Y4.5260    
   X1.6840       Y4.5272    
(Pass: 10)
   Z-0.3125    F40  
   X1.6754       Y4.5308     F100 
   X1.6681       Y4.5364    
   X1.6625       Y4.5437    
   X1.6589       Y4.5523    
   X1.6577       Y4.5614    
   X1.6589       Y4.5706    
   X1.6625       Y4.5791    
   X1.6681       Y4.5864    
   X1.6754       Y4.5921    
   X1.6840       Y4.5956    
   X1.6931       Y4.5968    
   X1.7023       Y4.5956    
   X1.7108       Y4.5921    
   X1.7181       Y4.5864    
   X1.7238       Y4.5791    
   X1.7273       Y4.5706    
   X1.7285       Y4.5614    
   X1.7273       Y4.5523    
   X1.7238       Y4.5437    
   X1.7181       Y4.5364    
   X1.7108       Y4.5308    
   X1.7023       Y4.5272    
   X1.6931       Y4.5260    
   X1.6840       Y4.5272    
(BREAK pass 10)
G0   Z0.1250    
(Pass: 1)
   X0.8864       Y4.5614    
G1   Z-0.0312    F40  
   X0.8851       Y4.5523     F100 
   X0.8816       Y4.5437    
   X0.8760       Y4.5364    
   X0.8687       Y4.5308    
   X0.8601       Y4.5272    
   X0.8510       Y4.5260    
   X0.8418       Y4.5272    
   X0.8333       Y4.5308    
   X0.8259       Y4.5364    
   X0.8203       Y4.5437    
   X0.8168       Y4.5523    
   X0.8156       Y4.5614    
   X0.8168       Y4.5706    
   X0.8203       Y4.5791    
   X0.8259       Y4.5864    
   X0.8333       Y4.5921    
   X0.8418       Y4.5956    
   X0.8510       Y4.5968    
   X0.8601       Y4.5956    
   X0.8687       Y4.5921    
   X0.8760       Y4.5864    
   X0.8816       Y4.5791    
   X0.8851       Y4.5706    
   X0.8864       Y4.5614    
(Pass: 2)
   Z-0.0625    F40  
   X0.8851       Y4.5523     F100 
   X0.8816       Y4.5437    
   X0.8760       Y4.5364    
   X0.8687       Y4.5308    
   X0.8601       Y4.5272    
   X0.8510       Y4.5260    
   X0.8418       Y4.5272    
   X0.8333       Y4.5308    
   X0.8259       Y4.5364    
   X0.8203       Y4.5437    
   X0.8168       Y4.5523    
   X0.8156       Y4.5614    
   X0.8168       Y4.5706    
   X0.8203       Y4.5791    
   X0.8259       Y4.5864    
   X0.8333       Y4.5921    
   X0.8418       Y4.5956    
   X0.8510       Y4.5968    
   X0.8601       Y4.5956    
   X0.8687       Y4.5921    
   X0.8760       Y4.5864    
   X0.8816       Y4.5791    
   X0.8851       Y4.5706    
   X0.8864       Y4.5614    
(Pass: 3)
   Z-0.0938    F40  
   X0.8851       Y4.5523     F100 
   X0.8816       Y4.5437    
   X0.8760       Y4.5364    
   X0.8687       Y4.5308    
   X0.8601       Y4.5272    
   X0.8510       Y4.5260    
   X0.8418       Y4.5272    
   X0.8333       Y4.5308    
   X0.8259       Y4.5364    
   X0.8203       Y4.5437    
   X0.8168       Y4.5523    
   X0.8156       Y4.5614    
   X0.8168       Y4.5706    
   X0.8203       Y4.5791    
   X0.8259       Y4.5864    
   X0.8333       Y4.5921    
   X0.8418       Y4.5956    
   X0.8510       Y4.5968    
   X0.8601       Y4.5956    
   X0.8687       Y4.5921    
   X0.8760       Y4.5864    
   X0.8816       Y4.5791    
   X0.8851       Y4.5706    
   X0.8864       Y4.5614    
(Pass: 4)
   Z-0.1250    F40  
   X0.8851       Y4.5523     F100 
   X0.8816       Y4.5437    
   X0.8760       Y4.5364    
   X0.8687       Y4.5308    
   X0.8601       Y4.5272    
   X0.8510       Y4.5260    
   X0.8418       Y4.5272    
   X0.8333       Y4.5308    
   X0.8259       Y4.5364    
   X0.8203       Y4.5437    
   X0.8168       Y4.5523    
   X0.8156       Y4.5614    
   X0.8168       Y4.5706    
   X0.8203       Y4.5791    
   X0.8259       Y4.5864    
   X0.8333       Y4.5921    
   X0.8418       Y4.5956    
   X0.8510       Y4.5968    
   X0.8601       Y4.5956    
   X0.8687       Y4.5921    
   X0.8760       Y4.5864    
   X0.8816       Y4.5791    
   X0.8851       Y4.5706    
   X0.8864       Y4.5614    
(Pass: 5)
   Z-0.1562    F40  
   X0.8851       Y4.5523     F100 
   X0.8816       Y4.5437    
   X0.8760       Y4.5364    
   X0.8687       Y4.5308    
   X0.8601       Y4.5272    
   X0.8510       Y4.5260    
   X0.8418       Y4.5272    
   X0.8333       Y4.5308    
   X0.8259       Y4.5364    
   X0.8203       Y4.5437    
   X0.8168       Y4.5523    
   X0.8156       Y4.5614    
   X0.8168       Y4.5706    
   X0.8203       Y4.5791    
   X0.8259       Y4.5864    
   X0.8333       Y4.5921    
   X0.8418       Y4.5956    
   X0.8510       Y4.5968    
   X0.8601       Y4.5956    
   X0.8687       Y4.5921    
   X0.8760       Y4.5864    
   X0.8816       Y4.5791    
   X0.8851       Y4.5706    
   X0.8864       Y4.5614    
(Pass: 6)
   Z-0.1875    F40  
   X0.8851       Y4.5523     F100 
   X0.8816       Y4.5437    
   X0.8760       Y4.5364    
   X0.8687       Y4.5308    
   X0.8601       Y4.5272    
   X0.8510       Y4.5260    
   X0.8418       Y4.5272    
   X0.8333       Y4.5308    
   X0.8259       Y4.5364    
   X0.8203       Y4.5437    
   X0.8168       Y4.5523    
   X0.8156       Y4.5614    
   X0.8168       Y4.5706    
   X0.8203       Y4.5791    
   X0.8259       Y4.5864    
   X0.8333       Y4.5921    
   X0.8418       Y4.5956    
   X0.8510       Y4.5968    
   X0.8601       Y4.5956    
   X0.8687       Y4.5921    
   X0.8760       Y4.5864    
   X0.8816       Y4.5791    
   X0.8851       Y4.5706    
   X0.8864       Y4.5614    
(Pass: 7)
   Z-0.2188    F40  
   X0.8851       Y4.5523     F100 
   X0.8816       Y4.5437    
   X0.8760       Y4.5364    
   X0.8687       Y4.5308    
   X0.8601       Y4.5272    
   X0.8510       Y4.5260    
   X0.8418       Y4.5272    
   X0.8333       Y4.5308    
   X0.8259       Y4.5364    
   X0.8203       Y4.5437    
   X0.8168       Y4.5523    
   X0.8156       Y4.5614    
   X0.8168       Y4.5706    
   X0.8203       Y4.5791    
   X0.8259       Y4.5864    
   X0.8333       Y4.5921    
   X0.8418       Y4.5956    
   X0.8510       Y4.5968    
   X0.8601       Y4.5956    
   X0.8687       Y4.5921    
   X0.8760       Y4.5864    
   X0.8816       Y4.5791    
   X0.8851       Y4.5706    
   X0.8864       Y4.5614    
(Pass: 8)
   Z-0.2500    F40  
   X0.8851       Y4.5523     F100 
   X0.8816       Y4.5437    
   X0.8760       Y4.5364    
   X0.8687       Y4.5308    
   X0.8601       Y4.5272    
   X0.8510       Y4.5260    
   X0.8418       Y4.5272    
   X0.8333       Y4.5308    
   X0.8259       Y4.5364    
   X0.8203       Y4.5437    
   X0.8168       Y4.5523    
   X0.8156       Y4.5614    
   X0.8168       Y4.5706    
   X0.8203       Y4.5791    
   X0.8259       Y4.5864    
   X0.8333       Y4.5921    
   X0.8418       Y4.5956    
   X0.8510       Y4.5968    
   X0.8601       Y4.5956    
   X0.8687       Y4.5921    
   X0.8760       Y4.5864    
   X0.8816       Y4.5791    
   X0.8851       Y4.5706    
   X0.8864       Y4.5614    
(Pass: 9)
   Z-0.2812    F40  
   X0.8851       Y4.5523     F100 
   X0.8816       Y4.5437    
   X0.8760       Y4.5364    
   X0.8687       Y4.5308    
   X0.8601       Y4.5272    
   X0.8510       Y4.5260    
   X0.8418       Y4.5272    
   X0.8333       Y4.5308    
   X0.8259       Y4.5364    
   X0.8203       Y4.5437    
   X0.8168       Y4.5523    
   X0.8156       Y4.5614    
   X0.8168       Y4.5706    
   X0.8203       Y4.5791    
   X0.8259       Y4.5864    
   X0.8333       Y4.5921    
   X0.8418       Y4.5956    
   X0.8510       Y4.5968    
   X0.8601       Y4.5956    
   X0.8687       Y4.5921    
   X0.8760       Y4.5864    
   X0.8816       Y4.5791    
   X0.8851       Y4.5706    
   X0.8864       Y4.5614    
(Pass: 10)
   Z-0.3125    F40  
   X0.8851       Y4.5523     F100 
   X0.8816       Y4.5437    
   X0.8760       Y4.5364    
   X0.8687       Y4.5308    
   X0.8601       Y4.5272    
   X0.8510       Y4.5260    
   X0.8418       Y4.5272    
   X0.8333       Y4.5308    
   X0.8259       Y4.5364    
   X0.8203       Y4.5437    
   X0.8168       Y4.5523    
   X0.8156       Y4.5614    
   X0.8168       Y4.5706    
   X0.8203       Y4.5791    
   X0.8259       Y4.5864    
   X0.8333       Y4.5921    
   X0.8418       Y4.5956    
   X0.8510       Y4.5968    
   X0.8601       Y4.5956    
   X0.8687       Y4.5921    
   X0.8760       Y4.5864    
   X0.8816       Y4.5791    
   X0.8851       Y4.5706    
   X0.8864       Y4.5614    
(BREAK pass 10)
G0   Z0.1250    
(Pass: 1)
   X0.8510       Y5.3134    
G1   Z-0.0312    F40  
   X0.8418       Y5.3146     F100 
   X0.8333       Y5.3182    
   X0.8259       Y5.3238    
   X0.8203       Y5.3311    
   X0.8168       Y5.3397    
   X0.8156       Y5.3488    
   X0.8168       Y5.3580    
   X0.8203       Y5.3665    
   X0.8259       Y5.3738    
   X0.8333       Y5.3795    
   X0.8418       Y5.3830    
   X0.8510       Y5.3842    
   X0.8601       Y5.3830    
   X0.8687       Y5.3795    
   X0.8760       Y5.3738    
   X0.8816       Y5.3665    
   X0.8851       Y5.3580    
   X0.8864       Y5.3488    
   X0.8851       Y5.3397    
   X0.8816       Y5.3311    
   X0.8760       Y5.3238    
   X0.8687       Y5.3182    
   X0.8601       Y5.3146    
   X0.8510       Y5.3134    
(Pass: 2)
   Z-0.0625    F40  
   X0.8418       Y5.3146     F100 
   X0.8333       Y5.3182    
   X0.8259       Y5.3238    
   X0.8203       Y5.3311    
   X0.8168       Y5.3397    
   X0.8156       Y5.3488    
   X0.8168       Y5.3580    
   X0.8203       Y5.3665    
   X0.8259       Y5.3738    
   X0.8333       Y5.3795    
   X0.8418       Y5.3830    
   X0.8510       Y5.3842    
   X0.8601       Y5.3830    
   X0.8687       Y5.3795    
   X0.8760       Y5.3738    
   X0.8816       Y5.3665    
   X0.8851       Y5.3580    
   X0.8864       Y5.3488    
   X0.8851       Y5.3397    
   X0.8816       Y5.3311    
   X0.8760       Y5.3238    
   X0.8687       Y5.3182    
   X0.8601       Y5.3146    
   X0.8510       Y5.3134    
(Pass: 3)
   Z-0.0938    F40  
   X0.8418       Y5.3146     F100 
   X0.8333       Y5.3182    
   X0.8259       Y5.3238    
   X0.8203       Y5.3311    
   X0.8168       Y5.3397    
   X0.8156       Y5.3488    
   X0.8168       Y5.3580    
   X0.8203       Y5.3665    
   X0.8259       Y5.3738    
   X0.8333       Y5.3795    
   X0.8418       Y5.3830    
   X0.8510       Y5.3842    
   X0.8601       Y5.3830    
   X0.8687       Y5.3795    
   X0.8760       Y5.3738    
   X0.8816       Y5.3665    
   X0.8851       Y5.3580    
   X0.8864       Y5.3488    
   X0.8851       Y5.3397    
   X0.8816       Y5.3311    
   X0.8760       Y5.3238    
   X0.8687       Y5.3182    
   X0.8601       Y5.3146    
   X0.8510       Y5.3134    
(Pass: 4)
   Z-0.1250    F40  
   X0.8418       Y5.3146     F100 
   X0.8333       Y5.3182    
   X0.8259       Y5.3238    
   X0.8203       Y5.3311    
   X0.8168       Y5.3397    
   X0.8156       Y5.3488    
   X0.8168       Y5.3580    
   X0.8203       Y5.3665    
   X0.8259       Y5.3738    
   X0.8333       Y5.3795    
   X0.8418       Y5.3830    
   X0.8510       Y5.3842    
   X0.8601       Y5.3830    
   X0.8687       Y5.3795    
   X0.8760       Y5.3738    
   X0.8816       Y5.3665    
   X0.8851       Y5.3580    
   X0.8864       Y5.3488    
   X0.8851       Y5.3397    
   X0.8816       Y5.3311    
   X0.8760       Y5.3238    
   X0.8687       Y5.3182    
   X0.8601       Y5.3146    
   X0.8510       Y5.3134    
(Pass: 5)
   Z-0.1562    F40  
   X0.8418       Y5.3146     F100 
   X0.8333       Y5.3182    
   X0.8259       Y5.3238    
   X0.8203       Y5.3311    
   X0.8168       Y5.3397    
   X0.8156       Y5.3488    
   X0.8168       Y5.3580    
   X0.8203       Y5.3665    
   X0.8259       Y5.3738    
   X0.8333       Y5.3795    
   X0.8418       Y5.3830    
   X0.8510       Y5.3842    
   X0.8601       Y5.3830    
   X0.8687       Y5.3795    
   X0.8760       Y5.3738    
   X0.8816       Y5.3665    
   X0.8851       Y5.3580    
   X0.8864       Y5.3488    
   X0.8851       Y5.3397    
   X0.8816       Y5.3311    
   X0.8760       Y5.3238    
   X0.8687       Y5.3182    
   X0.8601       Y5.3146    
   X0.8510       Y5.3134    
(Pass: 6)
   Z-0.1875    F40  
   X0.8418       Y5.3146     F100 
   X0.8333       Y5.3182    
   X0.8259       Y5.3238    
   X0.8203       Y5.3311    
   X0.8168       Y5.3397    
   X0.8156       Y5.3488    
   X0.8168       Y5.3580    
   X0.8203       Y5.3665    
   X0.8259       Y5.3738    
   X0.8333       Y5.3795    
   X0.8418       Y5.3830    
   X0.8510       Y5.3842    
   X0.8601       Y5.3830    
   X0.8687       Y5.3795    
   X0.8760       Y5.3738    
   X0.8816       Y5.3665    
   X0.8851       Y5.3580    
   X0.8864       Y5.3488    
   X0.8851       Y5.3397    
   X0.8816       Y5.3311    
   X0.8760       Y5.3238    
   X0.8687       Y5.3182    
   X0.8601       Y5.3146    
   X0.8510       Y5.3134    
(Pass: 7)
   Z-0.2188    F40  
   X0.8418       Y5.3146     F100 
   X0.8333       Y5.3182    
   X0.8259       Y5.3238    
   X0.8203       Y5.3311    
   X0.8168       Y5.3397    
   X0.8156       Y5.3488    
   X0.8168       Y5.3580    
   X0.8203       Y5.3665    
   X0.8259       Y5.3738    
   X0.8333       Y5.3795    
   X0.8418       Y5.3830    
   X0.8510       Y5.3842    
   X0.8601       Y5.3830    
   X0.8687       Y5.3795    
   X0.8760       Y5.3738    
   X0.8816       Y5.3665    
   X0.8851       Y5.3580    
   X0.8864       Y5.3488    
   X0.8851       Y5.3397    
   X0.8816       Y5.3311    
   X0.8760       Y5.3238    
   X0.8687       Y5.3182    
   X0.8601       Y5.3146    
   X0.8510       Y5.3134    
(Pass: 8)
   Z-0.2500    F40  
   X0.8418       Y5.3146     F100 
   X0.8333       Y5.3182    
   X0.8259       Y5.3238    
   X0.8203       Y5.3311    
   X0.8168       Y5.3397    
   X0.8156       Y5.3488    
   X0.8168       Y5.3580    
   X0.8203       Y5.3665    
   X0.8259       Y5.3738    
   X0.8333       Y5.3795    
   X0.8418       Y5.3830    
   X0.8510       Y5.3842    
   X0.8601       Y5.3830    
   X0.8687       Y5.3795    
   X0.8760       Y5.3738    
   X0.8816       Y5.3665    
   X0.8851       Y5.3580    
   X0.8864       Y5.3488    
   X0.8851       Y5.3397    
   X0.8816       Y5.3311    
   X0.8760       Y5.3238    
   X0.8687       Y5.3182    
   X0.8601       Y5.3146    
   X0.8510       Y5.3134    
(Pass: 9)
   Z-0.2812    F40  
   X0.8418       Y5.3146     F100 
   X0.8333       Y5.3182    
   X0.8259       Y5.3238    
   X0.8203       Y5.3311    
   X0.8168       Y5.3397    
   X0.8156       Y5.3488    
   X0.8168       Y5.3580    
   X0.8203       Y5.3665    
   X0.8259       Y5.3738    
   X0.8333       Y5.3795    
   X0.8418       Y5.3830    
   X0.8510       Y5.3842    
   X0.8601       Y5.3830    
   X0.8687       Y5.3795    
   X0.8760       Y5.3738    
   X0.8816       Y5.3665    
   X0.8851       Y5.3580    
   X0.8864       Y5.3488    
   X0.8851       Y5.3397    
   X0.8816       Y5.3311    
   X0.8760       Y5.3238    
   X0.8687       Y5.3182    
   X0.8601       Y5.3146    
   X0.8510       Y5.3134    
(Pass: 10)
   Z-0.3125    F40  
   X0.8418       Y5.3146     F100 
   X0.8333       Y5.3182    
   X0.8259       Y5.3238    
   X0.8203       Y5.3311    
   X0.8168       Y5.3397    
   X0.8156       Y5.3488    
   X0.8168       Y5.3580    
   X0.8203       Y5.3665    
   X0.8259       Y5.3738    
   X0.8333       Y5.3795    
   X0.8418       Y5.3830    
   X0.8510       Y5.3842    
   X0.8601       Y5.3830    
   X0.8687       Y5.3795    
   X0.8760       Y5.3738    
   X0.8816       Y5.3665    
   X0.8851       Y5.3580    
   X0.8864       Y5.3488    
   X0.8851       Y5.3397    
   X0.8816       Y5.3311    
   X0.8760       Y5.3238    
   X0.8687       Y5.3182    
   X0.8601       Y5.3146    
   X0.8510       Y5.3134    
(BREAK pass 10)
G0   Z0.1250    
(Pass: 1)
   X0.8467       Y5.6590    
G1   Z-0.0312    F40  
   X0.8375       Y5.6602     F100 
   X0.8290       Y5.6637    
   X0.8216       Y5.6693    
   X0.8160       Y5.6767    
   X0.8125       Y5.6852    
   X0.8080       Y5.7197    
   X0.7403       Y5.8049    
   X0.6310    
   X0.6299       Y5.9015    
   Y6.3138    
   X1.0765       Y6.3154    
   X1.0830       Y6.3141    
   Y6.3098    
   Y5.8118    
   Y5.8058    
   X1.0765       Y5.8045    
   X0.9533    
   X0.8854       Y5.7197    
   X0.8809       Y5.6852    
   X0.8773       Y5.6766    
   X0.8717       Y5.6693    
   X0.8644       Y5.6637    
   X0.8558       Y5.6602    
   X0.8467       Y5.6590    
(Pass: 2)
   Z-0.0625    F40  
   X0.8375       Y5.6602     F100 
   X0.8290       Y5.6637    
   X0.8216       Y5.6693    
   X0.8160       Y5.6767    
   X0.8125       Y5.6852    
   X0.8080       Y5.7197    
   X0.7403       Y5.8049    
   X0.6310    
   X0.6299       Y5.9015    
   Y6.3138    
   X1.0765       Y6.3154    
   X1.0830       Y6.3141    
   Y6.3098    
   Y5.8118    
   Y5.8058    
   X1.0765       Y5.8045    
   X0.9533    
   X0.8854       Y5.7197    
   X0.8809       Y5.6852    
   X0.8773       Y5.6766    
   X0.8717       Y5.6693    
   X0.8644       Y5.6637    
   X0.8558       Y5.6602    
   X0.8467       Y5.6590    
(Pass: 3)
   Z-0.0938    F40  
   X0.8375       Y5.6602     F100 
   X0.8290       Y5.6637    
   X0.8216       Y5.6693    
   X0.8160       Y5.6767    
   X0.8125       Y5.6852    
   X0.8080       Y5.7197    
   X0.7403       Y5.8049    
   X0.6310    
   X0.6299       Y5.9015    
   Y6.3138    
   X1.0765       Y6.3154    
   X1.0830       Y6.3141    
   Y6.3098    
   Y5.8118    
   Y5.8058    
   X1.0765       Y5.8045    
   X0.9533    
   X0.8854       Y5.7197    
   X0.8809       Y5.6852    
   X0.8773       Y5.6766    
   X0.8717       Y5.6693    
   X0.8644       Y5.6637    
   X0.8558       Y5.6602    
   X0.8467       Y5.6590    
(Pass: 4)
   Z-0.1250    F40  
   X0.8375       Y5.6602     F100 
   X0.8290       Y5.6637    
   X0.8216       Y5.6693    
   X0.8160       Y5.6767    
   X0.8125       Y5.6852    
   X0.8080       Y5.7197    
   X0.7403       Y5.8049    
   X0.6310    
   X0.6299       Y5.9015    
   Y6.3138    
   X1.0765       Y6.3154    
   X1.0830       Y6.3141    
   Y6.3098    
   Y5.8118    
   Y5.8058    
   X1.0765       Y5.8045    
   X0.9533    
   X0.8854       Y5.7197    
   X0.8809       Y5.6852    
   X0.8773       Y5.6766    
   X0.8717       Y5.6693    
   X0.8644       Y5.6637    
   X0.8558       Y5.6602    
   X0.8467       Y5.6590    
(Pass: 5)
   Z-0.1562    F40  
   X0.8375       Y5.6602     F100 
   X0.8290       Y5.6637    
   X0.8216       Y5.6693    
   X0.8160       Y5.6767    
   X0.8125       Y5.6852    
   X0.8080       Y5.7197    
   X0.7403       Y5.8049    
   X0.6310    
   X0.6299       Y5.9015    
   Y6.3138    
   X1.0765       Y6.3154    
   X1.0830       Y6.3141    
   Y6.3098    
   Y5.8118    
   Y5.8058    
   X1.0765       Y5.8045    
   X0.9533    
   X0.8854       Y5.7197    
   X0.8809       Y5.6852    
   X0.8773       Y5.6766    
   X0.8717       Y5.6693    
   X0.8644       Y5.6637    
   X0.8558       Y5.6602    
   X0.8467       Y5.6590    
(Pass: 6)
   Z-0.1875    F40  
   X0.8375       Y5.6602     F100 
   X0.8290       Y5.6637    
   X0.8216       Y5.6693    
   X0.8160       Y5.6767    
   X0.8125       Y5.6852    
   X0.8080       Y5.7197    
   X0.7403       Y5.8049    
   X0.6310    
   X0.6299       Y5.9015    
   Y6.3138    
   X1.0765       Y6.3154    
   X1.0830       Y6.3141    
   Y6.3098    
   Y5.8118    
   Y5.8058    
   X1.0765       Y5.8045    
   X0.9533    
   X0.8854       Y5.7197    
   X0.8809       Y5.6852    
   X0.8773       Y5.6766    
   X0.8717       Y5.6693    
   X0.8644       Y5.6637    
   X0.8558       Y5.6602    
   X0.8467       Y5.6590    
(Pass: 7)
   Z-0.2188    F40  
   X0.8375       Y5.6602     F100 
   X0.8290       Y5.6637    
   X0.8216       Y5.6693    
   X0.8160       Y5.6767    
   X0.8125       Y5.6852    
   X0.8080       Y5.7197    
   X0.7403       Y5.8049    
   X0.6310    
   X0.6299       Y5.9015    
   Y6.3138    
   X1.0765       Y6.3154    
   X1.0830       Y6.3141    
   Y6.3098    
   Y5.8118    
   Y5.8058    
   X1.0765       Y5.8045    
   X0.9533    
   X0.8854       Y5.7197    
   X0.8809       Y5.6852    
   X0.8773       Y5.6766    
   X0.8717       Y5.6693    
   X0.8644       Y5.6637    
   X0.8558       Y5.6602    
   X0.8467       Y5.6590    
(Pass: 8)
   Z-0.2500    F40  
   X0.8375       Y5.6602     F100 
   X0.8290       Y5.6637    
   X0.8216       Y5.6693    
   X0.8160       Y5.6767    
   X0.8125       Y5.6852    
   X0.8080       Y5.7197    
   X0.7403       Y5.8049    
   X0.6310    
   X0.6299       Y5.9015    
   Y6.3138    
   X1.0765       Y6.3154    
   X1.0830       Y6.3141    
   Y6.3098    
   Y5.8118    
   Y5.8058    
   X1.0765       Y5.8045    
   X0.9533    
   X0.8854       Y5.7197    
   X0.8809       Y5.6852    
   X0.8773       Y5.6766    
   X0.8717       Y5.6693    
   X0.8644       Y5.6637    
   X0.8558       Y5.6602    
   X0.8467       Y5.6590    
(Pass: 9)
   Z-0.2812    F40  
   X0.8375       Y5.6602     F100 
   X0.8290       Y5.6637    
   X0.8216       Y5.6693    
   X0.8160       Y5.6767    
   X0.8125       Y5.6852    
   X0.8080       Y5.7197    
   X0.7403       Y5.8049    
   X0.6310    
   X0.6299       Y5.9015    
   Y6.3138    
   X1.0765       Y6.3154    
   X1.0830       Y6.3141    
   Y6.3098    
   Y5.8118    
   Y5.8058    
   X1.0765       Y5.8045    
   X0.9533    
   X0.8854       Y5.7197    
   X0.8809       Y5.6852    
   X0.8773       Y5.6766    
   X0.8717       Y5.6693    
   X0.8644       Y5.6637    
   X0.8558       Y5.6602    
   X0.8467       Y5.6590    
(Pass: 10)
   Z-0.3125    F40  
   X0.8375       Y5.6602     F100 
   X0.8290       Y5.6637    
   X0.8216       Y5.6693    
   X0.8160       Y5.6767    
   X0.8125       Y5.6852    
   X0.8080       Y5.7197    
   X0.7403       Y5.8049    
   X0.6310    
   X0.6299       Y5.9015    
   Y6.3138    
   X1.0765       Y6.3154    
   X1.0830       Y6.3141    
   Y6.3098    
   Y5.8118    
   Y5.8058    
   X1.0765       Y5.8045    
   X0.9533    
   X0.8854       Y5.7197    
   X0.8809       Y5.6852    
   X0.8773       Y5.6766    
   X0.8717       Y5.6693    
   X0.8644       Y5.6637    
   X0.8558       Y5.6602    
   X0.8467       Y5.6590    
(BREAK pass 10)
G0   Z0.1250    
(Pass: 1)
   X1.6084       Y6.2671    
G1   Z-0.0312    F40  
   X1.6028       Y6.2744     F100 
   X1.5992       Y6.2829    
   X1.5980       Y6.2921    
   X1.5992       Y6.3012    
   X1.6028       Y6.3098    
   X1.6084       Y6.3171    
   X1.6157       Y6.3227    
   X1.6243       Y6.3263    
   X1.6334       Y6.3275    
   X1.6426       Y6.3263    
   X1.6511       Y6.3227    
   X1.6584       Y6.3171    
   X1.6641       Y6.3098    
   X1.6676       Y6.3012    
   X1.6688       Y6.2921    
   X1.6676       Y6.2829    
   X1.6641       Y6.2744    
   X1.6584       Y6.2671    
   X1.6511       Y6.2614    
   X1.6426       Y6.2579    
   X1.6334       Y6.2567    
   X1.6243       Y6.2579    
   X1.6157       Y6.2614    
   X1.6084       Y6.2671    
(Pass: 2)
   Z-0.0625    F40  
   X1.6028       Y6.2744     F100 
   X1.5992       Y6.2829    
   X1.5980       Y6.2921    
   X1.5992       Y6.3012    
   X1.6028       Y6.3098    
   X1.6084       Y6.3171    
   X1.6157       Y6.3227    
   X1.6243       Y6.3263    
   X1.6334       Y6.3275    
   X1.6426       Y6.3263    
   X1.6511       Y6.3227    
   X1.6584       Y6.3171    
   X1.6641       Y6.3098    
   X1.6676       Y6.3012    
   X1.6688       Y6.2921    
   X1.6676       Y6.2829    
   X1.6641       Y6.2744    
   X1.6584       Y6.2671    
   X1.6511       Y6.2614    
   X1.6426       Y6.2579    
   X1.6334       Y6.2567    
   X1.6243       Y6.2579    
   X1.6157       Y6.2614    
   X1.6084       Y6.2671    
(Pass: 3)
   Z-0.0938    F40  
   X1.6028       Y6.2744     F100 
   X1.5992       Y6.2829    
   X1.5980       Y6.2921    
   X1.5992       Y6.3012    
   X1.6028       Y6.3098    
   X1.6084       Y6.3171    
   X1.6157       Y6.3227    
   X1.6243       Y6.3263    
   X1.6334       Y6.3275    
   X1.6426       Y6.3263    
   X1.6511       Y6.3227    
   X1.6584       Y6.3171    
   X1.6641       Y6.3098    
   X1.6676       Y6.3012    
   X1.6688       Y6.2921    
   X1.6676       Y6.2829    
   X1.6641       Y6.2744    
   X1.6584       Y6.2671    
   X1.6511       Y6.2614    
   X1.6426       Y6.2579    
   X1.6334       Y6.2567    
   X1.6243       Y6.2579    
   X1.6157       Y6.2614    
   X1.6084       Y6.2671    
(Pass: 4)
   Z-0.1250    F40  
   X1.6028       Y6.2744     F100 
   X1.5992       Y6.2829    
   X1.5980       Y6.2921    
   X1.5992       Y6.3012    
   X1.6028       Y6.3098    
   X1.6084       Y6.3171    
   X1.6157       Y6.3227    
   X1.6243       Y6.3263    
   X1.6334       Y6.3275    
   X1.6426       Y6.3263    
   X1.6511       Y6.3227    
   X1.6584       Y6.3171    
   X1.6641       Y6.3098    
   X1.6676       Y6.3012    
   X1.6688       Y6.2921    
   X1.6676       Y6.2829    
   X1.6641       Y6.2744    
   X1.6584       Y6.2671    
   X1.6511       Y6.2614    
   X1.6426       Y6.2579    
   X1.6334       Y6.2567    
   X1.6243       Y6.2579    
   X1.6157       Y6.2614    
   X1.6084       Y6.2671    
(Pass: 5)
   Z-0.1562    F40  
   X1.6028       Y6.2744     F100 
   X1.5992       Y6.2829    
   X1.5980       Y6.2921    
   X1.5992       Y6.3012    
   X1.6028       Y6.3098    
   X1.6084       Y6.3171    
   X1.6157       Y6.3227    
   X1.6243       Y6.3263    
   X1.6334       Y6.3275    
   X1.6426       Y6.3263    
   X1.6511       Y6.3227    
   X1.6584       Y6.3171    
   X1.6641       Y6.3098    
   X1.6676       Y6.3012    
   X1.6688       Y6.2921    
   X1.6676       Y6.2829    
   X1.6641       Y6.2744    
   X1.6584       Y6.2671    
   X1.6511       Y6.2614    
   X1.6426       Y6.2579    
   X1.6334       Y6.2567    
   X1.6243       Y6.2579    
   X1.6157       Y6.2614    
   X1.6084       Y6.2671    
(Pass: 6)
   Z-0.1875    F40  
   X1.6028       Y6.2744     F100 
   X1.5992       Y6.2829    
   X1.5980       Y6.2921    
   X1.5992       Y6.3012    
   X1.6028       Y6.3098    
   X1.6084       Y6.3171    
   X1.6157       Y6.3227    
   X1.6243       Y6.3263    
   X1.6334       Y6.3275    
   X1.6426       Y6.3263    
   X1.6511       Y6.3227    
   X1.6584       Y6.3171    
   X1.6641       Y6.3098    
   X1.6676       Y6.3012    
   X1.6688       Y6.2921    
   X1.6676       Y6.2829    
   X1.6641       Y6.2744    
   X1.6584       Y6.2671    
   X1.6511       Y6.2614    
   X1.6426       Y6.2579    
   X1.6334       Y6.2567    
   X1.6243       Y6.2579    
   X1.6157       Y6.2614    
   X1.6084       Y6.2671    
(Pass: 7)
   Z-0.2188    F40  
   X1.6028       Y6.2744     F100 
   X1.5992       Y6.2829    
   X1.5980       Y6.2921    
   X1.5992       Y6.3012    
   X1.6028       Y6.3098    
   X1.6084       Y6.3171    
   X1.6157       Y6.3227    
   X1.6243       Y6.3263    
   X1.6334       Y6.3275    
   X1.6426       Y6.3263    
   X1.6511       Y6.3227    
   X1.6584       Y6.3171    
   X1.6641       Y6.3098    
   X1.6676       Y6.3012    
   X1.6688       Y6.2921    
   X1.6676       Y6.2829    
   X1.6641       Y6.2744    
   X1.6584       Y6.2671    
   X1.6511       Y6.2614    
   X1.6426       Y6.2579    
   X1.6334       Y6.2567    
   X1.6243       Y6.2579    
   X1.6157       Y6.2614    
   X1.6084       Y6.2671    
(Pass: 8)
   Z-0.2500    F40  
   X1.6028       Y6.2744     F100 
   X1.5992       Y6.2829    
   X1.5980       Y6.2921    
   X1.5992       Y6.3012    
   X1.6028       Y6.3098    
   X1.6084       Y6.3171    
   X1.6157       Y6.3227    
   X1.6243       Y6.3263    
   X1.6334       Y6.3275    
   X1.6426       Y6.3263    
   X1.6511       Y6.3227    
   X1.6584       Y6.3171    
   X1.6641       Y6.3098    
   X1.6676       Y6.3012    
   X1.6688       Y6.2921    
   X1.6676       Y6.2829    
   X1.6641       Y6.2744    
   X1.6584       Y6.2671    
   X1.6511       Y6.2614    
   X1.6426       Y6.2579    
   X1.6334       Y6.2567    
   X1.6243       Y6.2579    
   X1.6157       Y6.2614    
   X1.6084       Y6.2671    
(Pass: 9)
   Z-0.2812    F40  
   X1.6028       Y6.2744     F100 
   X1.5992       Y6.2829    
   X1.5980       Y6.2921    
   X1.5992       Y6.3012    
   X1.6028       Y6.3098    
   X1.6084       Y6.3171    
   X1.6157       Y6.3227    
   X1.6243       Y6.3263    
   X1.6334       Y6.3275    
   X1.6426       Y6.3263    
   X1.6511       Y6.3227    
   X1.6584       Y6.3171    
   X1.6641       Y6.3098    
   X1.6676       Y6.3012    
   X1.6688       Y6.2921    
   X1.6676       Y6.2829    
   X1.6641       Y6.2744    
   X1.6584       Y6.2671    
   X1.6511       Y6.2614    
   X1.6426       Y6.2579    
   X1.6334       Y6.2567    
   X1.6243       Y6.2579    
   X1.6157       Y6.2614    
   X1.6084       Y6.2671    
(Pass: 10)
   Z-0.3125    F40  
   X1.6028       Y6.2744     F100 
   X1.5992       Y6.2829    
   X1.5980       Y6.2921    
   X1.5992       Y6.3012    
   X1.6028       Y6.3098    
   X1.6084       Y6.3171    
   X1.6157       Y6.3227    
   X1.6243       Y6.3263    
   X1.6334       Y6.3275    
   X1.6426       Y6.3263    
   X1.6511       Y6.3227    
   X1.6584       Y6.3171    
   X1.6641       Y6.3098    
   X1.6676       Y6.3012    
   X1.6688       Y6.2921    
   X1.6676       Y6.2829    
   X1.6641       Y6.2744    
   X1.6584       Y6.2671    
   X1.6511       Y6.2614    
   X1.6426       Y6.2579    
   X1.6334       Y6.2567    
   X1.6243       Y6.2579    
   X1.6157       Y6.2614    
   X1.6084       Y6.2671    
(BREAK pass 10)
G0   Z0.1250    
(Pass: 1)
   X2.4015       Y6.2859    
G1   Z-0.0312    F40  
   X2.4003       Y6.2950     F100 
   X2.4015       Y6.3042    
   X2.4051       Y6.3127    
   X2.4107       Y6.3201    
   X2.4180       Y6.3257    
   X2.4265       Y6.3292    
   X2.4398       Y6.3310    
   X3.2584    
   X3.2716       Y6.3292    
   X3.2802       Y6.3257    
   X3.2875       Y6.3201    
   X3.2931       Y6.3127    
   X3.2967       Y6.3042    
   X3.2979       Y6.2950    
   X3.2967       Y6.2859    
   X3.2931       Y6.2774    
   X3.2875       Y6.2700    
   X3.2802       Y6.2644    
   X3.2716       Y6.2609    
   X3.2584       Y6.2591    
   X2.4398    
   X2.4265       Y6.2609    
   X2.4180       Y6.2644    
   X2.4107       Y6.2700    
   X2.4051       Y6.2774    
   X2.4015       Y6.2859    
(Pass: 2)
   Z-0.0625    F40  
   X2.4003       Y6.2950     F100 
   X2.4015       Y6.3042    
   X2.4051       Y6.3127    
   X2.4107       Y6.3201    
   X2.4180       Y6.3257    
   X2.4265       Y6.3292    
   X2.4398       Y6.3310    
   X3.2584    
   X3.2716       Y6.3292    
   X3.2802       Y6.3257    
   X3.2875       Y6.3201    
   X3.2931       Y6.3127    
   X3.2967       Y6.3042    
   X3.2979       Y6.2950    
   X3.2967       Y6.2859    
   X3.2931       Y6.2774    
   X3.2875       Y6.2700    
   X3.2802       Y6.2644    
   X3.2716       Y6.2609    
   X3.2584       Y6.2591    
   X2.4398    
   X2.4265       Y6.2609    
   X2.4180       Y6.2644    
   X2.4107       Y6.2700    
   X2.4051       Y6.2774    
   X2.4015       Y6.2859    
(Pass: 3)
   Z-0.0938    F40  
   X2.4003       Y6.2950     F100 
   X2.4015       Y6.3042    
   X2.4051       Y6.3127    
   X2.4107       Y6.3201    
   X2.4180       Y6.3257    
   X2.4265       Y6.3292    
   X2.4398       Y6.3310    
   X3.2584    
   X3.2716       Y6.3292    
   X3.2802       Y6.3257    
   X3.2875       Y6.3201    
   X3.2931       Y6.3127    
   X3.2967       Y6.3042    
   X3.2979       Y6.2950    
   X3.2967       Y6.2859    
   X3.2931       Y6.2774    
   X3.2875       Y6.2700    
   X3.2802       Y6.2644    
   X3.2716       Y6.2609    
   X3.2584       Y6.2591    
   X2.4398    
   X2.4265       Y6.2609    
   X2.4180       Y6.2644    
   X2.4107       Y6.2700    
   X2.4051       Y6.2774    
   X2.4015       Y6.2859    
(Pass: 4)
   Z-0.1250    F40  
   X2.4003       Y6.2950     F100 
   X2.4015       Y6.3042    
   X2.4051       Y6.3127    
   X2.4107       Y6.3201    
   X2.4180       Y6.3257    
   X2.4265       Y6.3292    
   X2.4398       Y6.3310    
   X3.2584    
   X3.2716       Y6.3292    
   X3.2802       Y6.3257    
   X3.2875       Y6.3201    
   X3.2931       Y6.3127    
   X3.2967       Y6.3042    
   X3.2979       Y6.2950    
   X3.2967       Y6.2859    
   X3.2931       Y6.2774    
   X3.2875       Y6.2700    
   X3.2802       Y6.2644    
   X3.2716       Y6.2609    
   X3.2584       Y6.2591    
   X2.4398    
   X2.4265       Y6.2609    
   X2.4180       Y6.2644    
   X2.4107       Y6.2700    
   X2.4051       Y6.2774    
   X2.4015       Y6.2859    
(Pass: 5)
   Z-0.1562    F40  
   X2.4003       Y6.2950     F100 
   X2.4015       Y6.3042    
   X2.4051       Y6.3127    
   X2.4107       Y6.3201    
   X2.4180       Y6.3257    
   X2.4265       Y6.3292    
   X2.4398       Y6.3310    
   X3.2584    
   X3.2716       Y6.3292    
   X3.2802       Y6.3257    
   X3.2875       Y6.3201    
   X3.2931       Y6.3127    
   X3.2967       Y6.3042    
   X3.2979       Y6.2950    
   X3.2967       Y6.2859    
   X3.2931       Y6.2774    
   X3.2875       Y6.2700    
   X3.2802       Y6.2644    
   X3.2716       Y6.2609    
   X3.2584       Y6.2591    
   X2.4398    
   X2.4265       Y6.2609    
   X2.4180       Y6.2644    
   X2.4107       Y6.2700    
   X2.4051       Y6.2774    
   X2.4015       Y6.2859    
(Pass: 6)
   Z-0.1875    F40  
   X2.4003       Y6.2950     F100 
   X2.4015       Y6.3042    
   X2.4051       Y6.3127    
   X2.4107       Y6.3201    
   X2.4180       Y6.3257    
   X2.4265       Y6.3292    
   X2.4398       Y6.3310    
   X3.2584    
   X3.2716       Y6.3292    
   X3.2802       Y6.3257    
   X3.2875       Y6.3201    
   X3.2931       Y6.3127    
   X3.2967       Y6.3042    
   X3.2979       Y6.2950    
   X3.2967       Y6.2859    
   X3.2931       Y6.2774    
   X3.2875       Y6.2700    
   X3.2802       Y6.2644    
   X3.2716       Y6.2609    
   X3.2584       Y6.2591    
   X2.4398    
   X2.4265       Y6.2609    
   X2.4180       Y6.2644    
   X2.4107       Y6.2700    
   X2.4051       Y6.2774    
   X2.4015       Y6.2859    
(Pass: 7)
   Z-0.2188    F40  
   X2.4003       Y6.2950     F100 
   X2.4015       Y6.3042    
   X2.4051       Y6.3127    
   X2.4107       Y6.3201    
   X2.4180       Y6.3257    
   X2.4265       Y6.3292    
   X2.4398       Y6.3310    
   X3.2584    
   X3.2716       Y6.3292    
   X3.2802       Y6.3257    
   X3.2875       Y6.3201    
   X3.2931       Y6.3127    
   X3.2967       Y6.3042    
   X3.2979       Y6.2950    
   X3.2967       Y6.2859    
   X3.2931       Y6.2774    
   X3.2875       Y6.2700    
   X3.2802       Y6.2644    
   X3.2716       Y6.2609    
   X3.2584       Y6.2591    
   X2.4398    
   X2.4265       Y6.2609    
   X2.4180       Y6.2644    
   X2.4107       Y6.2700    
   X2.4051       Y6.2774    
   X2.4015       Y6.2859    
(Pass: 8)
   Z-0.2500    F40  
   X2.4003       Y6.2950     F100 
   X2.4015       Y6.3042    
   X2.4051       Y6.3127    
   X2.4107       Y6.3201    
   X2.4180       Y6.3257    
   X2.4265       Y6.3292    
   X2.4398       Y6.3310    
   X3.2584    
   X3.2716       Y6.3292    
   X3.2802       Y6.3257    
   X3.2875       Y6.3201    
   X3.2931       Y6.3127    
   X3.2967       Y6.3042    
   X3.2979       Y6.2950    
   X3.2967       Y6.2859    
   X3.2931       Y6.2774    
   X3.2875       Y6.2700    
   X3.2802       Y6.2644    
   X3.2716       Y6.2609    
   X3.2584       Y6.2591    
   X2.4398    
   X2.4265       Y6.2609    
   X2.4180       Y6.2644    
   X2.4107       Y6.2700    
   X2.4051       Y6.2774    
   X2.4015       Y6.2859    
(Pass: 9)
   Z-0.2812    F40  
   X2.4003       Y6.2950     F100 
   X2.4015       Y6.3042    
   X2.4051       Y6.3127    
   X2.4107       Y6.3201    
   X2.4180       Y6.3257    
   X2.4265       Y6.3292    
   X2.4398       Y6.3310    
   X3.2584    
   X3.2716       Y6.3292    
   X3.2802       Y6.3257    
   X3.2875       Y6.3201    
   X3.2931       Y6.3127    
   X3.2967       Y6.3042    
   X3.2979       Y6.2950    
   X3.2967       Y6.2859    
   X3.2931       Y6.2774    
   X3.2875       Y6.2700    
   X3.2802       Y6.2644    
   X3.2716       Y6.2609    
   X3.2584       Y6.2591    
   X2.4398    
   X2.4265       Y6.2609    
   X2.4180       Y6.2644    
   X2.4107       Y6.2700    
   X2.4051       Y6.2774    
   X2.4015       Y6.2859    
(Pass: 10)
   Z-0.3125    F40  
   X2.4003       Y6.2950     F100 
   X2.4015       Y6.3042    
   X2.4051       Y6.3127    
   X2.4107       Y6.3201    
   X2.4180       Y6.3257    
   X2.4265       Y6.3292    
   X2.4398       Y6.3310    
   X3.2584    
   X3.2716       Y6.3292    
   X3.2802       Y6.3257    
   X3.2875       Y6.3201    
   X3.2931       Y6.3127    
   X3.2967       Y6.3042    
   X3.2979       Y6.2950    
   X3.2967       Y6.2859    
   X3.2931       Y6.2774    
   X3.2875       Y6.2700    
   X3.2802       Y6.2644    
   X3.2716       Y6.2609    
   X3.2584       Y6.2591    
   X2.4398    
   X2.4265       Y6.2609    
   X2.4180       Y6.2644    
   X2.4107       Y6.2700    
   X2.4051       Y6.2774    
   X2.4015       Y6.2859    
(BREAK pass 10)
G0   Z0.1250    
(Pass: 1)
   X2.4398       Y5.5436    
G1   Z-0.0312    F40  
   X3.2584     F100 
   X3.2716       Y5.5418    
   X3.2802       Y5.5383    
   X3.2875       Y5.5327    
   X3.2931       Y5.5253    
   X3.2967       Y5.5168    
   X3.2979       Y5.5076    
   X3.2967       Y5.4985    
   X3.2931       Y5.4900    
   X3.2875       Y5.4826    
   X3.2802       Y5.4770    
   X3.2716       Y5.4735    
   X3.2584       Y5.4717    
   X2.4398    
   X2.4265       Y5.4735    
   X2.4180       Y5.4770    
   X2.4107       Y5.4826    
   X2.4051       Y5.4900    
   X2.4015       Y5.4985    
   X2.4003       Y5.5076    
   X2.4015       Y5.5168    
   X2.4051       Y5.5253    
   X2.4107       Y5.5327    
   X2.4180       Y5.5383    
   X2.4265       Y5.5418    
   X2.4398       Y5.5436    
(Pass: 2)
   Z-0.0625    F40  
   X3.2584     F100 
   X3.2716       Y5.5418    
   X3.2802       Y5.5383    
   X3.2875       Y5.5327    
   X3.2931       Y5.5253    
   X3.2967       Y5.5168    
   X3.2979       Y5.5076    
   X3.2967       Y5.4985    
   X3.2931       Y5.4900    
   X3.2875       Y5.4826    
   X3.2802       Y5.4770    
   X3.2716       Y5.4735    
   X3.2584       Y5.4717    
   X2.4398    
   X2.4265       Y5.4735    
   X2.4180       Y5.4770    
   X2.4107       Y5.4826    
   X2.4051       Y5.4900    
   X2.4015       Y5.4985    
   X2.4003       Y5.5076    
   X2.4015       Y5.5168    
   X2.4051       Y5.5253    
   X2.4107       Y5.5327    
   X2.4180       Y5.5383    
   X2.4265       Y5.5418    
   X2.4398       Y5.5436    
(Pass: 3)
   Z-0.0938    F40  
   X3.2584     F100 
   X3.2716       Y5.5418    
   X3.2802       Y5.5383    
   X3.2875       Y5.5327    
   X3.2931       Y5.5253    
   X3.2967       Y5.5168    
   X3.2979       Y5.5076    
   X3.2967       Y5.4985    
   X3.2931       Y5.4900    
   X3.2875       Y5.4826    
   X3.2802       Y5.4770    
   X3.2716       Y5.4735    
   X3.2584       Y5.4717    
   X2.4398    
   X2.4265       Y5.4735    
   X2.4180       Y5.4770    
   X2.4107       Y5.4826    
   X2.4051       Y5.4900    
   X2.4015       Y5.4985    
   X2.4003       Y5.5076    
   X2.4015       Y5.5168    
   X2.4051       Y5.5253    
   X2.4107       Y5.5327    
   X2.4180       Y5.5383    
   X2.4265       Y5.5418    
   X2.4398       Y5.5436    
(Pass: 4)
   Z-0.1250    F40  
   X3.2584     F100 
   X3.2716       Y5.5418    
   X3.2802       Y5.5383    
   X3.2875       Y5.5327    
   X3.2931       Y5.5253    
   X3.2967       Y5.5168    
   X3.2979       Y5.5076    
   X3.2967       Y5.4985    
   X3.2931       Y5.4900    
   X3.2875       Y5.4826    
   X3.2802       Y5.4770    
   X3.2716       Y5.4735    
   X3.2584       Y5.4717    
   X2.4398    
   X2.4265       Y5.4735    
   X2.4180       Y5.4770    
   X2.4107       Y5.4826    
   X2.4051       Y5.4900    
   X2.4015       Y5.4985    
   X2.4003       Y5.5076    
   X2.4015       Y5.5168    
   X2.4051       Y5.5253    
   X2.4107       Y5.5327    
   X2.4180       Y5.5383    
   X2.4265       Y5.5418    
   X2.4398       Y5.5436    
(Pass: 5)
   Z-0.1562    F40  
   X3.2584     F100 
   X3.2716       Y5.5418    
   X3.2802       Y5.5383    
   X3.2875       Y5.5327    
   X3.2931       Y5.5253    
   X3.2967       Y5.5168    
   X3.2979       Y5.5076    
   X3.2967       Y5.4985    
   X3.2931       Y5.4900    
   X3.2875       Y5.4826    
   X3.2802       Y5.4770    
   X3.2716       Y5.4735    
   X3.2584       Y5.4717    
   X2.4398    
   X2.4265       Y5.4735    
   X2.4180       Y5.4770    
   X2.4107       Y5.4826    
   X2.4051       Y5.4900    
   X2.4015       Y5.4985    
   X2.4003       Y5.5076    
   X2.4015       Y5.5168    
   X2.4051       Y5.5253    
   X2.4107       Y5.5327    
   X2.4180       Y5.5383    
   X2.4265       Y5.5418    
   X2.4398       Y5.5436    
(Pass: 6)
   Z-0.1875    F40  
   X3.2584     F100 
   X3.2716       Y5.5418    
   X3.2802       Y5.5383    
   X3.2875       Y5.5327    
   X3.2931       Y5.5253    
   X3.2967       Y5.5168    
   X3.2979       Y5.5076    
   X3.2967       Y5.4985    
   X3.2931       Y5.4900    
   X3.2875       Y5.4826    
   X3.2802       Y5.4770    
   X3.2716       Y5.4735    
   X3.2584       Y5.4717    
   X2.4398    
   X2.4265       Y5.4735    
   X2.4180       Y5.4770    
   X2.4107       Y5.4826    
   X2.4051       Y5.4900    
   X2.4015       Y5.4985    
   X2.4003       Y5.5076    
   X2.4015       Y5.5168    
   X2.4051       Y5.5253    
   X2.4107       Y5.5327    
   X2.4180       Y5.5383    
   X2.4265       Y5.5418    
   X2.4398       Y5.5436    
(Pass: 7)
   Z-0.2188    F40  
   X3.2584     F100 
   X3.2716       Y5.5418    
   X3.2802       Y5.5383    
   X3.2875       Y5.5327    
   X3.2931       Y5.5253    
   X3.2967       Y5.5168    
   X3.2979       Y5.5076    
   X3.2967       Y5.4985    
   X3.2931       Y5.4900    
   X3.2875       Y5.4826    
   X3.2802       Y5.4770    
   X3.2716       Y5.4735    
   X3.2584       Y5.4717    
   X2.4398    
   X2.4265       Y5.4735    
   X2.4180       Y5.4770    
   X2.4107       Y5.4826    
   X2.4051       Y5.4900    
   X2.4015       Y5.4985    
   X2.4003       Y5.5076    
   X2.4015       Y5.5168    
   X2.4051       Y5.5253    
   X2.4107       Y5.5327    
   X2.4180       Y5.5383    
   X2.4265       Y5.5418    
   X2.4398       Y5.5436    
(Pass: 8)
   Z-0.2500    F40  
   X3.2584     F100 
   X3.2716       Y5.5418    
   X3.2802       Y5.5383    
   X3.2875       Y5.5327    
   X3.2931       Y5.5253    
   X3.2967       Y5.5168    
   X3.2979       Y5.5076    
   X3.2967       Y5.4985    
   X3.2931       Y5.4900    
   X3.2875       Y5.4826    
   X3.2802       Y5.4770    
   X3.2716       Y5.4735    
   X3.2584       Y5.4717    
   X2.4398    
   X2.4265       Y5.4735    
   X2.4180       Y5.4770    
   X2.4107       Y5.4826    
   X2.4051       Y5.4900    
   X2.4015       Y5.4985    
   X2.4003       Y5.5076    
   X2.4015       Y5.5168    
   X2.4051       Y5.5253    
   X2.4107       Y5.5327    
   X2.4180       Y5.5383    
   X2.4265       Y5.5418    
   X2.4398       Y5.5436    
(Pass: 9)
   Z-0.2812    F40  
   X3.2584     F100 
   X3.2716       Y5.5418    
   X3.2802       Y5.5383    
   X3.2875       Y5.5327    
   X3.2931       Y5.5253    
   X3.2967       Y5.5168    
   X3.2979       Y5.5076    
   X3.2967       Y5.4985    
   X3.2931       Y5.4900    
   X3.2875       Y5.4826    
   X3.2802       Y5.4770    
   X3.2716       Y5.4735    
   X3.2584       Y5.4717    
   X2.4398    
   X2.4265       Y5.4735    
   X2.4180       Y5.4770    
   X2.4107       Y5.4826    
   X2.4051       Y5.4900    
   X2.4015       Y5.4985    
   X2.4003       Y5.5076    
   X2.4015       Y5.5168    
   X2.4051       Y5.5253    
   X2.4107       Y5.5327    
   X2.4180       Y5.5383    
   X2.4265       Y5.5418    
   X2.4398       Y5.5436    
(Pass: 10)
   Z-0.3125    F40  
   X3.2584     F100 
   X3.2716       Y5.5418    
   X3.2802       Y5.5383    
   X3.2875       Y5.5327    
   X3.2931       Y5.5253    
   X3.2967       Y5.5168    
   X3.2979       Y5.5076    
   X3.2967       Y5.4985    
   X3.2931       Y5.4900    
   X3.2875       Y5.4826    
   X3.2802       Y5.4770    
   X3.2716       Y5.4735    
   X3.2584       Y5.4717    
   X2.4398    
   X2.4265       Y5.4735    
   X2.4180       Y5.4770    
   X2.4107       Y5.4826    
   X2.4051       Y5.4900    
   X2.4015       Y5.4985    
   X2.4003       Y5.5076    
   X2.4015       Y5.5168    
   X2.4051       Y5.5253    
   X2.4107       Y5.5327    
   X2.4180       Y5.5383    
   X2.4265       Y5.5418    
   X2.4398       Y5.5436    
(BREAK pass 10)
G0   Z0.1250    
(Pass: 1)
   X2.7818       Y4.9998    
G1   Z-0.0312    F40  
   X2.7895       Y5.0056     F100 
   X2.7984       Y5.0093    
   X2.8080       Y5.0106    
   X2.8175       Y5.0093    
   X2.8265       Y5.0056    
   X2.8341       Y4.9998    
   X2.8400       Y4.9921    
   X2.8437       Y4.9832    
   X2.8455       Y4.9695    
   Y4.6234    
   X2.8437       Y4.6097    
   X2.8400       Y4.6008    
   X2.8341       Y4.5932    
   X2.8265       Y4.5873    
   X2.8175       Y4.5836    
   X2.8080       Y4.5823    
   X2.7984       Y4.5836    
   X2.7895       Y4.5873    
   X2.7818       Y4.5932    
   X2.7760       Y4.6008    
   X2.7723       Y4.6097    
   X2.7705       Y4.6234    
   Y4.9695    
   X2.7723       Y4.9832    
   X2.7760       Y4.9921    
   X2.7818       Y4.9998    
(Pass: 2)
   Z-0.0625    F40  
   X2.7895       Y5.0056     F100 
   X2.7984       Y5.0093    
   X2.8080       Y5.0106    
   X2.8175       Y5.0093    
   X2.8265       Y5.0056    
   X2.8341       Y4.9998    
   X2.8400       Y4.9921    
   X2.8437       Y4.9832    
   X2.8455       Y4.9695    
   Y4.6234    
   X2.8437       Y4.6097    
   X2.8400       Y4.6008    
   X2.8341       Y4.5932    
   X2.8265       Y4.5873    
   X2.8175       Y4.5836    
   X2.8080       Y4.5823    
   X2.7984       Y4.5836    
   X2.7895       Y4.5873    
   X2.7818       Y4.5932    
   X2.7760       Y4.6008    
   X2.7723       Y4.6097    
   X2.7705       Y4.6234    
   Y4.9695    
   X2.7723       Y4.9832    
   X2.7760       Y4.9921    
   X2.7818       Y4.9998    
(Pass: 3)
   Z-0.0938    F40  
   X2.7895       Y5.0056     F100 
   X2.7984       Y5.0093    
   X2.8080       Y5.0106    
   X2.8175       Y5.0093    
   X2.8265       Y5.0056    
   X2.8341       Y4.9998    
   X2.8400       Y4.9921    
   X2.8437       Y4.9832    
   X2.8455       Y4.9695    
   Y4.6234    
   X2.8437       Y4.6097    
   X2.8400       Y4.6008    
   X2.8341       Y4.5932    
   X2.8265       Y4.5873    
   X2.8175       Y4.5836    
   X2.8080       Y4.5823    
   X2.7984       Y4.5836    
   X2.7895       Y4.5873    
   X2.7818       Y4.5932    
   X2.7760       Y4.6008    
   X2.7723       Y4.6097    
   X2.7705       Y4.6234    
   Y4.9695    
   X2.7723       Y4.9832    
   X2.7760       Y4.9921    
   X2.7818       Y4.9998    
(Pass: 4)
   Z-0.1250    F40  
   X2.7895       Y5.0056     F100 
   X2.7984       Y5.0093    
   X2.8080       Y5.0106    
   X2.8175       Y5.0093    
   X2.8265       Y5.0056    
   X2.8341       Y4.9998    
   X2.8400       Y4.9921    
   X2.8437       Y4.9832    
   X2.8455       Y4.9695    
   Y4.6234    
   X2.8437       Y4.6097    
   X2.8400       Y4.6008    
   X2.8341       Y4.5932    
   X2.8265       Y4.5873    
   X2.8175       Y4.5836    
   X2.8080       Y4.5823    
   X2.7984       Y4.5836    
   X2.7895       Y4.5873    
   X2.7818       Y4.5932    
   X2.7760       Y4.6008    
   X2.7723       Y4.6097    
   X2.7705       Y4.6234    
   Y4.9695    
   X2.7723       Y4.9832    
   X2.7760       Y4.9921    
   X2.7818       Y4.9998    
(Pass: 5)
   Z-0.1562    F40  
   X2.7895       Y5.0056     F100 
   X2.7984       Y5.0093    
   X2.8080       Y5.0106    
   X2.8175       Y5.0093    
   X2.8265       Y5.0056    
   X2.8341       Y4.9998    
   X2.8400       Y4.9921    
   X2.8437       Y4.9832    
   X2.8455       Y4.9695    
   Y4.6234    
   X2.8437       Y4.6097    
   X2.8400       Y4.6008    
   X2.8341       Y4.5932    
   X2.8265       Y4.5873    
   X2.8175       Y4.5836    
   X2.8080       Y4.5823    
   X2.7984       Y4.5836    
   X2.7895       Y4.5873    
   X2.7818       Y4.5932    
   X2.7760       Y4.6008    
   X2.7723       Y4.6097    
   X2.7705       Y4.6234    
   Y4.9695    
   X2.7723       Y4.9832    
   X2.7760       Y4.9921    
   X2.7818       Y4.9998    
(Pass: 6)
   Z-0.1875    F40  
   X2.7895       Y5.0056     F100 
   X2.7984       Y5.0093    
   X2.8080       Y5.0106    
   X2.8175       Y5.0093    
   X2.8265       Y5.0056    
   X2.8341       Y4.9998    
   X2.8400       Y4.9921    
   X2.8437       Y4.9832    
   X2.8455       Y4.9695    
   Y4.6234    
   X2.8437       Y4.6097    
   X2.8400       Y4.6008    
   X2.8341       Y4.5932    
   X2.8265       Y4.5873    
   X2.8175       Y4.5836    
   X2.8080       Y4.5823    
   X2.7984       Y4.5836    
   X2.7895       Y4.5873    
   X2.7818       Y4.5932    
   X2.7760       Y4.6008    
   X2.7723       Y4.6097    
   X2.7705       Y4.6234    
   Y4.9695    
   X2.7723       Y4.9832    
   X2.7760       Y4.9921    
   X2.7818       Y4.9998    
(Pass: 7)
   Z-0.2188    F40  
   X2.7895       Y5.0056     F100 
   X2.7984       Y5.0093    
   X2.8080       Y5.0106    
   X2.8175       Y5.0093    
   X2.8265       Y5.0056    
   X2.8341       Y4.9998    
   X2.8400       Y4.9921    
   X2.8437       Y4.9832    
   X2.8455       Y4.9695    
   Y4.6234    
   X2.8437       Y4.6097    
   X2.8400       Y4.6008    
   X2.8341       Y4.5932    
   X2.8265       Y4.5873    
   X2.8175       Y4.5836    
   X2.8080       Y4.5823    
   X2.7984       Y4.5836    
   X2.7895       Y4.5873    
   X2.7818       Y4.5932    
   X2.7760       Y4.6008    
   X2.7723       Y4.6097    
   X2.7705       Y4.6234    
   Y4.9695    
   X2.7723       Y4.9832    
   X2.7760       Y4.9921    
   X2.7818       Y4.9998    
(Pass: 8)
   Z-0.2500    F40  
   X2.7895       Y5.0056     F100 
   X2.7984       Y5.0093    
   X2.8080       Y5.0106    
   X2.8175       Y5.0093    
   X2.8265       Y5.0056    
   X2.8341       Y4.9998    
   X2.8400       Y4.9921    
   X2.8437       Y4.9832    
   X2.8455       Y4.9695    
   Y4.6234    
   X2.8437       Y4.6097    
   X2.8400       Y4.6008    
   X2.8341       Y4.5932    
   X2.8265       Y4.5873    
   X2.8175       Y4.5836    
   X2.8080       Y4.5823    
   X2.7984       Y4.5836    
   X2.7895       Y4.5873    
   X2.7818       Y4.5932    
   X2.7760       Y4.6008    
   X2.7723       Y4.6097    
   X2.7705       Y4.6234    
   Y4.9695    
   X2.7723       Y4.9832    
   X2.7760       Y4.9921    
   X2.7818       Y4.9998    
(Pass: 9)
   Z-0.2812    F40  
   X2.7895       Y5.0056     F100 
   X2.7984       Y5.0093    
   X2.8080       Y5.0106    
   X2.8175       Y5.0093    
   X2.8265       Y5.0056    
   X2.8341       Y4.9998    
   X2.8400       Y4.9921    
   X2.8437       Y4.9832    
   X2.8455       Y4.9695    
   Y4.6234    
   X2.8437       Y4.6097    
   X2.8400       Y4.6008    
   X2.8341       Y4.5932    
   X2.8265       Y4.5873    
   X2.8175       Y4.5836    
   X2.8080       Y4.5823    
   X2.7984       Y4.5836    
   X2.7895       Y4.5873    
   X2.7818       Y4.5932    
   X2.7760       Y4.6008    
   X2.7723       Y4.6097    
   X2.7705       Y4.6234    
   Y4.9695    
   X2.7723       Y4.9832    
   X2.7760       Y4.9921    
   X2.7818       Y4.9998    
(Pass: 10)
   Z-0.3125    F40  
   X2.7895       Y5.0056     F100 
   X2.7984       Y5.0093    
   X2.8080       Y5.0106    
   X2.8175       Y5.0093    
   X2.8265       Y5.0056    
   X2.8341       Y4.9998    
   X2.8400       Y4.9921    
   X2.8437       Y4.9832    
   X2.8455       Y4.9695    
   Y4.6234    
   X2.8437       Y4.6097    
   X2.8400       Y4.6008    
   X2.8341       Y4.5932    
   X2.8265       Y4.5873    
   X2.8175       Y4.5836    
   X2.8080       Y4.5823    
   X2.7984       Y4.5836    
   X2.7895       Y4.5873    
   X2.7818       Y4.5932    
   X2.7760       Y4.6008    
   X2.7723       Y4.6097    
   X2.7705       Y4.6234    
   Y4.9695    
   X2.7723       Y4.9832    
   X2.7760       Y4.9921    
   X2.7818       Y4.9998    
(BREAK pass 10)
G0   Z0.1250    
(Pass: 1)
   X3.4350       Y4.3664    
G1   Z-0.0312    F40  
   X3.5238       Y4.4346     F100 
   X3.6273       Y4.4775    
   X3.7384       Y4.4921    
   X3.8494       Y4.4775    
   X3.9529       Y4.4346    
   X4.0418       Y4.3664    
   X4.1100       Y4.2776    
   X4.1528       Y4.1741    
   X4.1680       Y4.0589    
   Y3.6734    
   X4.1528       Y3.5583    
   X4.1100       Y3.4548    
   X4.0418       Y3.3659    
   X3.9529       Y3.2977    
   X3.8494       Y3.2548    
   X3.7384       Y3.2402    
   X3.6273       Y3.2548    
   X3.5238       Y3.2977    
   X3.4350       Y3.3659    
   X3.3668       Y3.4548    
   X3.3239       Y3.5583    
   X3.3087       Y3.6734    
   Y4.0589    
   X3.3239       Y4.1741    
   X3.3668       Y4.2776    
   X3.4350       Y4.3664    
(Pass: 2)
   Z-0.0625    F40  
   X3.5238       Y4.4346     F100 
   X3.6273       Y4.4775    
   X3.7384       Y4.4921    
   X3.8494       Y4.4775    
   X3.9529       Y4.4346    
   X4.0418       Y4.3664    
   X4.1100       Y4.2776    
   X4.1528       Y4.1741    
   X4.1680       Y4.0589    
   Y3.6734    
   X4.1528       Y3.5583    
   X4.1100       Y3.4548    
   X4.0418       Y3.3659    
   X3.9529       Y3.2977    
   X3.8494       Y3.2548    
   X3.7384       Y3.2402    
   X3.6273       Y3.2548    
   X3.5238       Y3.2977    
   X3.4350       Y3.3659    
   X3.3668       Y3.4548    
   X3.3239       Y3.5583    
   X3.3087       Y3.6734    
   Y4.0589    
   X3.3239       Y4.1741    
   X3.3668       Y4.2776    
   X3.4350       Y4.3664    
(Pass: 3)
   Z-0.0938    F40  
   X3.5238       Y4.4346     F100 
   X3.6273       Y4.4775    
   X3.7384       Y4.4921    
   X3.8494       Y4.4775    
   X3.9529       Y4.4346    
   X4.0418       Y4.3664    
   X4.1100       Y4.2776    
   X4.1528       Y4.1741    
   X4.1680       Y4.0589    
   Y3.6734    
   X4.1528       Y3.5583    
   X4.1100       Y3.4548    
   X4.0418       Y3.3659    
   X3.9529       Y3.2977    
   X3.8494       Y3.2548    
   X3.7384       Y3.2402    
   X3.6273       Y3.2548    
   X3.5238       Y3.2977    
   X3.4350       Y3.3659    
   X3.3668       Y3.4548    
   X3.3239       Y3.5583    
   X3.3087       Y3.6734    
   Y4.0589    
   X3.3239       Y4.1741    
   X3.3668       Y4.2776    
   X3.4350       Y4.3664    
(Pass: 4)
   Z-0.1250    F40  
   X3.5238       Y4.4346     F100 
   X3.6273       Y4.4775    
   X3.7384       Y4.4921    
   X3.8494       Y4.4775    
   X3.9529       Y4.4346    
   X4.0418       Y4.3664    
   X4.1100       Y4.2776    
   X4.1528       Y4.1741    
   X4.1680       Y4.0589    
   Y3.6734    
   X4.1528       Y3.5583    
   X4.1100       Y3.4548    
   X4.0418       Y3.3659    
   X3.9529       Y3.2977    
   X3.8494       Y3.2548    
   X3.7384       Y3.2402    
   X3.6273       Y3.2548    
   X3.5238       Y3.2977    
   X3.4350       Y3.3659    
   X3.3668       Y3.4548    
   X3.3239       Y3.5583    
   X3.3087       Y3.6734    
   Y4.0589    
   X3.3239       Y4.1741    
   X3.3668       Y4.2776    
   X3.4350       Y4.3664    
(Pass: 5)
   Z-0.1562    F40  
   X3.5238       Y4.4346     F100 
   X3.6273       Y4.4775    
   X3.7384       Y4.4921    
   X3.8494       Y4.4775    
   X3.9529       Y4.4346    
   X4.0418       Y4.3664    
   X4.1100       Y4.2776    
   X4.1528       Y4.1741    
   X4.1680       Y4.0589    
   Y3.6734    
   X4.1528       Y3.5583    
   X4.1100       Y3.4548    
   X4.0418       Y3.3659    
   X3.9529       Y3.2977    
   X3.8494       Y3.2548    
   X3.7384       Y3.2402    
   X3.6273       Y3.2548    
   X3.5238       Y3.2977    
   X3.4350       Y3.3659    
   X3.3668       Y3.4548    
   X3.3239       Y3.5583    
   X3.3087       Y3.6734    
   Y4.0589    
   X3.3239       Y4.1741    
   X3.3668       Y4.2776    
   X3.4350       Y4.3664    
(Pass: 6)
   Z-0.1875    F40  
   X3.5238       Y4.4346     F100 
   X3.6273       Y4.4775    
   X3.7384       Y4.4921    
   X3.8494       Y4.4775    
   X3.9529       Y4.4346    
   X4.0418       Y4.3664    
   X4.1100       Y4.2776    
   X4.1528       Y4.1741    
   X4.1680       Y4.0589    
   Y3.6734    
   X4.1528       Y3.5583    
   X4.1100       Y3.4548    
   X4.0418       Y3.3659    
   X3.9529       Y3.2977    
   X3.8494       Y3.2548    
   X3.7384       Y3.2402    
   X3.6273       Y3.2548    
   X3.5238       Y3.2977    
   X3.4350       Y3.3659    
   X3.3668       Y3.4548    
   X3.3239       Y3.5583    
   X3.3087       Y3.6734    
   Y4.0589    
   X3.3239       Y4.1741    
   X3.3668       Y4.2776    
   X3.4350       Y4.3664    
(Pass: 7)
   Z-0.2188    F40  
   X3.5238       Y4.4346     F100 
   X3.6273       Y4.4775    
   X3.7384       Y4.4921    
   X3.8494       Y4.4775    
   X3.9529       Y4.4346    
   X4.0418       Y4.3664    
   X4.1100       Y4.2776    
   X4.1528       Y4.1741    
   X4.1680       Y4.0589    
   Y3.6734    
   X4.1528       Y3.5583    
   X4.1100       Y3.4548    
   X4.0418       Y3.3659    
   X3.9529       Y3.2977    
   X3.8494       Y3.2548    
   X3.7384       Y3.2402    
   X3.6273       Y3.2548    
   X3.5238       Y3.2977    
   X3.4350       Y3.3659    
   X3.3668       Y3.4548    
   X3.3239       Y3.5583    
   X3.3087       Y3.6734    
   Y4.0589    
   X3.3239       Y4.1741    
   X3.3668       Y4.2776    
   X3.4350       Y4.3664    
(Pass: 8)
   Z-0.2500    F40  
   X3.5238       Y4.4346     F100 
   X3.6273       Y4.4775    
   X3.7384       Y4.4921    
   X3.8494       Y4.4775    
   X3.9529       Y4.4346    
   X4.0418       Y4.3664    
   X4.1100       Y4.2776    
   X4.1528       Y4.1741    
   X4.1680       Y4.0589    
   Y3.6734    
   X4.1528       Y3.5583    
   X4.1100       Y3.4548    
   X4.0418       Y3.3659    
   X3.9529       Y3.2977    
   X3.8494       Y3.2548    
   X3.7384       Y3.2402    
   X3.6273       Y3.2548    
   X3.5238       Y3.2977    
   X3.4350       Y3.3659    
   X3.3668       Y3.4548    
   X3.3239       Y3.5583    
   X3.3087       Y3.6734    
   Y4.0589    
   X3.3239       Y4.1741    
   X3.3668       Y4.2776    
   X3.4350       Y4.3664    
(Pass: 9)
   Z-0.2812    F40  
   X3.5238       Y4.4346     F100 
   X3.6273       Y4.4775    
   X3.7384       Y4.4921    
   X3.8494       Y4.4775    
   X3.9529       Y4.4346    
   X4.0418       Y4.3664    
   X4.1100       Y4.2776    
   X4.1528       Y4.1741    
   X4.1680       Y4.0589    
   Y3.6734    
   X4.1528       Y3.5583    
   X4.1100       Y3.4548    
   X4.0418       Y3.3659    
   X3.9529       Y3.2977    
   X3.8494       Y3.2548    
   X3.7384       Y3.2402    
   X3.6273       Y3.2548    
   X3.5238       Y3.2977    
   X3.4350       Y3.3659    
   X3.3668       Y3.4548    
   X3.3239       Y3.5583    
   X3.3087       Y3.6734    
   Y4.0589    
   X3.3239       Y4.1741    
   X3.3668       Y4.2776    
   X3.4350       Y4.3664    
(Pass: 10)
   Z-0.3125    F40  
   X3.5238       Y4.4346     F100 
   X3.6273       Y4.4775    
   X3.7384       Y4.4921    
   X3.8494       Y4.4775    
   X3.9529       Y4.4346    
   X4.0418       Y4.3664    
   X4.1100       Y4.2776    
   X4.1528       Y4.1741    
   X4.1680       Y4.0589    
   Y3.6734    
   X4.1528       Y3.5583    
   X4.1100       Y3.4548    
   X4.0418       Y3.3659    
   X3.9529       Y3.2977    
   X3.8494       Y3.2548    
   X3.7384       Y3.2402    
   X3.6273       Y3.2548    
   X3.5238       Y3.2977    
   X3.4350       Y3.3659    
   X3.3668       Y3.4548    
   X3.3239       Y3.5583    
   X3.3087       Y3.6734    
   Y4.0589    
   X3.3239       Y4.1741    
   X3.3668       Y4.2776    
   X3.4350       Y4.3664    
(BREAK pass 10)
G0   Z0.1250    
(Pass: 1)
   X2.8175       Y3.1493    
G1   Z-0.0312    F40  
   X2.8265       Y3.1456     F100 
   X2.8341       Y3.1398    
   X2.8400       Y3.1321    
   X2.8437       Y3.1232    
   X2.8455       Y3.1095    
   Y2.7634    
   X2.8437       Y2.7497    
   X2.8400       Y2.7408    
   X2.8341       Y2.7332    
   X2.8265       Y2.7273    
   X2.8175       Y2.7236    
   X2.8080       Y2.7223    
   X2.7984       Y2.7236    
   X2.7895       Y2.7273    
   X2.7818       Y2.7332    
   X2.7760       Y2.7408    
   X2.7723       Y2.7497    
   X2.7705       Y2.7634    
   Y3.1095    
   X2.7723       Y3.1232    
   X2.7760       Y3.1321    
   X2.7818       Y3.1398    
   X2.7895       Y3.1456    
   X2.7984       Y3.1493    
   X2.8080       Y3.1506    
   X2.8175       Y3.1493    
(Pass: 2)
   Z-0.0625    F40  
   X2.8265       Y3.1456     F100 
   X2.8341       Y3.1398    
   X2.8400       Y3.1321    
   X2.8437       Y3.1232    
   X2.8455       Y3.1095    
   Y2.7634    
   X2.8437       Y2.7497    
   X2.8400       Y2.7408    
   X2.8341       Y2.7332    
   X2.8265       Y2.7273    
   X2.8175       Y2.7236    
   X2.8080       Y2.7223    
   X2.7984       Y2.7236    
   X2.7895       Y2.7273    
   X2.7818       Y2.7332    
   X2.7760       Y2.7408    
   X2.7723       Y2.7497    
   X2.7705       Y2.7634    
   Y3.1095    
   X2.7723       Y3.1232    
   X2.7760       Y3.1321    
   X2.7818       Y3.1398    
   X2.7895       Y3.1456    
   X2.7984       Y3.1493    
   X2.8080       Y3.1506    
   X2.8175       Y3.1493    
(Pass: 3)
   Z-0.0938    F40  
   X2.8265       Y3.1456     F100 
   X2.8341       Y3.1398    
   X2.8400       Y3.1321    
   X2.8437       Y3.1232    
   X2.8455       Y3.1095    
   Y2.7634    
   X2.8437       Y2.7497    
   X2.8400       Y2.7408    
   X2.8341       Y2.7332    
   X2.8265       Y2.7273    
   X2.8175       Y2.7236    
   X2.8080       Y2.7223    
   X2.7984       Y2.7236    
   X2.7895       Y2.7273    
   X2.7818       Y2.7332    
   X2.7760       Y2.7408    
   X2.7723       Y2.7497    
   X2.7705       Y2.7634    
   Y3.1095    
   X2.7723       Y3.1232    
   X2.7760       Y3.1321    
   X2.7818       Y3.1398    
   X2.7895       Y3.1456    
   X2.7984       Y3.1493    
   X2.8080       Y3.1506    
   X2.8175       Y3.1493    
(Pass: 4)
   Z-0.1250    F40  
   X2.8265       Y3.1456     F100 
   X2.8341       Y3.1398    
   X2.8400       Y3.1321    
   X2.8437       Y3.1232    
   X2.8455       Y3.1095    
   Y2.7634    
   X2.8437       Y2.7497    
   X2.8400       Y2.7408    
   X2.8341       Y2.7332    
   X2.8265       Y2.7273    
   X2.8175       Y2.7236    
   X2.8080       Y2.7223    
   X2.7984       Y2.7236    
   X2.7895       Y2.7273    
   X2.7818       Y2.7332    
   X2.7760       Y2.7408    
   X2.7723       Y2.7497    
   X2.7705       Y2.7634    
   Y3.1095    
   X2.7723       Y3.1232    
   X2.7760       Y3.1321    
   X2.7818       Y3.1398    
   X2.7895       Y3.1456    
   X2.7984       Y3.1493    
   X2.8080       Y3.1506    
   X2.8175       Y3.1493    
(Pass: 5)
   Z-0.1562    F40  
   X2.8265       Y3.1456     F100 
   X2.8341       Y3.1398    
   X2.8400       Y3.1321    
   X2.8437       Y3.1232    
   X2.8455       Y3.1095    
   Y2.7634    
   X2.8437       Y2.7497    
   X2.8400       Y2.7408    
   X2.8341       Y2.7332    
   X2.8265       Y2.7273    
   X2.8175       Y2.7236    
   X2.8080       Y2.7223    
   X2.7984       Y2.7236    
   X2.7895       Y2.7273    
   X2.7818       Y2.7332    
   X2.7760       Y2.7408    
   X2.7723       Y2.7497    
   X2.7705       Y2.7634    
   Y3.1095    
   X2.7723       Y3.1232    
   X2.7760       Y3.1321    
   X2.7818       Y3.1398    
   X2.7895       Y3.1456    
   X2.7984       Y3.1493    
   X2.8080       Y3.1506    
   X2.8175       Y3.1493    
(Pass: 6)
   Z-0.1875    F40  
   X2.8265       Y3.1456     F100 
   X2.8341       Y3.1398    
   X2.8400       Y3.1321    
   X2.8437       Y3.1232    
   X2.8455       Y3.1095    
   Y2.7634    
   X2.8437       Y2.7497    
   X2.8400       Y2.7408    
   X2.8341       Y2.7332    
   X2.8265       Y2.7273    
   X2.8175       Y2.7236    
   X2.8080       Y2.7223    
   X2.7984       Y2.7236    
   X2.7895       Y2.7273    
   X2.7818       Y2.7332    
   X2.7760       Y2.7408    
   X2.7723       Y2.7497    
   X2.7705       Y2.7634    
   Y3.1095    
   X2.7723       Y3.1232    
   X2.7760       Y3.1321    
   X2.7818       Y3.1398    
   X2.7895       Y3.1456    
   X2.7984       Y3.1493    
   X2.8080       Y3.1506    
   X2.8175       Y3.1493    
(Pass: 7)
   Z-0.2188    F40  
   X2.8265       Y3.1456     F100 
   X2.8341       Y3.1398    
   X2.8400       Y3.1321    
   X2.8437       Y3.1232    
   X2.8455       Y3.1095    
   Y2.7634    
   X2.8437       Y2.7497    
   X2.8400       Y2.7408    
   X2.8341       Y2.7332    
   X2.8265       Y2.7273    
   X2.8175       Y2.7236    
   X2.8080       Y2.7223    
   X2.7984       Y2.7236    
   X2.7895       Y2.7273    
   X2.7818       Y2.7332    
   X2.7760       Y2.7408    
   X2.7723       Y2.7497    
   X2.7705       Y2.7634    
   Y3.1095    
   X2.7723       Y3.1232    
   X2.7760       Y3.1321    
   X2.7818       Y3.1398    
   X2.7895       Y3.1456    
   X2.7984       Y3.1493    
   X2.8080       Y3.1506    
   X2.8175       Y3.1493    
(Pass: 8)
   Z-0.2500    F40  
   X2.8265       Y3.1456     F100 
   X2.8341       Y3.1398    
   X2.8400       Y3.1321    
   X2.8437       Y3.1232    
   X2.8455       Y3.1095    
   Y2.7634    
   X2.8437       Y2.7497    
   X2.8400       Y2.7408    
   X2.8341       Y2.7332    
   X2.8265       Y2.7273    
   X2.8175       Y2.7236    
   X2.8080       Y2.7223    
   X2.7984       Y2.7236    
   X2.7895       Y2.7273    
   X2.7818       Y2.7332    
   X2.7760       Y2.7408    
   X2.7723       Y2.7497    
   X2.7705       Y2.7634    
   Y3.1095    
   X2.7723       Y3.1232    
   X2.7760       Y3.1321    
   X2.7818       Y3.1398    
   X2.7895       Y3.1456    
   X2.7984       Y3.1493    
   X2.8080       Y3.1506    
   X2.8175       Y3.1493    
(Pass: 9)
   Z-0.2812    F40  
   X2.8265       Y3.1456     F100 
   X2.8341       Y3.1398    
   X2.8400       Y3.1321    
   X2.8437       Y3.1232    
   X2.8455       Y3.1095    
   Y2.7634    
   X2.8437       Y2.7497    
   X2.8400       Y2.7408    
   X2.8341       Y2.7332    
   X2.8265       Y2.7273    
   X2.8175       Y2.7236    
   X2.8080       Y2.7223    
   X2.7984       Y2.7236    
   X2.7895       Y2.7273    
   X2.7818       Y2.7332    
   X2.7760       Y2.7408    
   X2.7723       Y2.7497    
   X2.7705       Y2.7634    
   Y3.1095    
   X2.7723       Y3.1232    
   X2.7760       Y3.1321    
   X2.7818       Y3.1398    
   X2.7895       Y3.1456    
   X2.7984       Y3.1493    
   X2.8080       Y3.1506    
   X2.8175       Y3.1493    
(Pass: 10)
   Z-0.3125    F40  
   X2.8265       Y3.1456     F100 
   X2.8341       Y3.1398    
   X2.8400       Y3.1321    
   X2.8437       Y3.1232    
   X2.8455       Y3.1095    
   Y2.7634    
   X2.8437       Y2.7497    
   X2.8400       Y2.7408    
   X2.8341       Y2.7332    
   X2.8265       Y2.7273    
   X2.8175       Y2.7236    
   X2.8080       Y2.7223    
   X2.7984       Y2.7236    
   X2.7895       Y2.7273    
   X2.7818       Y2.7332    
   X2.7760       Y2.7408    
   X2.7723       Y2.7497    
   X2.7705       Y2.7634    
   Y3.1095    
   X2.7723       Y3.1232    
   X2.7760       Y3.1321    
   X2.7818       Y3.1398    
   X2.7895       Y3.1456    
   X2.7984       Y3.1493    
   X2.8080       Y3.1506    
   X2.8175       Y3.1493    
(BREAK pass 10)
G0   Z0.1250    
(Pass: 1)
   X2.3824       Y3.2640    
G1   Z-0.0312    F40  
   X2.3812       Y3.2548     F100 
   X2.3777       Y3.2463    
   X2.3721       Y3.2390    
   X2.3647       Y3.2334    
   X2.3562       Y3.2298    
   X2.3470       Y3.2286    
   X2.3379       Y3.2298    
   X2.3293       Y3.2334    
   X2.3220       Y3.2390    
   X2.3164       Y3.2463    
   X2.3129       Y3.2548    
   X2.3116       Y3.2640    
   X2.3129       Y3.2732    
   X2.3164       Y3.2817    
   X2.3220       Y3.2890    
   X2.3293       Y3.2946    
   X2.3379       Y3.2982    
   X2.3470       Y3.2994    
   X2.3562       Y3.2982    
   X2.3647       Y3.2946    
   X2.3721       Y3.2890    
   X2.3777       Y3.2817    
   X2.3812       Y3.2732    
   X2.3824       Y3.2640    
(Pass: 2)
   Z-0.0625    F40  
   X2.3812       Y3.2548     F100 
   X2.3777       Y3.2463    
   X2.3721       Y3.2390    
   X2.3647       Y3.2334    
   X2.3562       Y3.2298    
   X2.3470       Y3.2286    
   X2.3379       Y3.2298    
   X2.3293       Y3.2334    
   X2.3220       Y3.2390    
   X2.3164       Y3.2463    
   X2.3129       Y3.2548    
   X2.3116       Y3.2640    
   X2.3129       Y3.2732    
   X2.3164       Y3.2817    
   X2.3220       Y3.2890    
   X2.3293       Y3.2946    
   X2.3379       Y3.2982    
   X2.3470       Y3.2994    
   X2.3562       Y3.2982    
   X2.3647       Y3.2946    
   X2.3721       Y3.2890    
   X2.3777       Y3.2817    
   X2.3812       Y3.2732    
   X2.3824       Y3.2640    
(Pass: 3)
   Z-0.0938    F40  
   X2.3812       Y3.2548     F100 
   X2.3777       Y3.2463    
   X2.3721       Y3.2390    
   X2.3647       Y3.2334    
   X2.3562       Y3.2298    
   X2.3470       Y3.2286    
   X2.3379       Y3.2298    
   X2.3293       Y3.2334    
   X2.3220       Y3.2390    
   X2.3164       Y3.2463    
   X2.3129       Y3.2548    
   X2.3116       Y3.2640    
   X2.3129       Y3.2732    
   X2.3164       Y3.2817    
   X2.3220       Y3.2890    
   X2.3293       Y3.2946    
   X2.3379       Y3.2982    
   X2.3470       Y3.2994    
   X2.3562       Y3.2982    
   X2.3647       Y3.2946    
   X2.3721       Y3.2890    
   X2.3777       Y3.2817    
   X2.3812       Y3.2732    
   X2.3824       Y3.2640    
(Pass: 4)
   Z-0.1250    F40  
   X2.3812       Y3.2548     F100 
   X2.3777       Y3.2463    
   X2.3721       Y3.2390    
   X2.3647       Y3.2334    
   X2.3562       Y3.2298    
   X2.3470       Y3.2286    
   X2.3379       Y3.2298    
   X2.3293       Y3.2334    
   X2.3220       Y3.2390    
   X2.3164       Y3.2463    
   X2.3129       Y3.2548    
   X2.3116       Y3.2640    
   X2.3129       Y3.2732    
   X2.3164       Y3.2817    
   X2.3220       Y3.2890    
   X2.3293       Y3.2946    
   X2.3379       Y3.2982    
   X2.3470       Y3.2994    
