%
(Generated by SketchUcam {1.2a})
(File: Plate_printouts.skp)
(Bit diameter: 1/8")
(Feed rate: 100"/min)
(Plunge Feed rate: 40"/min)
(Material Thickness: 1/4")
(Material length: 15" X width: 25")
(Overhead Gantry: true)
(Retract feed rate NOT limited to plunge feed rate)
(Multipass enabled, Depth = 1/64")
(Optimization is ON)
(www.PhlatBoyz.com)
(Loaded profile default)
G90 G20 G49 
M3 S15000
G0   Z0.1250    
(Pass: 1)
   X0.8699       Y0.7156    
G1   Z-0.0156    F40  
   X0.8575       Y0.7316     F100 
   X0.8498       Y0.7503    
   X0.8472       Y0.7703    
   X0.8498       Y0.7904    
   X0.8575       Y0.8091    
   X0.8699       Y0.8251    
   X0.8859       Y0.8374    
   X0.9046       Y0.8452    
   X0.9246       Y0.8478    
   X0.9447       Y0.8452    
   X0.9633       Y0.8374    
   X0.9794       Y0.8251    
   X0.9917       Y0.8091    
   X0.9994       Y0.7904    
   X1.0021       Y0.7703    
   X0.9994       Y0.7503    
   X0.9917       Y0.7316    
   X0.9794       Y0.7156    
   X0.9633       Y0.7033    
   X0.9447       Y0.6955    
   X0.9246       Y0.6929    
   X0.9046       Y0.6955    
   X0.8859       Y0.7033    
   X0.8699       Y0.7156    
(Pass: 2)
   Z-0.0312    F40  
   X0.8575       Y0.7316     F100 
   X0.8498       Y0.7503    
   X0.8472       Y0.7703    
   X0.8498       Y0.7904    
   X0.8575       Y0.8091    
   X0.8699       Y0.8251    
   X0.8859       Y0.8374    
   X0.9046       Y0.8452    
   X0.9246       Y0.8478    
   X0.9447       Y0.8452    
   X0.9633       Y0.8374    
   X0.9794       Y0.8251    
   X0.9917       Y0.8091    
   X0.9994       Y0.7904    
   X1.0021       Y0.7703    
   X0.9994       Y0.7503    
   X0.9917       Y0.7316    
   X0.9794       Y0.7156    
   X0.9633       Y0.7033    
   X0.9447       Y0.6955    
   X0.9246       Y0.6929    
   X0.9046       Y0.6955    
   X0.8859       Y0.7033    
   X0.8699       Y0.7156    
(Pass: 3)
   Z-0.0469    F40  
   X0.8575       Y0.7316     F100 
   X0.8498       Y0.7503    
   X0.8472       Y0.7703    
   X0.8498       Y0.7904    
   X0.8575       Y0.8091    
   X0.8699       Y0.8251    
   X0.8859       Y0.8374    
   X0.9046       Y0.8452    
   X0.9246       Y0.8478    
   X0.9447       Y0.8452    
   X0.9633       Y0.8374    
   X0.9794       Y0.8251    
   X0.9917       Y0.8091    
   X0.9994       Y0.7904    
   X1.0021       Y0.7703    
   X0.9994       Y0.7503    
   X0.9917       Y0.7316    
   X0.9794       Y0.7156    
   X0.9633       Y0.7033    
   X0.9447       Y0.6955    
   X0.9246       Y0.6929    
   X0.9046       Y0.6955    
   X0.8859       Y0.7033    
   X0.8699       Y0.7156    
(Pass: 4)
   Z-0.0625    F40  
   X0.8575       Y0.7316     F100 
   X0.8498       Y0.7503    
   X0.8472       Y0.7703    
   X0.8498       Y0.7904    
   X0.8575       Y0.8091    
   X0.8699       Y0.8251    
   X0.8859       Y0.8374    
   X0.9046       Y0.8452    
   X0.9246       Y0.8478    
   X0.9447       Y0.8452    
   X0.9633       Y0.8374    
   X0.9794       Y0.8251    
   X0.9917       Y0.8091    
   X0.9994       Y0.7904    
   X1.0021       Y0.7703    
   X0.9994       Y0.7503    
   X0.9917       Y0.7316    
   X0.9794       Y0.7156    
   X0.9633       Y0.7033    
   X0.9447       Y0.6955    
   X0.9246       Y0.6929    
   X0.9046       Y0.6955    
   X0.8859       Y0.7033    
   X0.8699       Y0.7156    
(Pass: 5)
   Z-0.0781    F40  
   X0.8575       Y0.7316     F100 
   X0.8498       Y0.7503    
   X0.8472       Y0.7703    
   X0.8498       Y0.7904    
   X0.8575       Y0.8091    
   X0.8699       Y0.8251    
   X0.8859       Y0.8374    
   X0.9046       Y0.8452    
   X0.9246       Y0.8478    
   X0.9447       Y0.8452    
   X0.9633       Y0.8374    
   X0.9794       Y0.8251    
   X0.9917       Y0.8091    
   X0.9994       Y0.7904    
   X1.0021       Y0.7703    
   X0.9994       Y0.7503    
   X0.9917       Y0.7316    
   X0.9794       Y0.7156    
   X0.9633       Y0.7033    
   X0.9447       Y0.6955    
   X0.9246       Y0.6929    
   X0.9046       Y0.6955    
   X0.8859       Y0.7033    
   X0.8699       Y0.7156    
(Pass: 6)
   Z-0.0938    F40  
   X0.8575       Y0.7316     F100 
   X0.8498       Y0.7503    
   X0.8472       Y0.7703    
   X0.8498       Y0.7904    
   X0.8575       Y0.8091    
   X0.8699       Y0.8251    
   X0.8859       Y0.8374    
   X0.9046       Y0.8452    
   X0.9246       Y0.8478    
   X0.9447       Y0.8452    
   X0.9633       Y0.8374    
   X0.9794       Y0.8251    
   X0.9917       Y0.8091    
   X0.9994       Y0.7904    
   X1.0021       Y0.7703    
   X0.9994       Y0.7503    
   X0.9917       Y0.7316    
   X0.9794       Y0.7156    
   X0.9633       Y0.7033    
   X0.9447       Y0.6955    
   X0.9246       Y0.6929    
   X0.9046       Y0.6955    
   X0.8859       Y0.7033    
   X0.8699       Y0.7156    
(Pass: 7)
   Z-0.1094    F40  
   X0.8575       Y0.7316     F100 
   X0.8498       Y0.7503    
   X0.8472       Y0.7703    
   X0.8498       Y0.7904    
   X0.8575       Y0.8091    
   X0.8699       Y0.8251    
   X0.8859       Y0.8374    
   X0.9046       Y0.8452    
   X0.9246       Y0.8478    
   X0.9447       Y0.8452    
   X0.9633       Y0.8374    
   X0.9794       Y0.8251    
   X0.9917       Y0.8091    
   X0.9994       Y0.7904    
   X1.0021       Y0.7703    
   X0.9994       Y0.7503    
   X0.9917       Y0.7316    
   X0.9794       Y0.7156    
   X0.9633       Y0.7033    
   X0.9447       Y0.6955    
   X0.9246       Y0.6929    
   X0.9046       Y0.6955    
   X0.8859       Y0.7033    
   X0.8699       Y0.7156    
(Pass: 8)
   Z-0.1250    F40  
   X0.8575       Y0.7316     F100 
   X0.8498       Y0.7503    
   X0.8472       Y0.7703    
   X0.8498       Y0.7904    
   X0.8575       Y0.8091    
   X0.8699       Y0.8251    
   X0.8859       Y0.8374    
   X0.9046       Y0.8452    
   X0.9246       Y0.8478    
   X0.9447       Y0.8452    
   X0.9633       Y0.8374    
   X0.9794       Y0.8251    
   X0.9917       Y0.8091    
   X0.9994       Y0.7904    
   X1.0021       Y0.7703    
   X0.9994       Y0.7503    
   X0.9917       Y0.7316    
   X0.9794       Y0.7156    
   X0.9633       Y0.7033    
   X0.9447       Y0.6955    
   X0.9246       Y0.6929    
   X0.9046       Y0.6955    
   X0.8859       Y0.7033    
   X0.8699       Y0.7156    
(Pass: 9)
   Z-0.1406    F40  
   X0.8575       Y0.7316     F100 
   X0.8498       Y0.7503    
   X0.8472       Y0.7703    
   X0.8498       Y0.7904    
   X0.8575       Y0.8091    
   X0.8699       Y0.8251    
   X0.8859       Y0.8374    
   X0.9046       Y0.8452    
   X0.9246       Y0.8478    
   X0.9447       Y0.8452    
   X0.9633       Y0.8374    
   X0.9794       Y0.8251    
   X0.9917       Y0.8091    
   X0.9994       Y0.7904    
   X1.0021       Y0.7703    
   X0.9994       Y0.7503    
   X0.9917       Y0.7316    
   X0.9794       Y0.7156    
   X0.9633       Y0.7033    
   X0.9447       Y0.6955    
   X0.9246       Y0.6929    
   X0.9046       Y0.6955    
   X0.8859       Y0.7033    
   X0.8699       Y0.7156    
(Pass: 10)
   Z-0.1562    F40  
   X0.8575       Y0.7316     F100 
   X0.8498       Y0.7503    
   X0.8472       Y0.7703    
   X0.8498       Y0.7904    
   X0.8575       Y0.8091    
   X0.8699       Y0.8251    
   X0.8859       Y0.8374    
   X0.9046       Y0.8452    
   X0.9246       Y0.8478    
   X0.9447       Y0.8452    
   X0.9633       Y0.8374    
   X0.9794       Y0.8251    
   X0.9917       Y0.8091    
   X0.9994       Y0.7904    
   X1.0021       Y0.7703    
   X0.9994       Y0.7503    
   X0.9917       Y0.7316    
   X0.9794       Y0.7156    
   X0.9633       Y0.7033    
   X0.9447       Y0.6955    
   X0.9246       Y0.6929    
   X0.9046       Y0.6955    
   X0.8859       Y0.7033    
   X0.8699       Y0.7156    
(Pass: 11)
   Z-0.1719    F40  
   X0.8575       Y0.7316     F100 
   X0.8498       Y0.7503    
   X0.8472       Y0.7703    
   X0.8498       Y0.7904    
   X0.8575       Y0.8091    
   X0.8699       Y0.8251    
   X0.8859       Y0.8374    
   X0.9046       Y0.8452    
   X0.9246       Y0.8478    
   X0.9447       Y0.8452    
   X0.9633       Y0.8374    
   X0.9794       Y0.8251    
   X0.9917       Y0.8091    
   X0.9994       Y0.7904    
   X1.0021       Y0.7703    
   X0.9994       Y0.7503    
   X0.9917       Y0.7316    
   X0.9794       Y0.7156    
   X0.9633       Y0.7033    
   X0.9447       Y0.6955    
   X0.9246       Y0.6929    
   X0.9046       Y0.6955    
   X0.8859       Y0.7033    
   X0.8699       Y0.7156    
(Pass: 12)
   Z-0.1875    F40  
   X0.8575       Y0.7316     F100 
   X0.8498       Y0.7503    
   X0.8472       Y0.7703    
   X0.8498       Y0.7904    
   X0.8575       Y0.8091    
   X0.8699       Y0.8251    
   X0.8859       Y0.8374    
   X0.9046       Y0.8452    
   X0.9246       Y0.8478    
   X0.9447       Y0.8452    
   X0.9633       Y0.8374    
   X0.9794       Y0.8251    
   X0.9917       Y0.8091    
   X0.9994       Y0.7904    
   X1.0021       Y0.7703    
   X0.9994       Y0.7503    
   X0.9917       Y0.7316    
   X0.9794       Y0.7156    
   X0.9633       Y0.7033    
   X0.9447       Y0.6955    
   X0.9246       Y0.6929    
   X0.9046       Y0.6955    
   X0.8859       Y0.7033    
   X0.8699       Y0.7156    
(Pass: 13)
   Z-0.2031    F40  
   X0.8575       Y0.7316     F100 
   X0.8498       Y0.7503    
   X0.8472       Y0.7703    
   X0.8498       Y0.7904    
   X0.8575       Y0.8091    
   X0.8699       Y0.8251    
   X0.8859       Y0.8374    
   X0.9046       Y0.8452    
   X0.9246       Y0.8478    
   X0.9447       Y0.8452    
   X0.9633       Y0.8374    
   X0.9794       Y0.8251    
   X0.9917       Y0.8091    
   X0.9994       Y0.7904    
   X1.0021       Y0.7703    
   X0.9994       Y0.7503    
   X0.9917       Y0.7316    
   X0.9794       Y0.7156    
   X0.9633       Y0.7033    
   X0.9447       Y0.6955    
   X0.9246       Y0.6929    
   X0.9046       Y0.6955    
   X0.8859       Y0.7033    
   X0.8699       Y0.7156    
(Pass: 14)
   Z-0.2188    F40  
   X0.8575       Y0.7316     F100 
   X0.8498       Y0.7503    
   X0.8472       Y0.7703    
   X0.8498       Y0.7904    
   X0.8575       Y0.8091    
   X0.8699       Y0.8251    
   X0.8859       Y0.8374    
   X0.9046       Y0.8452    
   X0.9246       Y0.8478    
   X0.9447       Y0.8452    
   X0.9633       Y0.8374    
   X0.9794       Y0.8251    
   X0.9917       Y0.8091    
   X0.9994       Y0.7904    
   X1.0021       Y0.7703    
   X0.9994       Y0.7503    
   X0.9917       Y0.7316    
   X0.9794       Y0.7156    
   X0.9633       Y0.7033    
   X0.9447       Y0.6955    
   X0.9246       Y0.6929    
   X0.9046       Y0.6955    
   X0.8859       Y0.7033    
   X0.8699       Y0.7156    
(Pass: 15)
   Z-0.2344    F40  
   X0.8575       Y0.7316     F100 
   X0.8498       Y0.7503    
   X0.8472       Y0.7703    
   X0.8498       Y0.7904    
   X0.8575       Y0.8091    
   X0.8699       Y0.8251    
   X0.8859       Y0.8374    
   X0.9046       Y0.8452    
   X0.9246       Y0.8478    
   X0.9447       Y0.8452    
   X0.9633       Y0.8374    
   X0.9794       Y0.8251    
   X0.9917       Y0.8091    
   X0.9994       Y0.7904    
   X1.0021       Y0.7703    
   X0.9994       Y0.7503    
   X0.9917       Y0.7316    
   X0.9794       Y0.7156    
   X0.9633       Y0.7033    
   X0.9447       Y0.6955    
   X0.9246       Y0.6929    
   X0.9046       Y0.6955    
   X0.8859       Y0.7033    
   X0.8699       Y0.7156    
(Pass: 16)
   Z-0.2500    F40  
   X0.8575       Y0.7316     F100 
   X0.8498       Y0.7503    
   X0.8472       Y0.7703    
   X0.8498       Y0.7904    
   X0.8575       Y0.8091    
   X0.8699       Y0.8251    
   X0.8859       Y0.8374    
   X0.9046       Y0.8452    
   X0.9246       Y0.8478    
   X0.9447       Y0.8452    
   X0.9633       Y0.8374    
   X0.9794       Y0.8251    
   X0.9917       Y0.8091    
   X0.9994       Y0.7904    
   X1.0021       Y0.7703    
   X0.9994       Y0.7503    
   X0.9917       Y0.7316    
   X0.9794       Y0.7156    
   X0.9633       Y0.7033    
   X0.9447       Y0.6955    
   X0.9246       Y0.6929    
   X0.9046       Y0.6955    
   X0.8859       Y0.7033    
   X0.8699       Y0.7156    
(Pass: 17)
   Z-0.2656    F40  
   X0.8575       Y0.7316     F100 
   X0.8498       Y0.7503    
   X0.8472       Y0.7703    
   X0.8498       Y0.7904    
   X0.8575       Y0.8091    
   X0.8699       Y0.8251    
   X0.8859       Y0.8374    
   X0.9046       Y0.8452    
   X0.9246       Y0.8478    
   X0.9447       Y0.8452    
   X0.9633       Y0.8374    
   X0.9794       Y0.8251    
   X0.9917       Y0.8091    
   X0.9994       Y0.7904    
   X1.0021       Y0.7703    
   X0.9994       Y0.7503    
   X0.9917       Y0.7316    
   X0.9794       Y0.7156    
   X0.9633       Y0.7033    
   X0.9447       Y0.6955    
   X0.9246       Y0.6929    
   X0.9046       Y0.6955    
   X0.8859       Y0.7033    
   X0.8699       Y0.7156    
(Pass: 18)
   Z-0.2812    F40  
   X0.8575       Y0.7316     F100 
   X0.8498       Y0.7503    
   X0.8472       Y0.7703    
   X0.8498       Y0.7904    
   X0.8575       Y0.8091    
   X0.8699       Y0.8251    
   X0.8859       Y0.8374    
   X0.9046       Y0.8452    
   X0.9246       Y0.8478    
   X0.9447       Y0.8452    
   X0.9633       Y0.8374    
   X0.9794       Y0.8251    
   X0.9917       Y0.8091    
   X0.9994       Y0.7904    
   X1.0021       Y0.7703    
   X0.9994       Y0.7503    
   X0.9917       Y0.7316    
   X0.9794       Y0.7156    
   X0.9633       Y0.7033    
   X0.9447       Y0.6955    
   X0.9246       Y0.6929    
   X0.9046       Y0.6955    
   X0.8859       Y0.7033    
   X0.8699       Y0.7156    
(BREAK pass 18)
G0   Z0.1250    
(Pass: 1)
   X3.2297       Y0.7703    
G1   Z-0.0156    F40  
   X3.2309       Y0.7795     F100 
   X3.2344       Y0.7880    
   X3.2400       Y0.7954    
   X3.2474       Y0.8010    
   X3.2559       Y0.8045    
   X3.2651       Y0.8057    
   X3.2742       Y0.8045    
   X3.2828       Y0.8010    
   X3.2901       Y0.7954    
   X3.2957       Y0.7880    
   X3.2993       Y0.7795    
   X3.3005       Y0.7703    
   X3.2993       Y0.7612    
   X3.2957       Y0.7527    
   X3.2901       Y0.7453    
   X3.2828       Y0.7397    
   X3.2742       Y0.7362    
   X3.2651       Y0.7350    
   X3.2559       Y0.7362    
   X3.2474       Y0.7397    
   X3.2400       Y0.7453    
   X3.2344       Y0.7527    
   X3.2309       Y0.7612    
   X3.2297       Y0.7703    
(Pass: 2)
   Z-0.0312    F40  
   X3.2309       Y0.7795     F100 
   X3.2344       Y0.7880    
   X3.2400       Y0.7954    
   X3.2474       Y0.8010    
   X3.2559       Y0.8045    
   X3.2651       Y0.8057    
   X3.2742       Y0.8045    
   X3.2828       Y0.8010    
   X3.2901       Y0.7954    
   X3.2957       Y0.7880    
   X3.2993       Y0.7795    
   X3.3005       Y0.7703    
   X3.2993       Y0.7612    
   X3.2957       Y0.7527    
   X3.2901       Y0.7453    
   X3.2828       Y0.7397    
   X3.2742       Y0.7362    
   X3.2651       Y0.7350    
   X3.2559       Y0.7362    
   X3.2474       Y0.7397    
   X3.2400       Y0.7453    
   X3.2344       Y0.7527    
   X3.2309       Y0.7612    
   X3.2297       Y0.7703    
(Pass: 3)
   Z-0.0469    F40  
   X3.2309       Y0.7795     F100 
   X3.2344       Y0.7880    
   X3.2400       Y0.7954    
   X3.2474       Y0.8010    
   X3.2559       Y0.8045    
   X3.2651       Y0.8057    
   X3.2742       Y0.8045    
   X3.2828       Y0.8010    
   X3.2901       Y0.7954    
   X3.2957       Y0.7880    
   X3.2993       Y0.7795    
   X3.3005       Y0.7703    
   X3.2993       Y0.7612    
   X3.2957       Y0.7527    
   X3.2901       Y0.7453    
   X3.2828       Y0.7397    
   X3.2742       Y0.7362    
   X3.2651       Y0.7350    
   X3.2559       Y0.7362    
   X3.2474       Y0.7397    
   X3.2400       Y0.7453    
   X3.2344       Y0.7527    
   X3.2309       Y0.7612    
   X3.2297       Y0.7703    
(Pass: 4)
   Z-0.0625    F40  
   X3.2309       Y0.7795     F100 
   X3.2344       Y0.7880    
   X3.2400       Y0.7954    
   X3.2474       Y0.8010    
   X3.2559       Y0.8045    
   X3.2651       Y0.8057    
   X3.2742       Y0.8045    
   X3.2828       Y0.8010    
   X3.2901       Y0.7954    
   X3.2957       Y0.7880    
   X3.2993       Y0.7795    
   X3.3005       Y0.7703    
   X3.2993       Y0.7612    
   X3.2957       Y0.7527    
   X3.2901       Y0.7453    
   X3.2828       Y0.7397    
   X3.2742       Y0.7362    
   X3.2651       Y0.7350    
   X3.2559       Y0.7362    
   X3.2474       Y0.7397    
   X3.2400       Y0.7453    
   X3.2344       Y0.7527    
   X3.2309       Y0.7612    
   X3.2297       Y0.7703    
(Pass: 5)
   Z-0.0781    F40  
   X3.2309       Y0.7795     F100 
   X3.2344       Y0.7880    
   X3.2400       Y0.7954    
   X3.2474       Y0.8010    
   X3.2559       Y0.8045    
   X3.2651       Y0.8057    
   X3.2742       Y0.8045    
   X3.2828       Y0.8010    
   X3.2901       Y0.7954    
   X3.2957       Y0.7880    
   X3.2993       Y0.7795    
   X3.3005       Y0.7703    
   X3.2993       Y0.7612    
   X3.2957       Y0.7527    
   X3.2901       Y0.7453    
   X3.2828       Y0.7397    
   X3.2742       Y0.7362    
   X3.2651       Y0.7350    
   X3.2559       Y0.7362    
   X3.2474       Y0.7397    
   X3.2400       Y0.7453    
   X3.2344       Y0.7527    
   X3.2309       Y0.7612    
   X3.2297       Y0.7703    
(Pass: 6)
   Z-0.0938    F40  
   X3.2309       Y0.7795     F100 
   X3.2344       Y0.7880    
   X3.2400       Y0.7954    
   X3.2474       Y0.8010    
   X3.2559       Y0.8045    
   X3.2651       Y0.8057    
   X3.2742       Y0.8045    
   X3.2828       Y0.8010    
   X3.2901       Y0.7954    
   X3.2957       Y0.7880    
   X3.2993       Y0.7795    
   X3.3005       Y0.7703    
   X3.2993       Y0.7612    
   X3.2957       Y0.7527    
   X3.2901       Y0.7453    
   X3.2828       Y0.7397    
   X3.2742       Y0.7362    
   X3.2651       Y0.7350    
   X3.2559       Y0.7362    
   X3.2474       Y0.7397    
   X3.2400       Y0.7453    
   X3.2344       Y0.7527    
   X3.2309       Y0.7612    
   X3.2297       Y0.7703    
(Pass: 7)
   Z-0.1094    F40  
   X3.2309       Y0.7795     F100 
   X3.2344       Y0.7880    
   X3.2400       Y0.7954    
   X3.2474       Y0.8010    
   X3.2559       Y0.8045    
   X3.2651       Y0.8057    
   X3.2742       Y0.8045    
   X3.2828       Y0.8010    
   X3.2901       Y0.7954    
   X3.2957       Y0.7880    
   X3.2993       Y0.7795    
   X3.3005       Y0.7703    
   X3.2993       Y0.7612    
   X3.2957       Y0.7527    
   X3.2901       Y0.7453    
   X3.2828       Y0.7397    
   X3.2742       Y0.7362    
   X3.2651       Y0.7350    
   X3.2559       Y0.7362    
   X3.2474       Y0.7397    
   X3.2400       Y0.7453    
   X3.2344       Y0.7527    
   X3.2309       Y0.7612    
   X3.2297       Y0.7703    
(Pass: 8)
   Z-0.1250    F40  
   X3.2309       Y0.7795     F100 
   X3.2344       Y0.7880    
   X3.2400       Y0.7954    
   X3.2474       Y0.8010    
   X3.2559       Y0.8045    
   X3.2651       Y0.8057    
   X3.2742       Y0.8045    
   X3.2828       Y0.8010    
   X3.2901       Y0.7954    
   X3.2957       Y0.7880    
   X3.2993       Y0.7795    
   X3.3005       Y0.7703    
   X3.2993       Y0.7612    
   X3.2957       Y0.7527    
   X3.2901       Y0.7453    
   X3.2828       Y0.7397    
   X3.2742       Y0.7362    
   X3.2651       Y0.7350    
   X3.2559       Y0.7362    
   X3.2474       Y0.7397    
   X3.2400       Y0.7453    
   X3.2344       Y0.7527    
   X3.2309       Y0.7612    
   X3.2297       Y0.7703    
(Pass: 9)
   Z-0.1406    F40  
   X3.2309       Y0.7795     F100 
   X3.2344       Y0.7880    
   X3.2400       Y0.7954    
   X3.2474       Y0.8010    
   X3.2559       Y0.8045    
   X3.2651       Y0.8057    
   X3.2742       Y0.8045    
   X3.2828       Y0.8010    
   X3.2901       Y0.7954    
   X3.2957       Y0.7880    
   X3.2993       Y0.7795    
   X3.3005       Y0.7703    
   X3.2993       Y0.7612    
   X3.2957       Y0.7527    
   X3.2901       Y0.7453    
   X3.2828       Y0.7397    
   X3.2742       Y0.7362    
   X3.2651       Y0.7350    
   X3.2559       Y0.7362    
   X3.2474       Y0.7397    
   X3.2400       Y0.7453    
   X3.2344       Y0.7527    
   X3.2309       Y0.7612    
   X3.2297       Y0.7703    
(Pass: 10)
   Z-0.1562    F40  
   X3.2309       Y0.7795     F100 
   X3.2344       Y0.7880    
   X3.2400       Y0.7954    
   X3.2474       Y0.8010    
   X3.2559       Y0.8045    
   X3.2651       Y0.8057    
   X3.2742       Y0.8045    
   X3.2828       Y0.8010    
   X3.2901       Y0.7954    
   X3.2957       Y0.7880    
   X3.2993       Y0.7795    
   X3.3005       Y0.7703    
   X3.2993       Y0.7612    
   X3.2957       Y0.7527    
   X3.2901       Y0.7453    
   X3.2828       Y0.7397    
   X3.2742       Y0.7362    
   X3.2651       Y0.7350    
   X3.2559       Y0.7362    
   X3.2474       Y0.7397    
   X3.2400       Y0.7453    
   X3.2344       Y0.7527    
   X3.2309       Y0.7612    
   X3.2297       Y0.7703    
(Pass: 11)
   Z-0.1719    F40  
   X3.2309       Y0.7795     F100 
   X3.2344       Y0.7880    
   X3.2400       Y0.7954    
   X3.2474       Y0.8010    
   X3.2559       Y0.8045    
   X3.2651       Y0.8057    
   X3.2742       Y0.8045    
   X3.2828       Y0.8010    
   X3.2901       Y0.7954    
   X3.2957       Y0.7880    
   X3.2993       Y0.7795    
   X3.3005       Y0.7703    
   X3.2993       Y0.7612    
   X3.2957       Y0.7527    
   X3.2901       Y0.7453    
   X3.2828       Y0.7397    
   X3.2742       Y0.7362    
   X3.2651       Y0.7350    
   X3.2559       Y0.7362    
   X3.2474       Y0.7397    
   X3.2400       Y0.7453    
   X3.2344       Y0.7527    
   X3.2309       Y0.7612    
   X3.2297       Y0.7703    
(Pass: 12)
   Z-0.1875    F40  
   X3.2309       Y0.7795     F100 
   X3.2344       Y0.7880    
   X3.2400       Y0.7954    
   X3.2474       Y0.8010    
   X3.2559       Y0.8045    
   X3.2651       Y0.8057    
   X3.2742       Y0.8045    
   X3.2828       Y0.8010    
   X3.2901       Y0.7954    
   X3.2957       Y0.7880    
   X3.2993       Y0.7795    
   X3.3005       Y0.7703    
   X3.2993       Y0.7612    
   X3.2957       Y0.7527    
   X3.2901       Y0.7453    
   X3.2828       Y0.7397    
   X3.2742       Y0.7362    
   X3.2651       Y0.7350    
   X3.2559       Y0.7362    
   X3.2474       Y0.7397    
   X3.2400       Y0.7453    
   X3.2344       Y0.7527    
   X3.2309       Y0.7612    
   X3.2297       Y0.7703    
(Pass: 13)
   Z-0.2031    F40  
   X3.2309       Y0.7795     F100 
   X3.2344       Y0.7880    
   X3.2400       Y0.7954    
   X3.2474       Y0.8010    
   X3.2559       Y0.8045    
   X3.2651       Y0.8057    
   X3.2742       Y0.8045    
   X3.2828       Y0.8010    
   X3.2901       Y0.7954    
   X3.2957       Y0.7880    
   X3.2993       Y0.7795    
   X3.3005       Y0.7703    
   X3.2993       Y0.7612    
   X3.2957       Y0.7527    
   X3.2901       Y0.7453    
   X3.2828       Y0.7397    
   X3.2742       Y0.7362    
   X3.2651       Y0.7350    
   X3.2559       Y0.7362    
   X3.2474       Y0.7397    
   X3.2400       Y0.7453    
   X3.2344       Y0.7527    
   X3.2309       Y0.7612    
   X3.2297       Y0.7703    
(Pass: 14)
   Z-0.2188    F40  
   X3.2309       Y0.7795     F100 
   X3.2344       Y0.7880    
   X3.2400       Y0.7954    
   X3.2474       Y0.8010    
   X3.2559       Y0.8045    
   X3.2651       Y0.8057    
   X3.2742       Y0.8045    
   X3.2828       Y0.8010    
   X3.2901       Y0.7954    
   X3.2957       Y0.7880    
   X3.2993       Y0.7795    
   X3.3005       Y0.7703    
   X3.2993       Y0.7612    
   X3.2957       Y0.7527    
   X3.2901       Y0.7453    
   X3.2828       Y0.7397    
   X3.2742       Y0.7362    
   X3.2651       Y0.7350    
   X3.2559       Y0.7362    
   X3.2474       Y0.7397    
   X3.2400       Y0.7453    
   X3.2344       Y0.7527    
   X3.2309       Y0.7612    
   X3.2297       Y0.7703    
(Pass: 15)
   Z-0.2344    F40  
   X3.2309       Y0.7795     F100 
   X3.2344       Y0.7880    
   X3.2400       Y0.7954    
   X3.2474       Y0.8010    
   X3.2559       Y0.8045    
   X3.2651       Y0.8057    
   X3.2742       Y0.8045    
   X3.2828       Y0.8010    
   X3.2901       Y0.7954    
   X3.2957       Y0.7880    
   X3.2993       Y0.7795    
   X3.3005       Y0.7703    
   X3.2993       Y0.7612    
   X3.2957       Y0.7527    
   X3.2901       Y0.7453    
   X3.2828       Y0.7397    
   X3.2742       Y0.7362    
   X3.2651       Y0.7350    
   X3.2559       Y0.7362    
   X3.2474       Y0.7397    
   X3.2400       Y0.7453    
   X3.2344       Y0.7527    
   X3.2309       Y0.7612    
   X3.2297       Y0.7703    
(Pass: 16)
   Z-0.2500    F40  
   X3.2309       Y0.7795     F100 
   X3.2344       Y0.7880    
   X3.2400       Y0.7954    
   X3.2474       Y0.8010    
   X3.2559       Y0.8045    
   X3.2651       Y0.8057    
   X3.2742       Y0.8045    
   X3.2828       Y0.8010    
   X3.2901       Y0.7954    
   X3.2957       Y0.7880    
   X3.2993       Y0.7795    
   X3.3005       Y0.7703    
   X3.2993       Y0.7612    
   X3.2957       Y0.7527    
   X3.2901       Y0.7453    
   X3.2828       Y0.7397    
   X3.2742       Y0.7362    
   X3.2651       Y0.7350    
   X3.2559       Y0.7362    
   X3.2474       Y0.7397    
   X3.2400       Y0.7453    
   X3.2344       Y0.7527    
   X3.2309       Y0.7612    
   X3.2297       Y0.7703    
(Pass: 17)
   Z-0.2656    F40  
   X3.2309       Y0.7795     F100 
   X3.2344       Y0.7880    
   X3.2400       Y0.7954    
   X3.2474       Y0.8010    
   X3.2559       Y0.8045    
   X3.2651       Y0.8057    
   X3.2742       Y0.8045    
   X3.2828       Y0.8010    
   X3.2901       Y0.7954    
   X3.2957       Y0.7880    
   X3.2993       Y0.7795    
   X3.3005       Y0.7703    
   X3.2993       Y0.7612    
   X3.2957       Y0.7527    
   X3.2901       Y0.7453    
   X3.2828       Y0.7397    
   X3.2742       Y0.7362    
   X3.2651       Y0.7350    
   X3.2559       Y0.7362    
   X3.2474       Y0.7397    
   X3.2400       Y0.7453    
   X3.2344       Y0.7527    
   X3.2309       Y0.7612    
   X3.2297       Y0.7703    
(Pass: 18)
   Z-0.2812    F40  
   X3.2309       Y0.7795     F100 
   X3.2344       Y0.7880    
   X3.2400       Y0.7954    
   X3.2474       Y0.8010    
   X3.2559       Y0.8045    
   X3.2651       Y0.8057    
   X3.2742       Y0.8045    
   X3.2828       Y0.8010    
   X3.2901       Y0.7954    
   X3.2957       Y0.7880    
   X3.2993       Y0.7795    
   X3.3005       Y0.7703    
   X3.2993       Y0.7612    
   X3.2957       Y0.7527    
   X3.2901       Y0.7453    
   X3.2828       Y0.7397    
   X3.2742       Y0.7362    
   X3.2651       Y0.7350    
   X3.2559       Y0.7362    
   X3.2474       Y0.7397    
   X3.2400       Y0.7453    
   X3.2344       Y0.7527    
   X3.2309       Y0.7612    
   X3.2297       Y0.7703    
(BREAK pass 18)
G0   Z0.1250    
(Pass: 1)
   X3.2651       Y2.3098    
G1   Z-0.0156    F40  
   X3.2559       Y2.3110     F100 
   X3.2474       Y2.3145    
   X3.2400       Y2.3201    
   X3.2344       Y2.3275    
   X3.2309       Y2.3360    
   X3.2297       Y2.3451    
   X3.2309       Y2.3543    
   X3.2344       Y2.3628    
   X3.2400       Y2.3702    
   X3.2474       Y2.3758    
   X3.2559       Y2.3793    
   X3.2651       Y2.3805    
   X3.2742       Y2.3793    
   X3.2828       Y2.3758    
   X3.2901       Y2.3702    
   X3.2957       Y2.3628    
   X3.2993       Y2.3543    
   X3.3005       Y2.3451    
   X3.2993       Y2.3360    
   X3.2957       Y2.3275    
   X3.2901       Y2.3201    
   X3.2828       Y2.3145    
   X3.2742       Y2.3110    
   X3.2651       Y2.3098    
(Pass: 2)
   Z-0.0312    F40  
   X3.2559       Y2.3110     F100 
   X3.2474       Y2.3145    
   X3.2400       Y2.3201    
   X3.2344       Y2.3275    
   X3.2309       Y2.3360    
   X3.2297       Y2.3451    
   X3.2309       Y2.3543    
   X3.2344       Y2.3628    
   X3.2400       Y2.3702    
   X3.2474       Y2.3758    
   X3.2559       Y2.3793    
   X3.2651       Y2.3805    
   X3.2742       Y2.3793    
   X3.2828       Y2.3758    
   X3.2901       Y2.3702    
   X3.2957       Y2.3628    
   X3.2993       Y2.3543    
   X3.3005       Y2.3451    
   X3.2993       Y2.3360    
   X3.2957       Y2.3275    
   X3.2901       Y2.3201    
   X3.2828       Y2.3145    
   X3.2742       Y2.3110    
   X3.2651       Y2.3098    
(Pass: 3)
   Z-0.0469    F40  
   X3.2559       Y2.3110     F100 
   X3.2474       Y2.3145    
   X3.2400       Y2.3201    
   X3.2344       Y2.3275    
   X3.2309       Y2.3360    
   X3.2297       Y2.3451    
   X3.2309       Y2.3543    
   X3.2344       Y2.3628    
   X3.2400       Y2.3702    
   X3.2474       Y2.3758    
   X3.2559       Y2.3793    
   X3.2651       Y2.3805    
   X3.2742       Y2.3793    
   X3.2828       Y2.3758    
   X3.2901       Y2.3702    
   X3.2957       Y2.3628    
   X3.2993       Y2.3543    
   X3.3005       Y2.3451    
   X3.2993       Y2.3360    
   X3.2957       Y2.3275    
   X3.2901       Y2.3201    
   X3.2828       Y2.3145    
   X3.2742       Y2.3110    
   X3.2651       Y2.3098    
(Pass: 4)
   Z-0.0625    F40  
   X3.2559       Y2.3110     F100 
   X3.2474       Y2.3145    
   X3.2400       Y2.3201    
   X3.2344       Y2.3275    
   X3.2309       Y2.3360    
   X3.2297       Y2.3451    
   X3.2309       Y2.3543    
   X3.2344       Y2.3628    
   X3.2400       Y2.3702    
   X3.2474       Y2.3758    
   X3.2559       Y2.3793    
   X3.2651       Y2.3805    
   X3.2742       Y2.3793    
   X3.2828       Y2.3758    
   X3.2901       Y2.3702    
   X3.2957       Y2.3628    
   X3.2993       Y2.3543    
   X3.3005       Y2.3451    
   X3.2993       Y2.3360    
   X3.2957       Y2.3275    
   X3.2901       Y2.3201    
   X3.2828       Y2.3145    
   X3.2742       Y2.3110    
   X3.2651       Y2.3098    
(Pass: 5)
   Z-0.0781    F40  
   X3.2559       Y2.3110     F100 
   X3.2474       Y2.3145    
   X3.2400       Y2.3201    
   X3.2344       Y2.3275    
   X3.2309       Y2.3360    
   X3.2297       Y2.3451    
   X3.2309       Y2.3543    
   X3.2344       Y2.3628    
   X3.2400       Y2.3702    
   X3.2474       Y2.3758    
   X3.2559       Y2.3793    
   X3.2651       Y2.3805    
   X3.2742       Y2.3793    
   X3.2828       Y2.3758    
   X3.2901       Y2.3702    
   X3.2957       Y2.3628    
   X3.2993       Y2.3543    
   X3.3005       Y2.3451    
   X3.2993       Y2.3360    
   X3.2957       Y2.3275    
   X3.2901       Y2.3201    
   X3.2828       Y2.3145    
   X3.2742       Y2.3110    
   X3.2651       Y2.3098    
(Pass: 6)
   Z-0.0938    F40  
   X3.2559       Y2.3110     F100 
   X3.2474       Y2.3145    
   X3.2400       Y2.3201    
   X3.2344       Y2.3275    
   X3.2309       Y2.3360    
   X3.2297       Y2.3451    
   X3.2309       Y2.3543    
   X3.2344       Y2.3628    
   X3.2400       Y2.3702    
   X3.2474       Y2.3758    
   X3.2559       Y2.3793    
   X3.2651       Y2.3805    
   X3.2742       Y2.3793    
   X3.2828       Y2.3758    
   X3.2901       Y2.3702    
   X3.2957       Y2.3628    
   X3.2993       Y2.3543    
   X3.3005       Y2.3451    
   X3.2993       Y2.3360    
   X3.2957       Y2.3275    
   X3.2901       Y2.3201    
   X3.2828       Y2.3145    
   X3.2742       Y2.3110    
   X3.2651       Y2.3098    
(Pass: 7)
   Z-0.1094    F40  
   X3.2559       Y2.3110     F100 
   X3.2474       Y2.3145    
   X3.2400       Y2.3201    
   X3.2344       Y2.3275    
   X3.2309       Y2.3360    
   X3.2297       Y2.3451    
   X3.2309       Y2.3543    
   X3.2344       Y2.3628    
   X3.2400       Y2.3702    
   X3.2474       Y2.3758    
   X3.2559       Y2.3793    
   X3.2651       Y2.3805    
   X3.2742       Y2.3793    
   X3.2828       Y2.3758    
   X3.2901       Y2.3702    
   X3.2957       Y2.3628    
   X3.2993       Y2.3543    
   X3.3005       Y2.3451    
   X3.2993       Y2.3360    
   X3.2957       Y2.3275    
   X3.2901       Y2.3201    
   X3.2828       Y2.3145    
   X3.2742       Y2.3110    
   X3.2651       Y2.3098    
(Pass: 8)
   Z-0.1250    F40  
   X3.2559       Y2.3110     F100 
   X3.2474       Y2.3145    
   X3.2400       Y2.3201    
   X3.2344       Y2.3275    
   X3.2309       Y2.3360    
   X3.2297       Y2.3451    
   X3.2309       Y2.3543    
   X3.2344       Y2.3628    
   X3.2400       Y2.3702    
   X3.2474       Y2.3758    
   X3.2559       Y2.3793    
   X3.2651       Y2.3805    
   X3.2742       Y2.3793    
   X3.2828       Y2.3758    
   X3.2901       Y2.3702    
   X3.2957       Y2.3628    
   X3.2993       Y2.3543    
   X3.3005       Y2.3451    
   X3.2993       Y2.3360    
   X3.2957       Y2.3275    
   X3.2901       Y2.3201    
   X3.2828       Y2.3145    
   X3.2742       Y2.3110    
   X3.2651       Y2.3098    
(Pass: 9)
   Z-0.1406    F40  
   X3.2559       Y2.3110     F100 
   X3.2474       Y2.3145    
   X3.2400       Y2.3201    
   X3.2344       Y2.3275    
   X3.2309       Y2.3360    
   X3.2297       Y2.3451    
   X3.2309       Y2.3543    
   X3.2344       Y2.3628    
   X3.2400       Y2.3702    
   X3.2474       Y2.3758    
   X3.2559       Y2.3793    
   X3.2651       Y2.3805    
   X3.2742       Y2.3793    
   X3.2828       Y2.3758    
   X3.2901       Y2.3702    
   X3.2957       Y2.3628    
   X3.2993       Y2.3543    
   X3.3005       Y2.3451    
   X3.2993       Y2.3360    
   X3.2957       Y2.3275    
   X3.2901       Y2.3201    
   X3.2828       Y2.3145    
   X3.2742       Y2.3110    
   X3.2651       Y2.3098    
(Pass: 10)
   Z-0.1562    F40  
   X3.2559       Y2.3110     F100 
   X3.2474       Y2.3145    
   X3.2400       Y2.3201    
   X3.2344       Y2.3275    
   X3.2309       Y2.3360    
   X3.2297       Y2.3451    
   X3.2309       Y2.3543    
   X3.2344       Y2.3628    
   X3.2400       Y2.3702    
   X3.2474       Y2.3758    
   X3.2559       Y2.3793    
   X3.2651       Y2.3805    
   X3.2742       Y2.3793    
   X3.2828       Y2.3758    
   X3.2901       Y2.3702    
   X3.2957       Y2.3628    
   X3.2993       Y2.3543    
   X3.3005       Y2.3451    
   X3.2993       Y2.3360    
   X3.2957       Y2.3275    
   X3.2901       Y2.3201    
   X3.2828       Y2.3145    
   X3.2742       Y2.3110    
   X3.2651       Y2.3098    
(Pass: 11)
   Z-0.1719    F40  
   X3.2559       Y2.3110     F100 
   X3.2474       Y2.3145    
   X3.2400       Y2.3201    
   X3.2344       Y2.3275    
   X3.2309       Y2.3360    
   X3.2297       Y2.3451    
   X3.2309       Y2.3543    
   X3.2344       Y2.3628    
   X3.2400       Y2.3702    
   X3.2474       Y2.3758    
   X3.2559       Y2.3793    
   X3.2651       Y2.3805    
   X3.2742       Y2.3793    
   X3.2828       Y2.3758    
   X3.2901       Y2.3702    
   X3.2957       Y2.3628    
   X3.2993       Y2.3543    
   X3.3005       Y2.3451    
   X3.2993       Y2.3360    
   X3.2957       Y2.3275    
   X3.2901       Y2.3201    
   X3.2828       Y2.3145    
   X3.2742       Y2.3110    
   X3.2651       Y2.3098    
(Pass: 12)
   Z-0.1875    F40  
   X3.2559       Y2.3110     F100 
   X3.2474       Y2.3145    
   X3.2400       Y2.3201    
   X3.2344       Y2.3275    
   X3.2309       Y2.3360    
   X3.2297       Y2.3451    
   X3.2309       Y2.3543    
   X3.2344       Y2.3628    
   X3.2400       Y2.3702    
   X3.2474       Y2.3758    
   X3.2559       Y2.3793    
   X3.2651       Y2.3805    
   X3.2742       Y2.3793    
   X3.2828       Y2.3758    
   X3.2901       Y2.3702    
   X3.2957       Y2.3628    
   X3.2993       Y2.3543    
   X3.3005       Y2.3451    
   X3.2993       Y2.3360    
   X3.2957       Y2.3275    
   X3.2901       Y2.3201    
   X3.2828       Y2.3145    
   X3.2742       Y2.3110    
   X3.2651       Y2.3098    
(Pass: 13)
   Z-0.2031    F40  
   X3.2559       Y2.3110     F100 
   X3.2474       Y2.3145    
   X3.2400       Y2.3201    
   X3.2344       Y2.3275    
   X3.2309       Y2.3360    
   X3.2297       Y2.3451    
   X3.2309       Y2.3543    
   X3.2344       Y2.3628    
   X3.2400       Y2.3702    
   X3.2474       Y2.3758    
   X3.2559       Y2.3793    
   X3.2651       Y2.3805    
   X3.2742       Y2.3793    
   X3.2828       Y2.3758    
   X3.2901       Y2.3702    
   X3.2957       Y2.3628    
   X3.2993       Y2.3543    
   X3.3005       Y2.3451    
   X3.2993       Y2.3360    
   X3.2957       Y2.3275    
   X3.2901       Y2.3201    
   X3.2828       Y2.3145    
   X3.2742       Y2.3110    
   X3.2651       Y2.3098    
(Pass: 14)
   Z-0.2188    F40  
   X3.2559       Y2.3110     F100 
   X3.2474       Y2.3145    
   X3.2400       Y2.3201    
   X3.2344       Y2.3275    
   X3.2309       Y2.3360    
   X3.2297       Y2.3451    
   X3.2309       Y2.3543    
   X3.2344       Y2.3628    
   X3.2400       Y2.3702    
   X3.2474       Y2.3758    
   X3.2559       Y2.3793    
   X3.2651       Y2.3805    
   X3.2742       Y2.3793    
   X3.2828       Y2.3758    
   X3.2901       Y2.3702    
   X3.2957       Y2.3628    
   X3.2993       Y2.3543    
   X3.3005       Y2.3451    
   X3.2993       Y2.3360    
   X3.2957       Y2.3275    
   X3.2901       Y2.3201    
   X3.2828       Y2.3145    
   X3.2742       Y2.3110    
   X3.2651       Y2.3098    
(Pass: 15)
   Z-0.2344    F40  
   X3.2559       Y2.3110     F100 
   X3.2474       Y2.3145    
   X3.2400       Y2.3201    
   X3.2344       Y2.3275    
   X3.2309       Y2.3360    
   X3.2297       Y2.3451    
   X3.2309       Y2.3543    
   X3.2344       Y2.3628    
   X3.2400       Y2.3702    
   X3.2474       Y2.3758    
   X3.2559       Y2.3793    
   X3.2651       Y2.3805    
   X3.2742       Y2.3793    
   X3.2828       Y2.3758    
   X3.2901       Y2.3702    
   X3.2957       Y2.3628    
   X3.2993       Y2.3543    
   X3.3005       Y2.3451    
   X3.2993       Y2.3360    
   X3.2957       Y2.3275    
   X3.2901       Y2.3201    
   X3.2828       Y2.3145    
   X3.2742       Y2.3110    
   X3.2651       Y2.3098    
(Pass: 16)
   Z-0.2500    F40  
   X3.2559       Y2.3110     F100 
   X3.2474       Y2.3145    
   X3.2400       Y2.3201    
   X3.2344       Y2.3275    
   X3.2309       Y2.3360    
   X3.2297       Y2.3451    
   X3.2309       Y2.3543    
   X3.2344       Y2.3628    
   X3.2400       Y2.3702    
   X3.2474       Y2.3758    
   X3.2559       Y2.3793    
   X3.2651       Y2.3805    
   X3.2742       Y2.3793    
   X3.2828       Y2.3758    
   X3.2901       Y2.3702    
   X3.2957       Y2.3628    
   X3.2993       Y2.3543    
   X3.3005       Y2.3451    
   X3.2993       Y2.3360    
   X3.2957       Y2.3275    
   X3.2901       Y2.3201    
   X3.2828       Y2.3145    
   X3.2742       Y2.3110    
   X3.2651       Y2.3098    
(Pass: 17)
   Z-0.2656    F40  
   X3.2559       Y2.3110     F100 
   X3.2474       Y2.3145    
   X3.2400       Y2.3201    
   X3.2344       Y2.3275    
   X3.2309       Y2.3360    
   X3.2297       Y2.3451    
   X3.2309       Y2.3543    
   X3.2344       Y2.3628    
   X3.2400       Y2.3702    
   X3.2474       Y2.3758    
   X3.2559       Y2.3793    
   X3.2651       Y2.3805    
   X3.2742       Y2.3793    
   X3.2828       Y2.3758    
   X3.2901       Y2.3702    
   X3.2957       Y2.3628    
   X3.2993       Y2.3543    
   X3.3005       Y2.3451    
   X3.2993       Y2.3360    
   X3.2957       Y2.3275    
   X3.2901       Y2.3201    
   X3.2828       Y2.3145    
   X3.2742       Y2.3110    
   X3.2651       Y2.3098    
(Pass: 18)
   Z-0.2812    F40  
   X3.2559       Y2.3110     F100 
   X3.2474       Y2.3145    
   X3.2400       Y2.3201    
   X3.2344       Y2.3275    
   X3.2309       Y2.3360    
   X3.2297       Y2.3451    
   X3.2309       Y2.3543    
   X3.2344       Y2.3628    
   X3.2400       Y2.3702    
   X3.2474       Y2.3758    
   X3.2559       Y2.3793    
   X3.2651       Y2.3805    
   X3.2742       Y2.3793    
   X3.2828       Y2.3758    
   X3.2901       Y2.3702    
   X3.2957       Y2.3628    
   X3.2993       Y2.3543    
   X3.3005       Y2.3451    
   X3.2993       Y2.3360    
   X3.2957       Y2.3275    
   X3.2901       Y2.3201    
   X3.2828       Y2.3145    
   X3.2742       Y2.3110    
   X3.2651       Y2.3098    
(BREAK pass 18)
G0   Z0.1250    
(Pass: 1)
   X3.1332       Y2.7733    
G1   Z-0.0156    F40  
   X3.1243       Y2.7696     F100 
   X3.1106       Y2.7678    
   X2.7645    
   X2.7508       Y2.7696    
   X2.7419       Y2.7733    
   X2.7342       Y2.7792    
   X2.7284       Y2.7868    
   X2.7247       Y2.7957    
   X2.7234       Y2.8053    
   X2.7247       Y2.8149    
   X2.7284       Y2.8238    
   X2.7342       Y2.8314    
   X2.7419       Y2.8373    
   X2.7508       Y2.8410    
   X2.7645       Y2.8428    
   X3.1106    
   X3.1243       Y2.8410    
   X3.1332       Y2.8373    
   X3.1408       Y2.8314    
   X3.1467       Y2.8238    
   X3.1504       Y2.8149    
   X3.1517       Y2.8053    
   X3.1504       Y2.7957    
   X3.1467       Y2.7868    
   X3.1408       Y2.7792    
   X3.1332       Y2.7733    
(Pass: 2)
   Z-0.0312    F40  
   X3.1243       Y2.7696     F100 
   X3.1106       Y2.7678    
   X2.7645    
   X2.7508       Y2.7696    
   X2.7419       Y2.7733    
   X2.7342       Y2.7792    
   X2.7284       Y2.7868    
   X2.7247       Y2.7957    
   X2.7234       Y2.8053    
   X2.7247       Y2.8149    
   X2.7284       Y2.8238    
   X2.7342       Y2.8314    
   X2.7419       Y2.8373    
   X2.7508       Y2.8410    
   X2.7645       Y2.8428    
   X3.1106    
   X3.1243       Y2.8410    
   X3.1332       Y2.8373    
   X3.1408       Y2.8314    
   X3.1467       Y2.8238    
   X3.1504       Y2.8149    
   X3.1517       Y2.8053    
   X3.1504       Y2.7957    
   X3.1467       Y2.7868    
   X3.1408       Y2.7792    
   X3.1332       Y2.7733    
(Pass: 3)
   Z-0.0469    F40  
   X3.1243       Y2.7696     F100 
   X3.1106       Y2.7678    
   X2.7645    
   X2.7508       Y2.7696    
   X2.7419       Y2.7733    
   X2.7342       Y2.7792    
   X2.7284       Y2.7868    
   X2.7247       Y2.7957    
   X2.7234       Y2.8053    
   X2.7247       Y2.8149    
   X2.7284       Y2.8238    
   X2.7342       Y2.8314    
   X2.7419       Y2.8373    
   X2.7508       Y2.8410    
   X2.7645       Y2.8428    
   X3.1106    
   X3.1243       Y2.8410    
   X3.1332       Y2.8373    
   X3.1408       Y2.8314    
   X3.1467       Y2.8238    
   X3.1504       Y2.8149    
   X3.1517       Y2.8053    
   X3.1504       Y2.7957    
   X3.1467       Y2.7868    
   X3.1408       Y2.7792    
   X3.1332       Y2.7733    
(Pass: 4)
   Z-0.0625    F40  
   X3.1243       Y2.7696     F100 
   X3.1106       Y2.7678    
   X2.7645    
   X2.7508       Y2.7696    
   X2.7419       Y2.7733    
   X2.7342       Y2.7792    
   X2.7284       Y2.7868    
   X2.7247       Y2.7957    
   X2.7234       Y2.8053    
   X2.7247       Y2.8149    
   X2.7284       Y2.8238    
   X2.7342       Y2.8314    
   X2.7419       Y2.8373    
   X2.7508       Y2.8410    
   X2.7645       Y2.8428    
   X3.1106    
   X3.1243       Y2.8410    
   X3.1332       Y2.8373    
   X3.1408       Y2.8314    
   X3.1467       Y2.8238    
   X3.1504       Y2.8149    
   X3.1517       Y2.8053    
   X3.1504       Y2.7957    
   X3.1467       Y2.7868    
   X3.1408       Y2.7792    
   X3.1332       Y2.7733    
(Pass: 5)
   Z-0.0781    F40  
   X3.1243       Y2.7696     F100 
   X3.1106       Y2.7678    
   X2.7645    
   X2.7508       Y2.7696    
   X2.7419       Y2.7733    
   X2.7342       Y2.7792    
   X2.7284       Y2.7868    
   X2.7247       Y2.7957    
   X2.7234       Y2.8053    
   X2.7247       Y2.8149    
   X2.7284       Y2.8238    
   X2.7342       Y2.8314    
   X2.7419       Y2.8373    
   X2.7508       Y2.8410    
   X2.7645       Y2.8428    
   X3.1106    
   X3.1243       Y2.8410    
   X3.1332       Y2.8373    
   X3.1408       Y2.8314    
   X3.1467       Y2.8238    
   X3.1504       Y2.8149    
   X3.1517       Y2.8053    
   X3.1504       Y2.7957    
   X3.1467       Y2.7868    
   X3.1408       Y2.7792    
   X3.1332       Y2.7733    
(Pass: 6)
   Z-0.0938    F40  
   X3.1243       Y2.7696     F100 
   X3.1106       Y2.7678    
   X2.7645    
   X2.7508       Y2.7696    
   X2.7419       Y2.7733    
   X2.7342       Y2.7792    
   X2.7284       Y2.7868    
   X2.7247       Y2.7957    
   X2.7234       Y2.8053    
   X2.7247       Y2.8149    
   X2.7284       Y2.8238    
   X2.7342       Y2.8314    
   X2.7419       Y2.8373    
   X2.7508       Y2.8410    
   X2.7645       Y2.8428    
   X3.1106    
   X3.1243       Y2.8410    
   X3.1332       Y2.8373    
   X3.1408       Y2.8314    
   X3.1467       Y2.8238    
   X3.1504       Y2.8149    
   X3.1517       Y2.8053    
   X3.1504       Y2.7957    
   X3.1467       Y2.7868    
   X3.1408       Y2.7792    
   X3.1332       Y2.7733    
(Pass: 7)
   Z-0.1094    F40  
   X3.1243       Y2.7696     F100 
   X3.1106       Y2.7678    
   X2.7645    
   X2.7508       Y2.7696    
   X2.7419       Y2.7733    
   X2.7342       Y2.7792    
   X2.7284       Y2.7868    
   X2.7247       Y2.7957    
   X2.7234       Y2.8053    
   X2.7247       Y2.8149    
   X2.7284       Y2.8238    
   X2.7342       Y2.8314    
   X2.7419       Y2.8373    
   X2.7508       Y2.8410    
   X2.7645       Y2.8428    
   X3.1106    
   X3.1243       Y2.8410    
   X3.1332       Y2.8373    
   X3.1408       Y2.8314    
   X3.1467       Y2.8238    
   X3.1504       Y2.8149    
   X3.1517       Y2.8053    
   X3.1504       Y2.7957    
   X3.1467       Y2.7868    
   X3.1408       Y2.7792    
   X3.1332       Y2.7733    
(Pass: 8)
   Z-0.1250    F40  
   X3.1243       Y2.7696     F100 
   X3.1106       Y2.7678    
   X2.7645    
   X2.7508       Y2.7696    
   X2.7419       Y2.7733    
   X2.7342       Y2.7792    
   X2.7284       Y2.7868    
   X2.7247       Y2.7957    
   X2.7234       Y2.8053    
   X2.7247       Y2.8149    
   X2.7284       Y2.8238    
   X2.7342       Y2.8314    
   X2.7419       Y2.8373    
   X2.7508       Y2.8410    
   X2.7645       Y2.8428    
   X3.1106    
   X3.1243       Y2.8410    
   X3.1332       Y2.8373    
   X3.1408       Y2.8314    
   X3.1467       Y2.8238    
   X3.1504       Y2.8149    
   X3.1517       Y2.8053    
   X3.1504       Y2.7957    
   X3.1467       Y2.7868    
   X3.1408       Y2.7792    
   X3.1332       Y2.7733    
(Pass: 9)
   Z-0.1406    F40  
   X3.1243       Y2.7696     F100 
   X3.1106       Y2.7678    
   X2.7645    
   X2.7508       Y2.7696    
   X2.7419       Y2.7733    
   X2.7342       Y2.7792    
   X2.7284       Y2.7868    
   X2.7247       Y2.7957    
   X2.7234       Y2.8053    
   X2.7247       Y2.8149    
   X2.7284       Y2.8238    
   X2.7342       Y2.8314    
   X2.7419       Y2.8373    
   X2.7508       Y2.8410    
   X2.7645       Y2.8428    
   X3.1106    
   X3.1243       Y2.8410    
   X3.1332       Y2.8373    
   X3.1408       Y2.8314    
   X3.1467       Y2.8238    
   X3.1504       Y2.8149    
   X3.1517       Y2.8053    
   X3.1504       Y2.7957    
   X3.1467       Y2.7868    
   X3.1408       Y2.7792    
   X3.1332       Y2.7733    
(Pass: 10)
   Z-0.1562    F40  
   X3.1243       Y2.7696     F100 
   X3.1106       Y2.7678    
   X2.7645    
   X2.7508       Y2.7696    
   X2.7419       Y2.7733    
   X2.7342       Y2.7792    
   X2.7284       Y2.7868    
   X2.7247       Y2.7957    
   X2.7234       Y2.8053    
   X2.7247       Y2.8149    
   X2.7284       Y2.8238    
   X2.7342       Y2.8314    
   X2.7419       Y2.8373    
   X2.7508       Y2.8410    
   X2.7645       Y2.8428    
   X3.1106    
   X3.1243       Y2.8410    
   X3.1332       Y2.8373    
   X3.1408       Y2.8314    
   X3.1467       Y2.8238    
   X3.1504       Y2.8149    
   X3.1517       Y2.8053    
   X3.1504       Y2.7957    
   X3.1467       Y2.7868    
   X3.1408       Y2.7792    
   X3.1332       Y2.7733    
(Pass: 11)
   Z-0.1719    F40  
   X3.1243       Y2.7696     F100 
   X3.1106       Y2.7678    
   X2.7645    
   X2.7508       Y2.7696    
   X2.7419       Y2.7733    
   X2.7342       Y2.7792    
   X2.7284       Y2.7868    
   X2.7247       Y2.7957    
   X2.7234       Y2.8053    
   X2.7247       Y2.8149    
   X2.7284       Y2.8238    
   X2.7342       Y2.8314    
   X2.7419       Y2.8373    
   X2.7508       Y2.8410    
   X2.7645       Y2.8428    
   X3.1106    
   X3.1243       Y2.8410    
   X3.1332       Y2.8373    
   X3.1408       Y2.8314    
   X3.1467       Y2.8238    
   X3.1504       Y2.8149    
   X3.1517       Y2.8053    
   X3.1504       Y2.7957    
   X3.1467       Y2.7868    
   X3.1408       Y2.7792    
   X3.1332       Y2.7733    
(Pass: 12)
   Z-0.1875    F40  
   X3.1243       Y2.7696     F100 
   X3.1106       Y2.7678    
   X2.7645    
   X2.7508       Y2.7696    
   X2.7419       Y2.7733    
   X2.7342       Y2.7792    
   X2.7284       Y2.7868    
   X2.7247       Y2.7957    
   X2.7234       Y2.8053    
   X2.7247       Y2.8149    
   X2.7284       Y2.8238    
   X2.7342       Y2.8314    
   X2.7419       Y2.8373    
   X2.7508       Y2.8410    
   X2.7645       Y2.8428    
   X3.1106    
   X3.1243       Y2.8410    
   X3.1332       Y2.8373    
   X3.1408       Y2.8314    
   X3.1467       Y2.8238    
   X3.1504       Y2.8149    
   X3.1517       Y2.8053    
   X3.1504       Y2.7957    
   X3.1467       Y2.7868    
   X3.1408       Y2.7792    
   X3.1332       Y2.7733    
(Pass: 13)
   Z-0.2031    F40  
   X3.1243       Y2.7696     F100 
   X3.1106       Y2.7678    
   X2.7645    
   X2.7508       Y2.7696    
   X2.7419       Y2.7733    
   X2.7342       Y2.7792    
   X2.7284       Y2.7868    
   X2.7247       Y2.7957    
   X2.7234       Y2.8053    
   X2.7247       Y2.8149    
   X2.7284       Y2.8238    
   X2.7342       Y2.8314    
   X2.7419       Y2.8373    
   X2.7508       Y2.8410    
   X2.7645       Y2.8428    
   X3.1106    
   X3.1243       Y2.8410    
   X3.1332       Y2.8373    
   X3.1408       Y2.8314    
   X3.1467       Y2.8238    
   X3.1504       Y2.8149    
   X3.1517       Y2.8053    
   X3.1504       Y2.7957    
   X3.1467       Y2.7868    
   X3.1408       Y2.7792    
   X3.1332       Y2.7733    
(Pass: 14)
   Z-0.2188    F40  
   X3.1243       Y2.7696     F100 
   X3.1106       Y2.7678    
   X2.7645    
   X2.7508       Y2.7696    
   X2.7419       Y2.7733    
   X2.7342       Y2.7792    
   X2.7284       Y2.7868    
   X2.7247       Y2.7957    
   X2.7234       Y2.8053    
   X2.7247       Y2.8149    
   X2.7284       Y2.8238    
   X2.7342       Y2.8314    
   X2.7419       Y2.8373    
   X2.7508       Y2.8410    
   X2.7645       Y2.8428    
   X3.1106    
   X3.1243       Y2.8410    
   X3.1332       Y2.8373    
   X3.1408       Y2.8314    
   X3.1467       Y2.8238    
   X3.1504       Y2.8149    
   X3.1517       Y2.8053    
   X3.1504       Y2.7957    
   X3.1467       Y2.7868    
   X3.1408       Y2.7792    
   X3.1332       Y2.7733    
(Pass: 15)
   Z-0.2344    F40  
   X3.1243       Y2.7696     F100 
   X3.1106       Y2.7678    
   X2.7645    
   X2.7508       Y2.7696    
   X2.7419       Y2.7733    
   X2.7342       Y2.7792    
   X2.7284       Y2.7868    
   X2.7247       Y2.7957    
   X2.7234       Y2.8053    
   X2.7247       Y2.8149    
   X2.7284       Y2.8238    
   X2.7342       Y2.8314    
   X2.7419       Y2.8373    
   X2.7508       Y2.8410    
   X2.7645       Y2.8428    
   X3.1106    
   X3.1243       Y2.8410    
   X3.1332       Y2.8373    
   X3.1408       Y2.8314    
   X3.1467       Y2.8238    
   X3.1504       Y2.8149    
   X3.1517       Y2.8053    
   X3.1504       Y2.7957    
   X3.1467       Y2.7868    
   X3.1408       Y2.7792    
   X3.1332       Y2.7733    
(Pass: 16)
   Z-0.2500    F40  
   X3.1243       Y2.7696     F100 
   X3.1106       Y2.7678    
   X2.7645    
   X2.7508       Y2.7696    
   X2.7419       Y2.7733    
   X2.7342       Y2.7792    
   X2.7284       Y2.7868    
   X2.7247       Y2.7957    
   X2.7234       Y2.8053    
   X2.7247       Y2.8149    
   X2.7284       Y2.8238    
   X2.7342       Y2.8314    
   X2.7419       Y2.8373    
   X2.7508       Y2.8410    
   X2.7645       Y2.8428    
   X3.1106    
   X3.1243       Y2.8410    
   X3.1332       Y2.8373    
   X3.1408       Y2.8314    
   X3.1467       Y2.8238    
   X3.1504       Y2.8149    
   X3.1517       Y2.8053    
   X3.1504       Y2.7957    
   X3.1467       Y2.7868    
   X3.1408       Y2.7792    
   X3.1332       Y2.7733    
(Pass: 17)
   Z-0.2656    F40  
   X3.1243       Y2.7696     F100 
   X3.1106       Y2.7678    
   X2.7645    
   X2.7508       Y2.7696    
   X2.7419       Y2.7733    
   X2.7342       Y2.7792    
   X2.7284       Y2.7868    
   X2.7247       Y2.7957    
   X2.7234       Y2.8053    
   X2.7247       Y2.8149    
   X2.7284       Y2.8238    
   X2.7342       Y2.8314    
   X2.7419       Y2.8373    
   X2.7508       Y2.8410    
   X2.7645       Y2.8428    
   X3.1106    
   X3.1243       Y2.8410    
   X3.1332       Y2.8373    
   X3.1408       Y2.8314    
   X3.1467       Y2.8238    
   X3.1504       Y2.8149    
   X3.1517       Y2.8053    
   X3.1504       Y2.7957    
   X3.1467       Y2.7868    
   X3.1408       Y2.7792    
   X3.1332       Y2.7733    
(Pass: 18)
   Z-0.2812    F40  
   X3.1243       Y2.7696     F100 
   X3.1106       Y2.7678    
   X2.7645    
   X2.7508       Y2.7696    
   X2.7419       Y2.7733    
   X2.7342       Y2.7792    
   X2.7284       Y2.7868    
   X2.7247       Y2.7957    
   X2.7234       Y2.8053    
   X2.7247       Y2.8149    
   X2.7284       Y2.8238    
   X2.7342       Y2.8314    
   X2.7419       Y2.8373    
   X2.7508       Y2.8410    
   X2.7645       Y2.8428    
   X3.1106    
   X3.1243       Y2.8410    
   X3.1332       Y2.8373    
   X3.1408       Y2.8314    
   X3.1467       Y2.8238    
   X3.1504       Y2.8149    
   X3.1517       Y2.8053    
   X3.1504       Y2.7957    
   X3.1467       Y2.7868    
   X3.1408       Y2.7792    
   X3.1332       Y2.7733    
(BREAK pass 18)
G0   Z0.1250    
(Pass: 1)
   X3.4558       Y3.3633    
G1   Z-0.0156    F40  
   X3.3670       Y3.4315     F100 
   X3.2988       Y3.5204    
   X3.2559       Y3.6239    
   X3.2413       Y3.7349    
   X3.2559       Y3.8460    
   X3.2988       Y3.9495    
   X3.3670       Y4.0383    
   X3.4558       Y4.1065    
   X3.5593       Y4.1494    
   X3.6745       Y4.1645    
   X4.0600    
   X4.1751       Y4.1494    
   X4.2786       Y4.1065    
   X4.3675       Y4.0383    
   X4.4357       Y3.9495    
   X4.4785       Y3.8460    
   X4.4932       Y3.7349    
   X4.4785       Y3.6239    
   X4.4357       Y3.5204    
   X4.3675       Y3.4315    
   X4.2786       Y3.3633    
   X4.1751       Y3.3204    
   X4.0600       Y3.3053    
   X3.6745    
   X3.5593       Y3.3204    
   X3.4558       Y3.3633    
(Pass: 2)
   Z-0.0312    F40  
   X3.3670       Y3.4315     F100 
   X3.2988       Y3.5204    
   X3.2559       Y3.6239    
   X3.2413       Y3.7349    
   X3.2559       Y3.8460    
   X3.2988       Y3.9495    
   X3.3670       Y4.0383    
   X3.4558       Y4.1065    
   X3.5593       Y4.1494    
   X3.6745       Y4.1645    
   X4.0600    
   X4.1751       Y4.1494    
   X4.2786       Y4.1065    
   X4.3675       Y4.0383    
   X4.4357       Y3.9495    
   X4.4785       Y3.8460    
   X4.4932       Y3.7349    
   X4.4785       Y3.6239    
   X4.4357       Y3.5204    
   X4.3675       Y3.4315    
   X4.2786       Y3.3633    
   X4.1751       Y3.3204    
   X4.0600       Y3.3053    
   X3.6745    
   X3.5593       Y3.3204    
   X3.4558       Y3.3633    
(Pass: 3)
   Z-0.0469    F40  
   X3.3670       Y3.4315     F100 
   X3.2988       Y3.5204    
   X3.2559       Y3.6239    
   X3.2413       Y3.7349    
   X3.2559       Y3.8460    
   X3.2988       Y3.9495    
   X3.3670       Y4.0383    
   X3.4558       Y4.1065    
   X3.5593       Y4.1494    
   X3.6745       Y4.1645    
   X4.0600    
   X4.1751       Y4.1494    
   X4.2786       Y4.1065    
   X4.3675       Y4.0383    
   X4.4357       Y3.9495    
   X4.4785       Y3.8460    
   X4.4932       Y3.7349    
   X4.4785       Y3.6239    
   X4.4357       Y3.5204    
   X4.3675       Y3.4315    
   X4.2786       Y3.3633    
   X4.1751       Y3.3204    
   X4.0600       Y3.3053    
   X3.6745    
   X3.5593       Y3.3204    
   X3.4558       Y3.3633    
(Pass: 4)
   Z-0.0625    F40  
   X3.3670       Y3.4315     F100 
   X3.2988       Y3.5204    
   X3.2559       Y3.6239    
   X3.2413       Y3.7349    
   X3.2559       Y3.8460    
   X3.2988       Y3.9495    
   X3.3670       Y4.0383    
   X3.4558       Y4.1065    
   X3.5593       Y4.1494    
   X3.6745       Y4.1645    
   X4.0600    
   X4.1751       Y4.1494    
   X4.2786       Y4.1065    
   X4.3675       Y4.0383    
   X4.4357       Y3.9495    
   X4.4785       Y3.8460    
   X4.4932       Y3.7349    
   X4.4785       Y3.6239    
   X4.4357       Y3.5204    
   X4.3675       Y3.4315    
   X4.2786       Y3.3633    
   X4.1751       Y3.3204    
   X4.0600       Y3.3053    
   X3.6745    
   X3.5593       Y3.3204    
   X3.4558       Y3.3633    
(Pass: 5)
   Z-0.0781    F40  
   X3.3670       Y3.4315     F100 
   X3.2988       Y3.5204    
   X3.2559       Y3.6239    
   X3.2413       Y3.7349    
   X3.2559       Y3.8460    
   X3.2988       Y3.9495    
   X3.3670       Y4.0383    
   X3.4558       Y4.1065    
   X3.5593       Y4.1494    
   X3.6745       Y4.1645    
   X4.0600    
   X4.1751       Y4.1494    
   X4.2786       Y4.1065    
   X4.3675       Y4.0383    
   X4.4357       Y3.9495    
   X4.4785       Y3.8460    
   X4.4932       Y3.7349    
   X4.4785       Y3.6239    
   X4.4357       Y3.5204    
   X4.3675       Y3.4315    
   X4.2786       Y3.3633    
   X4.1751       Y3.3204    
   X4.0600       Y3.3053    
   X3.6745    
   X3.5593       Y3.3204    
   X3.4558       Y3.3633    
(Pass: 6)
   Z-0.0938    F40  
   X3.3670       Y3.4315     F100 
   X3.2988       Y3.5204    
   X3.2559       Y3.6239    
   X3.2413       Y3.7349    
   X3.2559       Y3.8460    
   X3.2988       Y3.9495    
   X3.3670       Y4.0383    
   X3.4558       Y4.1065    
   X3.5593       Y4.1494    
   X3.6745       Y4.1645    
   X4.0600    
   X4.1751       Y4.1494    
   X4.2786       Y4.1065    
   X4.3675       Y4.0383    
   X4.4357       Y3.9495    
   X4.4785       Y3.8460    
   X4.4932       Y3.7349    
   X4.4785       Y3.6239    
   X4.4357       Y3.5204    
   X4.3675       Y3.4315    
   X4.2786       Y3.3633    
   X4.1751       Y3.3204    
   X4.0600       Y3.3053    
   X3.6745    
   X3.5593       Y3.3204    
   X3.4558       Y3.3633    
(Pass: 7)
   Z-0.1094    F40  
   X3.3670       Y3.4315     F100 
   X3.2988       Y3.5204    
   X3.2559       Y3.6239    
   X3.2413       Y3.7349    
   X3.2559       Y3.8460    
   X3.2988       Y3.9495    
   X3.3670       Y4.0383    
   X3.4558       Y4.1065    
   X3.5593       Y4.1494    
   X3.6745       Y4.1645    
   X4.0600    
   X4.1751       Y4.1494    
   X4.2786       Y4.1065    
   X4.3675       Y4.0383    
   X4.4357       Y3.9495    
   X4.4785       Y3.8460    
   X4.4932       Y3.7349    
   X4.4785       Y3.6239    
   X4.4357       Y3.5204    
   X4.3675       Y3.4315    
   X4.2786       Y3.3633    
   X4.1751       Y3.3204    
   X4.0600       Y3.3053    
   X3.6745    
   X3.5593       Y3.3204    
   X3.4558       Y3.3633    
(Pass: 8)
   Z-0.1250    F40  
   X3.3670       Y3.4315     F100 
   X3.2988       Y3.5204    
   X3.2559       Y3.6239    
   X3.2413       Y3.7349    
   X3.2559       Y3.8460    
   X3.2988       Y3.9495    
   X3.3670       Y4.0383    
   X3.4558       Y4.1065    
   X3.5593       Y4.1494    
   X3.6745       Y4.1645    
   X4.0600    
   X4.1751       Y4.1494    
   X4.2786       Y4.1065    
   X4.3675       Y4.0383    
   X4.4357       Y3.9495    
   X4.4785       Y3.8460    
   X4.4932       Y3.7349    
   X4.4785       Y3.6239    
   X4.4357       Y3.5204    
   X4.3675       Y3.4315    
   X4.2786       Y3.3633    
   X4.1751       Y3.3204    
   X4.0600       Y3.3053    
   X3.6745    
   X3.5593       Y3.3204    
   X3.4558       Y3.3633    
(Pass: 9)
   Z-0.1406    F40  
   X3.3670       Y3.4315     F100 
   X3.2988       Y3.5204    
   X3.2559       Y3.6239    
   X3.2413       Y3.7349    
   X3.2559       Y3.8460    
   X3.2988       Y3.9495    
   X3.3670       Y4.0383    
   X3.4558       Y4.1065    
   X3.5593       Y4.1494    
   X3.6745       Y4.1645    
   X4.0600    
   X4.1751       Y4.1494    
   X4.2786       Y4.1065    
   X4.3675       Y4.0383    
   X4.4357       Y3.9495    
   X4.4785       Y3.8460    
   X4.4932       Y3.7349    
   X4.4785       Y3.6239    
   X4.4357       Y3.5204    
   X4.3675       Y3.4315    
   X4.2786       Y3.3633    
   X4.1751       Y3.3204    
   X4.0600       Y3.3053    
   X3.6745    
   X3.5593       Y3.3204    
   X3.4558       Y3.3633    
(Pass: 10)
   Z-0.1562    F40  
   X3.3670       Y3.4315     F100 
   X3.2988       Y3.5204    
   X3.2559       Y3.6239    
   X3.2413       Y3.7349    
   X3.2559       Y3.8460    
   X3.2988       Y3.9495    
   X3.3670       Y4.0383    
   X3.4558       Y4.1065    
   X3.5593       Y4.1494    
   X3.6745       Y4.1645    
   X4.0600    
   X4.1751       Y4.1494    
   X4.2786       Y4.1065    
   X4.3675       Y4.0383    
   X4.4357       Y3.9495    
   X4.4785       Y3.8460    
   X4.4932       Y3.7349    
   X4.4785       Y3.6239    
   X4.4357       Y3.5204    
   X4.3675       Y3.4315    
   X4.2786       Y3.3633    
   X4.1751       Y3.3204    
   X4.0600       Y3.3053    
   X3.6745    
   X3.5593       Y3.3204    
   X3.4558       Y3.3633    
(Pass: 11)
   Z-0.1719    F40  
   X3.3670       Y3.4315     F100 
   X3.2988       Y3.5204    
   X3.2559       Y3.6239    
   X3.2413       Y3.7349    
   X3.2559       Y3.8460    
   X3.2988       Y3.9495    
   X3.3670       Y4.0383    
   X3.4558       Y4.1065    
   X3.5593       Y4.1494    
   X3.6745       Y4.1645    
   X4.0600    
   X4.1751       Y4.1494    
   X4.2786       Y4.1065    
   X4.3675       Y4.0383    
   X4.4357       Y3.9495    
   X4.4785       Y3.8460    
   X4.4932       Y3.7349    
   X4.4785       Y3.6239    
   X4.4357       Y3.5204    
   X4.3675       Y3.4315    
   X4.2786       Y3.3633    
   X4.1751       Y3.3204    
   X4.0600       Y3.3053    
   X3.6745    
   X3.5593       Y3.3204    
   X3.4558       Y3.3633    
(Pass: 12)
   Z-0.1875    F40  
   X3.3670       Y3.4315     F100 
   X3.2988       Y3.5204    
   X3.2559       Y3.6239    
   X3.2413       Y3.7349    
   X3.2559       Y3.8460    
   X3.2988       Y3.9495    
   X3.3670       Y4.0383    
   X3.4558       Y4.1065    
   X3.5593       Y4.1494    
   X3.6745       Y4.1645    
   X4.0600    
   X4.1751       Y4.1494    
   X4.2786       Y4.1065    
   X4.3675       Y4.0383    
   X4.4357       Y3.9495    
   X4.4785       Y3.8460    
   X4.4932       Y3.7349    
   X4.4785       Y3.6239    
   X4.4357       Y3.5204    
   X4.3675       Y3.4315    
   X4.2786       Y3.3633    
   X4.1751       Y3.3204    
   X4.0600       Y3.3053    
   X3.6745    
   X3.5593       Y3.3204    
   X3.4558       Y3.3633    
(Pass: 13)
   Z-0.2031    F40  
   X3.3670       Y3.4315     F100 
   X3.2988       Y3.5204    
   X3.2559       Y3.6239    
   X3.2413       Y3.7349    
   X3.2559       Y3.8460    
   X3.2988       Y3.9495    
   X3.3670       Y4.0383    
   X3.4558       Y4.1065    
   X3.5593       Y4.1494    
   X3.6745       Y4.1645    
   X4.0600    
   X4.1751       Y4.1494    
   X4.2786       Y4.1065    
   X4.3675       Y4.0383    
   X4.4357       Y3.9495    
   X4.4785       Y3.8460    
   X4.4932       Y3.7349    
   X4.4785       Y3.6239    
   X4.4357       Y3.5204    
   X4.3675       Y3.4315    
   X4.2786       Y3.3633    
   X4.1751       Y3.3204    
   X4.0600       Y3.3053    
   X3.6745    
   X3.5593       Y3.3204    
   X3.4558       Y3.3633    
(Pass: 14)
   Z-0.2188    F40  
   X3.3670       Y3.4315     F100 
   X3.2988       Y3.5204    
   X3.2559       Y3.6239    
   X3.2413       Y3.7349    
   X3.2559       Y3.8460    
   X3.2988       Y3.9495    
   X3.3670       Y4.0383    
   X3.4558       Y4.1065    
   X3.5593       Y4.1494    
   X3.6745       Y4.1645    
   X4.0600    
   X4.1751       Y4.1494    
   X4.2786       Y4.1065    
   X4.3675       Y4.0383    
   X4.4357       Y3.9495    
   X4.4785       Y3.8460    
   X4.4932       Y3.7349    
   X4.4785       Y3.6239    
   X4.4357       Y3.5204    
   X4.3675       Y3.4315    
   X4.2786       Y3.3633    
   X4.1751       Y3.3204    
   X4.0600       Y3.3053    
   X3.6745    
   X3.5593       Y3.3204    
   X3.4558       Y3.3633    
(Pass: 15)
   Z-0.2344    F40  
   X3.3670       Y3.4315     F100 
   X3.2988       Y3.5204    
   X3.2559       Y3.6239    
   X3.2413       Y3.7349    
   X3.2559       Y3.8460    
   X3.2988       Y3.9495    
   X3.3670       Y4.0383    
   X3.4558       Y4.1065    
   X3.5593       Y4.1494    
   X3.6745       Y4.1645    
   X4.0600    
   X4.1751       Y4.1494    
   X4.2786       Y4.1065    
   X4.3675       Y4.0383    
   X4.4357       Y3.9495    
   X4.4785       Y3.8460    
   X4.4932       Y3.7349    
   X4.4785       Y3.6239    
   X4.4357       Y3.5204    
   X4.3675       Y3.4315    
   X4.2786       Y3.3633    
   X4.1751       Y3.3204    
   X4.0600       Y3.3053    
   X3.6745    
   X3.5593       Y3.3204    
   X3.4558       Y3.3633    
(Pass: 16)
   Z-0.2500    F40  
   X3.3670       Y3.4315     F100 
   X3.2988       Y3.5204    
   X3.2559       Y3.6239    
   X3.2413       Y3.7349    
   X3.2559       Y3.8460    
   X3.2988       Y3.9495    
   X3.3670       Y4.0383    
   X3.4558       Y4.1065    
   X3.5593       Y4.1494    
   X3.6745       Y4.1645    
   X4.0600    
   X4.1751       Y4.1494    
   X4.2786       Y4.1065    
   X4.3675       Y4.0383    
   X4.4357       Y3.9495    
   X4.4785       Y3.8460    
   X4.4932       Y3.7349    
   X4.4785       Y3.6239    
   X4.4357       Y3.5204    
   X4.3675       Y3.4315    
   X4.2786       Y3.3633    
   X4.1751       Y3.3204    
   X4.0600       Y3.3053    
   X3.6745    
   X3.5593       Y3.3204    
   X3.4558       Y3.3633    
(Pass: 17)
   Z-0.2656    F40  
   X3.3670       Y3.4315     F100 
   X3.2988       Y3.5204    
   X3.2559       Y3.6239    
   X3.2413       Y3.7349    
   X3.2559       Y3.8460    
   X3.2988       Y3.9495    
   X3.3670       Y4.0383    
   X3.4558       Y4.1065    
   X3.5593       Y4.1494    
   X3.6745       Y4.1645    
   X4.0600    
   X4.1751       Y4.1494    
   X4.2786       Y4.1065    
   X4.3675       Y4.0383    
   X4.4357       Y3.9495    
   X4.4785       Y3.8460    
   X4.4932       Y3.7349    
   X4.4785       Y3.6239    
   X4.4357       Y3.5204    
   X4.3675       Y3.4315    
   X4.2786       Y3.3633    
   X4.1751       Y3.3204    
   X4.0600       Y3.3053    
   X3.6745    
   X3.5593       Y3.3204    
   X3.4558       Y3.3633    
(Pass: 18)
   Z-0.2812    F40  
   X3.3670       Y3.4315     F100 
   X3.2988       Y3.5204    
   X3.2559       Y3.6239    
   X3.2413       Y3.7349    
   X3.2559       Y3.8460    
   X3.2988       Y3.9495    
   X3.3670       Y4.0383    
   X3.4558       Y4.1065    
   X3.5593       Y4.1494    
   X3.6745       Y4.1645    
   X4.0600    
   X4.1751       Y4.1494    
   X4.2786       Y4.1065    
   X4.3675       Y4.0383    
   X4.4357       Y3.9495    
   X4.4785       Y3.8460    
   X4.4932       Y3.7349    
   X4.4785       Y3.6239    
   X4.4357       Y3.5204    
   X4.3675       Y3.4315    
   X4.2786       Y3.3633    
   X4.1751       Y3.3204    
   X4.0600       Y3.3053    
   X3.6745    
   X3.5593       Y3.3204    
   X3.4558       Y3.3633    
(BREAK pass 18)
G0   Z0.1250    
(Pass: 1)
   X3.1243       Y4.6296    
G1   Z-0.0156    F40  
   X3.1106       Y4.6278     F100 
   X2.7645    
   X2.7508       Y4.6296    
   X2.7419       Y4.6333    
   X2.7342       Y4.6392    
   X2.7284       Y4.6468    
   X2.7247       Y4.6557    
   X2.7234       Y4.6653    
   X2.7247       Y4.6749    
   X2.7284       Y4.6838    
   X2.7342       Y4.6914    
   X2.7419       Y4.6973    
   X2.7508       Y4.7010    
   X2.7645       Y4.7028    
   X3.1106    
   X3.1243       Y4.7010    
   X3.1332       Y4.6973    
   X3.1408       Y4.6914    
   X3.1467       Y4.6838    
   X3.1504       Y4.6749    
   X3.1517       Y4.6653    
   X3.1504       Y4.6557    
   X3.1467       Y4.6468    
   X3.1408       Y4.6392    
   X3.1332       Y4.6333    
   X3.1243       Y4.6296    
(Pass: 2)
   Z-0.0312    F40  
   X3.1106       Y4.6278     F100 
   X2.7645    
   X2.7508       Y4.6296    
   X2.7419       Y4.6333    
   X2.7342       Y4.6392    
   X2.7284       Y4.6468    
   X2.7247       Y4.6557    
   X2.7234       Y4.6653    
   X2.7247       Y4.6749    
   X2.7284       Y4.6838    
   X2.7342       Y4.6914    
   X2.7419       Y4.6973    
   X2.7508       Y4.7010    
   X2.7645       Y4.7028    
   X3.1106    
   X3.1243       Y4.7010    
   X3.1332       Y4.6973    
   X3.1408       Y4.6914    
   X3.1467       Y4.6838    
   X3.1504       Y4.6749    
   X3.1517       Y4.6653    
   X3.1504       Y4.6557    
   X3.1467       Y4.6468    
   X3.1408       Y4.6392    
   X3.1332       Y4.6333    
   X3.1243       Y4.6296    
(Pass: 3)
   Z-0.0469    F40  
   X3.1106       Y4.6278     F100 
   X2.7645    
   X2.7508       Y4.6296    
   X2.7419       Y4.6333    
   X2.7342       Y4.6392    
   X2.7284       Y4.6468    
   X2.7247       Y4.6557    
   X2.7234       Y4.6653    
   X2.7247       Y4.6749    
   X2.7284       Y4.6838    
   X2.7342       Y4.6914    
   X2.7419       Y4.6973    
   X2.7508       Y4.7010    
   X2.7645       Y4.7028    
   X3.1106    
   X3.1243       Y4.7010    
   X3.1332       Y4.6973    
   X3.1408       Y4.6914    
   X3.1467       Y4.6838    
   X3.1504       Y4.6749    
   X3.1517       Y4.6653    
   X3.1504       Y4.6557    
   X3.1467       Y4.6468    
   X3.1408       Y4.6392    
   X3.1332       Y4.6333    
   X3.1243       Y4.6296    
(Pass: 4)
   Z-0.0625    F40  
   X3.1106       Y4.6278     F100 
   X2.7645    
   X2.7508       Y4.6296    
   X2.7419       Y4.6333    
   X2.7342       Y4.6392    
   X2.7284       Y4.6468    
   X2.7247       Y4.6557    
   X2.7234       Y4.6653    
   X2.7247       Y4.6749    
   X2.7284       Y4.6838    
   X2.7342       Y4.6914    
   X2.7419       Y4.6973    
   X2.7508       Y4.7010    
   X2.7645       Y4.7028    
   X3.1106    
   X3.1243       Y4.7010    
   X3.1332       Y4.6973    
   X3.1408       Y4.6914    
   X3.1467       Y4.6838    
   X3.1504       Y4.6749    
   X3.1517       Y4.6653    
   X3.1504       Y4.6557    
   X3.1467       Y4.6468    
   X3.1408       Y4.6392    
   X3.1332       Y4.6333    
   X3.1243       Y4.6296    
(Pass: 5)
   Z-0.0781    F40  
   X3.1106       Y4.6278     F100 
   X2.7645    
   X2.7508       Y4.6296    
   X2.7419       Y4.6333    
   X2.7342       Y4.6392    
   X2.7284       Y4.6468    
   X2.7247       Y4.6557    
   X2.7234       Y4.6653    
   X2.7247       Y4.6749    
   X2.7284       Y4.6838    
   X2.7342       Y4.6914    
   X2.7419       Y4.6973    
   X2.7508       Y4.7010    
   X2.7645       Y4.7028    
   X3.1106    
   X3.1243       Y4.7010    
   X3.1332       Y4.6973    
   X3.1408       Y4.6914    
   X3.1467       Y4.6838    
   X3.1504       Y4.6749    
   X3.1517       Y4.6653    
   X3.1504       Y4.6557    
   X3.1467       Y4.6468    
   X3.1408       Y4.6392    
   X3.1332       Y4.6333    
   X3.1243       Y4.6296    
(Pass: 6)
   Z-0.0938    F40  
   X3.1106       Y4.6278     F100 
   X2.7645    
   X2.7508       Y4.6296    
   X2.7419       Y4.6333    
   X2.7342       Y4.6392    
   X2.7284       Y4.6468    
   X2.7247       Y4.6557    
   X2.7234       Y4.6653    
   X2.7247       Y4.6749    
   X2.7284       Y4.6838    
   X2.7342       Y4.6914    
   X2.7419       Y4.6973    
   X2.7508       Y4.7010    
   X2.7645       Y4.7028    
   X3.1106    
   X3.1243       Y4.7010    
   X3.1332       Y4.6973    
   X3.1408       Y4.6914    
   X3.1467       Y4.6838    
   X3.1504       Y4.6749    
   X3.1517       Y4.6653    
   X3.1504       Y4.6557    
   X3.1467       Y4.6468    
   X3.1408       Y4.6392    
   X3.1332       Y4.6333    
   X3.1243       Y4.6296    
(Pass: 7)
   Z-0.1094    F40  
   X3.1106       Y4.6278     F100 
   X2.7645    
   X2.7508       Y4.6296    
   X2.7419       Y4.6333    
   X2.7342       Y4.6392    
   X2.7284       Y4.6468    
   X2.7247       Y4.6557    
   X2.7234       Y4.6653    
   X2.7247       Y4.6749    
   X2.7284       Y4.6838    
   X2.7342       Y4.6914    
   X2.7419       Y4.6973    
   X2.7508       Y4.7010    
   X2.7645       Y4.7028    
   X3.1106    
   X3.1243       Y4.7010    
   X3.1332       Y4.6973    
   X3.1408       Y4.6914    
   X3.1467       Y4.6838    
   X3.1504       Y4.6749    
   X3.1517       Y4.6653    
   X3.1504       Y4.6557    
   X3.1467       Y4.6468    
   X3.1408       Y4.6392    
   X3.1332       Y4.6333    
   X3.1243       Y4.6296    
(Pass: 8)
   Z-0.1250    F40  
   X3.1106       Y4.6278     F100 
   X2.7645    
   X2.7508       Y4.6296    
   X2.7419       Y4.6333    
   X2.7342       Y4.6392    
   X2.7284       Y4.6468    
   X2.7247       Y4.6557    
   X2.7234       Y4.6653    
   X2.7247       Y4.6749    
   X2.7284       Y4.6838    
   X2.7342       Y4.6914    
   X2.7419       Y4.6973    
   X2.7508       Y4.7010    
   X2.7645       Y4.7028    
   X3.1106    
   X3.1243       Y4.7010    
   X3.1332       Y4.6973    
   X3.1408       Y4.6914    
   X3.1467       Y4.6838    
   X3.1504       Y4.6749    
   X3.1517       Y4.6653    
   X3.1504       Y4.6557    
   X3.1467       Y4.6468    
   X3.1408       Y4.6392    
   X3.1332       Y4.6333    
   X3.1243       Y4.6296    
(Pass: 9)
   Z-0.1406    F40  
   X3.1106       Y4.6278     F100 
   X2.7645    
   X2.7508       Y4.6296    
   X2.7419       Y4.6333    
   X2.7342       Y4.6392    
   X2.7284       Y4.6468    
   X2.7247       Y4.6557    
   X2.7234       Y4.6653    
   X2.7247       Y4.6749    
   X2.7284       Y4.6838    
   X2.7342       Y4.6914    
   X2.7419       Y4.6973    
   X2.7508       Y4.7010    
   X2.7645       Y4.7028    
   X3.1106    
   X3.1243       Y4.7010    
   X3.1332       Y4.6973    
   X3.1408       Y4.6914    
   X3.1467       Y4.6838    
   X3.1504       Y4.6749    
   X3.1517       Y4.6653    
   X3.1504       Y4.6557    
   X3.1467       Y4.6468    
   X3.1408       Y4.6392    
   X3.1332       Y4.6333    
   X3.1243       Y4.6296    
(Pass: 10)
   Z-0.1562    F40  
   X3.1106       Y4.6278     F100 
   X2.7645    
   X2.7508       Y4.6296    
   X2.7419       Y4.6333    
   X2.7342       Y4.6392    
   X2.7284       Y4.6468    
   X2.7247       Y4.6557    
   X2.7234       Y4.6653    
   X2.7247       Y4.6749    
   X2.7284       Y4.6838    
   X2.7342       Y4.6914    
   X2.7419       Y4.6973    
   X2.7508       Y4.7010    
   X2.7645       Y4.7028    
   X3.1106    
   X3.1243       Y4.7010    
   X3.1332       Y4.6973    
   X3.1408       Y4.6914    
   X3.1467       Y4.6838    
   X3.1504       Y4.6749    
   X3.1517       Y4.6653    
   X3.1504       Y4.6557    
   X3.1467       Y4.6468    
   X3.1408       Y4.6392    
   X3.1332       Y4.6333    
   X3.1243       Y4.6296    
(Pass: 11)
   Z-0.1719    F40  
   X3.1106       Y4.6278     F100 
   X2.7645    
   X2.7508       Y4.6296    
   X2.7419       Y4.6333    
   X2.7342       Y4.6392    
   X2.7284       Y4.6468    
   X2.7247       Y4.6557    
   X2.7234       Y4.6653    
   X2.7247       Y4.6749    
   X2.7284       Y4.6838    
   X2.7342       Y4.6914    
   X2.7419       Y4.6973    
   X2.7508       Y4.7010    
   X2.7645       Y4.7028    
   X3.1106    
   X3.1243       Y4.7010    
   X3.1332       Y4.6973    
   X3.1408       Y4.6914    
   X3.1467       Y4.6838    
   X3.1504       Y4.6749    
   X3.1517       Y4.6653    
   X3.1504       Y4.6557    
   X3.1467       Y4.6468    
   X3.1408       Y4.6392    
   X3.1332       Y4.6333    
   X3.1243       Y4.6296    
(Pass: 12)
   Z-0.1875    F40  
   X3.1106       Y4.6278     F100 
   X2.7645    
   X2.7508       Y4.6296    
   X2.7419       Y4.6333    
   X2.7342       Y4.6392    
   X2.7284       Y4.6468    
   X2.7247       Y4.6557    
   X2.7234       Y4.6653    
   X2.7247       Y4.6749    
   X2.7284       Y4.6838    
   X2.7342       Y4.6914    
   X2.7419       Y4.6973    
   X2.7508       Y4.7010    
   X2.7645       Y4.7028    
   X3.1106    
   X3.1243       Y4.7010    
   X3.1332       Y4.6973    
   X3.1408       Y4.6914    
   X3.1467       Y4.6838    
   X3.1504       Y4.6749    
   X3.1517       Y4.6653    
   X3.1504       Y4.6557    
   X3.1467       Y4.6468    
   X3.1408       Y4.6392    
   X3.1332       Y4.6333    
   X3.1243       Y4.6296    
(Pass: 13)
   Z-0.2031    F40  
   X3.1106       Y4.6278     F100 
   X2.7645    
   X2.7508       Y4.6296    
   X2.7419       Y4.6333    
   X2.7342       Y4.6392    
   X2.7284       Y4.6468    
   X2.7247       Y4.6557    
   X2.7234       Y4.6653    
   X2.7247       Y4.6749    
   X2.7284       Y4.6838    
   X2.7342       Y4.6914    
   X2.7419       Y4.6973    
   X2.7508       Y4.7010    
   X2.7645       Y4.7028    
   X3.1106    
   X3.1243       Y4.7010    
   X3.1332       Y4.6973    
   X3.1408       Y4.6914    
   X3.1467       Y4.6838    
   X3.1504       Y4.6749    
   X3.1517       Y4.6653    
   X3.1504       Y4.6557    
   X3.1467       Y4.6468    
   X3.1408       Y4.6392    
   X3.1332       Y4.6333    
   X3.1243       Y4.6296    
(Pass: 14)
   Z-0.2188    F40  
   X3.1106       Y4.6278     F100 
   X2.7645    
   X2.7508       Y4.6296    
   X2.7419       Y4.6333    
   X2.7342       Y4.6392    
   X2.7284       Y4.6468    
   X2.7247       Y4.6557    
   X2.7234       Y4.6653    
   X2.7247       Y4.6749    
   X2.7284       Y4.6838    
   X2.7342       Y4.6914    
   X2.7419       Y4.6973    
   X2.7508       Y4.7010    
   X2.7645       Y4.7028    
   X3.1106    
   X3.1243       Y4.7010    
   X3.1332       Y4.6973    
   X3.1408       Y4.6914    
   X3.1467       Y4.6838    
   X3.1504       Y4.6749    
   X3.1517       Y4.6653    
   X3.1504       Y4.6557    
   X3.1467       Y4.6468    
   X3.1408       Y4.6392    
   X3.1332       Y4.6333    
   X3.1243       Y4.6296    
(Pass: 15)
   Z-0.2344    F40  
   X3.1106       Y4.6278     F100 
   X2.7645    
   X2.7508       Y4.6296    
   X2.7419       Y4.6333    
   X2.7342       Y4.6392    
   X2.7284       Y4.6468    
   X2.7247       Y4.6557    
   X2.7234       Y4.6653    
   X2.7247       Y4.6749    
   X2.7284       Y4.6838    
   X2.7342       Y4.6914    
   X2.7419       Y4.6973    
   X2.7508       Y4.7010    
   X2.7645       Y4.7028    
   X3.1106    
   X3.1243       Y4.7010    
   X3.1332       Y4.6973    
   X3.1408       Y4.6914    
   X3.1467       Y4.6838    
   X3.1504       Y4.6749    
   X3.1517       Y4.6653    
   X3.1504       Y4.6557    
   X3.1467       Y4.6468    
   X3.1408       Y4.6392    
   X3.1332       Y4.6333    
   X3.1243       Y4.6296    
(Pass: 16)
   Z-0.2500    F40  
   X3.1106       Y4.6278     F100 
   X2.7645    
   X2.7508       Y4.6296    
   X2.7419       Y4.6333    
   X2.7342       Y4.6392    
   X2.7284       Y4.6468    
   X2.7247       Y4.6557    
   X2.7234       Y4.6653    
   X2.7247       Y4.6749    
   X2.7284       Y4.6838    
   X2.7342       Y4.6914    
   X2.7419       Y4.6973    
   X2.7508       Y4.7010    
   X2.7645       Y4.7028    
   X3.1106    
   X3.1243       Y4.7010    
   X3.1332       Y4.6973    
   X3.1408       Y4.6914    
   X3.1467       Y4.6838    
   X3.1504       Y4.6749    
   X3.1517       Y4.6653    
   X3.1504       Y4.6557    
   X3.1467       Y4.6468    
   X3.1408       Y4.6392    
   X3.1332       Y4.6333    
   X3.1243       Y4.6296    
(Pass: 17)
   Z-0.2656    F40  
   X3.1106       Y4.6278     F100 
   X2.7645    
   X2.7508       Y4.6296    
   X2.7419       Y4.6333    
   X2.7342       Y4.6392    
   X2.7284       Y4.6468    
   X2.7247       Y4.6557    
   X2.7234       Y4.6653    
   X2.7247       Y4.6749    
   X2.7284       Y4.6838    
   X2.7342       Y4.6914    
   X2.7419       Y4.6973    
   X2.7508       Y4.7010    
   X2.7645       Y4.7028    
   X3.1106    
   X3.1243       Y4.7010    
   X3.1332       Y4.6973    
   X3.1408       Y4.6914    
   X3.1467       Y4.6838    
   X3.1504       Y4.6749    
   X3.1517       Y4.6653    
   X3.1504       Y4.6557    
   X3.1467       Y4.6468    
   X3.1408       Y4.6392    
   X3.1332       Y4.6333    
   X3.1243       Y4.6296    
(Pass: 18)
   Z-0.2812    F40  
   X3.1106       Y4.6278     F100 
   X2.7645    
   X2.7508       Y4.6296    
   X2.7419       Y4.6333    
   X2.7342       Y4.6392    
   X2.7284       Y4.6468    
   X2.7247       Y4.6557    
   X2.7234       Y4.6653    
   X2.7247       Y4.6749    
   X2.7284       Y4.6838    
   X2.7342       Y4.6914    
   X2.7419       Y4.6973    
   X2.7508       Y4.7010    
   X2.7645       Y4.7028    
   X3.1106    
   X3.1243       Y4.7010    
   X3.1332       Y4.6973    
   X3.1408       Y4.6914    
   X3.1467       Y4.6838    
   X3.1504       Y4.6749    
   X3.1517       Y4.6653    
   X3.1504       Y4.6557    
   X3.1467       Y4.6468    
   X3.1408       Y4.6392    
   X3.1332       Y4.6333    
   X3.1243       Y4.6296    
(BREAK pass 18)
G0   Z0.1250    
(Pass: 1)
   X3.2474       Y5.0956    
G1   Z-0.0156    F40  
   X3.2400       Y5.1012     F100 
   X3.2344       Y5.1086    
   X3.2309       Y5.1171    
   X3.2297       Y5.1263    
   X3.2309       Y5.1354    
   X3.2344       Y5.1439    
   X3.2400       Y5.1513    
   X3.2474       Y5.1569    
   X3.2559       Y5.1604    
   X3.2651       Y5.1616    
   X3.2742       Y5.1604    
   X3.2828       Y5.1569    
   X3.2901       Y5.1513    
   X3.2957       Y5.1439    
   X3.2993       Y5.1354    
   X3.3005       Y5.1263    
   X3.2993       Y5.1171    
   X3.2957       Y5.1086    
   X3.2901       Y5.1012    
   X3.2828       Y5.0956    
   X3.2742       Y5.0921    
   X3.2651       Y5.0909    
   X3.2559       Y5.0921    
   X3.2474       Y5.0956    
(Pass: 2)
   Z-0.0312    F40  
   X3.2400       Y5.1012     F100 
   X3.2344       Y5.1086    
   X3.2309       Y5.1171    
   X3.2297       Y5.1263    
   X3.2309       Y5.1354    
   X3.2344       Y5.1439    
   X3.2400       Y5.1513    
   X3.2474       Y5.1569    
   X3.2559       Y5.1604    
   X3.2651       Y5.1616    
   X3.2742       Y5.1604    
   X3.2828       Y5.1569    
   X3.2901       Y5.1513    
   X3.2957       Y5.1439    
   X3.2993       Y5.1354    
   X3.3005       Y5.1263    
   X3.2993       Y5.1171    
   X3.2957       Y5.1086    
   X3.2901       Y5.1012    
   X3.2828       Y5.0956    
   X3.2742       Y5.0921    
   X3.2651       Y5.0909    
   X3.2559       Y5.0921    
   X3.2474       Y5.0956    
(Pass: 3)
   Z-0.0469    F40  
   X3.2400       Y5.1012     F100 
   X3.2344       Y5.1086    
   X3.2309       Y5.1171    
   X3.2297       Y5.1263    
   X3.2309       Y5.1354    
   X3.2344       Y5.1439    
   X3.2400       Y5.1513    
   X3.2474       Y5.1569    
   X3.2559       Y5.1604    
   X3.2651       Y5.1616    
   X3.2742       Y5.1604    
   X3.2828       Y5.1569    
   X3.2901       Y5.1513    
   X3.2957       Y5.1439    
   X3.2993       Y5.1354    
   X3.3005       Y5.1263    
   X3.2993       Y5.1171    
   X3.2957       Y5.1086    
   X3.2901       Y5.1012    
   X3.2828       Y5.0956    
   X3.2742       Y5.0921    
   X3.2651       Y5.0909    
   X3.2559       Y5.0921    
   X3.2474       Y5.0956    
(Pass: 4)
   Z-0.0625    F40  
   X3.2400       Y5.1012     F100 
   X3.2344       Y5.1086    
   X3.2309       Y5.1171    
   X3.2297       Y5.1263    
   X3.2309       Y5.1354    
   X3.2344       Y5.1439    
   X3.2400       Y5.1513    
   X3.2474       Y5.1569    
   X3.2559       Y5.1604    
   X3.2651       Y5.1616    
   X3.2742       Y5.1604    
   X3.2828       Y5.1569    
   X3.2901       Y5.1513    
   X3.2957       Y5.1439    
   X3.2993       Y5.1354    
   X3.3005       Y5.1263    
   X3.2993       Y5.1171    
   X3.2957       Y5.1086    
   X3.2901       Y5.1012    
   X3.2828       Y5.0956    
   X3.2742       Y5.0921    
   X3.2651       Y5.0909    
   X3.2559       Y5.0921    
   X3.2474       Y5.0956    
(Pass: 5)
   Z-0.0781    F40  
   X3.2400       Y5.1012     F100 
   X3.2344       Y5.1086    
   X3.2309       Y5.1171    
   X3.2297       Y5.1263    
   X3.2309       Y5.1354    
   X3.2344       Y5.1439    
   X3.2400       Y5.1513    
   X3.2474       Y5.1569    
   X3.2559       Y5.1604    
   X3.2651       Y5.1616    
   X3.2742       Y5.1604    
   X3.2828       Y5.1569    
   X3.2901       Y5.1513    
   X3.2957       Y5.1439    
   X3.2993       Y5.1354    
   X3.3005       Y5.1263    
   X3.2993       Y5.1171    
   X3.2957       Y5.1086    
   X3.2901       Y5.1012    
   X3.2828       Y5.0956    
   X3.2742       Y5.0921    
   X3.2651       Y5.0909    
   X3.2559       Y5.0921    
   X3.2474       Y5.0956    
(Pass: 6)
   Z-0.0938    F40  
   X3.2400       Y5.1012     F100 
   X3.2344       Y5.1086    
   X3.2309       Y5.1171    
   X3.2297       Y5.1263    
   X3.2309       Y5.1354    
   X3.2344       Y5.1439    
   X3.2400       Y5.1513    
   X3.2474       Y5.1569    
   X3.2559       Y5.1604    
   X3.2651       Y5.1616    
   X3.2742       Y5.1604    
   X3.2828       Y5.1569    
   X3.2901       Y5.1513    
   X3.2957       Y5.1439    
   X3.2993       Y5.1354    
   X3.3005       Y5.1263    
   X3.2993       Y5.1171    
   X3.2957       Y5.1086    
   X3.2901       Y5.1012    
   X3.2828       Y5.0956    
   X3.2742       Y5.0921    
   X3.2651       Y5.0909    
   X3.2559       Y5.0921    
   X3.2474       Y5.0956    
(Pass: 7)
   Z-0.1094    F40  
   X3.2400       Y5.1012     F100 
   X3.2344       Y5.1086    
   X3.2309       Y5.1171    
   X3.2297       Y5.1263    
   X3.2309       Y5.1354    
   X3.2344       Y5.1439    
   X3.2400       Y5.1513    
   X3.2474       Y5.1569    
   X3.2559       Y5.1604    
   X3.2651       Y5.1616    
   X3.2742       Y5.1604    
   X3.2828       Y5.1569    
   X3.2901       Y5.1513    
   X3.2957       Y5.1439    
   X3.2993       Y5.1354    
   X3.3005       Y5.1263    
   X3.2993       Y5.1171    
   X3.2957       Y5.1086    
   X3.2901       Y5.1012    
   X3.2828       Y5.0956    
   X3.2742       Y5.0921    
   X3.2651       Y5.0909    
   X3.2559       Y5.0921    
   X3.2474       Y5.0956    
(Pass: 8)
   Z-0.1250    F40  
   X3.2400       Y5.1012     F100 
   X3.2344       Y5.1086    
   X3.2309       Y5.1171    
   X3.2297       Y5.1263    
   X3.2309       Y5.1354    
   X3.2344       Y5.1439    
   X3.2400       Y5.1513    
   X3.2474       Y5.1569    
   X3.2559       Y5.1604    
   X3.2651       Y5.1616    
   X3.2742       Y5.1604    
   X3.2828       Y5.1569    
   X3.2901       Y5.1513    
   X3.2957       Y5.1439    
   X3.2993       Y5.1354    
   X3.3005       Y5.1263    
   X3.2993       Y5.1171    
   X3.2957       Y5.1086    
   X3.2901       Y5.1012    
   X3.2828       Y5.0956    
   X3.2742       Y5.0921    
   X3.2651       Y5.0909    
   X3.2559       Y5.0921    
   X3.2474       Y5.0956    
(Pass: 9)
   Z-0.1406    F40  
   X3.2400       Y5.1012     F100 
   X3.2344       Y5.1086    
   X3.2309       Y5.1171    
   X3.2297       Y5.1263    
   X3.2309       Y5.1354    
   X3.2344       Y5.1439    
   X3.2400       Y5.1513    
   X3.2474       Y5.1569    
   X3.2559       Y5.1604    
   X3.2651       Y5.1616    
   X3.2742       Y5.1604    
   X3.2828       Y5.1569    
   X3.2901       Y5.1513    
   X3.2957       Y5.1439    
   X3.2993       Y5.1354    
   X3.3005       Y5.1263    
   X3.2993       Y5.1171    
   X3.2957       Y5.1086    
   X3.2901       Y5.1012    
   X3.2828       Y5.0956    
   X3.2742       Y5.0921    
   X3.2651       Y5.0909    
   X3.2559       Y5.0921    
   X3.2474       Y5.0956    
(Pass: 10)
   Z-0.1562    F40  
   X3.2400       Y5.1012     F100 
   X3.2344       Y5.1086    
   X3.2309       Y5.1171    
   X3.2297       Y5.1263    
   X3.2309       Y5.1354    
   X3.2344       Y5.1439    
   X3.2400       Y5.1513    
   X3.2474       Y5.1569    
   X3.2559       Y5.1604    
   X3.2651       Y5.1616    
   X3.2742       Y5.1604    
   X3.2828       Y5.1569    
   X3.2901       Y5.1513    
   X3.2957       Y5.1439    
   X3.2993       Y5.1354    
   X3.3005       Y5.1263    
   X3.2993       Y5.1171    
   X3.2957       Y5.1086    
   X3.2901       Y5.1012    
   X3.2828       Y5.0956    
   X3.2742       Y5.0921    
   X3.2651       Y5.0909    
   X3.2559       Y5.0921    
   X3.2474       Y5.0956    
(Pass: 11)
   Z-0.1719    F40  
   X3.2400       Y5.1012     F100 
   X3.2344       Y5.1086    
   X3.2309       Y5.1171    
   X3.2297       Y5.1263    
   X3.2309       Y5.1354    
   X3.2344       Y5.1439    
   X3.2400       Y5.1513    
   X3.2474       Y5.1569    
   X3.2559       Y5.1604    
   X3.2651       Y5.1616    
   X3.2742       Y5.1604    
   X3.2828       Y5.1569    
   X3.2901       Y5.1513    
   X3.2957       Y5.1439    
   X3.2993       Y5.1354    
   X3.3005       Y5.1263    
   X3.2993       Y5.1171    
   X3.2957       Y5.1086    
   X3.2901       Y5.1012    
   X3.2828       Y5.0956    
   X3.2742       Y5.0921    
   X3.2651       Y5.0909    
   X3.2559       Y5.0921    
   X3.2474       Y5.0956    
(Pass: 12)
   Z-0.1875    F40  
   X3.2400       Y5.1012     F100 
   X3.2344       Y5.1086    
   X3.2309       Y5.1171    
   X3.2297       Y5.1263    
   X3.2309       Y5.1354    
   X3.2344       Y5.1439    
   X3.2400       Y5.1513    
   X3.2474       Y5.1569    
   X3.2559       Y5.1604    
   X3.2651       Y5.1616    
   X3.2742       Y5.1604    
   X3.2828       Y5.1569    
   X3.2901       Y5.1513    
   X3.2957       Y5.1439    
   X3.2993       Y5.1354    
   X3.3005       Y5.1263    
   X3.2993       Y5.1171    
   X3.2957       Y5.1086    
   X3.2901       Y5.1012    
   X3.2828       Y5.0956    
   X3.2742       Y5.0921    
   X3.2651       Y5.0909    
   X3.2559       Y5.0921    
   X3.2474       Y5.0956    
(Pass: 13)
   Z-0.2031    F40  
   X3.2400       Y5.1012     F100 
   X3.2344       Y5.1086    
   X3.2309       Y5.1171    
   X3.2297       Y5.1263    
   X3.2309       Y5.1354    
   X3.2344       Y5.1439    
   X3.2400       Y5.1513    
   X3.2474       Y5.1569    
   X3.2559       Y5.1604    
   X3.2651       Y5.1616    
   X3.2742       Y5.1604    
   X3.2828       Y5.1569    
   X3.2901       Y5.1513    
   X3.2957       Y5.1439    
   X3.2993       Y5.1354    
   X3.3005       Y5.1263    
   X3.2993       Y5.1171    
   X3.2957       Y5.1086    
   X3.2901       Y5.1012    
   X3.2828       Y5.0956    
   X3.2742       Y5.0921    
   X3.2651       Y5.0909    
   X3.2559       Y5.0921    
   X3.2474       Y5.0956    
(Pass: 14)
   Z-0.2188    F40  
   X3.2400       Y5.1012     F100 
   X3.2344       Y5.1086    
   X3.2309       Y5.1171    
   X3.2297       Y5.1263    
   X3.2309       Y5.1354    
   X3.2344       Y5.1439    
   X3.2400       Y5.1513    
   X3.2474       Y5.1569    
   X3.2559       Y5.1604    
   X3.2651       Y5.1616    
   X3.2742       Y5.1604    
   X3.2828       Y5.1569    
   X3.2901       Y5.1513    
   X3.2957       Y5.1439    
   X3.2993       Y5.1354    
   X3.3005       Y5.1263    
   X3.2993       Y5.1171    
   X3.2957       Y5.1086    
   X3.2901       Y5.1012    
   X3.2828       Y5.0956    
   X3.2742       Y5.0921    
   X3.2651       Y5.0909    
   X3.2559       Y5.0921    
   X3.2474       Y5.0956    
(Pass: 15)
   Z-0.2344    F40  
   X3.2400       Y5.1012     F100 
   X3.2344       Y5.1086    
   X3.2309       Y5.1171    
   X3.2297       Y5.1263    
   X3.2309       Y5.1354    
   X3.2344       Y5.1439    
   X3.2400       Y5.1513    
   X3.2474       Y5.1569    
   X3.2559       Y5.1604    
   X3.2651       Y5.1616    
   X3.2742       Y5.1604    
   X3.2828       Y5.1569    
   X3.2901       Y5.1513    
   X3.2957       Y5.1439    
   X3.2993       Y5.1354    
   X3.3005       Y5.1263    
   X3.2993       Y5.1171    
   X3.2957       Y5.1086    
   X3.2901       Y5.1012    
   X3.2828       Y5.0956    
   X3.2742       Y5.0921    
   X3.2651       Y5.0909    
   X3.2559       Y5.0921    
   X3.2474       Y5.0956    
(Pass: 16)
   Z-0.2500    F40  
   X3.2400       Y5.1012     F100 
   X3.2344       Y5.1086    
   X3.2309       Y5.1171    
   X3.2297       Y5.1263    
   X3.2309       Y5.1354    
   X3.2344       Y5.1439    
   X3.2400       Y5.1513    
   X3.2474       Y5.1569    
   X3.2559       Y5.1604    
   X3.2651       Y5.1616    
   X3.2742       Y5.1604    
   X3.2828       Y5.1569    
   X3.2901       Y5.1513    
   X3.2957       Y5.1439    
   X3.2993       Y5.1354    
   X3.3005       Y5.1263    
   X3.2993       Y5.1171    
   X3.2957       Y5.1086    
   X3.2901       Y5.1012    
   X3.2828       Y5.0956    
   X3.2742       Y5.0921    
   X3.2651       Y5.0909    
   X3.2559       Y5.0921    
   X3.2474       Y5.0956    
(Pass: 17)
   Z-0.2656    F40  
   X3.2400       Y5.1012     F100 
   X3.2344       Y5.1086    
   X3.2309       Y5.1171    
   X3.2297       Y5.1263    
   X3.2309       Y5.1354    
   X3.2344       Y5.1439    
   X3.2400       Y5.1513    
   X3.2474       Y5.1569    
   X3.2559       Y5.1604    
   X3.2651       Y5.1616    
   X3.2742       Y5.1604    
   X3.2828       Y5.1569    
   X3.2901       Y5.1513    
   X3.2957       Y5.1439    
   X3.2993       Y5.1354    
   X3.3005       Y5.1263    
   X3.2993       Y5.1171    
   X3.2957       Y5.1086    
   X3.2901       Y5.1012    
   X3.2828       Y5.0956    
   X3.2742       Y5.0921    
   X3.2651       Y5.0909    
   X3.2559       Y5.0921    
   X3.2474       Y5.0956    
(Pass: 18)
   Z-0.2812    F40  
   X3.2400       Y5.1012     F100 
   X3.2344       Y5.1086    
   X3.2309       Y5.1171    
   X3.2297       Y5.1263    
   X3.2309       Y5.1354    
   X3.2344       Y5.1439    
   X3.2400       Y5.1513    
   X3.2474       Y5.1569    
   X3.2559       Y5.1604    
   X3.2651       Y5.1616    
   X3.2742       Y5.1604    
   X3.2828       Y5.1569    
   X3.2901       Y5.1513    
   X3.2957       Y5.1439    
   X3.2993       Y5.1354    
   X3.3005       Y5.1263    
   X3.2993       Y5.1171    
   X3.2957       Y5.1086    
   X3.2901       Y5.1012    
   X3.2828       Y5.0956    
   X3.2742       Y5.0921    
   X3.2651       Y5.0909    
   X3.2559       Y5.0921    
   X3.2474       Y5.0956    
(BREAK pass 18)
G0   Z0.1250    
(Pass: 1)
   X3.8776       Y5.9224    
G1   Z-0.0156    F40  
   X3.8702       Y5.9280     F100 
   X3.8646       Y5.9353    
   X3.8611       Y5.9439    
   X3.8599       Y5.9530    
   X3.8611       Y5.9622    
   X3.8646       Y5.9707    
   X3.8702       Y5.9780    
   X3.8776       Y5.9837    
   X3.8861       Y5.9872    
   X3.8953       Y5.9884    
   X3.9044       Y5.9872    
   X3.9130       Y5.9837    
   X3.9203       Y5.9780    
   X3.9259       Y5.9707    
   X3.9294       Y5.9622    
   X3.9307       Y5.9530    
   X3.9294       Y5.9439    
   X3.9259       Y5.9353    
   X3.9203       Y5.9280    
   X3.9130       Y5.9224    
   X3.9044       Y5.9188    
   X3.8953       Y5.9176    
   X3.8861       Y5.9188    
   X3.8776       Y5.9224    
(Pass: 2)
   Z-0.0312    F40  
   X3.8702       Y5.9280     F100 
   X3.8646       Y5.9353    
   X3.8611       Y5.9439    
   X3.8599       Y5.9530    
   X3.8611       Y5.9622    
   X3.8646       Y5.9707    
   X3.8702       Y5.9780    
   X3.8776       Y5.9837    
   X3.8861       Y5.9872    
   X3.8953       Y5.9884    
   X3.9044       Y5.9872    
   X3.9130       Y5.9837    
   X3.9203       Y5.9780    
   X3.9259       Y5.9707    
   X3.9294       Y5.9622    
   X3.9307       Y5.9530    
   X3.9294       Y5.9439    
   X3.9259       Y5.9353    
   X3.9203       Y5.9280    
   X3.9130       Y5.9224    
   X3.9044       Y5.9188    
   X3.8953       Y5.9176    
   X3.8861       Y5.9188    
   X3.8776       Y5.9224    
(Pass: 3)
   Z-0.0469    F40  
   X3.8702       Y5.9280     F100 
   X3.8646       Y5.9353    
   X3.8611       Y5.9439    
   X3.8599       Y5.9530    
   X3.8611       Y5.9622    
   X3.8646       Y5.9707    
   X3.8702       Y5.9780    
   X3.8776       Y5.9837    
   X3.8861       Y5.9872    
   X3.8953       Y5.9884    
   X3.9044       Y5.9872    
   X3.9130       Y5.9837    
   X3.9203       Y5.9780    
   X3.9259       Y5.9707    
   X3.9294       Y5.9622    
   X3.9307       Y5.9530    
   X3.9294       Y5.9439    
   X3.9259       Y5.9353    
   X3.9203       Y5.9280    
   X3.9130       Y5.9224    
   X3.9044       Y5.9188    
   X3.8953       Y5.9176    
   X3.8861       Y5.9188    
   X3.8776       Y5.9224    
(Pass: 4)
   Z-0.0625    F40  
   X3.8702       Y5.9280     F100 
   X3.8646       Y5.9353    
   X3.8611       Y5.9439    
   X3.8599       Y5.9530    
   X3.8611       Y5.9622    
   X3.8646       Y5.9707    
   X3.8702       Y5.9780    
   X3.8776       Y5.9837    
   X3.8861       Y5.9872    
   X3.8953       Y5.9884    
   X3.9044       Y5.9872    
   X3.9130       Y5.9837    
   X3.9203       Y5.9780    
   X3.9259       Y5.9707    
   X3.9294       Y5.9622    
   X3.9307       Y5.9530    
   X3.9294       Y5.9439    
   X3.9259       Y5.9353    
   X3.9203       Y5.9280    
   X3.9130       Y5.9224    
   X3.9044       Y5.9188    
   X3.8953       Y5.9176    
   X3.8861       Y5.9188    
   X3.8776       Y5.9224    
(Pass: 5)
   Z-0.0781    F40  
   X3.8702       Y5.9280     F100 
   X3.8646       Y5.9353    
   X3.8611       Y5.9439    
   X3.8599       Y5.9530    
   X3.8611       Y5.9622    
   X3.8646       Y5.9707    
   X3.8702       Y5.9780    
   X3.8776       Y5.9837    
   X3.8861       Y5.9872    
   X3.8953       Y5.9884    
   X3.9044       Y5.9872    
   X3.9130       Y5.9837    
   X3.9203       Y5.9780    
   X3.9259       Y5.9707    
   X3.9294       Y5.9622    
   X3.9307       Y5.9530    
   X3.9294       Y5.9439    
   X3.9259       Y5.9353    
   X3.9203       Y5.9280    
   X3.9130       Y5.9224    
   X3.9044       Y5.9188    
   X3.8953       Y5.9176    
   X3.8861       Y5.9188    
   X3.8776       Y5.9224    
(Pass: 6)
   Z-0.0938    F40  
   X3.8702       Y5.9280     F100 
   X3.8646       Y5.9353    
   X3.8611       Y5.9439    
   X3.8599       Y5.9530    
   X3.8611       Y5.9622    
   X3.8646       Y5.9707    
   X3.8702       Y5.9780    
   X3.8776       Y5.9837    
   X3.8861       Y5.9872    
   X3.8953       Y5.9884    
   X3.9044       Y5.9872    
   X3.9130       Y5.9837    
   X3.9203       Y5.9780    
   X3.9259       Y5.9707    
   X3.9294       Y5.9622    
   X3.9307       Y5.9530    
   X3.9294       Y5.9439    
   X3.9259       Y5.9353    
   X3.9203       Y5.9280    
   X3.9130       Y5.9224    
   X3.9044       Y5.9188    
   X3.8953       Y5.9176    
   X3.8861       Y5.9188    
   X3.8776       Y5.9224    
(Pass: 7)
   Z-0.1094    F40  
   X3.8702       Y5.9280     F100 
   X3.8646       Y5.9353    
   X3.8611       Y5.9439    
   X3.8599       Y5.9530    
   X3.8611       Y5.9622    
   X3.8646       Y5.9707    
   X3.8702       Y5.9780    
   X3.8776       Y5.9837    
   X3.8861       Y5.9872    
   X3.8953       Y5.9884    
   X3.9044       Y5.9872    
   X3.9130       Y5.9837    
   X3.9203       Y5.9780    
   X3.9259       Y5.9707    
   X3.9294       Y5.9622    
   X3.9307       Y5.9530    
   X3.9294       Y5.9439    
   X3.9259       Y5.9353    
   X3.9203       Y5.9280    
   X3.9130       Y5.9224    
   X3.9044       Y5.9188    
