%
(Generated by SketchUcam {1.2a})
(File: Plate_printouts_side.skp)
(Bit diameter: 5/16")
(Feed rate: 40"/min)
(Plunge Feed rate: 10"/min)
(Material Thickness: 1/4")
(Material length: 12" X width: 12")
(Overhead Gantry: true)
(Retract feed rate NOT limited to plunge feed rate)
(Multipass enabled, Depth = 1/32")
(Optimization is ON)
(Z ZERO IS TABLETOP)
(www.PhlatBoyz.com)
G90 G20 G49 
M3 S15000
G0   Z0.6875    
(Pass: 1)
   X0.9230       Y0.9154    
G1   Z0.2188     F10  
   X0.9107       Y0.9314     F40  
   X0.9030       Y0.9501    
   X0.9003       Y0.9701    
   X0.9030       Y0.9902    
   X0.9107       Y1.0089    
   X0.9230       Y1.0249    
   X0.9390       Y1.0372    
   X0.9577       Y1.0449    
   X0.9778       Y1.0476    
   X0.9978       Y1.0449    
   X1.0165       Y1.0372    
   X1.0325       Y1.0249    
   X1.0448       Y1.0089    
   X1.0526       Y0.9902    
   X1.0552       Y0.9701    
   X1.0526       Y0.9501    
   X1.0448       Y0.9314    
   X1.0325       Y0.9154    
   X1.0165       Y0.9030    
   X0.9978       Y0.8953    
   X0.9778       Y0.8927    
   X0.9577       Y0.8953    
   X0.9390       Y0.9030    
   X0.9230       Y0.9154    
(Pass: 2)
   Z0.1875     F10  
   X0.9107       Y0.9314     F40  
   X0.9030       Y0.9501    
   X0.9003       Y0.9701    
   X0.9030       Y0.9902    
   X0.9107       Y1.0089    
   X0.9230       Y1.0249    
   X0.9390       Y1.0372    
   X0.9577       Y1.0449    
   X0.9778       Y1.0476    
   X0.9978       Y1.0449    
   X1.0165       Y1.0372    
   X1.0325       Y1.0249    
   X1.0448       Y1.0089    
   X1.0526       Y0.9902    
   X1.0552       Y0.9701    
   X1.0526       Y0.9501    
   X1.0448       Y0.9314    
   X1.0325       Y0.9154    
   X1.0165       Y0.9030    
   X0.9978       Y0.8953    
   X0.9778       Y0.8927    
   X0.9577       Y0.8953    
   X0.9390       Y0.9030    
   X0.9230       Y0.9154    
(Pass: 3)
   Z0.1562     F10  
   X0.9107       Y0.9314     F40  
   X0.9030       Y0.9501    
   X0.9003       Y0.9701    
   X0.9030       Y0.9902    
   X0.9107       Y1.0089    
   X0.9230       Y1.0249    
   X0.9390       Y1.0372    
   X0.9577       Y1.0449    
   X0.9778       Y1.0476    
   X0.9978       Y1.0449    
   X1.0165       Y1.0372    
   X1.0325       Y1.0249    
   X1.0448       Y1.0089    
   X1.0526       Y0.9902    
   X1.0552       Y0.9701    
   X1.0526       Y0.9501    
   X1.0448       Y0.9314    
   X1.0325       Y0.9154    
   X1.0165       Y0.9030    
   X0.9978       Y0.8953    
   X0.9778       Y0.8927    
   X0.9577       Y0.8953    
   X0.9390       Y0.9030    
   X0.9230       Y0.9154    
(Pass: 4)
   Z0.1250     F10  
   X0.9107       Y0.9314     F40  
   X0.9030       Y0.9501    
   X0.9003       Y0.9701    
   X0.9030       Y0.9902    
   X0.9107       Y1.0089    
   X0.9230       Y1.0249    
   X0.9390       Y1.0372    
   X0.9577       Y1.0449    
   X0.9778       Y1.0476    
   X0.9978       Y1.0449    
   X1.0165       Y1.0372    
   X1.0325       Y1.0249    
   X1.0448       Y1.0089    
   X1.0526       Y0.9902    
   X1.0552       Y0.9701    
   X1.0526       Y0.9501    
   X1.0448       Y0.9314    
   X1.0325       Y0.9154    
   X1.0165       Y0.9030    
   X0.9978       Y0.8953    
   X0.9778       Y0.8927    
   X0.9577       Y0.8953    
   X0.9390       Y0.9030    
   X0.9230       Y0.9154    
(Pass: 5)
   Z0.0938     F10  
   X0.9107       Y0.9314     F40  
   X0.9030       Y0.9501    
   X0.9003       Y0.9701    
   X0.9030       Y0.9902    
   X0.9107       Y1.0089    
   X0.9230       Y1.0249    
   X0.9390       Y1.0372    
   X0.9577       Y1.0449    
   X0.9778       Y1.0476    
   X0.9978       Y1.0449    
   X1.0165       Y1.0372    
   X1.0325       Y1.0249    
   X1.0448       Y1.0089    
   X1.0526       Y0.9902    
   X1.0552       Y0.9701    
   X1.0526       Y0.9501    
   X1.0448       Y0.9314    
   X1.0325       Y0.9154    
   X1.0165       Y0.9030    
   X0.9978       Y0.8953    
   X0.9778       Y0.8927    
   X0.9577       Y0.8953    
   X0.9390       Y0.9030    
   X0.9230       Y0.9154    
(Pass: 6)
   Z0.0625     F10  
   X0.9107       Y0.9314     F40  
   X0.9030       Y0.9501    
   X0.9003       Y0.9701    
   X0.9030       Y0.9902    
   X0.9107       Y1.0089    
   X0.9230       Y1.0249    
   X0.9390       Y1.0372    
   X0.9577       Y1.0449    
   X0.9778       Y1.0476    
   X0.9978       Y1.0449    
   X1.0165       Y1.0372    
   X1.0325       Y1.0249    
   X1.0448       Y1.0089    
   X1.0526       Y0.9902    
   X1.0552       Y0.9701    
   X1.0526       Y0.9501    
   X1.0448       Y0.9314    
   X1.0325       Y0.9154    
   X1.0165       Y0.9030    
   X0.9978       Y0.8953    
   X0.9778       Y0.8927    
   X0.9577       Y0.8953    
   X0.9390       Y0.9030    
   X0.9230       Y0.9154    
(Pass: 7)
   Z0.0312     F10  
   X0.9107       Y0.9314     F40  
   X0.9030       Y0.9501    
   X0.9003       Y0.9701    
   X0.9030       Y0.9902    
   X0.9107       Y1.0089    
   X0.9230       Y1.0249    
   X0.9390       Y1.0372    
   X0.9577       Y1.0449    
   X0.9778       Y1.0476    
   X0.9978       Y1.0449    
   X1.0165       Y1.0372    
   X1.0325       Y1.0249    
   X1.0448       Y1.0089    
   X1.0526       Y0.9902    
   X1.0552       Y0.9701    
   X1.0526       Y0.9501    
   X1.0448       Y0.9314    
   X1.0325       Y0.9154    
   X1.0165       Y0.9030    
   X0.9978       Y0.8953    
   X0.9778       Y0.8927    
   X0.9577       Y0.8953    
   X0.9390       Y0.9030    
   X0.9230       Y0.9154    
(Pass: 8)
   Z0.0000     F10  
   X0.9107       Y0.9314     F40  
   X0.9030       Y0.9501    
   X0.9003       Y0.9701    
   X0.9030       Y0.9902    
   X0.9107       Y1.0089    
   X0.9230       Y1.0249    
   X0.9390       Y1.0372    
   X0.9577       Y1.0449    
   X0.9778       Y1.0476    
   X0.9978       Y1.0449    
   X1.0165       Y1.0372    
   X1.0325       Y1.0249    
   X1.0448       Y1.0089    
   X1.0526       Y0.9902    
   X1.0552       Y0.9701    
   X1.0526       Y0.9501    
   X1.0448       Y0.9314    
   X1.0325       Y0.9154    
   X1.0165       Y0.9030    
   X0.9978       Y0.8953    
   X0.9778       Y0.8927    
   X0.9577       Y0.8953    
   X0.9390       Y0.9030    
   X0.9230       Y0.9154    
G0   Z0.6875    
(Pass: 1)
   X0.9778       Y3.8580    
G1   Z0.2188     F10  
   X0.9577       Y3.8607     F40  
   X0.9390       Y3.8684    
   X0.9230       Y3.8807    
   X0.9107       Y3.8968    
   X0.9030       Y3.9154    
   X0.9003       Y3.9355    
   X0.9030       Y3.9555    
   X0.9107       Y3.9742    
   X0.9230       Y3.9902    
   X0.9390       Y4.0026    
   X0.9577       Y4.0103    
   X0.9778       Y4.0129    
   X0.9978       Y4.0103    
   X1.0165       Y4.0026    
   X1.0325       Y3.9902    
   X1.0448       Y3.9742    
   X1.0526       Y3.9555    
   X1.0552       Y3.9355    
   X1.0526       Y3.9154    
   X1.0448       Y3.8968    
   X1.0325       Y3.8807    
   X1.0165       Y3.8684    
   X0.9978       Y3.8607    
   X0.9778       Y3.8580    
(Pass: 2)
   Z0.1875     F10  
   X0.9577       Y3.8607     F40  
   X0.9390       Y3.8684    
   X0.9230       Y3.8807    
   X0.9107       Y3.8968    
   X0.9030       Y3.9154    
   X0.9003       Y3.9355    
   X0.9030       Y3.9555    
   X0.9107       Y3.9742    
   X0.9230       Y3.9902    
   X0.9390       Y4.0026    
   X0.9577       Y4.0103    
   X0.9778       Y4.0129    
   X0.9978       Y4.0103    
   X1.0165       Y4.0026    
   X1.0325       Y3.9902    
   X1.0448       Y3.9742    
   X1.0526       Y3.9555    
   X1.0552       Y3.9355    
   X1.0526       Y3.9154    
   X1.0448       Y3.8968    
   X1.0325       Y3.8807    
   X1.0165       Y3.8684    
   X0.9978       Y3.8607    
   X0.9778       Y3.8580    
(Pass: 3)
   Z0.1562     F10  
   X0.9577       Y3.8607     F40  
   X0.9390       Y3.8684    
   X0.9230       Y3.8807    
   X0.9107       Y3.8968    
   X0.9030       Y3.9154    
   X0.9003       Y3.9355    
   X0.9030       Y3.9555    
   X0.9107       Y3.9742    
   X0.9230       Y3.9902    
   X0.9390       Y4.0026    
   X0.9577       Y4.0103    
   X0.9778       Y4.0129    
   X0.9978       Y4.0103    
   X1.0165       Y4.0026    
   X1.0325       Y3.9902    
   X1.0448       Y3.9742    
   X1.0526       Y3.9555    
   X1.0552       Y3.9355    
   X1.0526       Y3.9154    
   X1.0448       Y3.8968    
   X1.0325       Y3.8807    
   X1.0165       Y3.8684    
   X0.9978       Y3.8607    
   X0.9778       Y3.8580    
(Pass: 4)
   Z0.1250     F10  
   X0.9577       Y3.8607     F40  
   X0.9390       Y3.8684    
   X0.9230       Y3.8807    
   X0.9107       Y3.8968    
   X0.9030       Y3.9154    
   X0.9003       Y3.9355    
   X0.9030       Y3.9555    
   X0.9107       Y3.9742    
   X0.9230       Y3.9902    
   X0.9390       Y4.0026    
   X0.9577       Y4.0103    
   X0.9778       Y4.0129    
   X0.9978       Y4.0103    
   X1.0165       Y4.0026    
   X1.0325       Y3.9902    
   X1.0448       Y3.9742    
   X1.0526       Y3.9555    
   X1.0552       Y3.9355    
   X1.0526       Y3.9154    
   X1.0448       Y3.8968    
   X1.0325       Y3.8807    
   X1.0165       Y3.8684    
   X0.9978       Y3.8607    
   X0.9778       Y3.8580    
(Pass: 5)
   Z0.0938     F10  
   X0.9577       Y3.8607     F40  
   X0.9390       Y3.8684    
   X0.9230       Y3.8807    
   X0.9107       Y3.8968    
   X0.9030       Y3.9154    
   X0.9003       Y3.9355    
   X0.9030       Y3.9555    
   X0.9107       Y3.9742    
   X0.9230       Y3.9902    
   X0.9390       Y4.0026    
   X0.9577       Y4.0103    
   X0.9778       Y4.0129    
   X0.9978       Y4.0103    
   X1.0165       Y4.0026    
   X1.0325       Y3.9902    
   X1.0448       Y3.9742    
   X1.0526       Y3.9555    
   X1.0552       Y3.9355    
   X1.0526       Y3.9154    
   X1.0448       Y3.8968    
   X1.0325       Y3.8807    
   X1.0165       Y3.8684    
   X0.9978       Y3.8607    
   X0.9778       Y3.8580    
(Pass: 6)
   Z0.0625     F10  
   X0.9577       Y3.8607     F40  
   X0.9390       Y3.8684    
   X0.9230       Y3.8807    
   X0.9107       Y3.8968    
   X0.9030       Y3.9154    
   X0.9003       Y3.9355    
   X0.9030       Y3.9555    
   X0.9107       Y3.9742    
   X0.9230       Y3.9902    
   X0.9390       Y4.0026    
   X0.9577       Y4.0103    
   X0.9778       Y4.0129    
   X0.9978       Y4.0103    
   X1.0165       Y4.0026    
   X1.0325       Y3.9902    
   X1.0448       Y3.9742    
   X1.0526       Y3.9555    
   X1.0552       Y3.9355    
   X1.0526       Y3.9154    
   X1.0448       Y3.8968    
   X1.0325       Y3.8807    
   X1.0165       Y3.8684    
   X0.9978       Y3.8607    
   X0.9778       Y3.8580    
(Pass: 7)
   Z0.0312     F10  
   X0.9577       Y3.8607     F40  
   X0.9390       Y3.8684    
   X0.9230       Y3.8807    
   X0.9107       Y3.8968    
   X0.9030       Y3.9154    
   X0.9003       Y3.9355    
   X0.9030       Y3.9555    
   X0.9107       Y3.9742    
   X0.9230       Y3.9902    
   X0.9390       Y4.0026    
   X0.9577       Y4.0103    
   X0.9778       Y4.0129    
   X0.9978       Y4.0103    
   X1.0165       Y4.0026    
   X1.0325       Y3.9902    
   X1.0448       Y3.9742    
   X1.0526       Y3.9555    
   X1.0552       Y3.9355    
   X1.0526       Y3.9154    
   X1.0448       Y3.8968    
   X1.0325       Y3.8807    
   X1.0165       Y3.8684    
   X0.9978       Y3.8607    
   X0.9778       Y3.8580    
(Pass: 8)
   Z0.0000     F10  
   X0.9577       Y3.8607     F40  
   X0.9390       Y3.8684    
   X0.9230       Y3.8807    
   X0.9107       Y3.8968    
   X0.9030       Y3.9154    
   X0.9003       Y3.9355    
   X0.9030       Y3.9555    
   X0.9107       Y3.9742    
   X0.9230       Y3.9902    
   X0.9390       Y4.0026    
   X0.9577       Y4.0103    
   X0.9778       Y4.0129    
   X0.9978       Y4.0103    
   X1.0165       Y4.0026    
   X1.0325       Y3.9902    
   X1.0448       Y3.9742    
   X1.0526       Y3.9555    
   X1.0552       Y3.9355    
   X1.0526       Y3.9154    
   X1.0448       Y3.8968    
   X1.0325       Y3.8807    
   X1.0165       Y3.8684    
   X0.9978       Y3.8607    
   X0.9778       Y3.8580    
G0   Z0.6875    
(Pass: 1)
   X3.5618       Y3.0154    
G1   Z0.2188     F10  
   X3.5655       Y3.0244     F40  
   X3.5714       Y3.0320    
   X3.5791       Y3.0379    
   X3.5880       Y3.0416    
   X3.6016       Y3.0434    
   X3.9478    
   X3.9614       Y3.0416    
   X3.9704       Y3.0379    
   X3.9780       Y3.0320    
   X3.9839       Y3.0244    
   X3.9876       Y3.0154    
   X3.9888       Y3.0059    
   X3.9876       Y2.9963    
   X3.9839       Y2.9874    
   X3.9780       Y2.9797    
   X3.9704       Y2.9739    
   X3.9614       Y2.9702    
   X3.9478       Y2.9684    
   X3.6016    
   X3.5880       Y2.9702    
   X3.5791       Y2.9739    
   X3.5714       Y2.9797    
   X3.5655       Y2.9874    
   X3.5618       Y2.9963    
   X3.5606       Y3.0059    
   X3.5618       Y3.0154    
(Pass: 2)
   Z0.1875     F10  
   X3.5655       Y3.0244     F40  
   X3.5714       Y3.0320    
   X3.5791       Y3.0379    
   X3.5880       Y3.0416    
   X3.6016       Y3.0434    
   X3.9478    
   X3.9614       Y3.0416    
   X3.9704       Y3.0379    
   X3.9780       Y3.0320    
   X3.9839       Y3.0244    
   X3.9876       Y3.0154    
   X3.9888       Y3.0059    
   X3.9876       Y2.9963    
   X3.9839       Y2.9874    
   X3.9780       Y2.9797    
   X3.9704       Y2.9739    
   X3.9614       Y2.9702    
   X3.9478       Y2.9684    
   X3.6016    
   X3.5880       Y2.9702    
   X3.5791       Y2.9739    
   X3.5714       Y2.9797    
   X3.5655       Y2.9874    
   X3.5618       Y2.9963    
   X3.5606       Y3.0059    
   X3.5618       Y3.0154    
(Pass: 3)
   Z0.1562     F10  
   X3.5655       Y3.0244     F40  
   X3.5714       Y3.0320    
   X3.5791       Y3.0379    
   X3.5880       Y3.0416    
   X3.6016       Y3.0434    
   X3.9478    
   X3.9614       Y3.0416    
   X3.9704       Y3.0379    
   X3.9780       Y3.0320    
   X3.9839       Y3.0244    
   X3.9876       Y3.0154    
   X3.9888       Y3.0059    
   X3.9876       Y2.9963    
   X3.9839       Y2.9874    
   X3.9780       Y2.9797    
   X3.9704       Y2.9739    
   X3.9614       Y2.9702    
   X3.9478       Y2.9684    
   X3.6016    
   X3.5880       Y2.9702    
   X3.5791       Y2.9739    
   X3.5714       Y2.9797    
   X3.5655       Y2.9874    
   X3.5618       Y2.9963    
   X3.5606       Y3.0059    
   X3.5618       Y3.0154    
(Pass: 4)
   Z0.1250     F10  
   X3.5655       Y3.0244     F40  
   X3.5714       Y3.0320    
   X3.5791       Y3.0379    
   X3.5880       Y3.0416    
   X3.6016       Y3.0434    
   X3.9478    
   X3.9614       Y3.0416    
   X3.9704       Y3.0379    
   X3.9780       Y3.0320    
   X3.9839       Y3.0244    
   X3.9876       Y3.0154    
   X3.9888       Y3.0059    
   X3.9876       Y2.9963    
   X3.9839       Y2.9874    
   X3.9780       Y2.9797    
   X3.9704       Y2.9739    
   X3.9614       Y2.9702    
   X3.9478       Y2.9684    
   X3.6016    
   X3.5880       Y2.9702    
   X3.5791       Y2.9739    
   X3.5714       Y2.9797    
   X3.5655       Y2.9874    
   X3.5618       Y2.9963    
   X3.5606       Y3.0059    
   X3.5618       Y3.0154    
(Pass: 5)
   Z0.0938     F10  
   X3.5655       Y3.0244     F40  
   X3.5714       Y3.0320    
   X3.5791       Y3.0379    
   X3.5880       Y3.0416    
   X3.6016       Y3.0434    
   X3.9478    
   X3.9614       Y3.0416    
   X3.9704       Y3.0379    
   X3.9780       Y3.0320    
   X3.9839       Y3.0244    
   X3.9876       Y3.0154    
   X3.9888       Y3.0059    
   X3.9876       Y2.9963    
   X3.9839       Y2.9874    
   X3.9780       Y2.9797    
   X3.9704       Y2.9739    
   X3.9614       Y2.9702    
   X3.9478       Y2.9684    
   X3.6016    
   X3.5880       Y2.9702    
   X3.5791       Y2.9739    
   X3.5714       Y2.9797    
   X3.5655       Y2.9874    
   X3.5618       Y2.9963    
   X3.5606       Y3.0059    
   X3.5618       Y3.0154    
(Pass: 6)
   Z0.0625     F10  
   X3.5655       Y3.0244     F40  
   X3.5714       Y3.0320    
   X3.5791       Y3.0379    
   X3.5880       Y3.0416    
   X3.6016       Y3.0434    
   X3.9478    
   X3.9614       Y3.0416    
   X3.9704       Y3.0379    
   X3.9780       Y3.0320    
   X3.9839       Y3.0244    
   X3.9876       Y3.0154    
   X3.9888       Y3.0059    
   X3.9876       Y2.9963    
   X3.9839       Y2.9874    
   X3.9780       Y2.9797    
   X3.9704       Y2.9739    
   X3.9614       Y2.9702    
   X3.9478       Y2.9684    
   X3.6016    
   X3.5880       Y2.9702    
   X3.5791       Y2.9739    
   X3.5714       Y2.9797    
   X3.5655       Y2.9874    
   X3.5618       Y2.9963    
   X3.5606       Y3.0059    
   X3.5618       Y3.0154    
(Pass: 7)
   Z0.0312     F10  
   X3.5655       Y3.0244     F40  
   X3.5714       Y3.0320    
   X3.5791       Y3.0379    
   X3.5880       Y3.0416    
   X3.6016       Y3.0434    
   X3.9478    
   X3.9614       Y3.0416    
   X3.9704       Y3.0379    
   X3.9780       Y3.0320    
   X3.9839       Y3.0244    
   X3.9876       Y3.0154    
   X3.9888       Y3.0059    
   X3.9876       Y2.9963    
   X3.9839       Y2.9874    
   X3.9780       Y2.9797    
   X3.9704       Y2.9739    
   X3.9614       Y2.9702    
   X3.9478       Y2.9684    
   X3.6016    
   X3.5880       Y2.9702    
   X3.5791       Y2.9739    
   X3.5714       Y2.9797    
   X3.5655       Y2.9874    
   X3.5618       Y2.9963    
   X3.5606       Y3.0059    
   X3.5618       Y3.0154    
(Pass: 8)
   Z0.0000     F10  
   X3.5655       Y3.0244     F40  
   X3.5714       Y3.0320    
   X3.5791       Y3.0379    
   X3.5880       Y3.0416    
   X3.6016       Y3.0434    
   X3.9478    
   X3.9614       Y3.0416    
   X3.9704       Y3.0379    
   X3.9780       Y3.0320    
   X3.9839       Y3.0244    
   X3.9876       Y3.0154    
   X3.9888       Y3.0059    
   X3.9876       Y2.9963    
   X3.9839       Y2.9874    
   X3.9780       Y2.9797    
   X3.9704       Y2.9739    
   X3.9614       Y2.9702    
   X3.9478       Y2.9684    
   X3.6016    
   X3.5880       Y2.9702    
   X3.5791       Y2.9739    
   X3.5714       Y2.9797    
   X3.5655       Y2.9874    
   X3.5618       Y2.9963    
   X3.5606       Y3.0059    
   X3.5618       Y3.0154    
G0   Z0.6875    
(Pass: 1)
   X4.0716       Y2.5626    
G1   Z0.2188     F10  
   X4.0772       Y2.5699     F40  
   X4.0845       Y2.5756    
   X4.0931       Y2.5791    
   X4.1022       Y2.5803    
   X4.1114       Y2.5791    
   X4.1199       Y2.5756    
   X4.1273       Y2.5699    
   X4.1329       Y2.5626    
   X4.1364       Y2.5541    
   X4.1376       Y2.5449    
   X4.1364       Y2.5358    
   X4.1329       Y2.5272    
   X4.1273       Y2.5199    
   X4.1199       Y2.5143    
   X4.1114       Y2.5107    
   X4.1022       Y2.5095    
   X4.0931       Y2.5107    
   X4.0845       Y2.5143    
   X4.0772       Y2.5199    
   X4.0716       Y2.5272    
   X4.0681       Y2.5358    
   X4.0669       Y2.5449    
   X4.0681       Y2.5541    
   X4.0716       Y2.5626    
(Pass: 2)
   Z0.1875     F10  
   X4.0772       Y2.5699     F40  
   X4.0845       Y2.5756    
   X4.0931       Y2.5791    
   X4.1022       Y2.5803    
   X4.1114       Y2.5791    
   X4.1199       Y2.5756    
   X4.1273       Y2.5699    
   X4.1329       Y2.5626    
   X4.1364       Y2.5541    
   X4.1376       Y2.5449    
   X4.1364       Y2.5358    
   X4.1329       Y2.5272    
   X4.1273       Y2.5199    
   X4.1199       Y2.5143    
   X4.1114       Y2.5107    
   X4.1022       Y2.5095    
   X4.0931       Y2.5107    
   X4.0845       Y2.5143    
   X4.0772       Y2.5199    
   X4.0716       Y2.5272    
   X4.0681       Y2.5358    
   X4.0669       Y2.5449    
   X4.0681       Y2.5541    
   X4.0716       Y2.5626    
(Pass: 3)
   Z0.1562     F10  
   X4.0772       Y2.5699     F40  
   X4.0845       Y2.5756    
   X4.0931       Y2.5791    
   X4.1022       Y2.5803    
   X4.1114       Y2.5791    
   X4.1199       Y2.5756    
   X4.1273       Y2.5699    
   X4.1329       Y2.5626    
   X4.1364       Y2.5541    
   X4.1376       Y2.5449    
   X4.1364       Y2.5358    
   X4.1329       Y2.5272    
   X4.1273       Y2.5199    
   X4.1199       Y2.5143    
   X4.1114       Y2.5107    
   X4.1022       Y2.5095    
   X4.0931       Y2.5107    
   X4.0845       Y2.5143    
   X4.0772       Y2.5199    
   X4.0716       Y2.5272    
   X4.0681       Y2.5358    
   X4.0669       Y2.5449    
   X4.0681       Y2.5541    
   X4.0716       Y2.5626    
(Pass: 4)
   Z0.1250     F10  
   X4.0772       Y2.5699     F40  
   X4.0845       Y2.5756    
   X4.0931       Y2.5791    
   X4.1022       Y2.5803    
   X4.1114       Y2.5791    
   X4.1199       Y2.5756    
   X4.1273       Y2.5699    
   X4.1329       Y2.5626    
   X4.1364       Y2.5541    
   X4.1376       Y2.5449    
   X4.1364       Y2.5358    
   X4.1329       Y2.5272    
   X4.1273       Y2.5199    
   X4.1199       Y2.5143    
   X4.1114       Y2.5107    
   X4.1022       Y2.5095    
   X4.0931       Y2.5107    
   X4.0845       Y2.5143    
   X4.0772       Y2.5199    
   X4.0716       Y2.5272    
   X4.0681       Y2.5358    
   X4.0669       Y2.5449    
   X4.0681       Y2.5541    
   X4.0716       Y2.5626    
(Pass: 5)
   Z0.0938     F10  
   X4.0772       Y2.5699     F40  
   X4.0845       Y2.5756    
   X4.0931       Y2.5791    
   X4.1022       Y2.5803    
   X4.1114       Y2.5791    
   X4.1199       Y2.5756    
   X4.1273       Y2.5699    
   X4.1329       Y2.5626    
   X4.1364       Y2.5541    
   X4.1376       Y2.5449    
   X4.1364       Y2.5358    
   X4.1329       Y2.5272    
   X4.1273       Y2.5199    
   X4.1199       Y2.5143    
   X4.1114       Y2.5107    
   X4.1022       Y2.5095    
   X4.0931       Y2.5107    
   X4.0845       Y2.5143    
   X4.0772       Y2.5199    
   X4.0716       Y2.5272    
   X4.0681       Y2.5358    
   X4.0669       Y2.5449    
   X4.0681       Y2.5541    
   X4.0716       Y2.5626    
(Pass: 6)
   Z0.0625     F10  
   X4.0772       Y2.5699     F40  
   X4.0845       Y2.5756    
   X4.0931       Y2.5791    
   X4.1022       Y2.5803    
   X4.1114       Y2.5791    
   X4.1199       Y2.5756    
   X4.1273       Y2.5699    
   X4.1329       Y2.5626    
   X4.1364       Y2.5541    
   X4.1376       Y2.5449    
   X4.1364       Y2.5358    
   X4.1329       Y2.5272    
   X4.1273       Y2.5199    
   X4.1199       Y2.5143    
   X4.1114       Y2.5107    
   X4.1022       Y2.5095    
   X4.0931       Y2.5107    
   X4.0845       Y2.5143    
   X4.0772       Y2.5199    
   X4.0716       Y2.5272    
   X4.0681       Y2.5358    
   X4.0669       Y2.5449    
   X4.0681       Y2.5541    
   X4.0716       Y2.5626    
(Pass: 7)
   Z0.0312     F10  
   X4.0772       Y2.5699     F40  
   X4.0845       Y2.5756    
   X4.0931       Y2.5791    
   X4.1022       Y2.5803    
   X4.1114       Y2.5791    
   X4.1199       Y2.5756    
   X4.1273       Y2.5699    
   X4.1329       Y2.5626    
   X4.1364       Y2.5541    
   X4.1376       Y2.5449    
   X4.1364       Y2.5358    
   X4.1329       Y2.5272    
   X4.1273       Y2.5199    
   X4.1199       Y2.5143    
   X4.1114       Y2.5107    
   X4.1022       Y2.5095    
   X4.0931       Y2.5107    
   X4.0845       Y2.5143    
   X4.0772       Y2.5199    
   X4.0716       Y2.5272    
   X4.0681       Y2.5358    
   X4.0669       Y2.5449    
   X4.0681       Y2.5541    
   X4.0716       Y2.5626    
(Pass: 8)
   Z0.0000     F10  
   X4.0772       Y2.5699     F40  
   X4.0845       Y2.5756    
   X4.0931       Y2.5791    
   X4.1022       Y2.5803    
   X4.1114       Y2.5791    
   X4.1199       Y2.5756    
   X4.1273       Y2.5699    
   X4.1329       Y2.5626    
   X4.1364       Y2.5541    
   X4.1376       Y2.5449    
   X4.1364       Y2.5358    
   X4.1329       Y2.5272    
   X4.1273       Y2.5199    
   X4.1199       Y2.5143    
   X4.1114       Y2.5107    
   X4.1022       Y2.5095    
   X4.0931       Y2.5107    
   X4.0845       Y2.5143    
   X4.0772       Y2.5199    
   X4.0716       Y2.5272    
   X4.0681       Y2.5358    
   X4.0669       Y2.5449    
   X4.0681       Y2.5541    
   X4.0716       Y2.5626    
G0   Z0.6875    
(Pass: 1)
   X4.7074       Y1.7432    
G1   Z0.2188     F10  
   X4.7147       Y1.7488     F40  
   X4.7233       Y1.7523    
   X4.7324       Y1.7535    
   X4.7416       Y1.7523    
   X4.7501       Y1.7488    
   X4.7575       Y1.7432    
   X4.7631       Y1.7358    
   X4.7666       Y1.7273    
   X4.7678       Y1.7182    
   X4.7666       Y1.7090    
   X4.7631       Y1.7005    
   X4.7575       Y1.6931    
   X4.7501       Y1.6875    
   X4.7416       Y1.6840    
   X4.7324       Y1.6828    
   X4.7233       Y1.6840    
   X4.7147       Y1.6875    
   X4.7074       Y1.6931    
   X4.7018       Y1.7005    
   X4.6983       Y1.7090    
   X4.6971       Y1.7182    
   X4.6983       Y1.7273    
   X4.7018       Y1.7358    
   X4.7074       Y1.7432    
(Pass: 2)
   Z0.1875     F10  
   X4.7147       Y1.7488     F40  
   X4.7233       Y1.7523    
   X4.7324       Y1.7535    
   X4.7416       Y1.7523    
   X4.7501       Y1.7488    
   X4.7575       Y1.7432    
   X4.7631       Y1.7358    
   X4.7666       Y1.7273    
   X4.7678       Y1.7182    
   X4.7666       Y1.7090    
   X4.7631       Y1.7005    
   X4.7575       Y1.6931    
   X4.7501       Y1.6875    
   X4.7416       Y1.6840    
   X4.7324       Y1.6828    
   X4.7233       Y1.6840    
   X4.7147       Y1.6875    
   X4.7074       Y1.6931    
   X4.7018       Y1.7005    
   X4.6983       Y1.7090    
   X4.6971       Y1.7182    
   X4.6983       Y1.7273    
   X4.7018       Y1.7358    
   X4.7074       Y1.7432    
(Pass: 3)
   Z0.1562     F10  
   X4.7147       Y1.7488     F40  
   X4.7233       Y1.7523    
   X4.7324       Y1.7535    
   X4.7416       Y1.7523    
   X4.7501       Y1.7488    
   X4.7575       Y1.7432    
   X4.7631       Y1.7358    
   X4.7666       Y1.7273    
   X4.7678       Y1.7182    
   X4.7666       Y1.7090    
   X4.7631       Y1.7005    
   X4.7575       Y1.6931    
   X4.7501       Y1.6875    
   X4.7416       Y1.6840    
   X4.7324       Y1.6828    
   X4.7233       Y1.6840    
   X4.7147       Y1.6875    
   X4.7074       Y1.6931    
   X4.7018       Y1.7005    
   X4.6983       Y1.7090    
   X4.6971       Y1.7182    
   X4.6983       Y1.7273    
   X4.7018       Y1.7358    
   X4.7074       Y1.7432    
(Pass: 4)
   Z0.1250     F10  
   X4.7147       Y1.7488     F40  
   X4.7233       Y1.7523    
   X4.7324       Y1.7535    
   X4.7416       Y1.7523    
   X4.7501       Y1.7488    
   X4.7575       Y1.7432    
   X4.7631       Y1.7358    
   X4.7666       Y1.7273    
   X4.7678       Y1.7182    
   X4.7666       Y1.7090    
   X4.7631       Y1.7005    
   X4.7575       Y1.6931    
   X4.7501       Y1.6875    
   X4.7416       Y1.6840    
   X4.7324       Y1.6828    
   X4.7233       Y1.6840    
   X4.7147       Y1.6875    
   X4.7074       Y1.6931    
   X4.7018       Y1.7005    
   X4.6983       Y1.7090    
   X4.6971       Y1.7182    
   X4.6983       Y1.7273    
   X4.7018       Y1.7358    
   X4.7074       Y1.7432    
(Pass: 5)
   Z0.0938     F10  
   X4.7147       Y1.7488     F40  
   X4.7233       Y1.7523    
   X4.7324       Y1.7535    
   X4.7416       Y1.7523    
   X4.7501       Y1.7488    
   X4.7575       Y1.7432    
   X4.7631       Y1.7358    
   X4.7666       Y1.7273    
   X4.7678       Y1.7182    
   X4.7666       Y1.7090    
   X4.7631       Y1.7005    
   X4.7575       Y1.6931    
   X4.7501       Y1.6875    
   X4.7416       Y1.6840    
   X4.7324       Y1.6828    
   X4.7233       Y1.6840    
   X4.7147       Y1.6875    
   X4.7074       Y1.6931    
   X4.7018       Y1.7005    
   X4.6983       Y1.7090    
   X4.6971       Y1.7182    
   X4.6983       Y1.7273    
   X4.7018       Y1.7358    
   X4.7074       Y1.7432    
(Pass: 6)
   Z0.0625     F10  
   X4.7147       Y1.7488     F40  
   X4.7233       Y1.7523    
   X4.7324       Y1.7535    
   X4.7416       Y1.7523    
   X4.7501       Y1.7488    
   X4.7575       Y1.7432    
   X4.7631       Y1.7358    
   X4.7666       Y1.7273    
   X4.7678       Y1.7182    
   X4.7666       Y1.7090    
   X4.7631       Y1.7005    
   X4.7575       Y1.6931    
   X4.7501       Y1.6875    
   X4.7416       Y1.6840    
   X4.7324       Y1.6828    
   X4.7233       Y1.6840    
   X4.7147       Y1.6875    
   X4.7074       Y1.6931    
   X4.7018       Y1.7005    
   X4.6983       Y1.7090    
   X4.6971       Y1.7182    
   X4.6983       Y1.7273    
   X4.7018       Y1.7358    
   X4.7074       Y1.7432    
(Pass: 7)
   Z0.0312     F10  
   X4.7147       Y1.7488     F40  
   X4.7233       Y1.7523    
   X4.7324       Y1.7535    
   X4.7416       Y1.7523    
   X4.7501       Y1.7488    
   X4.7575       Y1.7432    
   X4.7631       Y1.7358    
   X4.7666       Y1.7273    
   X4.7678       Y1.7182    
   X4.7666       Y1.7090    
   X4.7631       Y1.7005    
   X4.7575       Y1.6931    
   X4.7501       Y1.6875    
   X4.7416       Y1.6840    
   X4.7324       Y1.6828    
   X4.7233       Y1.6840    
   X4.7147       Y1.6875    
   X4.7074       Y1.6931    
   X4.7018       Y1.7005    
   X4.6983       Y1.7090    
   X4.6971       Y1.7182    
   X4.6983       Y1.7273    
   X4.7018       Y1.7358    
   X4.7074       Y1.7432    
(Pass: 8)
   Z0.0000     F10  
   X4.7147       Y1.7488     F40  
   X4.7233       Y1.7523    
   X4.7324       Y1.7535    
   X4.7416       Y1.7523    
   X4.7501       Y1.7488    
   X4.7575       Y1.7432    
   X4.7631       Y1.7358    
   X4.7666       Y1.7273    
   X4.7678       Y1.7182    
   X4.7666       Y1.7090    
   X4.7631       Y1.7005    
   X4.7575       Y1.6931    
   X4.7501       Y1.6875    
   X4.7416       Y1.6840    
   X4.7324       Y1.6828    
   X4.7233       Y1.6840    
   X4.7147       Y1.6875    
   X4.7074       Y1.6931    
   X4.7018       Y1.7005    
   X4.6983       Y1.7090    
   X4.6971       Y1.7182    
   X4.6983       Y1.7273    
   X4.7018       Y1.7358    
   X4.7074       Y1.7432    
G0   Z0.6875    
(Pass: 1)
   X5.3655       Y1.8818    
G1   Z0.2188     F10  
   X5.3643       Y1.8910     F40  
   X5.3655       Y1.9002    
   X5.3690       Y1.9087    
   X5.3746       Y1.9160    
   X5.3820       Y1.9217    
   X5.3905       Y1.9252    
   X5.3997       Y1.9264    
   X5.4088       Y1.9252    
   X5.4174       Y1.9217    
   X5.4247       Y1.9160    
   X5.4303       Y1.9087    
   X5.4338       Y1.9002    
   X5.4350       Y1.8910    
   X5.4338       Y1.8818    
   X5.4303       Y1.8733    
   X5.4247       Y1.8660    
   X5.4174       Y1.8604    
   X5.4088       Y1.8568    
   X5.3997       Y1.8556    
   X5.3905       Y1.8568    
   X5.3820       Y1.8604    
   X5.3746       Y1.8660    
   X5.3690       Y1.8733    
   X5.3655       Y1.8818    
(Pass: 2)
   Z0.1875     F10  
   X5.3643       Y1.8910     F40  
   X5.3655       Y1.9002    
   X5.3690       Y1.9087    
   X5.3746       Y1.9160    
   X5.3820       Y1.9217    
   X5.3905       Y1.9252    
   X5.3997       Y1.9264    
   X5.4088       Y1.9252    
   X5.4174       Y1.9217    
   X5.4247       Y1.9160    
   X5.4303       Y1.9087    
   X5.4338       Y1.9002    
   X5.4350       Y1.8910    
   X5.4338       Y1.8818    
   X5.4303       Y1.8733    
   X5.4247       Y1.8660    
   X5.4174       Y1.8604    
   X5.4088       Y1.8568    
   X5.3997       Y1.8556    
   X5.3905       Y1.8568    
   X5.3820       Y1.8604    
   X5.3746       Y1.8660    
   X5.3690       Y1.8733    
   X5.3655       Y1.8818    
(Pass: 3)
   Z0.1562     F10  
   X5.3643       Y1.8910     F40  
   X5.3655       Y1.9002    
   X5.3690       Y1.9087    
   X5.3746       Y1.9160    
   X5.3820       Y1.9217    
   X5.3905       Y1.9252    
   X5.3997       Y1.9264    
   X5.4088       Y1.9252    
   X5.4174       Y1.9217    
   X5.4247       Y1.9160    
   X5.4303       Y1.9087    
   X5.4338       Y1.9002    
   X5.4350       Y1.8910    
   X5.4338       Y1.8818    
   X5.4303       Y1.8733    
   X5.4247       Y1.8660    
   X5.4174       Y1.8604    
   X5.4088       Y1.8568    
   X5.3997       Y1.8556    
   X5.3905       Y1.8568    
   X5.3820       Y1.8604    
   X5.3746       Y1.8660    
   X5.3690       Y1.8733    
   X5.3655       Y1.8818    
(Pass: 4)
   Z0.1250     F10  
   X5.3643       Y1.8910     F40  
   X5.3655       Y1.9002    
   X5.3690       Y1.9087    
   X5.3746       Y1.9160    
   X5.3820       Y1.9217    
   X5.3905       Y1.9252    
   X5.3997       Y1.9264    
   X5.4088       Y1.9252    
   X5.4174       Y1.9217    
   X5.4247       Y1.9160    
   X5.4303       Y1.9087    
   X5.4338       Y1.9002    
   X5.4350       Y1.8910    
   X5.4338       Y1.8818    
   X5.4303       Y1.8733    
   X5.4247       Y1.8660    
   X5.4174       Y1.8604    
   X5.4088       Y1.8568    
   X5.3997       Y1.8556    
   X5.3905       Y1.8568    
   X5.3820       Y1.8604    
   X5.3746       Y1.8660    
   X5.3690       Y1.8733    
   X5.3655       Y1.8818    
(Pass: 5)
   Z0.0938     F10  
   X5.3643       Y1.8910     F40  
   X5.3655       Y1.9002    
   X5.3690       Y1.9087    
   X5.3746       Y1.9160    
   X5.3820       Y1.9217    
   X5.3905       Y1.9252    
   X5.3997       Y1.9264    
   X5.4088       Y1.9252    
   X5.4174       Y1.9217    
   X5.4247       Y1.9160    
   X5.4303       Y1.9087    
   X5.4338       Y1.9002    
   X5.4350       Y1.8910    
   X5.4338       Y1.8818    
   X5.4303       Y1.8733    
   X5.4247       Y1.8660    
   X5.4174       Y1.8604    
   X5.4088       Y1.8568    
   X5.3997       Y1.8556    
   X5.3905       Y1.8568    
   X5.3820       Y1.8604    
   X5.3746       Y1.8660    
   X5.3690       Y1.8733    
   X5.3655       Y1.8818    
(Pass: 6)
   Z0.0625     F10  
   X5.3643       Y1.8910     F40  
   X5.3655       Y1.9002    
   X5.3690       Y1.9087    
   X5.3746       Y1.9160    
   X5.3820       Y1.9217    
   X5.3905       Y1.9252    
   X5.3997       Y1.9264    
   X5.4088       Y1.9252    
   X5.4174       Y1.9217    
   X5.4247       Y1.9160    
   X5.4303       Y1.9087    
   X5.4338       Y1.9002    
   X5.4350       Y1.8910    
   X5.4338       Y1.8818    
   X5.4303       Y1.8733    
   X5.4247       Y1.8660    
   X5.4174       Y1.8604    
   X5.4088       Y1.8568    
   X5.3997       Y1.8556    
   X5.3905       Y1.8568    
   X5.3820       Y1.8604    
   X5.3746       Y1.8660    
   X5.3690       Y1.8733    
   X5.3655       Y1.8818    
(Pass: 7)
   Z0.0312     F10  
   X5.3643       Y1.8910     F40  
   X5.3655       Y1.9002    
   X5.3690       Y1.9087    
   X5.3746       Y1.9160    
   X5.3820       Y1.9217    
   X5.3905       Y1.9252    
   X5.3997       Y1.9264    
   X5.4088       Y1.9252    
   X5.4174       Y1.9217    
   X5.4247       Y1.9160    
   X5.4303       Y1.9087    
   X5.4338       Y1.9002    
   X5.4350       Y1.8910    
   X5.4338       Y1.8818    
   X5.4303       Y1.8733    
   X5.4247       Y1.8660    
   X5.4174       Y1.8604    
   X5.4088       Y1.8568    
   X5.3997       Y1.8556    
   X5.3905       Y1.8568    
   X5.3820       Y1.8604    
   X5.3746       Y1.8660    
   X5.3690       Y1.8733    
   X5.3655       Y1.8818    
(Pass: 8)
   Z0.0000     F10  
   X5.3643       Y1.8910     F40  
   X5.3655       Y1.9002    
   X5.3690       Y1.9087    
   X5.3746       Y1.9160    
   X5.3820       Y1.9217    
   X5.3905       Y1.9252    
   X5.3997       Y1.9264    
   X5.4088       Y1.9252    
   X5.4174       Y1.9217    
   X5.4247       Y1.9160    
   X5.4303       Y1.9087    
   X5.4338       Y1.9002    
   X5.4350       Y1.8910    
   X5.4338       Y1.8818    
   X5.4303       Y1.8733    
   X5.4247       Y1.8660    
   X5.4174       Y1.8604    
   X5.4088       Y1.8568    
   X5.3997       Y1.8556    
   X5.3905       Y1.8568    
   X5.3820       Y1.8604    
   X5.3746       Y1.8660    
   X5.3690       Y1.8733    
   X5.3655       Y1.8818    
G0   Z0.6875    
(Pass: 1)
   X5.3905       Y1.0830    
G1   Z0.2188     F10  
   X5.3997       Y1.0843     F40  
   X5.4088       Y1.0830    
   X5.4174       Y1.0795    
   X5.4247       Y1.0739    
   X5.4303       Y1.0666    
   X5.4338       Y1.0580    
   X5.4350       Y1.0489    
   X5.4338       Y1.0397    
   X5.4303       Y1.0312    
   X5.4247       Y1.0238    
   X5.4174       Y1.0182    
   X5.4088       Y1.0147    
   X5.3997       Y1.0135    
   X5.3905       Y1.0147    
   X5.3820       Y1.0182    
   X5.3746       Y1.0238    
   X5.3690       Y1.0312    
   X5.3655       Y1.0397    
   X5.3643       Y1.0489    
   X5.3655       Y1.0580    
   X5.3690       Y1.0666    
   X5.3746       Y1.0739    
   X5.3820       Y1.0795    
   X5.3905       Y1.0830    
(Pass: 2)
   Z0.1875     F10  
   X5.3997       Y1.0843     F40  
   X5.4088       Y1.0830    
   X5.4174       Y1.0795    
   X5.4247       Y1.0739    
   X5.4303       Y1.0666    
   X5.4338       Y1.0580    
   X5.4350       Y1.0489    
   X5.4338       Y1.0397    
   X5.4303       Y1.0312    
   X5.4247       Y1.0238    
   X5.4174       Y1.0182    
   X5.4088       Y1.0147    
   X5.3997       Y1.0135    
   X5.3905       Y1.0147    
   X5.3820       Y1.0182    
   X5.3746       Y1.0238    
   X5.3690       Y1.0312    
   X5.3655       Y1.0397    
   X5.3643       Y1.0489    
   X5.3655       Y1.0580    
   X5.3690       Y1.0666    
   X5.3746       Y1.0739    
   X5.3820       Y1.0795    
   X5.3905       Y1.0830    
(Pass: 3)
   Z0.1562     F10  
   X5.3997       Y1.0843     F40  
   X5.4088       Y1.0830    
   X5.4174       Y1.0795    
   X5.4247       Y1.0739    
   X5.4303       Y1.0666    
   X5.4338       Y1.0580    
   X5.4350       Y1.0489    
   X5.4338       Y1.0397    
   X5.4303       Y1.0312    
   X5.4247       Y1.0238    
   X5.4174       Y1.0182    
   X5.4088       Y1.0147    
   X5.3997       Y1.0135    
   X5.3905       Y1.0147    
   X5.3820       Y1.0182    
   X5.3746       Y1.0238    
   X5.3690       Y1.0312    
   X5.3655       Y1.0397    
   X5.3643       Y1.0489    
   X5.3655       Y1.0580    
   X5.3690       Y1.0666    
   X5.3746       Y1.0739    
   X5.3820       Y1.0795    
   X5.3905       Y1.0830    
(Pass: 4)
   Z0.1250     F10  
   X5.3997       Y1.0843     F40  
   X5.4088       Y1.0830    
   X5.4174       Y1.0795    
   X5.4247       Y1.0739    
   X5.4303       Y1.0666    
   X5.4338       Y1.0580    
   X5.4350       Y1.0489    
   X5.4338       Y1.0397    
   X5.4303       Y1.0312    
   X5.4247       Y1.0238    
   X5.4174       Y1.0182    
   X5.4088       Y1.0147    
   X5.3997       Y1.0135    
   X5.3905       Y1.0147    
   X5.3820       Y1.0182    
   X5.3746       Y1.0238    
   X5.3690       Y1.0312    
   X5.3655       Y1.0397    
   X5.3643       Y1.0489    
   X5.3655       Y1.0580    
   X5.3690       Y1.0666    
   X5.3746       Y1.0739    
   X5.3820       Y1.0795    
   X5.3905       Y1.0830    
(Pass: 5)
   Z0.0938     F10  
   X5.3997       Y1.0843     F40  
   X5.4088       Y1.0830    
   X5.4174       Y1.0795    
   X5.4247       Y1.0739    
   X5.4303       Y1.0666    
   X5.4338       Y1.0580    
   X5.4350       Y1.0489    
   X5.4338       Y1.0397    
   X5.4303       Y1.0312    
   X5.4247       Y1.0238    
   X5.4174       Y1.0182    
   X5.4088       Y1.0147    
   X5.3997       Y1.0135    
   X5.3905       Y1.0147    
   X5.3820       Y1.0182    
   X5.3746       Y1.0238    
   X5.3690       Y1.0312    
   X5.3655       Y1.0397    
   X5.3643       Y1.0489    
   X5.3655       Y1.0580    
   X5.3690       Y1.0666    
   X5.3746       Y1.0739    
   X5.3820       Y1.0795    
   X5.3905       Y1.0830    
(Pass: 6)
   Z0.0625     F10  
   X5.3997       Y1.0843     F40  
   X5.4088       Y1.0830    
   X5.4174       Y1.0795    
   X5.4247       Y1.0739    
   X5.4303       Y1.0666    
   X5.4338       Y1.0580    
   X5.4350       Y1.0489    
   X5.4338       Y1.0397    
   X5.4303       Y1.0312    
   X5.4247       Y1.0238    
   X5.4174       Y1.0182    
   X5.4088       Y1.0147    
   X5.3997       Y1.0135    
   X5.3905       Y1.0147    
   X5.3820       Y1.0182    
   X5.3746       Y1.0238    
   X5.3690       Y1.0312    
   X5.3655       Y1.0397    
   X5.3643       Y1.0489    
   X5.3655       Y1.0580    
   X5.3690       Y1.0666    
   X5.3746       Y1.0739    
   X5.3820       Y1.0795    
   X5.3905       Y1.0830    
(Pass: 7)
   Z0.0312     F10  
   X5.3997       Y1.0843     F40  
   X5.4088       Y1.0830    
   X5.4174       Y1.0795    
   X5.4247       Y1.0739    
   X5.4303       Y1.0666    
   X5.4338       Y1.0580    
   X5.4350       Y1.0489    
   X5.4338       Y1.0397    
   X5.4303       Y1.0312    
   X5.4247       Y1.0238    
   X5.4174       Y1.0182    
   X5.4088       Y1.0147    
   X5.3997       Y1.0135    
   X5.3905       Y1.0147    
   X5.3820       Y1.0182    
   X5.3746       Y1.0238    
   X5.3690       Y1.0312    
   X5.3655       Y1.0397    
   X5.3643       Y1.0489    
   X5.3655       Y1.0580    
   X5.3690       Y1.0666    
   X5.3746       Y1.0739    
   X5.3820       Y1.0795    
   X5.3905       Y1.0830    
(Pass: 8)
   Z0.0000     F10  
   X5.3997       Y1.0843     F40  
   X5.4088       Y1.0830    
   X5.4174       Y1.0795    
   X5.4247       Y1.0739    
   X5.4303       Y1.0666    
   X5.4338       Y1.0580    
   X5.4350       Y1.0489    
   X5.4338       Y1.0397    
   X5.4303       Y1.0312    
   X5.4247       Y1.0238    
   X5.4174       Y1.0182    
   X5.4088       Y1.0147    
   X5.3997       Y1.0135    
   X5.3905       Y1.0147    
   X5.3820       Y1.0182    
   X5.3746       Y1.0238    
   X5.3690       Y1.0312    
   X5.3655       Y1.0397    
   X5.3643       Y1.0489    
   X5.3655       Y1.0580    
   X5.3690       Y1.0666    
   X5.3746       Y1.0739    
   X5.3820       Y1.0795    
   X5.3905       Y1.0830    
G0   Z0.6875    
(Pass: 1)
   X6.1517       Y1.0489    
G1   Z0.2188     F10  
   X6.1529       Y1.0580     F40  
   X6.1564       Y1.0666    
   X6.1620       Y1.0739    
   X6.1694       Y1.0795    
   X6.1779       Y1.0830    
   X6.1871       Y1.0843    
   X6.1962       Y1.0830    
   X6.2048       Y1.0795    
   X6.2121       Y1.0739    
   X6.2177       Y1.0666    
   X6.2212       Y1.0580    
   X6.2224       Y1.0489    
   X6.2212       Y1.0397    
   X6.2177       Y1.0312    
   X6.2121       Y1.0238    
   X6.2048       Y1.0182    
   X6.1962       Y1.0147    
   X6.1871       Y1.0135    
   X6.1779       Y1.0147    
   X6.1694       Y1.0182    
   X6.1620       Y1.0238    
   X6.1564       Y1.0312    
   X6.1529       Y1.0397    
   X6.1517       Y1.0489    
(Pass: 2)
   Z0.1875     F10  
   X6.1529       Y1.0580     F40  
   X6.1564       Y1.0666    
   X6.1620       Y1.0739    
   X6.1694       Y1.0795    
   X6.1779       Y1.0830    
   X6.1871       Y1.0843    
   X6.1962       Y1.0830    
   X6.2048       Y1.0795    
   X6.2121       Y1.0739    
   X6.2177       Y1.0666    
   X6.2212       Y1.0580    
   X6.2224       Y1.0489    
   X6.2212       Y1.0397    
   X6.2177       Y1.0312    
   X6.2121       Y1.0238    
   X6.2048       Y1.0182    
   X6.1962       Y1.0147    
   X6.1871       Y1.0135    
   X6.1779       Y1.0147    
   X6.1694       Y1.0182    
   X6.1620       Y1.0238    
   X6.1564       Y1.0312    
   X6.1529       Y1.0397    
   X6.1517       Y1.0489    
(Pass: 3)
   Z0.1562     F10  
   X6.1529       Y1.0580     F40  
   X6.1564       Y1.0666    
   X6.1620       Y1.0739    
   X6.1694       Y1.0795    
   X6.1779       Y1.0830    
   X6.1871       Y1.0843    
   X6.1962       Y1.0830    
   X6.2048       Y1.0795    
   X6.2121       Y1.0739    
   X6.2177       Y1.0666    
   X6.2212       Y1.0580    
   X6.2224       Y1.0489    
   X6.2212       Y1.0397    
   X6.2177       Y1.0312    
   X6.2121       Y1.0238    
   X6.2048       Y1.0182    
   X6.1962       Y1.0147    
   X6.1871       Y1.0135    
   X6.1779       Y1.0147    
   X6.1694       Y1.0182    
   X6.1620       Y1.0238    
   X6.1564       Y1.0312    
   X6.1529       Y1.0397    
   X6.1517       Y1.0489    
(Pass: 4)
   Z0.1250     F10  
   X6.1529       Y1.0580     F40  
   X6.1564       Y1.0666    
   X6.1620       Y1.0739    
   X6.1694       Y1.0795    
   X6.1779       Y1.0830    
   X6.1871       Y1.0843    
   X6.1962       Y1.0830    
   X6.2048       Y1.0795    
   X6.2121       Y1.0739    
   X6.2177       Y1.0666    
   X6.2212       Y1.0580    
   X6.2224       Y1.0489    
   X6.2212       Y1.0397    
   X6.2177       Y1.0312    
   X6.2121       Y1.0238    
   X6.2048       Y1.0182    
   X6.1962       Y1.0147    
   X6.1871       Y1.0135    
   X6.1779       Y1.0147    
   X6.1694       Y1.0182    
   X6.1620       Y1.0238    
   X6.1564       Y1.0312    
   X6.1529       Y1.0397    
   X6.1517       Y1.0489    
(Pass: 5)
   Z0.0938     F10  
   X6.1529       Y1.0580     F40  
   X6.1564       Y1.0666    
   X6.1620       Y1.0739    
   X6.1694       Y1.0795    
   X6.1779       Y1.0830    
   X6.1871       Y1.0843    
   X6.1962       Y1.0830    
   X6.2048       Y1.0795    
   X6.2121       Y1.0739    
   X6.2177       Y1.0666    
   X6.2212       Y1.0580    
   X6.2224       Y1.0489    
   X6.2212       Y1.0397    
   X6.2177       Y1.0312    
   X6.2121       Y1.0238    
   X6.2048       Y1.0182    
   X6.1962       Y1.0147    
   X6.1871       Y1.0135    
   X6.1779       Y1.0147    
   X6.1694       Y1.0182    
   X6.1620       Y1.0238    
   X6.1564       Y1.0312    
   X6.1529       Y1.0397    
   X6.1517       Y1.0489    
(Pass: 6)
   Z0.0625     F10  
   X6.1529       Y1.0580     F40  
   X6.1564       Y1.0666    
   X6.1620       Y1.0739    
   X6.1694       Y1.0795    
   X6.1779       Y1.0830    
   X6.1871       Y1.0843    
   X6.1962       Y1.0830    
   X6.2048       Y1.0795    
   X6.2121       Y1.0739    
   X6.2177       Y1.0666    
   X6.2212       Y1.0580    
   X6.2224       Y1.0489    
   X6.2212       Y1.0397    
   X6.2177       Y1.0312    
   X6.2121       Y1.0238    
   X6.2048       Y1.0182    
   X6.1962       Y1.0147    
   X6.1871       Y1.0135    
   X6.1779       Y1.0147    
   X6.1694       Y1.0182    
   X6.1620       Y1.0238    
   X6.1564       Y1.0312    
   X6.1529       Y1.0397    
   X6.1517       Y1.0489    
(Pass: 7)
   Z0.0312     F10  
   X6.1529       Y1.0580     F40  
   X6.1564       Y1.0666    
   X6.1620       Y1.0739    
   X6.1694       Y1.0795    
   X6.1779       Y1.0830    
   X6.1871       Y1.0843    
   X6.1962       Y1.0830    
   X6.2048       Y1.0795    
   X6.2121       Y1.0739    
   X6.2177       Y1.0666    
   X6.2212       Y1.0580    
   X6.2224       Y1.0489    
   X6.2212       Y1.0397    
   X6.2177       Y1.0312    
   X6.2121       Y1.0238    
   X6.2048       Y1.0182    
   X6.1962       Y1.0147    
   X6.1871       Y1.0135    
   X6.1779       Y1.0147    
   X6.1694       Y1.0182    
   X6.1620       Y1.0238    
   X6.1564       Y1.0312    
   X6.1529       Y1.0397    
   X6.1517       Y1.0489    
(Pass: 8)
   Z0.0000     F10  
   X6.1529       Y1.0580     F40  
   X6.1564       Y1.0666    
   X6.1620       Y1.0739    
   X6.1694       Y1.0795    
   X6.1779       Y1.0830    
   X6.1871       Y1.0843    
   X6.1962       Y1.0830    
   X6.2048       Y1.0795    
   X6.2121       Y1.0739    
   X6.2177       Y1.0666    
   X6.2212       Y1.0580    
   X6.2224       Y1.0489    
   X6.2212       Y1.0397    
   X6.2177       Y1.0312    
   X6.2121       Y1.0238    
   X6.2048       Y1.0182    
   X6.1962       Y1.0147    
   X6.1871       Y1.0135    
   X6.1779       Y1.0147    
   X6.1694       Y1.0182    
   X6.1620       Y1.0238    
   X6.1564       Y1.0312    
   X6.1529       Y1.0397    
   X6.1517       Y1.0489    
G0   Z0.6875    
(Pass: 1)
   X6.4972       Y1.0446    
G1   Z0.2188     F10  
   X6.4984       Y1.0537     F40  
   X6.5019       Y1.0623    
   X6.5076       Y1.0696    
   X6.5149       Y1.0752    
   X6.5234       Y1.0788    
   X6.5580       Y1.0833    
   X6.6428       Y1.1512    
   Y1.2744    
   Y1.2803    
   X6.6500       Y1.2816    
   X7.1481    
   X7.1529       Y1.2803    
   Y1.2744    
   Y0.8289    
   X6.7397       Y0.8278    
   X6.6444    
   X6.6431       Y0.9382    
   X6.5579       Y1.0059    
   X6.5234       Y1.0104    
   X6.5149       Y1.0139    
   X6.5076       Y1.0195    
   X6.5020       Y1.0269    
   X6.4984       Y1.0354    
   X6.4972       Y1.0446    
(Pass: 2)
   Z0.1875     F10  
   X6.4984       Y1.0537     F40  
   X6.5019       Y1.0623    
   X6.5076       Y1.0696    
   X6.5149       Y1.0752    
   X6.5234       Y1.0788    
   X6.5580       Y1.0833    
   X6.6428       Y1.1512    
   Y1.2744    
   Y1.2803    
   X6.6500       Y1.2816    
   X7.1481    
   X7.1529       Y1.2803    
   Y1.2744    
   Y0.8289    
   X6.7397       Y0.8278    
   X6.6444    
   X6.6431       Y0.9382    
   X6.5579       Y1.0059    
   X6.5234       Y1.0104    
   X6.5149       Y1.0139    
   X6.5076       Y1.0195    
   X6.5020       Y1.0269    
   X6.4984       Y1.0354    
   X6.4972       Y1.0446    
(Pass: 3)
   Z0.1562     F10  
   X6.4984       Y1.0537     F40  
   X6.5019       Y1.0623    
   X6.5076       Y1.0696    
   X6.5149       Y1.0752    
   X6.5234       Y1.0788    
   X6.5580       Y1.0833    
   X6.6428       Y1.1512    
   Y1.2744    
   Y1.2803    
   X6.6500       Y1.2816    
   X7.1481    
   X7.1529       Y1.2803    
   Y1.2744    
   Y0.8289    
   X6.7397       Y0.8278    
   X6.6444    
   X6.6431       Y0.9382    
   X6.5579       Y1.0059    
   X6.5234       Y1.0104    
   X6.5149       Y1.0139    
   X6.5076       Y1.0195    
   X6.5020       Y1.0269    
   X6.4984       Y1.0354    
   X6.4972       Y1.0446    
(Pass: 4)
   Z0.1250     F10  
   X6.4984       Y1.0537     F40  
   X6.5019       Y1.0623    
   X6.5076       Y1.0696    
   X6.5149       Y1.0752    
   X6.5234       Y1.0788    
   X6.5580       Y1.0833    
   X6.6428       Y1.1512    
   Y1.2744    
   Y1.2803    
   X6.6500       Y1.2816    
   X7.1481    
   X7.1529       Y1.2803    
   Y1.2744    
   Y0.8289    
   X6.7397       Y0.8278    
   X6.6444    
   X6.6431       Y0.9382    
   X6.5579       Y1.0059    
   X6.5234       Y1.0104    
   X6.5149       Y1.0139    
   X6.5076       Y1.0195    
   X6.5020       Y1.0269    
   X6.4984       Y1.0354    
   X6.4972       Y1.0446    
(Pass: 5)
   Z0.0938     F10  
   X6.4984       Y1.0537     F40  
   X6.5019       Y1.0623    
   X6.5076       Y1.0696    
   X6.5149       Y1.0752    
   X6.5234       Y1.0788    
   X6.5580       Y1.0833    
   X6.6428       Y1.1512    
   Y1.2744    
   Y1.2803    
   X6.6500       Y1.2816    
   X7.1481    
   X7.1529       Y1.2803    
   Y1.2744    
   Y0.8289    
   X6.7397       Y0.8278    
   X6.6444    
   X6.6431       Y0.9382    
   X6.5579       Y1.0059    
   X6.5234       Y1.0104    
   X6.5149       Y1.0139    
   X6.5076       Y1.0195    
   X6.5020       Y1.0269    
   X6.4984       Y1.0354    
   X6.4972       Y1.0446    
(Pass: 6)
   Z0.0625     F10  
   X6.4984       Y1.0537     F40  
   X6.5019       Y1.0623    
   X6.5076       Y1.0696    
   X6.5149       Y1.0752    
   X6.5234       Y1.0788    
   X6.5580       Y1.0833    
   X6.6428       Y1.1512    
   Y1.2744    
   Y1.2803    
   X6.6500       Y1.2816    
   X7.1481    
   X7.1529       Y1.2803    
   Y1.2744    
   Y0.8289    
   X6.7397       Y0.8278    
   X6.6444    
   X6.6431       Y0.9382    
   X6.5579       Y1.0059    
   X6.5234       Y1.0104    
   X6.5149       Y1.0139    
   X6.5076       Y1.0195    
   X6.5020       Y1.0269    
   X6.4984       Y1.0354    
   X6.4972       Y1.0446    
(Pass: 7)
   Z0.0312     F10  
   X6.4984       Y1.0537     F40  
   X6.5019       Y1.0623    
   X6.5076       Y1.0696    
   X6.5149       Y1.0752    
   X6.5234       Y1.0788    
   X6.5580       Y1.0833    
   X6.6428       Y1.1512    
   Y1.2744    
   Y1.2803    
   X6.6500       Y1.2816    
   X7.1481    
   X7.1529       Y1.2803    
   Y1.2744    
   Y0.8289    
   X6.7397       Y0.8278    
   X6.6444    
   X6.6431       Y0.9382    
   X6.5579       Y1.0059    
   X6.5234       Y1.0104    
   X6.5149       Y1.0139    
   X6.5076       Y1.0195    
   X6.5020       Y1.0269    
   X6.4984       Y1.0354    
   X6.4972       Y1.0446    
(Pass: 8)
   Z0.0000     F10  
   X6.4984       Y1.0537     F40  
   X6.5019       Y1.0623    
   X6.5076       Y1.0696    
   X6.5149       Y1.0752    
   X6.5234       Y1.0788    
   X6.5580       Y1.0833    
   X6.6428       Y1.1512    
   Y1.2744    
   Y1.2803    
   X6.6500       Y1.2816    
   X7.1481    
   X7.1529       Y1.2803    
   Y1.2744    
   Y0.8289    
   X6.7397       Y0.8278    
   X6.6444    
   X6.6431       Y0.9382    
   X6.5579       Y1.0059    
   X6.5234       Y1.0104    
   X6.5149       Y1.0139    
   X6.5076       Y1.0195    
   X6.5020       Y1.0269    
   X6.4984       Y1.0354    
   X6.4972       Y1.0446    
G0   Z0.6875    
(Pass: 1)
   X7.1126       Y1.8007    
G1   Z0.2188     F10  
   X7.1053       Y1.8063     F40  
   X7.0997       Y1.8136    
   X7.0961       Y1.8222    
   X7.0949       Y1.8313    
   X7.0961       Y1.8405    
   X7.0997       Y1.8490    
   X7.1053       Y1.8563    
   X7.1126       Y1.8620    
   X7.1212       Y1.8655    
   X7.1303       Y1.8667    
   X7.1395       Y1.8655    
   X7.1480       Y1.8620    
   X7.1553       Y1.8563    
   X7.1610       Y1.8490    
   X7.1645       Y1.8405    
   X7.1657       Y1.8313    
   X7.1645       Y1.8222    
   X7.1610       Y1.8136    
   X7.1553       Y1.8063    
   X7.1480       Y1.8007    
   X7.1395       Y1.7971    
   X7.1303       Y1.7959    
   X7.1212       Y1.7971    
   X7.1126       Y1.8007    
(Pass: 2)
   Z0.1875     F10  
   X7.1053       Y1.8063     F40  
   X7.0997       Y1.8136    
   X7.0961       Y1.8222    
   X7.0949       Y1.8313    
   X7.0961       Y1.8405    
   X7.0997       Y1.8490    
   X7.1053       Y1.8563    
   X7.1126       Y1.8620    
   X7.1212       Y1.8655    
   X7.1303       Y1.8667    
   X7.1395       Y1.8655    
   X7.1480       Y1.8620    
   X7.1553       Y1.8563    
   X7.1610       Y1.8490    
   X7.1645       Y1.8405    
   X7.1657       Y1.8313    
   X7.1645       Y1.8222    
   X7.1610       Y1.8136    
   X7.1553       Y1.8063    
   X7.1480       Y1.8007    
   X7.1395       Y1.7971    
   X7.1303       Y1.7959    
   X7.1212       Y1.7971    
   X7.1126       Y1.8007    
(Pass: 3)
   Z0.1562     F10  
   X7.1053       Y1.8063     F40  
   X7.0997       Y1.8136    
   X7.0961       Y1.8222    
   X7.0949       Y1.8313    
   X7.0961       Y1.8405    
   X7.0997       Y1.8490    
   X7.1053       Y1.8563    
   X7.1126       Y1.8620    
   X7.1212       Y1.8655    
   X7.1303       Y1.8667    
   X7.1395       Y1.8655    
   X7.1480       Y1.8620    
   X7.1553       Y1.8563    
   X7.1610       Y1.8490    
   X7.1645       Y1.8405    
   X7.1657       Y1.8313    
   X7.1645       Y1.8222    
   X7.1610       Y1.8136    
   X7.1553       Y1.8063    
   X7.1480       Y1.8007    
   X7.1395       Y1.7971    
   X7.1303       Y1.7959    
   X7.1212       Y1.7971    
   X7.1126       Y1.8007    
(Pass: 4)
   Z0.1250     F10  
   X7.1053       Y1.8063     F40  
   X7.0997       Y1.8136    
   X7.0961       Y1.8222    
   X7.0949       Y1.8313    
   X7.0961       Y1.8405    
   X7.0997       Y1.8490    
   X7.1053       Y1.8563    
   X7.1126       Y1.8620    
   X7.1212       Y1.8655    
   X7.1303       Y1.8667    
   X7.1395       Y1.8655    
   X7.1480       Y1.8620    
   X7.1553       Y1.8563    
   X7.1610       Y1.8490    
   X7.1645       Y1.8405    
   X7.1657       Y1.8313    
   X7.1645       Y1.8222    
   X7.1610       Y1.8136    
   X7.1553       Y1.8063    
   X7.1480       Y1.8007    
   X7.1395       Y1.7971    
   X7.1303       Y1.7959    
   X7.1212       Y1.7971    
   X7.1126       Y1.8007    
(Pass: 5)
   Z0.0938     F10  
   X7.1053       Y1.8063     F40  
   X7.0997       Y1.8136    
   X7.0961       Y1.8222    
   X7.0949       Y1.8313    
   X7.0961       Y1.8405    
   X7.0997       Y1.8490    
   X7.1053       Y1.8563    
   X7.1126       Y1.8620    
   X7.1212       Y1.8655    
   X7.1303       Y1.8667    
   X7.1395       Y1.8655    
   X7.1480       Y1.8620    
   X7.1553       Y1.8563    
   X7.1610       Y1.8490    
   X7.1645       Y1.8405    
   X7.1657       Y1.8313    
   X7.1645       Y1.8222    
   X7.1610       Y1.8136    
   X7.1553       Y1.8063    
   X7.1480       Y1.8007    
   X7.1395       Y1.7971    
   X7.1303       Y1.7959    
   X7.1212       Y1.7971    
   X7.1126       Y1.8007    
(Pass: 6)
   Z0.0625     F10  
   X7.1053       Y1.8063     F40  
   X7.0997       Y1.8136    
   X7.0961       Y1.8222    
   X7.0949       Y1.8313    
   X7.0961       Y1.8405    
   X7.0997       Y1.8490    
   X7.1053       Y1.8563    
   X7.1126       Y1.8620    
   X7.1212       Y1.8655    
   X7.1303       Y1.8667    
   X7.1395       Y1.8655    
   X7.1480       Y1.8620    
   X7.1553       Y1.8563    
   X7.1610       Y1.8490    
   X7.1645       Y1.8405    
   X7.1657       Y1.8313    
   X7.1645       Y1.8222    
   X7.1610       Y1.8136    
   X7.1553       Y1.8063    
   X7.1480       Y1.8007    
   X7.1395       Y1.7971    
   X7.1303       Y1.7959    
   X7.1212       Y1.7971    
   X7.1126       Y1.8007    
(Pass: 7)
   Z0.0312     F10  
   X7.1053       Y1.8063     F40  
   X7.0997       Y1.8136    
   X7.0961       Y1.8222    
   X7.0949       Y1.8313    
   X7.0961       Y1.8405    
   X7.0997       Y1.8490    
   X7.1053       Y1.8563    
   X7.1126       Y1.8620    
   X7.1212       Y1.8655    
   X7.1303       Y1.8667    
   X7.1395       Y1.8655    
   X7.1480       Y1.8620    
   X7.1553       Y1.8563    
   X7.1610       Y1.8490    
   X7.1645       Y1.8405    
   X7.1657       Y1.8313    
   X7.1645       Y1.8222    
   X7.1610       Y1.8136    
   X7.1553       Y1.8063    
   X7.1480       Y1.8007    
   X7.1395       Y1.7971    
   X7.1303       Y1.7959    
   X7.1212       Y1.7971    
   X7.1126       Y1.8007    
(Pass: 8)
   Z0.0000     F10  
   X7.1053       Y1.8063     F40  
   X7.0997       Y1.8136    
   X7.0961       Y1.8222    
   X7.0949       Y1.8313    
   X7.0961       Y1.8405    
   X7.0997       Y1.8490    
   X7.1053       Y1.8563    
   X7.1126       Y1.8620    
   X7.1212       Y1.8655    
   X7.1303       Y1.8667    
   X7.1395       Y1.8655    
   X7.1480       Y1.8620    
   X7.1553       Y1.8563    
   X7.1610       Y1.8490    
   X7.1645       Y1.8405    
   X7.1657       Y1.8313    
   X7.1645       Y1.8222    
   X7.1610       Y1.8136    
   X7.1553       Y1.8063    
   X7.1480       Y1.8007    
   X7.1395       Y1.7971    
   X7.1303       Y1.7959    
   X7.1212       Y1.7971    
   X7.1126       Y1.8007    
G0   Z0.6875    
(Pass: 1)
   X7.1333       Y2.5982    
G1   Z0.2188     F10  
   X7.1241       Y2.5994     F40  
   X7.1156       Y2.6029    
   X7.1083       Y2.6086    
   X7.1026       Y2.6159    
   X7.0991       Y2.6244    
   X7.0974       Y2.6377    
   Y3.4563    
   X7.0991       Y3.4695    
   X7.1026       Y3.4781    
   X7.1083       Y3.4854    
   X7.1156       Y3.4910    
   X7.1241       Y3.4945    
   X7.1333       Y3.4958    
   X7.1424       Y3.4945    
   X7.1510       Y3.4910    
   X7.1583       Y3.4854    
   X7.1639       Y3.4781    
   X7.1675       Y3.4695    
   X7.1692       Y3.4563    
   Y2.6377    
   X7.1675       Y2.6244    
   X7.1639       Y2.6159    
   X7.1583       Y2.6086    
   X7.1510       Y2.6029    
   X7.1424       Y2.5994    
   X7.1333       Y2.5982    
(Pass: 2)
   Z0.1875     F10  
   X7.1241       Y2.5994     F40  
   X7.1156       Y2.6029    
   X7.1083       Y2.6086    
   X7.1026       Y2.6159    
   X7.0991       Y2.6244    
   X7.0974       Y2.6377    
   Y3.4563    
   X7.0991       Y3.4695    
   X7.1026       Y3.4781    
   X7.1083       Y3.4854    
   X7.1156       Y3.4910    
   X7.1241       Y3.4945    
   X7.1333       Y3.4958    
   X7.1424       Y3.4945    
   X7.1510       Y3.4910    
   X7.1583       Y3.4854    
   X7.1639       Y3.4781    
   X7.1675       Y3.4695    
   X7.1692       Y3.4563    
   Y2.6377    
   X7.1675       Y2.6244    
   X7.1639       Y2.6159    
   X7.1583       Y2.6086    
   X7.1510       Y2.6029    
   X7.1424       Y2.5994    
   X7.1333       Y2.5982    
(Pass: 3)
   Z0.1562     F10  
   X7.1241       Y2.5994     F40  
   X7.1156       Y2.6029    
   X7.1083       Y2.6086    
   X7.1026       Y2.6159    
   X7.0991       Y2.6244    
   X7.0974       Y2.6377    
   Y3.4563    
   X7.0991       Y3.4695    
   X7.1026       Y3.4781    
   X7.1083       Y3.4854    
   X7.1156       Y3.4910    
   X7.1241       Y3.4945    
   X7.1333       Y3.4958    
   X7.1424       Y3.4945    
   X7.1510       Y3.4910    
   X7.1583       Y3.4854    
   X7.1639       Y3.4781    
   X7.1675       Y3.4695    
   X7.1692       Y3.4563    
   Y2.6377    
   X7.1675       Y2.6244    
   X7.1639       Y2.6159    
   X7.1583       Y2.6086    
   X7.1510       Y2.6029    
   X7.1424       Y2.5994    
   X7.1333       Y2.5982    
(Pass: 4)
   Z0.1250     F10  
   X7.1241       Y2.5994     F40  
   X7.1156       Y2.6029    
   X7.1083       Y2.6086    
   X7.1026       Y2.6159    
   X7.0991       Y2.6244    
   X7.0974       Y2.6377    
   Y3.4563    
   X7.0991       Y3.4695    
   X7.1026       Y3.4781    
   X7.1083       Y3.4854    
   X7.1156       Y3.4910    
   X7.1241       Y3.4945    
   X7.1333       Y3.4958    
   X7.1424       Y3.4945    
   X7.1510       Y3.4910    
   X7.1583       Y3.4854    
   X7.1639       Y3.4781    
   X7.1675       Y3.4695    
   X7.1692       Y3.4563    
   Y2.6377    
   X7.1675       Y2.6244    
   X7.1639       Y2.6159    
   X7.1583       Y2.6086    
   X7.1510       Y2.6029    
   X7.1424       Y2.5994    
   X7.1333       Y2.5982    
(Pass: 5)
   Z0.0938     F10  
   X7.1241       Y2.5994     F40  
   X7.1156       Y2.6029    
   X7.1083       Y2.6086    
   X7.1026       Y2.6159    
   X7.0991       Y2.6244    
   X7.0974       Y2.6377    
   Y3.4563    
   X7.0991       Y3.4695    
   X7.1026       Y3.4781    
   X7.1083       Y3.4854    
   X7.1156       Y3.4910    
   X7.1241       Y3.4945    
   X7.1333       Y3.4958    
   X7.1424       Y3.4945    
   X7.1510       Y3.4910    
   X7.1583       Y3.4854    
   X7.1639       Y3.4781    
   X7.1675       Y3.4695    
   X7.1692       Y3.4563    
   Y2.6377    
   X7.1675       Y2.6244    
   X7.1639       Y2.6159    
   X7.1583       Y2.6086    
   X7.1510       Y2.6029    
   X7.1424       Y2.5994    
   X7.1333       Y2.5982    
(Pass: 6)
   Z0.0625     F10  
   X7.1241       Y2.5994     F40  
   X7.1156       Y2.6029    
   X7.1083       Y2.6086    
   X7.1026       Y2.6159    
   X7.0991       Y2.6244    
   X7.0974       Y2.6377    
   Y3.4563    
   X7.0991       Y3.4695    
   X7.1026       Y3.4781    
   X7.1083       Y3.4854    
   X7.1156       Y3.4910    
   X7.1241       Y3.4945    
   X7.1333       Y3.4958    
   X7.1424       Y3.4945    
   X7.1510       Y3.4910    
   X7.1583       Y3.4854    
   X7.1639       Y3.4781    
   X7.1675       Y3.4695    
   X7.1692       Y3.4563    
   Y2.6377    
   X7.1675       Y2.6244    
   X7.1639       Y2.6159    
   X7.1583       Y2.6086    
   X7.1510       Y2.6029    
   X7.1424       Y2.5994    
   X7.1333       Y2.5982    
(Pass: 7)
   Z0.0312     F10  
   X7.1241       Y2.5994     F40  
   X7.1156       Y2.6029    
   X7.1083       Y2.6086    
   X7.1026       Y2.6159    
   X7.0991       Y2.6244    
   X7.0974       Y2.6377    
   Y3.4563    
   X7.0991       Y3.4695    
   X7.1026       Y3.4781    
   X7.1083       Y3.4854    
   X7.1156       Y3.4910    
   X7.1241       Y3.4945    
   X7.1333       Y3.4958    
   X7.1424       Y3.4945    
   X7.1510       Y3.4910    
   X7.1583       Y3.4854    
   X7.1639       Y3.4781    
   X7.1675       Y3.4695    
   X7.1692       Y3.4563    
   Y2.6377    
   X7.1675       Y2.6244    
   X7.1639       Y2.6159    
   X7.1583       Y2.6086    
   X7.1510       Y2.6029    
   X7.1424       Y2.5994    
   X7.1333       Y2.5982    
(Pass: 8)
   Z0.0000     F10  
   X7.1241       Y2.5994     F40  
   X7.1156       Y2.6029    
   X7.1083       Y2.6086    
   X7.1026       Y2.6159    
   X7.0991       Y2.6244    
   X7.0974       Y2.6377    
   Y3.4563    
   X7.0991       Y3.4695    
   X7.1026       Y3.4781    
   X7.1083       Y3.4854    
   X7.1156       Y3.4910    
   X7.1241       Y3.4945    
   X7.1333       Y3.4958    
   X7.1424       Y3.4945    
   X7.1510       Y3.4910    
   X7.1583       Y3.4854    
   X7.1639       Y3.4781    
   X7.1675       Y3.4695    
   X7.1692       Y3.4563    
   Y2.6377    
   X7.1675       Y2.6244    
   X7.1639       Y2.6159    
   X7.1583       Y2.6086    
   X7.1510       Y2.6029    
   X7.1424       Y2.5994    
   X7.1333       Y2.5982    
G0   Z0.6875    
(Pass: 1)
   X7.8848       Y2.6377    
G1   Z0.2188     F10  
   Y3.4563     F40  
   X7.8865       Y3.4695    
   X7.8900       Y3.4781    
   X7.8957       Y3.4854    
   X7.9030       Y3.4910    
   X7.9115       Y3.4945    
   X7.9207       Y3.4958    
   X7.9298       Y3.4945    
   X7.9384       Y3.4910    
   X7.9457       Y3.4854    
   X7.9513       Y3.4781    
   X7.9549       Y3.4695    
   X7.9566       Y3.4563    
   Y2.6377    
   X7.9549       Y2.6244    
   X7.9513       Y2.6159    
   X7.9457       Y2.6086    
   X7.9384       Y2.6029    
   X7.9298       Y2.5994    
   X7.9207       Y2.5982    
   X7.9115       Y2.5994    
   X7.9030       Y2.6029    
   X7.8957       Y2.6086    
   X7.8900       Y2.6159    
   X7.8865       Y2.6244    
   X7.8848       Y2.6377    
(Pass: 2)
   Z0.1875     F10  
   Y3.4563     F40  
   X7.8865       Y3.4695    
   X7.8900       Y3.4781    
   X7.8957       Y3.4854    
   X7.9030       Y3.4910    
   X7.9115       Y3.4945    
   X7.9207       Y3.4958    
   X7.9298       Y3.4945    
   X7.9384       Y3.4910    
   X7.9457       Y3.4854    
   X7.9513       Y3.4781    
   X7.9549       Y3.4695    
   X7.9566       Y3.4563    
   Y2.6377    
   X7.9549       Y2.6244    
   X7.9513       Y2.6159    
   X7.9457       Y2.6086    
   X7.9384       Y2.6029    
   X7.9298       Y2.5994    
   X7.9207       Y2.5982    
   X7.9115       Y2.5994    
   X7.9030       Y2.6029    
   X7.8957       Y2.6086    
   X7.8900       Y2.6159    
   X7.8865       Y2.6244    
   X7.8848       Y2.6377    
(Pass: 3)
   Z0.1562     F10  
   Y3.4563     F40  
   X7.8865       Y3.4695    
   X7.8900       Y3.4781    
   X7.8957       Y3.4854    
   X7.9030       Y3.4910    
   X7.9115       Y3.4945    
   X7.9207       Y3.4958    
   X7.9298       Y3.4945    
   X7.9384       Y3.4910    
   X7.9457       Y3.4854    
   X7.9513       Y3.4781    
   X7.9549       Y3.4695    
   X7.9566       Y3.4563    
   Y2.6377    
   X7.9549       Y2.6244    
   X7.9513       Y2.6159    
   X7.9457       Y2.6086    
   X7.9384       Y2.6029    
   X7.9298       Y2.5994    
   X7.9207       Y2.5982    
   X7.9115       Y2.5994    
   X7.9030       Y2.6029    
   X7.8957       Y2.6086    
   X7.8900       Y2.6159    
   X7.8865       Y2.6244    
   X7.8848       Y2.6377    
(Pass: 4)
   Z0.1250     F10  
   Y3.4563     F40  
   X7.8865       Y3.4695    
   X7.8900       Y3.4781    
   X7.8957       Y3.4854    
   X7.9030       Y3.4910    
   X7.9115       Y3.4945    
   X7.9207       Y3.4958    
   X7.9298       Y3.4945    
   X7.9384       Y3.4910    
   X7.9457       Y3.4854    
   X7.9513       Y3.4781    
   X7.9549       Y3.4695    
   X7.9566       Y3.4563    
   Y2.6377    
   X7.9549       Y2.6244    
   X7.9513       Y2.6159    
   X7.9457       Y2.6086    
   X7.9384       Y2.6029    
   X7.9298       Y2.5994    
   X7.9207       Y2.5982    
   X7.9115       Y2.5994    
   X7.9030       Y2.6029    
   X7.8957       Y2.6086    
   X7.8900       Y2.6159    
   X7.8865       Y2.6244    
   X7.8848       Y2.6377    
(Pass: 5)
   Z0.0938     F10  
   Y3.4563     F40  
   X7.8865       Y3.4695    
   X7.8900       Y3.4781    
   X7.8957       Y3.4854    
   X7.9030       Y3.4910    
   X7.9115       Y3.4945    
   X7.9207       Y3.4958    
   X7.9298       Y3.4945    
   X7.9384       Y3.4910    
   X7.9457       Y3.4854    
   X7.9513       Y3.4781    
   X7.9549       Y3.4695    
   X7.9566       Y3.4563    
   Y2.6377    
   X7.9549       Y2.6244    
   X7.9513       Y2.6159    
   X7.9457       Y2.6086    
   X7.9384       Y2.6029    
   X7.9298       Y2.5994    
   X7.9207       Y2.5982    
   X7.9115       Y2.5994    
   X7.9030       Y2.6029    
   X7.8957       Y2.6086    
   X7.8900       Y2.6159    
   X7.8865       Y2.6244    
   X7.8848       Y2.6377    
(Pass: 6)
   Z0.0625     F10  
   Y3.4563     F40  
   X7.8865       Y3.4695    
   X7.8900       Y3.4781    
   X7.8957       Y3.4854    
   X7.9030       Y3.4910    
   X7.9115       Y3.4945    
   X7.9207       Y3.4958    
   X7.9298       Y3.4945    
   X7.9384       Y3.4910    
   X7.9457       Y3.4854    
   X7.9513       Y3.4781    
   X7.9549       Y3.4695    
   X7.9566       Y3.4563    
   Y2.6377    
   X7.9549       Y2.6244    
   X7.9513       Y2.6159    
   X7.9457       Y2.6086    
   X7.9384       Y2.6029    
   X7.9298       Y2.5994    
   X7.9207       Y2.5982    
   X7.9115       Y2.5994    
   X7.9030       Y2.6029    
   X7.8957       Y2.6086    
   X7.8900       Y2.6159    
   X7.8865       Y2.6244    
   X7.8848       Y2.6377    
(Pass: 7)
   Z0.0312     F10  
   Y3.4563     F40  
   X7.8865       Y3.4695    
   X7.8900       Y3.4781    
   X7.8957       Y3.4854    
   X7.9030       Y3.4910    
   X7.9115       Y3.4945    
   X7.9207       Y3.4958    
   X7.9298       Y3.4945    
   X7.9384       Y3.4910    
   X7.9457       Y3.4854    
   X7.9513       Y3.4781    
   X7.9549       Y3.4695    
   X7.9566       Y3.4563    
   Y2.6377    
   X7.9549       Y2.6244    
   X7.9513       Y2.6159    
   X7.9457       Y2.6086    
   X7.9384       Y2.6029    
   X7.9298       Y2.5994    
   X7.9207       Y2.5982    
   X7.9115       Y2.5994    
   X7.9030       Y2.6029    
   X7.8957       Y2.6086    
   X7.8900       Y2.6159    
   X7.8865       Y2.6244    
   X7.8848       Y2.6377    
(Pass: 8)
   Z0.0000     F10  
   Y3.4563     F40  
   X7.8865       Y3.4695    
   X7.8900       Y3.4781    
   X7.8957       Y3.4854    
   X7.9030       Y3.4910    
   X7.9115       Y3.4945    
   X7.9207       Y3.4958    
   X7.9298       Y3.4945    
   X7.9384       Y3.4910    
   X7.9457       Y3.4854    
   X7.9513       Y3.4781    
   X7.9549       Y3.4695    
   X7.9566       Y3.4563    
   Y2.6377    
   X7.9549       Y2.6244    
   X7.9513       Y2.6159    
   X7.9457       Y2.6086    
   X7.9384       Y2.6029    
   X7.9298       Y2.5994    
   X7.9207       Y2.5982    
   X7.9115       Y2.5994    
   X7.9030       Y2.6029    
   X7.8957       Y2.6086    
   X7.8900       Y2.6159    
   X7.8865       Y2.6244    
   X7.8848       Y2.6377    
G0   Z0.6875    
(Pass: 1)
   X6.3818    
G1   Z0.2188     F10  
   X6.3801       Y2.6244     F40  
   X6.3765       Y2.6159    
   X6.3709       Y2.6086    
   X6.3636       Y2.6029    
   X6.3550       Y2.5994    
   X6.3459       Y2.5982    
   X6.3367       Y2.5994    
   X6.3282       Y2.6029    
   X6.3209       Y2.6086    
   X6.3152       Y2.6159    
   X6.3117       Y2.6244    
   X6.3100       Y2.6377    
   Y3.4563    
   X6.3117       Y3.4695    
   X6.3152       Y3.4781    
   X6.3209       Y3.4854    
   X6.3282       Y3.4910    
   X6.3367       Y3.4945    
   X6.3459       Y3.4958    
   X6.3550       Y3.4945    
   X6.3636       Y3.4910    
   X6.3709       Y3.4854    
   X6.3765       Y3.4781    
   X6.3801       Y3.4695    
   X6.3818       Y3.4563    
   Y2.6377    
(Pass: 2)
   Z0.1875     F10  
   X6.3801       Y2.6244     F40  
   X6.3765       Y2.6159    
   X6.3709       Y2.6086    
   X6.3636       Y2.6029    
   X6.3550       Y2.5994    
   X6.3459       Y2.5982    
   X6.3367       Y2.5994    
   X6.3282       Y2.6029    
   X6.3209       Y2.6086    
   X6.3152       Y2.6159    
   X6.3117       Y2.6244    
   X6.3100       Y2.6377    
   Y3.4563    
   X6.3117       Y3.4695    
   X6.3152       Y3.4781    
   X6.3209       Y3.4854    
   X6.3282       Y3.4910    
   X6.3367       Y3.4945    
   X6.3459       Y3.4958    
   X6.3550       Y3.4945    
   X6.3636       Y3.4910    
   X6.3709       Y3.4854    
   X6.3765       Y3.4781    
   X6.3801       Y3.4695    
   X6.3818       Y3.4563    
   Y2.6377    
(Pass: 3)
   Z0.1562     F10  
   X6.3801       Y2.6244     F40  
   X6.3765       Y2.6159    
   X6.3709       Y2.6086    
   X6.3636       Y2.6029    
   X6.3550       Y2.5994    
   X6.3459       Y2.5982    
   X6.3367       Y2.5994    
   X6.3282       Y2.6029    
   X6.3209       Y2.6086    
   X6.3152       Y2.6159    
   X6.3117       Y2.6244    
   X6.3100       Y2.6377    
   Y3.4563    
   X6.3117       Y3.4695    
   X6.3152       Y3.4781    
   X6.3209       Y3.4854    
   X6.3282       Y3.4910    
   X6.3367       Y3.4945    
   X6.3459       Y3.4958    
   X6.3550       Y3.4945    
   X6.3636       Y3.4910    
   X6.3709       Y3.4854    
   X6.3765       Y3.4781    
   X6.3801       Y3.4695    
   X6.3818       Y3.4563    
   Y2.6377    
(Pass: 4)
   Z0.1250     F10  
   X6.3801       Y2.6244     F40  
   X6.3765       Y2.6159    
   X6.3709       Y2.6086    
   X6.3636       Y2.6029    
   X6.3550       Y2.5994    
   X6.3459       Y2.5982    
   X6.3367       Y2.5994    
   X6.3282       Y2.6029    
   X6.3209       Y2.6086    
   X6.3152       Y2.6159    
   X6.3117       Y2.6244    
   X6.3100       Y2.6377    
   Y3.4563    
   X6.3117       Y3.4695    
   X6.3152       Y3.4781    
   X6.3209       Y3.4854    
   X6.3282       Y3.4910    
   X6.3367       Y3.4945    
   X6.3459       Y3.4958    
   X6.3550       Y3.4945    
   X6.3636       Y3.4910    
   X6.3709       Y3.4854    
   X6.3765       Y3.4781    
   X6.3801       Y3.4695    
   X6.3818       Y3.4563    
   Y2.6377    
(Pass: 5)
   Z0.0938     F10  
   X6.3801       Y2.6244     F40  
   X6.3765       Y2.6159    
   X6.3709       Y2.6086    
   X6.3636       Y2.6029    
   X6.3550       Y2.5994    
   X6.3459       Y2.5982    
   X6.3367       Y2.5994    
   X6.3282       Y2.6029    
   X6.3209       Y2.6086    
   X6.3152       Y2.6159    
   X6.3117       Y2.6244    
   X6.3100       Y2.6377    
   Y3.4563    
   X6.3117       Y3.4695    
   X6.3152       Y3.4781    
   X6.3209       Y3.4854    
   X6.3282       Y3.4910    
   X6.3367       Y3.4945    
   X6.3459       Y3.4958    
   X6.3550       Y3.4945    
   X6.3636       Y3.4910    
   X6.3709       Y3.4854    
   X6.3765       Y3.4781    
   X6.3801       Y3.4695    
   X6.3818       Y3.4563    
   Y2.6377    
(Pass: 6)
   Z0.0625     F10  
   X6.3801       Y2.6244     F40  
   X6.3765       Y2.6159    
   X6.3709       Y2.6086    
   X6.3636       Y2.6029    
   X6.3550       Y2.5994    
   X6.3459       Y2.5982    
   X6.3367       Y2.5994    
   X6.3282       Y2.6029    
   X6.3209       Y2.6086    
   X6.3152       Y2.6159    
   X6.3117       Y2.6244    
   X6.3100       Y2.6377    
   Y3.4563    
   X6.3117       Y3.4695    
   X6.3152       Y3.4781    
   X6.3209       Y3.4854    
   X6.3282       Y3.4910    
   X6.3367       Y3.4945    
   X6.3459       Y3.4958    
   X6.3550       Y3.4945    
   X6.3636       Y3.4910    
   X6.3709       Y3.4854    
   X6.3765       Y3.4781    
   X6.3801       Y3.4695    
   X6.3818       Y3.4563    
   Y2.6377    
(Pass: 7)
   Z0.0312     F10  
   X6.3801       Y2.6244     F40  
   X6.3765       Y2.6159    
   X6.3709       Y2.6086    
   X6.3636       Y2.6029    
   X6.3550       Y2.5994    
   X6.3459       Y2.5982    
   X6.3367       Y2.5994    
   X6.3282       Y2.6029    
   X6.3209       Y2.6086    
   X6.3152       Y2.6159    
   X6.3117       Y2.6244    
   X6.3100       Y2.6377    
   Y3.4563    
   X6.3117       Y3.4695    
   X6.3152       Y3.4781    
   X6.3209       Y3.4854    
   X6.3282       Y3.4910    
   X6.3367       Y3.4945    
   X6.3459       Y3.4958    
   X6.3550       Y3.4945    
   X6.3636       Y3.4910    
   X6.3709       Y3.4854    
   X6.3765       Y3.4781    
   X6.3801       Y3.4695    
   X6.3818       Y3.4563    
   Y2.6377    
(Pass: 8)
   Z0.0000     F10  
   X6.3801       Y2.6244     F40  
   X6.3765       Y2.6159    
   X6.3709       Y2.6086    
   X6.3636       Y2.6029    
   X6.3550       Y2.5994    
   X6.3459       Y2.5982    
   X6.3367       Y2.5994    
   X6.3282       Y2.6029    
   X6.3209       Y2.6086    
   X6.3152       Y2.6159    
   X6.3117       Y2.6244    
   X6.3100       Y2.6377    
   Y3.4563    
   X6.3117       Y3.4695    
   X6.3152       Y3.4781    
   X6.3209       Y3.4854    
   X6.3282       Y3.4910    
   X6.3367       Y3.4945    
   X6.3459       Y3.4958    
   X6.3550       Y3.4945    
   X6.3636       Y3.4910    
   X6.3709       Y3.4854    
   X6.3765       Y3.4781    
   X6.3801       Y3.4695    
   X6.3818       Y3.4563    
   Y2.6377    
G0   Z0.6875    
(Pass: 1)
   X5.8439       Y2.9874    
G1   Z0.2188     F10  
   X5.8380       Y2.9797     F40  
   X5.8303       Y2.9739    
   X5.8214       Y2.9702    
   X5.8078       Y2.9684    
   X5.4616    
   X5.4480       Y2.9702    
   X5.4391       Y2.9739    
   X5.4314       Y2.9797    
   X5.4255       Y2.9874    
   X5.4218       Y2.9963    
   X5.4206       Y3.0059    
   X5.4218       Y3.0154    
   X5.4255       Y3.0244    
   X5.4314       Y3.0320    
   X5.4391       Y3.0379    
   X5.4480       Y3.0416    
   X5.4616       Y3.0434    
   X5.8078    
   X5.8214       Y3.0416    
   X5.8303       Y3.0379    
   X5.8380       Y3.0320    
   X5.8439       Y3.0244    
   X5.8476       Y3.0154    
   X5.8488       Y3.0059    
   X5.8476       Y2.9963    
   X5.8439       Y2.9874    
(Pass: 2)
   Z0.1875     F10  
   X5.8380       Y2.9797     F40  
   X5.8303       Y2.9739    
   X5.8214       Y2.9702    
   X5.8078       Y2.9684    
   X5.4616    
   X5.4480       Y2.9702    
   X5.4391       Y2.9739    
   X5.4314       Y2.9797    
   X5.4255       Y2.9874    
   X5.4218       Y2.9963    
   X5.4206       Y3.0059    
   X5.4218       Y3.0154    
   X5.4255       Y3.0244    
   X5.4314       Y3.0320    
   X5.4391       Y3.0379    
   X5.4480       Y3.0416    
   X5.4616       Y3.0434    
   X5.8078    
   X5.8214       Y3.0416    
   X5.8303       Y3.0379    
   X5.8380       Y3.0320    
   X5.8439       Y3.0244    
   X5.8476       Y3.0154    
   X5.8488       Y3.0059    
   X5.8476       Y2.9963    
   X5.8439       Y2.9874    
(Pass: 3)
   Z0.1562     F10  
   X5.8380       Y2.9797     F40  
   X5.8303       Y2.9739    
   X5.8214       Y2.9702    
   X5.8078       Y2.9684    
   X5.4616    
   X5.4480       Y2.9702    
   X5.4391       Y2.9739    
   X5.4314       Y2.9797    
   X5.4255       Y2.9874    
   X5.4218       Y2.9963    
   X5.4206       Y3.0059    
   X5.4218       Y3.0154    
   X5.4255       Y3.0244    
   X5.4314       Y3.0320    
   X5.4391       Y3.0379    
   X5.4480       Y3.0416    
   X5.4616       Y3.0434    
   X5.8078    
   X5.8214       Y3.0416    
   X5.8303       Y3.0379    
   X5.8380       Y3.0320    
   X5.8439       Y3.0244    
   X5.8476       Y3.0154    
   X5.8488       Y3.0059    
   X5.8476       Y2.9963    
   X5.8439       Y2.9874    
(Pass: 4)
   Z0.1250     F10  
   X5.8380       Y2.9797     F40  
   X5.8303       Y2.9739    
   X5.8214       Y2.9702    
   X5.8078       Y2.9684    
   X5.4616    
   X5.4480       Y2.9702    
   X5.4391       Y2.9739    
   X5.4314       Y2.9797    
   X5.4255       Y2.9874    
   X5.4218       Y2.9963    
   X5.4206       Y3.0059    
   X5.4218       Y3.0154    
   X5.4255       Y3.0244    
   X5.4314       Y3.0320    
   X5.4391       Y3.0379    
   X5.4480       Y3.0416    
   X5.4616       Y3.0434    
   X5.8078    
   X5.8214       Y3.0416    
   X5.8303       Y3.0379    
   X5.8380       Y3.0320    
   X5.8439       Y3.0244    
   X5.8476       Y3.0154    
   X5.8488       Y3.0059    
   X5.8476       Y2.9963    
   X5.8439       Y2.9874    
(Pass: 5)
   Z0.0938     F10  
   X5.8380       Y2.9797     F40  
   X5.8303       Y2.9739    
   X5.8214       Y2.9702    
   X5.8078       Y2.9684    
   X5.4616    
   X5.4480       Y2.9702    
   X5.4391       Y2.9739    
   X5.4314       Y2.9797    
   X5.4255       Y2.9874    
   X5.4218       Y2.9963    
   X5.4206       Y3.0059    
   X5.4218       Y3.0154    
   X5.4255       Y3.0244    
   X5.4314       Y3.0320    
   X5.4391       Y3.0379    
   X5.4480       Y3.0416    
   X5.4616       Y3.0434    
   X5.8078    
   X5.8214       Y3.0416    
   X5.8303       Y3.0379    
   X5.8380       Y3.0320    
   X5.8439       Y3.0244    
   X5.8476       Y3.0154    
   X5.8488       Y3.0059    
   X5.8476       Y2.9963    
   X5.8439       Y2.9874    
(Pass: 6)
   Z0.0625     F10  
   X5.8380       Y2.9797     F40  
   X5.8303       Y2.9739    
   X5.8214       Y2.9702    
   X5.8078       Y2.9684    
   X5.4616    
   X5.4480       Y2.9702    
   X5.4391       Y2.9739    
   X5.4314       Y2.9797    
   X5.4255       Y2.9874    
   X5.4218       Y2.9963    
   X5.4206       Y3.0059    
   X5.4218       Y3.0154    
   X5.4255       Y3.0244    
   X5.4314       Y3.0320    
   X5.4391       Y3.0379    
   X5.4480       Y3.0416    
   X5.4616       Y3.0434    
   X5.8078    
   X5.8214       Y3.0416    
   X5.8303       Y3.0379    
   X5.8380       Y3.0320    
   X5.8439       Y3.0244    
   X5.8476       Y3.0154    
   X5.8488       Y3.0059    
   X5.8476       Y2.9963    
   X5.8439       Y2.9874    
(Pass: 7)
   Z0.0312     F10  
   X5.8380       Y2.9797     F40  
   X5.8303       Y2.9739    
   X5.8214       Y2.9702    
   X5.8078       Y2.9684    
   X5.4616    
   X5.4480       Y2.9702    
   X5.4391       Y2.9739    
   X5.4314       Y2.9797    
   X5.4255       Y2.9874    
   X5.4218       Y2.9963    
   X5.4206       Y3.0059    
   X5.4218       Y3.0154    
   X5.4255       Y3.0244    
   X5.4314       Y3.0320    
   X5.4391       Y3.0379    
   X5.4480       Y3.0416    
   X5.4616       Y3.0434    
   X5.8078    
   X5.8214       Y3.0416    
   X5.8303       Y3.0379    
   X5.8380       Y3.0320    
   X5.8439       Y3.0244    
   X5.8476       Y3.0154    
   X5.8488       Y3.0059    
   X5.8476       Y2.9963    
   X5.8439       Y2.9874    
(Pass: 8)
   Z0.0000     F10  
   X5.8380       Y2.9797     F40  
   X5.8303       Y2.9739    
   X5.8214       Y2.9702    
   X5.8078       Y2.9684    
   X5.4616    
   X5.4480       Y2.9702    
   X5.4391       Y2.9739    
   X5.4314       Y2.9797    
   X5.4255       Y2.9874    
   X5.4218       Y2.9963    
   X5.4206       Y3.0059    
   X5.4218       Y3.0154    
   X5.4255       Y3.0244    
   X5.4314       Y3.0320    
   X5.4391       Y3.0379    
   X5.4480       Y3.0416    
   X5.4616       Y3.0434    
   X5.8078    
   X5.8214       Y3.0416    
   X5.8303       Y3.0379    
   X5.8380       Y3.0320    
   X5.8439       Y3.0244    
   X5.8476       Y3.0154    
   X5.8488       Y3.0059    
   X5.8476       Y2.9963    
   X5.8439       Y2.9874    
G0   Z0.6875    
(Pass: 1)
   X5.2047       Y3.6329    
G1   Z0.2188     F10  
   X5.1158       Y3.5647     F40  
   X5.0123       Y3.5218    
   X4.8972       Y3.5066    
   X4.5116    
   X4.3965       Y3.5218    
   X4.2930       Y3.5647    
   X4.2041       Y3.6329    
   X4.1359       Y3.7217    
   X4.0931       Y3.8252    
   X4.0785       Y3.9363    
   X4.0931       Y4.0473    
   X4.1359       Y4.1508    
   X4.2041       Y4.2397    
   X4.2930       Y4.3079    
   X4.3965       Y4.3507    
   X4.5116       Y4.3659    
   X4.8972    
   X5.0123       Y4.3507    
   X5.1158       Y4.3079    
   X5.2047       Y4.2397    
   X5.2728       Y4.1508    
   X5.3157       Y4.0473    
   X5.3303       Y3.9363    
   X5.3157       Y3.8252    
   X5.2728       Y3.7217    
   X5.2047       Y3.6329    
(Pass: 2)
   Z0.1875     F10  
   X5.1158       Y3.5647     F40  
   X5.0123       Y3.5218    
   X4.8972       Y3.5066    
   X4.5116    
   X4.3965       Y3.5218    
   X4.2930       Y3.5647    
   X4.2041       Y3.6329    
   X4.1359       Y3.7217    
   X4.0931       Y3.8252    
   X4.0785       Y3.9363    
   X4.0931       Y4.0473    
   X4.1359       Y4.1508    
   X4.2041       Y4.2397    
   X4.2930       Y4.3079    
   X4.3965       Y4.3507    
   X4.5116       Y4.3659    
   X4.8972    
   X5.0123       Y4.3507    
   X5.1158       Y4.3079    
   X5.2047       Y4.2397    
   X5.2728       Y4.1508    
   X5.3157       Y4.0473    
   X5.3303       Y3.9363    
   X5.3157       Y3.8252    
   X5.2728       Y3.7217    
   X5.2047       Y3.6329    
(Pass: 3)
   Z0.1562     F10  
   X5.1158       Y3.5647     F40  
   X5.0123       Y3.5218    
   X4.8972       Y3.5066    
   X4.5116    
   X4.3965       Y3.5218    
   X4.2930       Y3.5647    
   X4.2041       Y3.6329    
   X4.1359       Y3.7217    
   X4.0931       Y3.8252    
   X4.0785       Y3.9363    
   X4.0931       Y4.0473    
   X4.1359       Y4.1508    
   X4.2041       Y4.2397    
   X4.2930       Y4.3079    
   X4.3965       Y4.3507    
   X4.5116       Y4.3659    
   X4.8972    
   X5.0123       Y4.3507    
   X5.1158       Y4.3079    
   X5.2047       Y4.2397    
   X5.2728       Y4.1508    
   X5.3157       Y4.0473    
   X5.3303       Y3.9363    
   X5.3157       Y3.8252    
   X5.2728       Y3.7217    
   X5.2047       Y3.6329    
(Pass: 4)
   Z0.1250     F10  
   X5.1158       Y3.5647     F40  
   X5.0123       Y3.5218    
   X4.8972       Y3.5066    
   X4.5116    
   X4.3965       Y3.5218    
   X4.2930       Y3.5647    
   X4.2041       Y3.6329    
   X4.1359       Y3.7217    
   X4.0931       Y3.8252    
   X4.0785       Y3.9363    
   X4.0931       Y4.0473    
   X4.1359       Y4.1508    
   X4.2041       Y4.2397    
   X4.2930       Y4.3079    
   X4.3965       Y4.3507    
   X4.5116       Y4.3659    
   X4.8972    
   X5.0123       Y4.3507    
   X5.1158       Y4.3079    
   X5.2047       Y4.2397    
   X5.2728       Y4.1508    
   X5.3157       Y4.0473    
   X5.3303       Y3.9363    
   X5.3157       Y3.8252    
   X5.2728       Y3.7217    
   X5.2047       Y3.6329    
(Pass: 5)
   Z0.0938     F10  
   X5.1158       Y3.5647     F40  
   X5.0123       Y3.5218    
   X4.8972       Y3.5066    
   X4.5116    
   X4.3965       Y3.5218    
   X4.2930       Y3.5647    
   X4.2041       Y3.6329    
   X4.1359       Y3.7217    
   X4.0931       Y3.8252    
   X4.0785       Y3.9363    
   X4.0931       Y4.0473    
   X4.1359       Y4.1508    
   X4.2041       Y4.2397    
   X4.2930       Y4.3079    
   X4.3965       Y4.3507    
   X4.5116       Y4.3659    
   X4.8972    
   X5.0123       Y4.3507    
   X5.1158       Y4.3079    
   X5.2047       Y4.2397    
   X5.2728       Y4.1508    
   X5.3157       Y4.0473    
   X5.3303       Y3.9363    
   X5.3157       Y3.8252    
   X5.2728       Y3.7217    
   X5.2047       Y3.6329    
(Pass: 6)
   Z0.0625     F10  
   X5.1158       Y3.5647     F40  
   X5.0123       Y3.5218    
   X4.8972       Y3.5066    
   X4.5116    
   X4.3965       Y3.5218    
   X4.2930       Y3.5647    
   X4.2041       Y3.6329    
   X4.1359       Y3.7217    
   X4.0931       Y3.8252    
   X4.0785       Y3.9363    
   X4.0931       Y4.0473    
   X4.1359       Y4.1508    
   X4.2041       Y4.2397    
   X4.2930       Y4.3079    
   X4.3965       Y4.3507    
   X4.5116       Y4.3659    
   X4.8972    
   X5.0123       Y4.3507    
   X5.1158       Y4.3079    
   X5.2047       Y4.2397    
   X5.2728       Y4.1508    
   X5.3157       Y4.0473    
   X5.3303       Y3.9363    
   X5.3157       Y3.8252    
   X5.2728       Y3.7217    
   X5.2047       Y3.6329    
(Pass: 7)
   Z0.0312     F10  
   X5.1158       Y3.5647     F40  
   X5.0123       Y3.5218    
   X4.8972       Y3.5066    
   X4.5116    
   X4.3965       Y3.5218    
   X4.2930       Y3.5647    
   X4.2041       Y3.6329    
   X4.1359       Y3.7217    
   X4.0931       Y3.8252    
   X4.0785       Y3.9363    
   X4.0931       Y4.0473    
   X4.1359       Y4.1508    
   X4.2041       Y4.2397    
   X4.2930       Y4.3079    
   X4.3965       Y4.3507    
   X4.5116       Y4.3659    
   X4.8972    
   X5.0123       Y4.3507    
   X5.1158       Y4.3079    
   X5.2047       Y4.2397    
   X5.2728       Y4.1508    
   X5.3157       Y4.0473    
   X5.3303       Y3.9363    
   X5.3157       Y3.8252    
   X5.2728       Y3.7217    
   X5.2047       Y3.6329    
(Pass: 8)
   Z0.0000     F10  
   X5.1158       Y3.5647     F40  
   X5.0123       Y3.5218    
   X4.8972       Y3.5066    
   X4.5116    
   X4.3965       Y3.5218    
   X4.2930       Y3.5647    
   X4.2041       Y3.6329    
   X4.1359       Y3.7217    
   X4.0931       Y3.8252    
   X4.0785       Y3.9363    
   X4.0931       Y4.0473    
   X4.1359       Y4.1508    
   X4.2041       Y4.2397    
   X4.2930       Y4.3079    
   X4.3965       Y4.3507    
   X4.5116       Y4.3659    
   X4.8972    
   X5.0123       Y4.3507    
   X5.1158       Y4.3079    
   X5.2047       Y4.2397    
   X5.2728       Y4.1508    
   X5.3157       Y4.0473    
   X5.3303       Y3.9363    
   X5.3157       Y3.8252    
   X5.2728       Y3.7217    
   X5.2047       Y3.6329    
G0   Z0.6875    
(Pass: 1)
   X3.9780       Y4.8397    
G1   Z0.2188     F10  
   X3.9704       Y4.8339     F40  
   X3.9614       Y4.8302    
   X3.9478       Y4.8284    
   X3.6016    
   X3.5880       Y4.8302    
   X3.5791       Y4.8339    
   X3.5714       Y4.8397    
   X3.5655       Y4.8474    
   X3.5618       Y4.8563    
   X3.5606       Y4.8659    
   X3.5618       Y4.8754    
   X3.5655       Y4.8843    
   X3.5714       Y4.8920    
   X3.5791       Y4.8979    
   X3.5880       Y4.9016    
   X3.6016       Y4.9034    
   X3.9478    
   X3.9614       Y4.9016    
   X3.9704       Y4.8979    
   X3.9780       Y4.8920    
   X3.9839       Y4.8843    
   X3.9876       Y4.8754    
   X3.9888       Y4.8659    
   X3.9876       Y4.8563    
   X3.9839       Y4.8474    
   X3.9780       Y4.8397    
(Pass: 2)
   Z0.1875     F10  
   X3.9704       Y4.8339     F40  
   X3.9614       Y4.8302    
   X3.9478       Y4.8284    
   X3.6016    
   X3.5880       Y4.8302    
   X3.5791       Y4.8339    
   X3.5714       Y4.8397    
   X3.5655       Y4.8474    
   X3.5618       Y4.8563    
   X3.5606       Y4.8659    
   X3.5618       Y4.8754    
   X3.5655       Y4.8843    
   X3.5714       Y4.8920    
   X3.5791       Y4.8979    
   X3.5880       Y4.9016    
   X3.6016       Y4.9034    
   X3.9478    
   X3.9614       Y4.9016    
   X3.9704       Y4.8979    
   X3.9780       Y4.8920    
   X3.9839       Y4.8843    
   X3.9876       Y4.8754    
   X3.9888       Y4.8659    
   X3.9876       Y4.8563    
   X3.9839       Y4.8474    
   X3.9780       Y4.8397    
(Pass: 3)
   Z0.1562     F10  
   X3.9704       Y4.8339     F40  
   X3.9614       Y4.8302    
   X3.9478       Y4.8284    
   X3.6016    
   X3.5880       Y4.8302    
   X3.5791       Y4.8339    
   X3.5714       Y4.8397    
   X3.5655       Y4.8474    
   X3.5618       Y4.8563    
   X3.5606       Y4.8659    
   X3.5618       Y4.8754    
   X3.5655       Y4.8843    
   X3.5714       Y4.8920    
   X3.5791       Y4.8979    
   X3.5880       Y4.9016    
   X3.6016       Y4.9034    
   X3.9478    
   X3.9614       Y4.9016    
   X3.9704       Y4.8979    
   X3.9780       Y4.8920    
   X3.9839       Y4.8843    
   X3.9876       Y4.8754    
   X3.9888       Y4.8659    
   X3.9876       Y4.8563    
   X3.9839       Y4.8474    
   X3.9780       Y4.8397    
(Pass: 4)
   Z0.1250     F10  
   X3.9704       Y4.8339     F40  
   X3.9614       Y4.8302    
   X3.9478       Y4.8284    
   X3.6016    
   X3.5880       Y4.8302    
   X3.5791       Y4.8339    
   X3.5714       Y4.8397    
   X3.5655       Y4.8474    
   X3.5618       Y4.8563    
   X3.5606       Y4.8659    
   X3.5618       Y4.8754    
   X3.5655       Y4.8843    
   X3.5714       Y4.8920    
   X3.5791       Y4.8979    
   X3.5880       Y4.9016    
   X3.6016       Y4.9034    
   X3.9478    
   X3.9614       Y4.9016    
   X3.9704       Y4.8979    
   X3.9780       Y4.8920    
   X3.9839       Y4.8843    
   X3.9876       Y4.8754    
   X3.9888       Y4.8659    
   X3.9876       Y4.8563    
   X3.9839       Y4.8474    
   X3.9780       Y4.8397    
(Pass: 5)
   Z0.0938     F10  
   X3.9704       Y4.8339     F40  
   X3.9614       Y4.8302    
   X3.9478       Y4.8284    
   X3.6016    
   X3.5880       Y4.8302    
   X3.5791       Y4.8339    
   X3.5714       Y4.8397    
   X3.5655       Y4.8474    
   X3.5618       Y4.8563    
   X3.5606       Y4.8659    
   X3.5618       Y4.8754    
   X3.5655       Y4.8843    
   X3.5714       Y4.8920    
   X3.5791       Y4.8979    
   X3.5880       Y4.9016    
   X3.6016       Y4.9034    
   X3.9478    
   X3.9614       Y4.9016    
   X3.9704       Y4.8979    
   X3.9780       Y4.8920    
   X3.9839       Y4.8843    
   X3.9876       Y4.8754    
   X3.9888       Y4.8659    
   X3.9876       Y4.8563    
   X3.9839       Y4.8474    
   X3.9780       Y4.8397    
(Pass: 6)
   Z0.0625     F10  
   X3.9704       Y4.8339     F40  
   X3.9614       Y4.8302    
   X3.9478       Y4.8284    
   X3.6016    
   X3.5880       Y4.8302    
   X3.5791       Y4.8339    
   X3.5714       Y4.8397    
   X3.5655       Y4.8474    
   X3.5618       Y4.8563    
   X3.5606       Y4.8659    
   X3.5618       Y4.8754    
   X3.5655       Y4.8843    
   X3.5714       Y4.8920    
   X3.5791       Y4.8979    
   X3.5880       Y4.9016    
   X3.6016       Y4.9034    
   X3.9478    
   X3.9614       Y4.9016    
   X3.9704       Y4.8979    
   X3.9780       Y4.8920    
   X3.9839       Y4.8843    
   X3.9876       Y4.8754    
   X3.9888       Y4.8659    
   X3.9876       Y4.8563    
   X3.9839       Y4.8474    
   X3.9780       Y4.8397    
(Pass: 7)
   Z0.0312     F10  
   X3.9704       Y4.8339     F40  
   X3.9614       Y4.8302    
   X3.9478       Y4.8284    
   X3.6016    
   X3.5880       Y4.8302    
   X3.5791       Y4.8339    
   X3.5714       Y4.8397    
   X3.5655       Y4.8474    
   X3.5618       Y4.8563    
   X3.5606       Y4.8659    
   X3.5618       Y4.8754    
   X3.5655       Y4.8843    
   X3.5714       Y4.8920    
   X3.5791       Y4.8979    
   X3.5880       Y4.9016    
   X3.6016       Y4.9034    
   X3.9478    
   X3.9614       Y4.9016    
   X3.9704       Y4.8979    
   X3.9780       Y4.8920    
   X3.9839       Y4.8843    
   X3.9876       Y4.8754    
   X3.9888       Y4.8659    
   X3.9876       Y4.8563    
   X3.9839       Y4.8474    
   X3.9780       Y4.8397    
(Pass: 8)
   Z0.0000     F10  
   X3.9704       Y4.8339     F40  
   X3.9614       Y4.8302    
   X3.9478       Y4.8284    
   X3.6016    
   X3.5880       Y4.8302    
   X3.5791       Y4.8339    
   X3.5714       Y4.8397    
   X3.5655       Y4.8474    
   X3.5618       Y4.8563    
   X3.5606       Y4.8659    
   X3.5618       Y4.8754    
   X3.5655       Y4.8843    
   X3.5714       Y4.8920    
   X3.5791       Y4.8979    
   X3.5880       Y4.9016    
   X3.6016       Y4.9034    
   X3.9478    
   X3.9614       Y4.9016    
   X3.9704       Y4.8979    
   X3.9780       Y4.8920    
   X3.9839       Y4.8843    
   X3.9876       Y4.8754    
   X3.9888       Y4.8659    
   X3.9876       Y4.8563    
   X3.9839       Y4.8474    
   X3.9780       Y4.8397    
G0   Z0.6875    
(Pass: 1)
   X4.0931       Y5.2918    
G1   Z0.2188     F10  
   X4.0845       Y5.2954     F40  
   X4.0772       Y5.3010    
   X4.0716       Y5.3083    
   X4.0681       Y5.3169    
   X4.0669       Y5.3260    
   X4.0681       Y5.3352    
   X4.0716       Y5.3437    
   X4.0772       Y5.3511    
   X4.0845       Y5.3567    
   X4.0931       Y5.3602    
   X4.1022       Y5.3614    
   X4.1114       Y5.3602    
   X4.1199       Y5.3567    
   X4.1273       Y5.3511    
   X4.1329       Y5.3437    
   X4.1364       Y5.3352    
   X4.1376       Y5.3260    
   X4.1364       Y5.3169    
   X4.1329       Y5.3083    
   X4.1273       Y5.3010    
   X4.1199       Y5.2954    
   X4.1114       Y5.2918    
   X4.1022       Y5.2906    
   X4.0931       Y5.2918    
(Pass: 2)
   Z0.1875     F10  
   X4.0845       Y5.2954     F40  
   X4.0772       Y5.3010    
   X4.0716       Y5.3083    
   X4.0681       Y5.3169    
   X4.0669       Y5.3260    
   X4.0681       Y5.3352    
   X4.0716       Y5.3437    
   X4.0772       Y5.3511    
   X4.0845       Y5.3567    
   X4.0931       Y5.3602    
   X4.1022       Y5.3614    
   X4.1114       Y5.3602    
   X4.1199       Y5.3567    
   X4.1273       Y5.3511    
   X4.1329       Y5.3437    
   X4.1364       Y5.3352    
   X4.1376       Y5.3260    
   X4.1364       Y5.3169    
   X4.1329       Y5.3083    
   X4.1273       Y5.3010    
   X4.1199       Y5.2954    
   X4.1114       Y5.2918    
   X4.1022       Y5.2906    
   X4.0931       Y5.2918    
(Pass: 3)
   Z0.1562     F10  
   X4.0845       Y5.2954     F40  
   X4.0772       Y5.3010    
   X4.0716       Y5.3083    
   X4.0681       Y5.3169    
   X4.0669       Y5.3260    
   X4.0681       Y5.3352    
   X4.0716       Y5.3437    
   X4.0772       Y5.3511    
   X4.0845       Y5.3567    
   X4.0931       Y5.3602    
   X4.1022       Y5.3614    
   X4.1114       Y5.3602    
   X4.1199       Y5.3567    
   X4.1273       Y5.3511    
   X4.1329       Y5.3437    
   X4.1364       Y5.3352    
   X4.1376       Y5.3260    
   X4.1364       Y5.3169    
   X4.1329       Y5.3083    
   X4.1273       Y5.3010    
   X4.1199       Y5.2954    
   X4.1114       Y5.2918    
   X4.1022       Y5.2906    
   X4.0931       Y5.2918    
(Pass: 4)
   Z0.1250     F10  
   X4.0845       Y5.2954     F40  
   X4.0772       Y5.3010    
   X4.0716       Y5.3083    
   X4.0681       Y5.3169    
   X4.0669       Y5.3260    
   X4.0681       Y5.3352    
   X4.0716       Y5.3437    
   X4.0772       Y5.3511    
   X4.0845       Y5.3567    
   X4.0931       Y5.3602    
   X4.1022       Y5.3614    
   X4.1114       Y5.3602    
   X4.1199       Y5.3567    
   X4.1273       Y5.3511    
   X4.1329       Y5.3437    
   X4.1364       Y5.3352    
   X4.1376       Y5.3260    
   X4.1364       Y5.3169    
   X4.1329       Y5.3083    
   X4.1273       Y5.3010    
   X4.1199       Y5.2954    
   X4.1114       Y5.2918    
   X4.1022       Y5.2906    
   X4.0931       Y5.2918    
(Pass: 5)
   Z0.0938     F10  
   X4.0845       Y5.2954     F40  
   X4.0772       Y5.3010    
   X4.0716       Y5.3083    
   X4.0681       Y5.3169    
   X4.0669       Y5.3260    
   X4.0681       Y5.3352    
   X4.0716       Y5.3437    
   X4.0772       Y5.3511    
   X4.0845       Y5.3567    
   X4.0931       Y5.3602    
   X4.1022       Y5.3614    
   X4.1114       Y5.3602    
   X4.1199       Y5.3567    
   X4.1273       Y5.3511    
   X4.1329       Y5.3437    
   X4.1364       Y5.3352    
   X4.1376       Y5.3260    
   X4.1364       Y5.3169    
   X4.1329       Y5.3083    
   X4.1273       Y5.3010    
   X4.1199       Y5.2954    
   X4.1114       Y5.2918    
   X4.1022       Y5.2906    
   X4.0931       Y5.2918    
(Pass: 6)
   Z0.0625     F10  
   X4.0845       Y5.2954     F40  
   X4.0772       Y5.3010    
   X4.0716       Y5.3083    
   X4.0681       Y5.3169    
   X4.0669       Y5.3260    
   X4.0681       Y5.3352    
   X4.0716       Y5.3437    
   X4.0772       Y5.3511    
   X4.0845       Y5.3567    
