%
(Generated by SketchUcam {1.2a})
(Bit diameter: 3.2mm)
(Feed rate: 2540.0mm/min)
(Material Thickness: 6.3mm)
(Material length: 558.8mm X width: 1066.8mm)
(Overhead Gantry: false)
(Retract feed rate NOT limited to plunge feed rate)
(Multipass enabled, Depth = 0.8mm)
(Optimization is ON)
(Z ZERO IS TABLETOP)
(www.PhlatBoyz.com)
(Loaded profile default)
G90 G21 G49 
M3 S15000
G0   Z9.500     
(Pass: 1)
   X26.200       Y78.301    
G1   Z5.500      F2540
G17 G3   X29.9325      Y77.5489      R14.6000   
   X33.7327      Y77.7889      R14.6000   
   X37.3413      Y79.0043      R14.6000   
   X40.5124      Y81.1122      R14.6000   
   X43.0298      Y83.9691      R14.6000   
   X44.7220      Y87.3801      R14.6000   
   X45.4737      Y91.1130      R14.6000   
   X45.2337      Y94.9132      R14.6000   
   X44.0183      Y98.5217      R14.6000   
   X41.9104      Y101.6928     R14.6000   
   X39.0535      Y104.2102     R14.6000   
   X35.6425      Y105.9025     R14.6000   
   X31.9096      Y106.6542     R14.6000   
   X28.1095      Y106.4142     R14.6000   
   X24.5009      Y105.1988     R14.6000   
   X21.3298      Y103.0908     R14.6000   
   X18.8124      Y100.2340     R14.6000   
   X17.1202      Y96.8229      R14.6000   
   X16.3684      Y93.0901      R14.6000   
   X16.6084      Y89.2899      R14.6000   
   X17.8238      Y85.6813      R14.6000   
   X19.9318      Y82.5102      R14.6000   
   X22.7887      Y79.9928      R14.6000   
   X26.1997      Y78.3006      R14.6000   
(Pass: 2)
G1   Z4.700     
G17 G3   X29.9325      Y77.5489      R14.6000   
   X33.7327      Y77.7889      R14.6000   
   X37.3413      Y79.0043      R14.6000   
   X40.5124      Y81.1122      R14.6000   
   X43.0298      Y83.9691      R14.6000   
   X44.7220      Y87.3801      R14.6000   
   X45.4737      Y91.1130      R14.6000   
   X45.2337      Y94.9132      R14.6000   
   X44.0183      Y98.5217      R14.6000   
   X41.9104      Y101.6928     R14.6000   
   X39.0535      Y104.2102     R14.6000   
   X35.6425      Y105.9025     R14.6000   
   X31.9096      Y106.6542     R14.6000   
   X28.1095      Y106.4142     R14.6000   
   X24.5009      Y105.1988     R14.6000   
   X21.3298      Y103.0908     R14.6000   
   X18.8124      Y100.2340     R14.6000   
   X17.1202      Y96.8229      R14.6000   
   X16.3684      Y93.0901      R14.6000   
   X16.6084      Y89.2899      R14.6000   
   X17.8238      Y85.6813      R14.6000   
   X19.9318      Y82.5102      R14.6000   
   X22.7887      Y79.9928      R14.6000   
   X26.1997      Y78.3006      R14.6000   
(Pass: 3)
G1   Z3.900     
G17 G3   X29.9325      Y77.5489      R14.6000   
   X33.7327      Y77.7889      R14.6000   
   X37.3413      Y79.0043      R14.6000   
   X40.5124      Y81.1122      R14.6000   
   X43.0298      Y83.9691      R14.6000   
   X44.7220      Y87.3801      R14.6000   
   X45.4737      Y91.1130      R14.6000   
   X45.2337      Y94.9132      R14.6000   
   X44.0183      Y98.5217      R14.6000   
   X41.9104      Y101.6928     R14.6000   
   X39.0535      Y104.2102     R14.6000   
   X35.6425      Y105.9025     R14.6000   
   X31.9096      Y106.6542     R14.6000   
   X28.1095      Y106.4142     R14.6000   
   X24.5009      Y105.1988     R14.6000   
   X21.3298      Y103.0908     R14.6000   
   X18.8124      Y100.2340     R14.6000   
   X17.1202      Y96.8229      R14.6000   
   X16.3684      Y93.0901      R14.6000   
   X16.6084      Y89.2899      R14.6000   
   X17.8238      Y85.6813      R14.6000   
   X19.9318      Y82.5102      R14.6000   
   X22.7887      Y79.9928      R14.6000   
   X26.1997      Y78.3006      R14.6000   
(Pass: 4)
G1   Z3.100     
G17 G3   X29.9325      Y77.5489      R14.6000   
   X33.7327      Y77.7889      R14.6000   
   X37.3413      Y79.0043      R14.6000   
   X40.5124      Y81.1122      R14.6000   
   X43.0298      Y83.9691      R14.6000   
   X44.7220      Y87.3801      R14.6000   
   X45.4737      Y91.1130      R14.6000   
   X45.2337      Y94.9132      R14.6000   
   X44.0183      Y98.5217      R14.6000   
   X41.9104      Y101.6928     R14.6000   
   X39.0535      Y104.2102     R14.6000   
   X35.6425      Y105.9025     R14.6000   
   X31.9096      Y106.6542     R14.6000   
   X28.1095      Y106.4142     R14.6000   
   X24.5009      Y105.1988     R14.6000   
   X21.3298      Y103.0908     R14.6000   
   X18.8124      Y100.2340     R14.6000   
   X17.1202      Y96.8229      R14.6000   
   X16.3684      Y93.0901      R14.6000   
   X16.6084      Y89.2899      R14.6000   
   X17.8238      Y85.6813      R14.6000   
   X19.9318      Y82.5102      R14.6000   
   X22.7887      Y79.9928      R14.6000   
   X26.1997      Y78.3006      R14.6000   
(Pass: 5)
G1   Z2.300     
G17 G3   X29.9325      Y77.5489      R14.6000   
   X33.7327      Y77.7889      R14.6000   
   X37.3413      Y79.0043      R14.6000   
   X40.5124      Y81.1122      R14.6000   
   X43.0298      Y83.9691      R14.6000   
   X44.7220      Y87.3801      R14.6000   
   X45.4737      Y91.1130      R14.6000   
   X45.2337      Y94.9132      R14.6000   
   X44.0183      Y98.5217      R14.6000   
   X41.9104      Y101.6928     R14.6000   
   X39.0535      Y104.2102     R14.6000   
   X35.6425      Y105.9025     R14.6000   
   X31.9096      Y106.6542     R14.6000   
   X28.1095      Y106.4142     R14.6000   
   X24.5009      Y105.1988     R14.6000   
   X21.3298      Y103.0908     R14.6000   
   X18.8124      Y100.2340     R14.6000   
   X17.1202      Y96.8229      R14.6000   
   X16.3684      Y93.0901      R14.6000   
   X16.6084      Y89.2899      R14.6000   
   X17.8238      Y85.6813      R14.6000   
   X19.9318      Y82.5102      R14.6000   
   X22.7887      Y79.9928      R14.6000   
   X26.1997      Y78.3006      R14.6000   
(Pass: 6)
G1   Z1.500     
G17 G3   X29.9325      Y77.5489      R14.6000   
   X33.7327      Y77.7889      R14.6000   
   X37.3413      Y79.0043      R14.6000   
   X40.5124      Y81.1122      R14.6000   
   X43.0298      Y83.9691      R14.6000   
   X44.7220      Y87.3801      R14.6000   
   X45.4737      Y91.1130      R14.6000   
   X45.2337      Y94.9132      R14.6000   
   X44.0183      Y98.5217      R14.6000   
   X41.9104      Y101.6928     R14.6000   
   X39.0535      Y104.2102     R14.6000   
   X35.6425      Y105.9025     R14.6000   
   X31.9096      Y106.6542     R14.6000   
   X28.1095      Y106.4142     R14.6000   
   X24.5009      Y105.1988     R14.6000   
   X21.3298      Y103.0908     R14.6000   
   X18.8124      Y100.2340     R14.6000   
   X17.1202      Y96.8229      R14.6000   
   X16.3684      Y93.0901      R14.6000   
   X16.6084      Y89.2899      R14.6000   
   X17.8238      Y85.6813      R14.6000   
   X19.9318      Y82.5102      R14.6000   
   X22.7887      Y79.9928      R14.6000   
   X26.1997      Y78.3006      R14.6000   
(Pass: 7)
G1   Z0.700     
G17 G3   X29.9325      Y77.5489      R14.6000   
   X33.7327      Y77.7889      R14.6000   
   X37.3413      Y79.0043      R14.6000   
   X40.5124      Y81.1122      R14.6000   
   X43.0298      Y83.9691      R14.6000   
   X44.7220      Y87.3801      R14.6000   
   X45.4737      Y91.1130      R14.6000   
   X45.2337      Y94.9132      R14.6000   
   X44.0183      Y98.5217      R14.6000   
   X41.9104      Y101.6928     R14.6000   
   X39.0535      Y104.2102     R14.6000   
   X35.6425      Y105.9025     R14.6000   
   X31.9096      Y106.6542     R14.6000   
   X28.1095      Y106.4142     R14.6000   
   X24.5009      Y105.1988     R14.6000   
   X21.3298      Y103.0908     R14.6000   
   X18.8124      Y100.2340     R14.6000   
   X17.1202      Y96.8229      R14.6000   
   X16.3684      Y93.0901      R14.6000   
   X16.6084      Y89.2899      R14.6000   
   X17.8238      Y85.6813      R14.6000   
   X19.9318      Y82.5102      R14.6000   
   X22.7887      Y79.9928      R14.6000   
   X26.1997      Y78.3006      R14.6000   
(Pass: 8)
G1   Z-0.100    
G17 G3   X29.9325      Y77.5489      R14.6000   
   X33.7327      Y77.7889      R14.6000   
   X37.3413      Y79.0043      R14.6000   
   X40.5124      Y81.1122      R14.6000   
   X43.0298      Y83.9691      R14.6000   
   X44.7220      Y87.3801      R14.6000   
   X45.4737      Y91.1130      R14.6000   
   X45.2337      Y94.9132      R14.6000   
   X44.0183      Y98.5217      R14.6000   
   X41.9104      Y101.6928     R14.6000   
   X39.0535      Y104.2102     R14.6000   
   X35.6425      Y105.9025     R14.6000   
   X31.9096      Y106.6542     R14.6000   
   X28.1095      Y106.4142     R14.6000   
   X24.5009      Y105.1988     R14.6000   
   X21.3298      Y103.0908     R14.6000   
   X18.8124      Y100.2340     R14.6000   
   X17.1202      Y96.8229      R14.6000   
   X16.3684      Y93.0901      R14.6000   
   X16.6084      Y89.2899      R14.6000   
   X17.8238      Y85.6813      R14.6000   
   X19.9318      Y82.5102      R14.6000   
   X22.7887      Y79.9928      R14.6000   
   X26.1997      Y78.3006      R14.6000   
(Pass: 9)
G1   Z-0.900    
G17 G3   X29.9325      Y77.5489      R14.6000   
   X33.7327      Y77.7889      R14.6000   
   X37.3413      Y79.0043      R14.6000   
   X40.5124      Y81.1122      R14.6000   
   X43.0298      Y83.9691      R14.6000   
   X44.7220      Y87.3801      R14.6000   
   X45.4737      Y91.1130      R14.6000   
   X45.2337      Y94.9132      R14.6000   
   X44.0183      Y98.5217      R14.6000   
   X41.9104      Y101.6928     R14.6000   
   X39.0535      Y104.2102     R14.6000   
   X35.6425      Y105.9025     R14.6000   
   X31.9096      Y106.6542     R14.6000   
   X28.1095      Y106.4142     R14.6000   
   X24.5009      Y105.1988     R14.6000   
   X21.3298      Y103.0908     R14.6000   
   X18.8124      Y100.2340     R14.6000   
   X17.1202      Y96.8229      R14.6000   
   X16.3684      Y93.0901      R14.6000   
   X16.6084      Y89.2899      R14.6000   
   X17.8238      Y85.6813      R14.6000   
   X19.9318      Y82.5102      R14.6000   
   X22.7887      Y79.9928      R14.6000   
   X26.1997      Y78.3006      R14.6000   
(BREAK pass 9)
G0   Z9.500     
(Pass: 1)
   X68.370       Y75.418    
G1   Z5.500      F2540
G17 G3   X68.4494      Y71.9248      R13.4000   
   X69.4306      Y68.5709      R13.4000   
   X71.2463      Y65.5852      R13.4000   
   X73.7730      Y63.1712      R13.4000   
   X76.8384      Y61.4933      R13.4000   
   X80.2335      Y60.6661      R13.4000   
   X83.7271      Y60.7457      R13.4000   
   X87.0810      Y61.7268      R13.4000   
   X90.0668      Y63.5426      R13.4000   
   X92.4808      Y66.0693      R13.4000   
   X94.1586      Y69.1346      R13.4000   
   X94.9859      Y72.5298      R13.4000   
   X94.9062      Y76.0234      R13.4000   
   X93.9251      Y79.3773      R13.4000   
   X92.1093      Y82.3630      R13.4000   
   X89.5827      Y84.7771      R13.4000   
   X86.5173      Y86.4549      R13.4000   
   X83.1222      Y87.2822      R13.4000   
   X79.6286      Y87.2025      R13.4000   
   X76.2746      Y86.2214      R13.4000   
   X73.2889      Y84.4056      R13.4000   
   X70.8749      Y81.8789      R13.4000   
   X69.1971      Y78.8136      R13.4000   
   X68.3698      Y75.4184      R13.4000   
(Pass: 2)
G1   Z4.700     
G17 G3   X68.4494      Y71.9248      R13.4000   
   X69.4306      Y68.5709      R13.4000   
   X71.2463      Y65.5852      R13.4000   
   X73.7730      Y63.1712      R13.4000   
   X76.8384      Y61.4933      R13.4000   
   X80.2335      Y60.6661      R13.4000   
   X83.7271      Y60.7457      R13.4000   
   X87.0810      Y61.7268      R13.4000   
   X90.0668      Y63.5426      R13.4000   
   X92.4808      Y66.0693      R13.4000   
   X94.1586      Y69.1346      R13.4000   
   X94.9859      Y72.5298      R13.4000   
   X94.9062      Y76.0234      R13.4000   
   X93.9251      Y79.3773      R13.4000   
   X92.1093      Y82.3630      R13.4000   
   X89.5827      Y84.7771      R13.4000   
   X86.5173      Y86.4549      R13.4000   
   X83.1222      Y87.2822      R13.4000   
   X79.6286      Y87.2025      R13.4000   
   X76.2746      Y86.2214      R13.4000   
   X73.2889      Y84.4056      R13.4000   
   X70.8749      Y81.8789      R13.4000   
   X69.1971      Y78.8136      R13.4000   
   X68.3698      Y75.4184      R13.4000   
(Pass: 3)
G1   Z3.900     
G17 G3   X68.4494      Y71.9248      R13.4000   
   X69.4306      Y68.5709      R13.4000   
   X71.2463      Y65.5852      R13.4000   
   X73.7730      Y63.1712      R13.4000   
   X76.8384      Y61.4933      R13.4000   
   X80.2335      Y60.6661      R13.4000   
   X83.7271      Y60.7457      R13.4000   
   X87.0810      Y61.7268      R13.4000   
   X90.0668      Y63.5426      R13.4000   
   X92.4808      Y66.0693      R13.4000   
   X94.1586      Y69.1346      R13.4000   
   X94.9859      Y72.5298      R13.4000   
   X94.9062      Y76.0234      R13.4000   
   X93.9251      Y79.3773      R13.4000   
   X92.1093      Y82.3630      R13.4000   
   X89.5827      Y84.7771      R13.4000   
   X86.5173      Y86.4549      R13.4000   
   X83.1222      Y87.2822      R13.4000   
   X79.6286      Y87.2025      R13.4000   
   X76.2746      Y86.2214      R13.4000   
   X73.2889      Y84.4056      R13.4000   
   X70.8749      Y81.8789      R13.4000   
   X69.1971      Y78.8136      R13.4000   
   X68.3698      Y75.4184      R13.4000   
(Pass: 4)
G1   Z3.100     
G17 G3   X68.4494      Y71.9248      R13.4000   
   X69.4306      Y68.5709      R13.4000   
   X71.2463      Y65.5852      R13.4000   
   X73.7730      Y63.1712      R13.4000   
   X76.8384      Y61.4933      R13.4000   
   X80.2335      Y60.6661      R13.4000   
   X83.7271      Y60.7457      R13.4000   
   X87.0810      Y61.7268      R13.4000   
   X90.0668      Y63.5426      R13.4000   
   X92.4808      Y66.0693      R13.4000   
   X94.1586      Y69.1346      R13.4000   
   X94.9859      Y72.5298      R13.4000   
   X94.9062      Y76.0234      R13.4000   
   X93.9251      Y79.3773      R13.4000   
   X92.1093      Y82.3630      R13.4000   
   X89.5827      Y84.7771      R13.4000   
   X86.5173      Y86.4549      R13.4000   
   X83.1222      Y87.2822      R13.4000   
   X79.6286      Y87.2025      R13.4000   
   X76.2746      Y86.2214      R13.4000   
   X73.2889      Y84.4056      R13.4000   
   X70.8749      Y81.8789      R13.4000   
   X69.1971      Y78.8136      R13.4000   
   X68.3698      Y75.4184      R13.4000   
(Pass: 5)
G1   Z2.300     
G17 G3   X68.4494      Y71.9248      R13.4000   
   X69.4306      Y68.5709      R13.4000   
   X71.2463      Y65.5852      R13.4000   
   X73.7730      Y63.1712      R13.4000   
   X76.8384      Y61.4933      R13.4000   
   X80.2335      Y60.6661      R13.4000   
   X83.7271      Y60.7457      R13.4000   
   X87.0810      Y61.7268      R13.4000   
   X90.0668      Y63.5426      R13.4000   
   X92.4808      Y66.0693      R13.4000   
   X94.1586      Y69.1346      R13.4000   
   X94.9859      Y72.5298      R13.4000   
   X94.9062      Y76.0234      R13.4000   
   X93.9251      Y79.3773      R13.4000   
   X92.1093      Y82.3630      R13.4000   
   X89.5827      Y84.7771      R13.4000   
   X86.5173      Y86.4549      R13.4000   
   X83.1222      Y87.2822      R13.4000   
   X79.6286      Y87.2025      R13.4000   
   X76.2746      Y86.2214      R13.4000   
   X73.2889      Y84.4056      R13.4000   
   X70.8749      Y81.8789      R13.4000   
   X69.1971      Y78.8136      R13.4000   
   X68.3698      Y75.4184      R13.4000   
(Pass: 6)
G1   Z1.500     
G17 G3   X68.4494      Y71.9248      R13.4000   
   X69.4306      Y68.5709      R13.4000   
   X71.2463      Y65.5852      R13.4000   
   X73.7730      Y63.1712      R13.4000   
   X76.8384      Y61.4933      R13.4000   
   X80.2335      Y60.6661      R13.4000   
   X83.7271      Y60.7457      R13.4000   
   X87.0810      Y61.7268      R13.4000   
   X90.0668      Y63.5426      R13.4000   
   X92.4808      Y66.0693      R13.4000   
   X94.1586      Y69.1346      R13.4000   
   X94.9859      Y72.5298      R13.4000   
   X94.9062      Y76.0234      R13.4000   
   X93.9251      Y79.3773      R13.4000   
   X92.1093      Y82.3630      R13.4000   
   X89.5827      Y84.7771      R13.4000   
   X86.5173      Y86.4549      R13.4000   
   X83.1222      Y87.2822      R13.4000   
   X79.6286      Y87.2025      R13.4000   
   X76.2746      Y86.2214      R13.4000   
   X73.2889      Y84.4056      R13.4000   
   X70.8749      Y81.8789      R13.4000   
   X69.1971      Y78.8136      R13.4000   
   X68.3698      Y75.4184      R13.4000   
(Pass: 7)
G1   Z0.700     
G17 G3   X68.4494      Y71.9248      R13.4000   
   X69.4306      Y68.5709      R13.4000   
   X71.2463      Y65.5852      R13.4000   
   X73.7730      Y63.1712      R13.4000   
   X76.8384      Y61.4933      R13.4000   
   X80.2335      Y60.6661      R13.4000   
   X83.7271      Y60.7457      R13.4000   
   X87.0810      Y61.7268      R13.4000   
   X90.0668      Y63.5426      R13.4000   
   X92.4808      Y66.0693      R13.4000   
   X94.1586      Y69.1346      R13.4000   
   X94.9859      Y72.5298      R13.4000   
   X94.9062      Y76.0234      R13.4000   
   X93.9251      Y79.3773      R13.4000   
   X92.1093      Y82.3630      R13.4000   
   X89.5827      Y84.7771      R13.4000   
   X86.5173      Y86.4549      R13.4000   
   X83.1222      Y87.2822      R13.4000   
   X79.6286      Y87.2025      R13.4000   
   X76.2746      Y86.2214      R13.4000   
   X73.2889      Y84.4056      R13.4000   
   X70.8749      Y81.8789      R13.4000   
   X69.1971      Y78.8136      R13.4000   
   X68.3698      Y75.4184      R13.4000   
(Pass: 8)
G1   Z-0.100    
G17 G3   X68.4494      Y71.9248      R13.4000   
   X69.4306      Y68.5709      R13.4000   
   X71.2463      Y65.5852      R13.4000   
   X73.7730      Y63.1712      R13.4000   
   X76.8384      Y61.4933      R13.4000   
   X80.2335      Y60.6661      R13.4000   
   X83.7271      Y60.7457      R13.4000   
   X87.0810      Y61.7268      R13.4000   
   X90.0668      Y63.5426      R13.4000   
   X92.4808      Y66.0693      R13.4000   
   X94.1586      Y69.1346      R13.4000   
   X94.9859      Y72.5298      R13.4000   
   X94.9062      Y76.0234      R13.4000   
   X93.9251      Y79.3773      R13.4000   
   X92.1093      Y82.3630      R13.4000   
   X89.5827      Y84.7771      R13.4000   
   X86.5173      Y86.4549      R13.4000   
   X83.1222      Y87.2822      R13.4000   
   X79.6286      Y87.2025      R13.4000   
   X76.2746      Y86.2214      R13.4000   
   X73.2889      Y84.4056      R13.4000   
   X70.8749      Y81.8789      R13.4000   
   X69.1971      Y78.8136      R13.4000   
   X68.3698      Y75.4184      R13.4000   
(Pass: 9)
G1   Z-0.900    
G17 G3   X68.4494      Y71.9248      R13.4000   
   X69.4306      Y68.5709      R13.4000   
   X71.2463      Y65.5852      R13.4000   
   X73.7730      Y63.1712      R13.4000   
   X76.8384      Y61.4933      R13.4000   
   X80.2335      Y60.6661      R13.4000   
   X83.7271      Y60.7457      R13.4000   
   X87.0810      Y61.7268      R13.4000   
   X90.0668      Y63.5426      R13.4000   
   X92.4808      Y66.0693      R13.4000   
   X94.1586      Y69.1346      R13.4000   
   X94.9859      Y72.5298      R13.4000   
   X94.9062      Y76.0234      R13.4000   
   X93.9251      Y79.3773      R13.4000   
   X92.1093      Y82.3630      R13.4000   
   X89.5827      Y84.7771      R13.4000   
   X86.5173      Y86.4549      R13.4000   
   X83.1222      Y87.2822      R13.4000   
   X79.6286      Y87.2025      R13.4000   
   X76.2746      Y86.2214      R13.4000   
   X73.2889      Y84.4056      R13.4000   
   X70.8749      Y81.8789      R13.4000   
   X69.1971      Y78.8136      R13.4000   
   X68.3698      Y75.4184      R13.4000   
(BREAK pass 9)
G0   Z9.500     
(Pass: 1)
   X72.010       Y122.356   
G1   Z5.500      F2540
G17 G3   X73.0416      Y122.4918     R4.0000    
   X74.0030      Y122.8900     R4.0000    
   X74.8286      Y123.5235     R4.0000    
   X75.4620      Y124.3491     R4.0000    
   X75.8603      Y125.3105     R4.0000    
   X75.9961      Y126.3422     R4.0000    
   X75.8603      Y127.3739     R4.0000    
   X75.4620      Y128.3353     R4.0000    
   X74.8286      Y129.1608     R4.0000    
   X74.0030      Y129.7943     R4.0000    
   X73.0416      Y130.1926     R4.0000    
   X72.0099      Y130.3284     R4.0000    
   X70.9782      Y130.1926     R4.0000    
   X70.0168      Y129.7943     R4.0000    
   X69.1912      Y129.1608     R4.0000    
   X68.5577      Y128.3353     R4.0000    
   X68.1595      Y127.3739     R4.0000    
   X68.0237      Y126.3422     R4.0000    
   X68.1595      Y125.3105     R4.0000    
   X68.5577      Y124.3491     R4.0000    
   X69.1912      Y123.5235     R4.0000    
   X70.0168      Y122.8900     R4.0000    
   X70.9782      Y122.4918     R4.0000    
   X72.0099      Y122.3560     R4.0000    
(Pass: 2)
G1   Z4.700     
G17 G3   X73.0416      Y122.4918     R4.0000    
   X74.0030      Y122.8900     R4.0000    
   X74.8286      Y123.5235     R4.0000    
   X75.4620      Y124.3491     R4.0000    
   X75.8603      Y125.3105     R4.0000    
   X75.9961      Y126.3422     R4.0000    
   X75.8603      Y127.3739     R4.0000    
   X75.4620      Y128.3353     R4.0000    
   X74.8286      Y129.1608     R4.0000    
   X74.0030      Y129.7943     R4.0000    
   X73.0416      Y130.1926     R4.0000    
   X72.0099      Y130.3284     R4.0000    
   X70.9782      Y130.1926     R4.0000    
   X70.0168      Y129.7943     R4.0000    
   X69.1912      Y129.1608     R4.0000    
   X68.5577      Y128.3353     R4.0000    
   X68.1595      Y127.3739     R4.0000    
   X68.0237      Y126.3422     R4.0000    
   X68.1595      Y125.3105     R4.0000    
   X68.5577      Y124.3491     R4.0000    
   X69.1912      Y123.5235     R4.0000    
   X70.0168      Y122.8900     R4.0000    
   X70.9782      Y122.4918     R4.0000    
   X72.0099      Y122.3560     R4.0000    
(Pass: 3)
G1   Z3.900     
G17 G3   X73.0416      Y122.4918     R4.0000    
   X74.0030      Y122.8900     R4.0000    
   X74.8286      Y123.5235     R4.0000    
   X75.4620      Y124.3491     R4.0000    
   X75.8603      Y125.3105     R4.0000    
   X75.9961      Y126.3422     R4.0000    
   X75.8603      Y127.3739     R4.0000    
   X75.4620      Y128.3353     R4.0000    
   X74.8286      Y129.1608     R4.0000    
   X74.0030      Y129.7943     R4.0000    
   X73.0416      Y130.1926     R4.0000    
   X72.0099      Y130.3284     R4.0000    
   X70.9782      Y130.1926     R4.0000    
   X70.0168      Y129.7943     R4.0000    
   X69.1912      Y129.1608     R4.0000    
   X68.5577      Y128.3353     R4.0000    
   X68.1595      Y127.3739     R4.0000    
   X68.0237      Y126.3422     R4.0000    
   X68.1595      Y125.3105     R4.0000    
   X68.5577      Y124.3491     R4.0000    
   X69.1912      Y123.5235     R4.0000    
   X70.0168      Y122.8900     R4.0000    
   X70.9782      Y122.4918     R4.0000    
   X72.0099      Y122.3560     R4.0000    
(Pass: 4)
G1   Z3.100     
G17 G3   X73.0416      Y122.4918     R4.0000    
   X74.0030      Y122.8900     R4.0000    
   X74.8286      Y123.5235     R4.0000    
   X75.4620      Y124.3491     R4.0000    
   X75.8603      Y125.3105     R4.0000    
   X75.9961      Y126.3422     R4.0000    
   X75.8603      Y127.3739     R4.0000    
   X75.4620      Y128.3353     R4.0000    
   X74.8286      Y129.1608     R4.0000    
   X74.0030      Y129.7943     R4.0000    
   X73.0416      Y130.1926     R4.0000    
   X72.0099      Y130.3284     R4.0000    
   X70.9782      Y130.1926     R4.0000    
   X70.0168      Y129.7943     R4.0000    
   X69.1912      Y129.1608     R4.0000    
   X68.5577      Y128.3353     R4.0000    
   X68.1595      Y127.3739     R4.0000    
   X68.0237      Y126.3422     R4.0000    
   X68.1595      Y125.3105     R4.0000    
   X68.5577      Y124.3491     R4.0000    
   X69.1912      Y123.5235     R4.0000    
   X70.0168      Y122.8900     R4.0000    
   X70.9782      Y122.4918     R4.0000    
   X72.0099      Y122.3560     R4.0000    
(Pass: 5)
G1   Z2.300     
G17 G3   X73.0416      Y122.4918     R4.0000    
   X74.0030      Y122.8900     R4.0000    
   X74.8286      Y123.5235     R4.0000    
   X75.4620      Y124.3491     R4.0000    
   X75.8603      Y125.3105     R4.0000    
   X75.9961      Y126.3422     R4.0000    
   X75.8603      Y127.3739     R4.0000    
   X75.4620      Y128.3353     R4.0000    
   X74.8286      Y129.1608     R4.0000    
   X74.0030      Y129.7943     R4.0000    
   X73.0416      Y130.1926     R4.0000    
   X72.0099      Y130.3284     R4.0000    
   X70.9782      Y130.1926     R4.0000    
   X70.0168      Y129.7943     R4.0000    
   X69.1912      Y129.1608     R4.0000    
   X68.5577      Y128.3353     R4.0000    
   X68.1595      Y127.3739     R4.0000    
   X68.0237      Y126.3422     R4.0000    
   X68.1595      Y125.3105     R4.0000    
   X68.5577      Y124.3491     R4.0000    
   X69.1912      Y123.5235     R4.0000    
   X70.0168      Y122.8900     R4.0000    
   X70.9782      Y122.4918     R4.0000    
   X72.0099      Y122.3560     R4.0000    
(Pass: 6)
G1   Z1.500     
G17 G3   X73.0416      Y122.4918     R4.0000    
   X74.0030      Y122.8900     R4.0000    
   X74.8286      Y123.5235     R4.0000    
   X75.4620      Y124.3491     R4.0000    
   X75.8603      Y125.3105     R4.0000    
   X75.9961      Y126.3422     R4.0000    
   X75.8603      Y127.3739     R4.0000    
   X75.4620      Y128.3353     R4.0000    
   X74.8286      Y129.1608     R4.0000    
   X74.0030      Y129.7943     R4.0000    
   X73.0416      Y130.1926     R4.0000    
   X72.0099      Y130.3284     R4.0000    
   X70.9782      Y130.1926     R4.0000    
   X70.0168      Y129.7943     R4.0000    
   X69.1912      Y129.1608     R4.0000    
   X68.5577      Y128.3353     R4.0000    
   X68.1595      Y127.3739     R4.0000    
   X68.0237      Y126.3422     R4.0000    
   X68.1595      Y125.3105     R4.0000    
   X68.5577      Y124.3491     R4.0000    
   X69.1912      Y123.5235     R4.0000    
   X70.0168      Y122.8900     R4.0000    
   X70.9782      Y122.4918     R4.0000    
   X72.0099      Y122.3560     R4.0000    
(Pass: 7)
G1   Z0.700     
G17 G3   X73.0416      Y122.4918     R4.0000    
   X74.0030      Y122.8900     R4.0000    
   X74.8286      Y123.5235     R4.0000    
   X75.4620      Y124.3491     R4.0000    
   X75.8603      Y125.3105     R4.0000    
   X75.9961      Y126.3422     R4.0000    
   X75.8603      Y127.3739     R4.0000    
   X75.4620      Y128.3353     R4.0000    
   X74.8286      Y129.1608     R4.0000    
   X74.0030      Y129.7943     R4.0000    
   X73.0416      Y130.1926     R4.0000    
   X72.0099      Y130.3284     R4.0000    
   X70.9782      Y130.1926     R4.0000    
   X70.0168      Y129.7943     R4.0000    
   X69.1912      Y129.1608     R4.0000    
   X68.5577      Y128.3353     R4.0000    
   X68.1595      Y127.3739     R4.0000    
   X68.0237      Y126.3422     R4.0000    
   X68.1595      Y125.3105     R4.0000    
   X68.5577      Y124.3491     R4.0000    
   X69.1912      Y123.5235     R4.0000    
   X70.0168      Y122.8900     R4.0000    
   X70.9782      Y122.4918     R4.0000    
   X72.0099      Y122.3560     R4.0000    
(Pass: 8)
G1   Z-0.100    
G17 G3   X73.0416      Y122.4918     R4.0000    
   X74.0030      Y122.8900     R4.0000    
   X74.8286      Y123.5235     R4.0000    
   X75.4620      Y124.3491     R4.0000    
   X75.8603      Y125.3105     R4.0000    
   X75.9961      Y126.3422     R4.0000    
   X75.8603      Y127.3739     R4.0000    
   X75.4620      Y128.3353     R4.0000    
   X74.8286      Y129.1608     R4.0000    
   X74.0030      Y129.7943     R4.0000    
   X73.0416      Y130.1926     R4.0000    
   X72.0099      Y130.3284     R4.0000    
   X70.9782      Y130.1926     R4.0000    
   X70.0168      Y129.7943     R4.0000    
   X69.1912      Y129.1608     R4.0000    
   X68.5577      Y128.3353     R4.0000    
   X68.1595      Y127.3739     R4.0000    
   X68.0237      Y126.3422     R4.0000    
   X68.1595      Y125.3105     R4.0000    
   X68.5577      Y124.3491     R4.0000    
   X69.1912      Y123.5235     R4.0000    
   X70.0168      Y122.8900     R4.0000    
   X70.9782      Y122.4918     R4.0000    
   X72.0099      Y122.3560     R4.0000    
(Pass: 9)
G1   Z-0.900    
G17 G3   X73.0416      Y122.4918     R4.0000    
   X74.0030      Y122.8900     R4.0000    
   X74.8286      Y123.5235     R4.0000    
   X75.4620      Y124.3491     R4.0000    
   X75.8603      Y125.3105     R4.0000    
   X75.9961      Y126.3422     R4.0000    
   X75.8603      Y127.3739     R4.0000    
   X75.4620      Y128.3353     R4.0000    
   X74.8286      Y129.1608     R4.0000    
   X74.0030      Y129.7943     R4.0000    
   X73.0416      Y130.1926     R4.0000    
   X72.0099      Y130.3284     R4.0000    
   X70.9782      Y130.1926     R4.0000    
   X70.0168      Y129.7943     R4.0000    
   X69.1912      Y129.1608     R4.0000    
   X68.5577      Y128.3353     R4.0000    
   X68.1595      Y127.3739     R4.0000    
   X68.0237      Y126.3422     R4.0000    
   X68.1595      Y125.3105     R4.0000    
   X68.5577      Y124.3491     R4.0000    
   X69.1912      Y123.5235     R4.0000    
   X70.0168      Y122.8900     R4.0000    
   X70.9782      Y122.4918     R4.0000    
   X72.0099      Y122.3560     R4.0000    
(BREAK pass 9)
G0   Z9.500     
(Pass: 1)
   X43.005       Y146.888   
G1   Z5.500      F2540
G17 G3   X43.6384      Y147.7133     R4.0000    
   X44.0366      Y148.6747     R4.0000    
   X44.1724      Y149.7064     R4.0000    
   X44.0366      Y150.7381     R4.0000    
   X43.6384      Y151.6995     R4.0000    
   X43.0049      Y152.5251     R4.0000    
   X42.1793      Y153.1585     R4.0000    
   X41.2179      Y153.5568     R4.0000    
   X40.1862      Y153.6926     R4.0000    
   X39.1545      Y153.5568     R4.0000    
   X38.1931      Y153.1585     R4.0000    
   X37.3675      Y152.5251     R4.0000    
   X36.7341      Y151.6995     R4.0000    
   X36.3358      Y150.7381     R4.0000    
   X36.2000      Y149.7064     R4.0000    
   X36.3358      Y148.6747     R4.0000    
   X36.7341      Y147.7133     R4.0000    
   X37.3675      Y146.8877     R4.0000    
   X38.1931      Y146.2543     R4.0000    
   X39.1545      Y145.8560     R4.0000    
   X40.1862      Y145.7202     R4.0000    
   X41.2179      Y145.8560     R4.0000    
   X42.1793      Y146.2543     R4.0000    
   X43.0049      Y146.8877     R4.0000    
(Pass: 2)
G1   Z4.700     
G17 G3   X43.6384      Y147.7133     R4.0000    
   X44.0366      Y148.6747     R4.0000    
   X44.1724      Y149.7064     R4.0000    
   X44.0366      Y150.7381     R4.0000    
   X43.6384      Y151.6995     R4.0000    
   X43.0049      Y152.5251     R4.0000    
   X42.1793      Y153.1585     R4.0000    
   X41.2179      Y153.5568     R4.0000    
   X40.1862      Y153.6926     R4.0000    
   X39.1545      Y153.5568     R4.0000    
   X38.1931      Y153.1585     R4.0000    
   X37.3675      Y152.5251     R4.0000    
   X36.7341      Y151.6995     R4.0000    
   X36.3358      Y150.7381     R4.0000    
   X36.2000      Y149.7064     R4.0000    
   X36.3358      Y148.6747     R4.0000    
   X36.7341      Y147.7133     R4.0000    
   X37.3675      Y146.8877     R4.0000    
   X38.1931      Y146.2543     R4.0000    
   X39.1545      Y145.8560     R4.0000    
   X40.1862      Y145.7202     R4.0000    
   X41.2179      Y145.8560     R4.0000    
   X42.1793      Y146.2543     R4.0000    
   X43.0049      Y146.8877     R4.0000    
(Pass: 3)
G1   Z3.900     
G17 G3   X43.6384      Y147.7133     R4.0000    
   X44.0366      Y148.6747     R4.0000    
   X44.1724      Y149.7064     R4.0000    
   X44.0366      Y150.7381     R4.0000    
   X43.6384      Y151.6995     R4.0000    
   X43.0049      Y152.5251     R4.0000    
   X42.1793      Y153.1585     R4.0000    
   X41.2179      Y153.5568     R4.0000    
   X40.1862      Y153.6926     R4.0000    
   X39.1545      Y153.5568     R4.0000    
   X38.1931      Y153.1585     R4.0000    
   X37.3675      Y152.5251     R4.0000    
   X36.7341      Y151.6995     R4.0000    
   X36.3358      Y150.7381     R4.0000    
   X36.2000      Y149.7064     R4.0000    
   X36.3358      Y148.6747     R4.0000    
   X36.7341      Y147.7133     R4.0000    
   X37.3675      Y146.8877     R4.0000    
   X38.1931      Y146.2543     R4.0000    
   X39.1545      Y145.8560     R4.0000    
   X40.1862      Y145.7202     R4.0000    
   X41.2179      Y145.8560     R4.0000    
   X42.1793      Y146.2543     R4.0000    
   X43.0049      Y146.8877     R4.0000    
(Pass: 4)
G1   Z3.100     
G17 G3   X43.6384      Y147.7133     R4.0000    
   X44.0366      Y148.6747     R4.0000    
   X44.1724      Y149.7064     R4.0000    
   X44.0366      Y150.7381     R4.0000    
   X43.6384      Y151.6995     R4.0000    
   X43.0049      Y152.5251     R4.0000    
   X42.1793      Y153.1585     R4.0000    
   X41.2179      Y153.5568     R4.0000    
   X40.1862      Y153.6926     R4.0000    
   X39.1545      Y153.5568     R4.0000    
   X38.1931      Y153.1585     R4.0000    
   X37.3675      Y152.5251     R4.0000    
   X36.7341      Y151.6995     R4.0000    
   X36.3358      Y150.7381     R4.0000    
   X36.2000      Y149.7064     R4.0000    
   X36.3358      Y148.6747     R4.0000    
   X36.7341      Y147.7133     R4.0000    
   X37.3675      Y146.8877     R4.0000    
   X38.1931      Y146.2543     R4.0000    
   X39.1545      Y145.8560     R4.0000    
   X40.1862      Y145.7202     R4.0000    
   X41.2179      Y145.8560     R4.0000    
   X42.1793      Y146.2543     R4.0000    
   X43.0049      Y146.8877     R4.0000    
(Pass: 5)
G1   Z2.300     
G17 G3   X43.6384      Y147.7133     R4.0000    
   X44.0366      Y148.6747     R4.0000    
   X44.1724      Y149.7064     R4.0000    
   X44.0366      Y150.7381     R4.0000    
   X43.6384      Y151.6995     R4.0000    
   X43.0049      Y152.5251     R4.0000    
   X42.1793      Y153.1585     R4.0000    
   X41.2179      Y153.5568     R4.0000    
   X40.1862      Y153.6926     R4.0000    
   X39.1545      Y153.5568     R4.0000    
   X38.1931      Y153.1585     R4.0000    
   X37.3675      Y152.5251     R4.0000    
   X36.7341      Y151.6995     R4.0000    
   X36.3358      Y150.7381     R4.0000    
   X36.2000      Y149.7064     R4.0000    
   X36.3358      Y148.6747     R4.0000    
   X36.7341      Y147.7133     R4.0000    
   X37.3675      Y146.8877     R4.0000    
   X38.1931      Y146.2543     R4.0000    
   X39.1545      Y145.8560     R4.0000    
   X40.1862      Y145.7202     R4.0000    
   X41.2179      Y145.8560     R4.0000    
   X42.1793      Y146.2543     R4.0000    
   X43.0049      Y146.8877     R4.0000    
(Pass: 6)
G1   Z1.500     
G17 G3   X43.6384      Y147.7133     R4.0000    
   X44.0366      Y148.6747     R4.0000    
   X44.1724      Y149.7064     R4.0000    
   X44.0366      Y150.7381     R4.0000    
   X43.6384      Y151.6995     R4.0000    
   X43.0049      Y152.5251     R4.0000    
   X42.1793      Y153.1585     R4.0000    
   X41.2179      Y153.5568     R4.0000    
   X40.1862      Y153.6926     R4.0000    
   X39.1545      Y153.5568     R4.0000    
   X38.1931      Y153.1585     R4.0000    
   X37.3675      Y152.5251     R4.0000    
   X36.7341      Y151.6995     R4.0000    
   X36.3358      Y150.7381     R4.0000    
   X36.2000      Y149.7064     R4.0000    
   X36.3358      Y148.6747     R4.0000    
   X36.7341      Y147.7133     R4.0000    
   X37.3675      Y146.8877     R4.0000    
   X38.1931      Y146.2543     R4.0000    
   X39.1545      Y145.8560     R4.0000    
   X40.1862      Y145.7202     R4.0000    
   X41.2179      Y145.8560     R4.0000    
   X42.1793      Y146.2543     R4.0000    
   X43.0049      Y146.8877     R4.0000    
(Pass: 7)
G1   Z0.700     
G17 G3   X43.6384      Y147.7133     R4.0000    
   X44.0366      Y148.6747     R4.0000    
   X44.1724      Y149.7064     R4.0000    
   X44.0366      Y150.7381     R4.0000    
   X43.6384      Y151.6995     R4.0000    
   X43.0049      Y152.5251     R4.0000    
   X42.1793      Y153.1585     R4.0000    
   X41.2179      Y153.5568     R4.0000    
   X40.1862      Y153.6926     R4.0000    
   X39.1545      Y153.5568     R4.0000    
   X38.1931      Y153.1585     R4.0000    
   X37.3675      Y152.5251     R4.0000    
   X36.7341      Y151.6995     R4.0000    
   X36.3358      Y150.7381     R4.0000    
   X36.2000      Y149.7064     R4.0000    
   X36.3358      Y148.6747     R4.0000    
   X36.7341      Y147.7133     R4.0000    
   X37.3675      Y146.8877     R4.0000    
   X38.1931      Y146.2543     R4.0000    
   X39.1545      Y145.8560     R4.0000    
   X40.1862      Y145.7202     R4.0000    
   X41.2179      Y145.8560     R4.0000    
   X42.1793      Y146.2543     R4.0000    
   X43.0049      Y146.8877     R4.0000    
(Pass: 8)
G1   Z-0.100    
G17 G3   X43.6384      Y147.7133     R4.0000    
   X44.0366      Y148.6747     R4.0000    
   X44.1724      Y149.7064     R4.0000    
   X44.0366      Y150.7381     R4.0000    
   X43.6384      Y151.6995     R4.0000    
   X43.0049      Y152.5251     R4.0000    
   X42.1793      Y153.1585     R4.0000    
   X41.2179      Y153.5568     R4.0000    
   X40.1862      Y153.6926     R4.0000    
   X39.1545      Y153.5568     R4.0000    
   X38.1931      Y153.1585     R4.0000    
   X37.3675      Y152.5251     R4.0000    
   X36.7341      Y151.6995     R4.0000    
   X36.3358      Y150.7381     R4.0000    
   X36.2000      Y149.7064     R4.0000    
   X36.3358      Y148.6747     R4.0000    
   X36.7341      Y147.7133     R4.0000    
   X37.3675      Y146.8877     R4.0000    
   X38.1931      Y146.2543     R4.0000    
   X39.1545      Y145.8560     R4.0000    
   X40.1862      Y145.7202     R4.0000    
   X41.2179      Y145.8560     R4.0000    
   X42.1793      Y146.2543     R4.0000    
   X43.0049      Y146.8877     R4.0000    
(Pass: 9)
G1   Z-0.900    
G17 G3   X43.6384      Y147.7133     R4.0000    
   X44.0366      Y148.6747     R4.0000    
   X44.1724      Y149.7064     R4.0000    
   X44.0366      Y150.7381     R4.0000    
   X43.6384      Y151.6995     R4.0000    
   X43.0049      Y152.5251     R4.0000    
   X42.1793      Y153.1585     R4.0000    
   X41.2179      Y153.5568     R4.0000    
   X40.1862      Y153.6926     R4.0000    
   X39.1545      Y153.5568     R4.0000    
   X38.1931      Y153.1585     R4.0000    
   X37.3675      Y152.5251     R4.0000    
   X36.7341      Y151.6995     R4.0000    
   X36.3358      Y150.7381     R4.0000    
   X36.2000      Y149.7064     R4.0000    
   X36.3358      Y148.6747     R4.0000    
   X36.7341      Y147.7133     R4.0000    
   X37.3675      Y146.8877     R4.0000    
   X38.1931      Y146.2543     R4.0000    
   X39.1545      Y145.8560     R4.0000    
   X40.1862      Y145.7202     R4.0000    
   X41.2179      Y145.8560     R4.0000    
   X42.1793      Y146.2543     R4.0000    
   X43.0049      Y146.8877     R4.0000    
(BREAK pass 9)
G0   Z9.500     
(Pass: 1)
   X3.906        Y197.379   
G1   Z5.500      F2540
   X125.206   
   Y3.089     
   X3.906     
   Y197.379   
(Pass: 2)
   Z4.700     
   X125.206   
   Y3.089     
   X3.906     
   Y197.379   
(Pass: 3)
   Z3.900     
   X125.206   
   Y3.089     
   X3.906     
   Y197.379   
(Pass: 4)
   Z3.100     
   X125.206   
   Y3.089     
   X3.906     
   Y197.379   
(Pass: 5)
   Z2.300     
   X125.206   
   Y3.089     
   X3.906     
   Y197.379   
(Pass: 6)
   Z1.500     
   X125.206   
   Y3.089     
   X3.906     
   Y197.379   
(Pass: 7)
   Z0.700     
   X125.206   
   Y3.089     
   X3.906     
   Y197.379   
(Pass: 8)
   Z-0.100    
   X125.206   
   Y3.089     
   X3.906     
   Y197.379   
(Pass: 9)
   Z-0.900    
   X125.206   
   Y3.089     
   X3.906     
   Y197.379   
(BREAK pass 9)
G0   Z9.500     
G0 X0 Y0 (home)
M05
M30
%
