%
(Generated by SketchUcam {1.2a})
(File: Plate_printouts~.skp)
(Bit diameter: 1/8")
(Feed rate: 80"/min)
(Plunge Feed rate: 100"/min)
(Material Thickness: 1/8")
(Material length: 15" X width: 25")
(Overhead Gantry: true)
(Retract feed rate NOT limited to plunge feed rate)
(Multipass enabled, Depth = 1/32")
(Optimization is ON)
(Z ZERO IS TABLETOP)
(www.PhlatBoyz.com)
(Loaded profile default)
G90 G20 G49 
M3 S15000
G0   Z0.2500    
(Pass: 1)
   X5.1342       Y0.9492    
G1   Z0.0938     F100 
G17 G2   X5.12252      Y1.03813      R0.34421    F80  
   X5.13423      Y1.12708      R0.34421   
   X5.16857      Y1.20997      R0.34421   
   X5.22318      Y1.28115      R0.34421   
   X5.29436      Y1.33576      R0.34421   
   X5.37725      Y1.37009      R0.34421   
   X5.46620      Y1.38180      R0.34421   
   X5.55514      Y1.37009      R0.34421   
   X5.63803      Y1.33576      R0.34421   
   X5.70921      Y1.28115      R0.34421   
   X5.76382      Y1.20997      R0.34421   
   X5.79816      Y1.12708      R0.34421   
   X5.80987      Y1.03813      R0.34421   
   X5.79816      Y0.94918      R0.34421   
   X5.76382      Y0.86630      R0.34421   
   X5.70921      Y0.79512      R0.34421   
   X5.63803      Y0.74050      R0.34421   
   X5.55514      Y0.70617      R0.34421   
   X5.46620      Y0.69446      R0.34421   
   X5.37725      Y0.70617      R0.34421   
   X5.29436      Y0.74050      R0.34421   
   X5.22318      Y0.79512      R0.34421   
   X5.16857      Y0.86630      R0.34421   
   X5.13423      Y0.94918      R0.34421   
(Pass: 2)
G1   Z0.0625     F100 
G17 G2   X5.12252      Y1.03813      R0.34421    F80  
   X5.13423      Y1.12708      R0.34421   
   X5.16857      Y1.20997      R0.34421   
   X5.22318      Y1.28115      R0.34421   
   X5.29436      Y1.33576      R0.34421   
   X5.37725      Y1.37009      R0.34421   
   X5.46620      Y1.38180      R0.34421   
   X5.55514      Y1.37009      R0.34421   
   X5.63803      Y1.33576      R0.34421   
   X5.70921      Y1.28115      R0.34421   
   X5.76382      Y1.20997      R0.34421   
   X5.79816      Y1.12708      R0.34421   
   X5.80987      Y1.03813      R0.34421   
   X5.79816      Y0.94918      R0.34421   
   X5.76382      Y0.86630      R0.34421   
   X5.70921      Y0.79512      R0.34421   
   X5.63803      Y0.74050      R0.34421   
   X5.55514      Y0.70617      R0.34421   
   X5.46620      Y0.69446      R0.34421   
   X5.37725      Y0.70617      R0.34421   
   X5.29436      Y0.74050      R0.34421   
   X5.22318      Y0.79512      R0.34421   
   X5.16857      Y0.86630      R0.34421   
   X5.13423      Y0.94918      R0.34421   
(Pass: 3)
G1   Z0.0312     F100 
G17 G2   X5.12252      Y1.03813      R0.34421    F80  
   X5.13423      Y1.12708      R0.34421   
   X5.16857      Y1.20997      R0.34421   
   X5.22318      Y1.28115      R0.34421   
   X5.29436      Y1.33576      R0.34421   
   X5.37725      Y1.37009      R0.34421   
   X5.46620      Y1.38180      R0.34421   
   X5.55514      Y1.37009      R0.34421   
   X5.63803      Y1.33576      R0.34421   
   X5.70921      Y1.28115      R0.34421   
   X5.76382      Y1.20997      R0.34421   
   X5.79816      Y1.12708      R0.34421   
   X5.80987      Y1.03813      R0.34421   
   X5.79816      Y0.94918      R0.34421   
   X5.76382      Y0.86630      R0.34421   
   X5.70921      Y0.79512      R0.34421   
   X5.63803      Y0.74050      R0.34421   
   X5.55514      Y0.70617      R0.34421   
   X5.46620      Y0.69446      R0.34421   
   X5.37725      Y0.70617      R0.34421   
   X5.29436      Y0.74050      R0.34421   
   X5.22318      Y0.79512      R0.34421   
   X5.16857      Y0.86630      R0.34421   
   X5.13423      Y0.94918      R0.34421   
(Pass: 4)
G1   Z0.0000     F100 
G17 G2   X5.12252      Y1.03813      R0.34421    F80  
   X5.13423      Y1.12708      R0.34421   
   X5.16857      Y1.20997      R0.34421   
   X5.22318      Y1.28115      R0.34421   
   X5.29436      Y1.33576      R0.34421   
   X5.37725      Y1.37009      R0.34421   
   X5.46620      Y1.38180      R0.34421   
   X5.55514      Y1.37009      R0.34421   
   X5.63803      Y1.33576      R0.34421   
   X5.70921      Y1.28115      R0.34421   
   X5.76382      Y1.20997      R0.34421   
   X5.79816      Y1.12708      R0.34421   
   X5.80987      Y1.03813      R0.34421   
   X5.79816      Y0.94918      R0.34421   
   X5.76382      Y0.86630      R0.34421   
   X5.70921      Y0.79512      R0.34421   
   X5.63803      Y0.74050      R0.34421   
   X5.55514      Y0.70617      R0.34421   
   X5.46620      Y0.69446      R0.34421   
   X5.37725      Y0.70617      R0.34421   
   X5.29436      Y0.74050      R0.34421   
   X5.22318      Y0.79512      R0.34421   
   X5.16857      Y0.86630      R0.34421   
   X5.13423      Y0.94918      R0.34421   
(Pass: 5)
G1   Z-0.0312    F100 
G17 G2   X5.12252      Y1.03813      R0.34421    F80  
   X5.13423      Y1.12708      R0.34421   
   X5.16857      Y1.20997      R0.34421   
   X5.22318      Y1.28115      R0.34421   
   X5.29436      Y1.33576      R0.34421   
   X5.37725      Y1.37009      R0.34421   
   X5.46620      Y1.38180      R0.34421   
   X5.55514      Y1.37009      R0.34421   
   X5.63803      Y1.33576      R0.34421   
   X5.70921      Y1.28115      R0.34421   
   X5.76382      Y1.20997      R0.34421   
   X5.79816      Y1.12708      R0.34421   
   X5.80987      Y1.03813      R0.34421   
   X5.79816      Y0.94918      R0.34421   
   X5.76382      Y0.86630      R0.34421   
   X5.70921      Y0.79512      R0.34421   
   X5.63803      Y0.74050      R0.34421   
   X5.55514      Y0.70617      R0.34421   
   X5.46620      Y0.69446      R0.34421   
   X5.37725      Y0.70617      R0.34421   
   X5.29436      Y0.74050      R0.34421   
   X5.22318      Y0.79512      R0.34421   
   X5.16857      Y0.86630      R0.34421   
   X5.13423      Y0.94918      R0.34421   
(Pass: 6)
G1   Z-0.0500    F100 
G17 G2   X5.12252      Y1.03813      R0.34421    F80  
   X5.13423      Y1.12708      R0.34421   
   X5.16857      Y1.20997      R0.34421   
   X5.22318      Y1.28115      R0.34421   
   X5.29436      Y1.33576      R0.34421   
   X5.37725      Y1.37009      R0.34421   
   X5.46620      Y1.38180      R0.34421   
   X5.55514      Y1.37009      R0.34421   
   X5.63803      Y1.33576      R0.34421   
   X5.70921      Y1.28115      R0.34421   
   X5.76382      Y1.20997      R0.34421   
   X5.79816      Y1.12708      R0.34421   
   X5.80987      Y1.03813      R0.34421   
   X5.79816      Y0.94918      R0.34421   
   X5.76382      Y0.86630      R0.34421   
   X5.70921      Y0.79512      R0.34421   
   X5.63803      Y0.74050      R0.34421   
   X5.55514      Y0.70617      R0.34421   
   X5.46620      Y0.69446      R0.34421   
   X5.37725      Y0.70617      R0.34421   
   X5.29436      Y0.74050      R0.34421   
   X5.22318      Y0.79512      R0.34421   
   X5.16857      Y0.86630      R0.34421   
   X5.13423      Y0.94918      R0.34421   
(BREAK pass 6)
G0   Z0.2500    
(Pass: 1)
   X5.0256       Y5.5242    
G1   Z0.0938     F100 
G17 G2   X4.97612      Y5.53067      R0.19169    F80  
   X4.93001      Y5.54976      R0.19169   
   X4.89043      Y5.58014      R0.19169   
   X4.86005      Y5.61973      R0.19169   
   X4.84095      Y5.66583      R0.19169   
   X4.83444      Y5.71531      R0.19169   
   X4.84095      Y5.76478      R0.19169   
   X4.86005      Y5.81089      R0.19169   
   X4.89043      Y5.85048      R0.19169   
   X4.93001      Y5.88085      R0.19169   
   X4.97612      Y5.89995      R0.19169   
   X5.02559      Y5.90646      R0.19169   
   X5.07507      Y5.89995      R0.19169   
   X5.12117      Y5.88085      R0.19169   
   X5.16076      Y5.85048      R0.19169   
   X5.19114      Y5.81089      R0.19169   
   X5.21023      Y5.76478      R0.19169   
   X5.21675      Y5.71531      R0.19169   
   X5.21023      Y5.66583      R0.19169   
   X5.19114      Y5.61973      R0.19169   
   X5.16076      Y5.58014      R0.19169   
   X5.12117      Y5.54976      R0.19169   
   X5.07507      Y5.53067      R0.19169   
   X5.02559      Y5.52415      R0.19169   
(Pass: 2)
G1   Z0.0625     F100 
G17 G2   X4.97612      Y5.53067      R0.19169    F80  
   X4.93001      Y5.54976      R0.19169   
   X4.89043      Y5.58014      R0.19169   
   X4.86005      Y5.61973      R0.19169   
   X4.84095      Y5.66583      R0.19169   
   X4.83444      Y5.71531      R0.19169   
   X4.84095      Y5.76478      R0.19169   
   X4.86005      Y5.81089      R0.19169   
   X4.89043      Y5.85048      R0.19169   
   X4.93001      Y5.88085      R0.19169   
   X4.97612      Y5.89995      R0.19169   
   X5.02559      Y5.90646      R0.19169   
   X5.07507      Y5.89995      R0.19169   
   X5.12117      Y5.88085      R0.19169   
   X5.16076      Y5.85048      R0.19169   
   X5.19114      Y5.81089      R0.19169   
   X5.21023      Y5.76478      R0.19169   
   X5.21675      Y5.71531      R0.19169   
   X5.21023      Y5.66583      R0.19169   
   X5.19114      Y5.61973      R0.19169   
   X5.16076      Y5.58014      R0.19169   
   X5.12117      Y5.54976      R0.19169   
   X5.07507      Y5.53067      R0.19169   
   X5.02559      Y5.52415      R0.19169   
(Pass: 3)
G1   Z0.0312     F100 
G17 G2   X4.97612      Y5.53067      R0.19169    F80  
   X4.93001      Y5.54976      R0.19169   
   X4.89043      Y5.58014      R0.19169   
   X4.86005      Y5.61973      R0.19169   
   X4.84095      Y5.66583      R0.19169   
   X4.83444      Y5.71531      R0.19169   
   X4.84095      Y5.76478      R0.19169   
   X4.86005      Y5.81089      R0.19169   
   X4.89043      Y5.85048      R0.19169   
   X4.93001      Y5.88085      R0.19169   
   X4.97612      Y5.89995      R0.19169   
   X5.02559      Y5.90646      R0.19169   
   X5.07507      Y5.89995      R0.19169   
   X5.12117      Y5.88085      R0.19169   
   X5.16076      Y5.85048      R0.19169   
   X5.19114      Y5.81089      R0.19169   
   X5.21023      Y5.76478      R0.19169   
   X5.21675      Y5.71531      R0.19169   
   X5.21023      Y5.66583      R0.19169   
   X5.19114      Y5.61973      R0.19169   
   X5.16076      Y5.58014      R0.19169   
   X5.12117      Y5.54976      R0.19169   
   X5.07507      Y5.53067      R0.19169   
   X5.02559      Y5.52415      R0.19169   
(Pass: 4)
G1   Z0.0000     F100 
G17 G2   X4.97612      Y5.53067      R0.19169    F80  
   X4.93001      Y5.54976      R0.19169   
   X4.89043      Y5.58014      R0.19169   
   X4.86005      Y5.61973      R0.19169   
   X4.84095      Y5.66583      R0.19169   
   X4.83444      Y5.71531      R0.19169   
   X4.84095      Y5.76478      R0.19169   
   X4.86005      Y5.81089      R0.19169   
   X4.89043      Y5.85048      R0.19169   
   X4.93001      Y5.88085      R0.19169   
   X4.97612      Y5.89995      R0.19169   
   X5.02559      Y5.90646      R0.19169   
   X5.07507      Y5.89995      R0.19169   
   X5.12117      Y5.88085      R0.19169   
   X5.16076      Y5.85048      R0.19169   
   X5.19114      Y5.81089      R0.19169   
   X5.21023      Y5.76478      R0.19169   
   X5.21675      Y5.71531      R0.19169   
   X5.21023      Y5.66583      R0.19169   
   X5.19114      Y5.61973      R0.19169   
   X5.16076      Y5.58014      R0.19169   
   X5.12117      Y5.54976      R0.19169   
   X5.07507      Y5.53067      R0.19169   
   X5.02559      Y5.52415      R0.19169   
(Pass: 5)
G1   Z-0.0312    F100 
G17 G2   X4.97612      Y5.53067      R0.19169    F80  
   X4.93001      Y5.54976      R0.19169   
   X4.89043      Y5.58014      R0.19169   
   X4.86005      Y5.61973      R0.19169   
   X4.84095      Y5.66583      R0.19169   
   X4.83444      Y5.71531      R0.19169   
   X4.84095      Y5.76478      R0.19169   
   X4.86005      Y5.81089      R0.19169   
   X4.89043      Y5.85048      R0.19169   
   X4.93001      Y5.88085      R0.19169   
   X4.97612      Y5.89995      R0.19169   
   X5.02559      Y5.90646      R0.19169   
   X5.07507      Y5.89995      R0.19169   
   X5.12117      Y5.88085      R0.19169   
   X5.16076      Y5.85048      R0.19169   
   X5.19114      Y5.81089      R0.19169   
   X5.21023      Y5.76478      R0.19169   
   X5.21675      Y5.71531      R0.19169   
   X5.21023      Y5.66583      R0.19169   
   X5.19114      Y5.61973      R0.19169   
   X5.16076      Y5.58014      R0.19169   
   X5.12117      Y5.54976      R0.19169   
   X5.07507      Y5.53067      R0.19169   
   X5.02559      Y5.52415      R0.19169   
(Pass: 6)
G1   Z-0.0500    F100 
G17 G2   X4.97612      Y5.53067      R0.19169    F80  
   X4.93001      Y5.54976      R0.19169   
   X4.89043      Y5.58014      R0.19169   
   X4.86005      Y5.61973      R0.19169   
   X4.84095      Y5.66583      R0.19169   
   X4.83444      Y5.71531      R0.19169   
   X4.84095      Y5.76478      R0.19169   
   X4.86005      Y5.81089      R0.19169   
   X4.89043      Y5.85048      R0.19169   
   X4.93001      Y5.88085      R0.19169   
   X4.97612      Y5.89995      R0.19169   
   X5.02559      Y5.90646      R0.19169   
   X5.07507      Y5.89995      R0.19169   
   X5.12117      Y5.88085      R0.19169   
   X5.16076      Y5.85048      R0.19169   
   X5.19114      Y5.81089      R0.19169   
   X5.21023      Y5.76478      R0.19169   
   X5.21675      Y5.71531      R0.19169   
   X5.21023      Y5.66583      R0.19169   
   X5.19114      Y5.61973      R0.19169   
   X5.16076      Y5.58014      R0.19169   
   X5.12117      Y5.54976      R0.19169   
   X5.07507      Y5.53067      R0.19169   
   X5.02559      Y5.52415      R0.19169   
(BREAK pass 6)
G0   Z0.2500    
(Pass: 1)
   X1.8614       Y5.7153    
G1   Z0.0938     F100 
G17 G2   X1.85660      Y5.67899      R0.14085    F80  
   X1.84258      Y5.64515      R0.14085   
   X1.82028      Y5.61609      R0.14085   
   X1.79122      Y5.59379      R0.14085   
   X1.75738      Y5.57977      R0.14085   
   X1.72107      Y5.57499      R0.14085   
   X1.68475      Y5.57977      R0.14085   
   X1.65091      Y5.59379      R0.14085   
   X1.62185      Y5.61609      R0.14085   
   X1.59955      Y5.64515      R0.14085   
   X1.58553      Y5.67899      R0.14085   
   X1.58075      Y5.71531      R0.14085   
   X1.58553      Y5.75162      R0.14085   
   X1.59955      Y5.78547      R0.14085   
   X1.62185      Y5.81453      R0.14085   
   X1.65091      Y5.83683      R0.14085   
   X1.68475      Y5.85084      R0.14085   
   X1.72107      Y5.85562      R0.14085   
   X1.75738      Y5.85084      R0.14085   
   X1.79122      Y5.83683      R0.14085   
   X1.82028      Y5.81453      R0.14085   
   X1.84258      Y5.78547      R0.14085   
   X1.85660      Y5.75162      R0.14085   
   X1.86138      Y5.71531      R0.14085   
(Pass: 2)
G1   Z0.0625     F100 
G17 G2   X1.85660      Y5.67899      R0.14085    F80  
   X1.84258      Y5.64515      R0.14085   
   X1.82028      Y5.61609      R0.14085   
   X1.79122      Y5.59379      R0.14085   
   X1.75738      Y5.57977      R0.14085   
   X1.72107      Y5.57499      R0.14085   
   X1.68475      Y5.57977      R0.14085   
   X1.65091      Y5.59379      R0.14085   
   X1.62185      Y5.61609      R0.14085   
   X1.59955      Y5.64515      R0.14085   
   X1.58553      Y5.67899      R0.14085   
   X1.58075      Y5.71531      R0.14085   
   X1.58553      Y5.75162      R0.14085   
   X1.59955      Y5.78547      R0.14085   
   X1.62185      Y5.81453      R0.14085   
   X1.65091      Y5.83683      R0.14085   
   X1.68475      Y5.85084      R0.14085   
   X1.72107      Y5.85562      R0.14085   
   X1.75738      Y5.85084      R0.14085   
   X1.79122      Y5.83683      R0.14085   
   X1.82028      Y5.81453      R0.14085   
   X1.84258      Y5.78547      R0.14085   
   X1.85660      Y5.75162      R0.14085   
   X1.86138      Y5.71531      R0.14085   
(Pass: 3)
G1   Z0.0312     F100 
G17 G2   X1.85660      Y5.67899      R0.14085    F80  
   X1.84258      Y5.64515      R0.14085   
   X1.82028      Y5.61609      R0.14085   
   X1.79122      Y5.59379      R0.14085   
   X1.75738      Y5.57977      R0.14085   
   X1.72107      Y5.57499      R0.14085   
   X1.68475      Y5.57977      R0.14085   
   X1.65091      Y5.59379      R0.14085   
   X1.62185      Y5.61609      R0.14085   
   X1.59955      Y5.64515      R0.14085   
   X1.58553      Y5.67899      R0.14085   
   X1.58075      Y5.71531      R0.14085   
   X1.58553      Y5.75162      R0.14085   
   X1.59955      Y5.78547      R0.14085   
   X1.62185      Y5.81453      R0.14085   
   X1.65091      Y5.83683      R0.14085   
   X1.68475      Y5.85084      R0.14085   
   X1.72107      Y5.85562      R0.14085   
   X1.75738      Y5.85084      R0.14085   
   X1.79122      Y5.83683      R0.14085   
   X1.82028      Y5.81453      R0.14085   
   X1.84258      Y5.78547      R0.14085   
   X1.85660      Y5.75162      R0.14085   
   X1.86138      Y5.71531      R0.14085   
(Pass: 4)
G1   Z0.0000     F100 
G17 G2   X1.85660      Y5.67899      R0.14085    F80  
   X1.84258      Y5.64515      R0.14085   
   X1.82028      Y5.61609      R0.14085   
   X1.79122      Y5.59379      R0.14085   
   X1.75738      Y5.57977      R0.14085   
   X1.72107      Y5.57499      R0.14085   
   X1.68475      Y5.57977      R0.14085   
   X1.65091      Y5.59379      R0.14085   
   X1.62185      Y5.61609      R0.14085   
   X1.59955      Y5.64515      R0.14085   
   X1.58553      Y5.67899      R0.14085   
   X1.58075      Y5.71531      R0.14085   
   X1.58553      Y5.75162      R0.14085   
   X1.59955      Y5.78547      R0.14085   
   X1.62185      Y5.81453      R0.14085   
   X1.65091      Y5.83683      R0.14085   
   X1.68475      Y5.85084      R0.14085   
   X1.72107      Y5.85562      R0.14085   
   X1.75738      Y5.85084      R0.14085   
   X1.79122      Y5.83683      R0.14085   
   X1.82028      Y5.81453      R0.14085   
   X1.84258      Y5.78547      R0.14085   
   X1.85660      Y5.75162      R0.14085   
   X1.86138      Y5.71531      R0.14085   
(Pass: 5)
G1   Z-0.0312    F100 
G17 G2   X1.85660      Y5.67899      R0.14085    F80  
   X1.84258      Y5.64515      R0.14085   
   X1.82028      Y5.61609      R0.14085   
   X1.79122      Y5.59379      R0.14085   
   X1.75738      Y5.57977      R0.14085   
   X1.72107      Y5.57499      R0.14085   
   X1.68475      Y5.57977      R0.14085   
   X1.65091      Y5.59379      R0.14085   
   X1.62185      Y5.61609      R0.14085   
   X1.59955      Y5.64515      R0.14085   
   X1.58553      Y5.67899      R0.14085   
   X1.58075      Y5.71531      R0.14085   
   X1.58553      Y5.75162      R0.14085   
   X1.59955      Y5.78547      R0.14085   
   X1.62185      Y5.81453      R0.14085   
   X1.65091      Y5.83683      R0.14085   
   X1.68475      Y5.85084      R0.14085   
   X1.72107      Y5.85562      R0.14085   
   X1.75738      Y5.85084      R0.14085   
   X1.79122      Y5.83683      R0.14085   
   X1.82028      Y5.81453      R0.14085   
   X1.84258      Y5.78547      R0.14085   
   X1.85660      Y5.75162      R0.14085   
   X1.86138      Y5.71531      R0.14085   
(Pass: 6)
G1   Z-0.0500    F100 
G17 G2   X1.85660      Y5.67899      R0.14085    F80  
   X1.84258      Y5.64515      R0.14085   
   X1.82028      Y5.61609      R0.14085   
   X1.79122      Y5.59379      R0.14085   
   X1.75738      Y5.57977      R0.14085   
   X1.72107      Y5.57499      R0.14085   
   X1.68475      Y5.57977      R0.14085   
   X1.65091      Y5.59379      R0.14085   
   X1.62185      Y5.61609      R0.14085   
   X1.59955      Y5.64515      R0.14085   
   X1.58553      Y5.67899      R0.14085   
   X1.58075      Y5.71531      R0.14085   
   X1.58553      Y5.75162      R0.14085   
   X1.59955      Y5.78547      R0.14085   
   X1.62185      Y5.81453      R0.14085   
   X1.65091      Y5.83683      R0.14085   
   X1.68475      Y5.85084      R0.14085   
   X1.72107      Y5.85562      R0.14085   
   X1.75738      Y5.85084      R0.14085   
   X1.79122      Y5.83683      R0.14085   
   X1.82028      Y5.81453      R0.14085   
   X1.84258      Y5.78547      R0.14085   
   X1.85660      Y5.75162      R0.14085   
   X1.86138      Y5.71531      R0.14085   
(BREAK pass 6)
G0   Z0.2500    
(Pass: 1)
   X0.8621       Y6.4726    
G1   Z0.0938     F100 
   Y0.3486     F80  
   X6.2404    
   Y6.4726    
   X0.8621    
(Pass: 2)
   Z0.0625     F100 
   Y0.3486     F80  
   X6.2404    
   Y6.4726    
   X0.8621    
(Pass: 3)
   Z0.0312     F100 
   Y0.3486     F80  
   X6.2404    
   Y6.4726    
   X0.8621    
(Pass: 4)
   Z0.0000     F100 
   Y0.3486     F80  
   X6.2404    
   Y6.4726    
   X0.8621    
(Pass: 5)
   Z-0.0312    F100 
   Y0.3486     F80  
   X6.2404    
   Y6.4726    
   X0.8621    
(Pass: 6)
   Z-0.0500    F100 
   Y0.3486     F80  
   X6.2404    
   Y6.4726    
   X0.8621    
(BREAK pass 6)
G0   Z0.2500    
G0 X0 Y0 (home)
M05
M30
%
