%
(Generated by SketchUcam {1.2a})
(Bit diameter: 3.2mm)
(Feed rate: 2540.0mm/min)
(Material Thickness: 6.3mm)
(Material length: 558.8mm X width: 1066.8mm)
(Overhead Gantry: false)
(Retract feed rate NOT limited to plunge feed rate)
(Multipass enabled, Depth = 0.8mm)
(Optimization is ON)
(Z ZERO IS TABLETOP)
(www.PhlatBoyz.com)
(Loaded profile default)
G90 G21 G49 
M3 S15000
G0   Z9.500     
(Pass: 1)
   X61.602       Y101.963   
G1   Z5.500      F2540
G17 G3   X65.0132      Y100.2705     R14.6000   
   X68.7460      Y99.5187      R14.6000   
   X72.5462      Y99.7588      R14.6000   
   X76.1548      Y100.9742     R14.6000   
   X79.3258      Y103.0821     R14.6000   
   X81.8432      Y105.9390     R14.6000   
   X83.5355      Y109.3500     R14.6000   
   X84.2872      Y113.0828     R14.6000   
   X84.0472      Y116.8830     R14.6000   
   X82.8318      Y120.4916     R14.6000   
   X80.7238      Y123.6627     R14.6000   
   X77.8670      Y126.1801     R14.6000   
   X74.4559      Y127.8723     R14.6000   
   X70.7231      Y128.6241     R14.6000   
   X66.9229      Y128.3840     R14.6000   
   X63.3143      Y127.1686     R14.6000   
   X60.1433      Y125.0607     R14.6000   
   X57.6259      Y122.2038     R14.6000   
   X55.9336      Y118.7928     R14.6000   
   X55.1819      Y115.0600     R14.6000   
   X55.4219      Y111.2598     R14.6000   
   X56.6373      Y107.6512     R14.6000   
   X58.7453      Y104.4801     R14.6000   
   X61.6021      Y101.9627     R14.6000   
(Pass: 2)
G1   Z4.700     
G17 G3   X65.0132      Y100.2705     R14.6000   
   X68.7460      Y99.5187      R14.6000   
   X72.5462      Y99.7588      R14.6000   
   X76.1548      Y100.9742     R14.6000   
   X79.3258      Y103.0821     R14.6000   
   X81.8432      Y105.9390     R14.6000   
   X83.5355      Y109.3500     R14.6000   
   X84.2872      Y113.0828     R14.6000   
   X84.0472      Y116.8830     R14.6000   
   X82.8318      Y120.4916     R14.6000   
   X80.7238      Y123.6627     R14.6000   
   X77.8670      Y126.1801     R14.6000   
   X74.4559      Y127.8723     R14.6000   
   X70.7231      Y128.6241     R14.6000   
   X66.9229      Y128.3840     R14.6000   
   X63.3143      Y127.1686     R14.6000   
   X60.1433      Y125.0607     R14.6000   
   X57.6259      Y122.2038     R14.6000   
   X55.9336      Y118.7928     R14.6000   
   X55.1819      Y115.0600     R14.6000   
   X55.4219      Y111.2598     R14.6000   
   X56.6373      Y107.6512     R14.6000   
   X58.7453      Y104.4801     R14.6000   
   X61.6021      Y101.9627     R14.6000   
(Pass: 3)
G1   Z3.900     
G17 G3   X65.0132      Y100.2705     R14.6000   
   X68.7460      Y99.5187      R14.6000   
   X72.5462      Y99.7588      R14.6000   
   X76.1548      Y100.9742     R14.6000   
   X79.3258      Y103.0821     R14.6000   
   X81.8432      Y105.9390     R14.6000   
   X83.5355      Y109.3500     R14.6000   
   X84.2872      Y113.0828     R14.6000   
   X84.0472      Y116.8830     R14.6000   
   X82.8318      Y120.4916     R14.6000   
   X80.7238      Y123.6627     R14.6000   
   X77.8670      Y126.1801     R14.6000   
   X74.4559      Y127.8723     R14.6000   
   X70.7231      Y128.6241     R14.6000   
   X66.9229      Y128.3840     R14.6000   
   X63.3143      Y127.1686     R14.6000   
   X60.1433      Y125.0607     R14.6000   
   X57.6259      Y122.2038     R14.6000   
   X55.9336      Y118.7928     R14.6000   
   X55.1819      Y115.0600     R14.6000   
   X55.4219      Y111.2598     R14.6000   
   X56.6373      Y107.6512     R14.6000   
   X58.7453      Y104.4801     R14.6000   
   X61.6021      Y101.9627     R14.6000   
(Pass: 4)
G1   Z3.100     
G17 G3   X65.0132      Y100.2705     R14.6000   
   X68.7460      Y99.5187      R14.6000   
   X72.5462      Y99.7588      R14.6000   
   X76.1548      Y100.9742     R14.6000   
   X79.3258      Y103.0821     R14.6000   
   X81.8432      Y105.9390     R14.6000   
   X83.5355      Y109.3500     R14.6000   
   X84.2872      Y113.0828     R14.6000   
   X84.0472      Y116.8830     R14.6000   
   X82.8318      Y120.4916     R14.6000   
   X80.7238      Y123.6627     R14.6000   
   X77.8670      Y126.1801     R14.6000   
   X74.4559      Y127.8723     R14.6000   
   X70.7231      Y128.6241     R14.6000   
   X66.9229      Y128.3840     R14.6000   
   X63.3143      Y127.1686     R14.6000   
   X60.1433      Y125.0607     R14.6000   
   X57.6259      Y122.2038     R14.6000   
   X55.9336      Y118.7928     R14.6000   
   X55.1819      Y115.0600     R14.6000   
   X55.4219      Y111.2598     R14.6000   
   X56.6373      Y107.6512     R14.6000   
   X58.7453      Y104.4801     R14.6000   
   X61.6021      Y101.9627     R14.6000   
(Pass: 5)
G1   Z2.300     
G17 G3   X65.0132      Y100.2705     R14.6000   
   X68.7460      Y99.5187      R14.6000   
   X72.5462      Y99.7588      R14.6000   
   X76.1548      Y100.9742     R14.6000   
   X79.3258      Y103.0821     R14.6000   
   X81.8432      Y105.9390     R14.6000   
   X83.5355      Y109.3500     R14.6000   
   X84.2872      Y113.0828     R14.6000   
   X84.0472      Y116.8830     R14.6000   
   X82.8318      Y120.4916     R14.6000   
   X80.7238      Y123.6627     R14.6000   
   X77.8670      Y126.1801     R14.6000   
   X74.4559      Y127.8723     R14.6000   
   X70.7231      Y128.6241     R14.6000   
   X66.9229      Y128.3840     R14.6000   
   X63.3143      Y127.1686     R14.6000   
   X60.1433      Y125.0607     R14.6000   
   X57.6259      Y122.2038     R14.6000   
   X55.9336      Y118.7928     R14.6000   
   X55.1819      Y115.0600     R14.6000   
   X55.4219      Y111.2598     R14.6000   
   X56.6373      Y107.6512     R14.6000   
   X58.7453      Y104.4801     R14.6000   
   X61.6021      Y101.9627     R14.6000   
(Pass: 6)
G1   Z1.500     
G17 G3   X65.0132      Y100.2705     R14.6000   
   X68.7460      Y99.5187      R14.6000   
   X72.5462      Y99.7588      R14.6000   
   X76.1548      Y100.9742     R14.6000   
   X79.3258      Y103.0821     R14.6000   
   X81.8432      Y105.9390     R14.6000   
   X83.5355      Y109.3500     R14.6000   
   X84.2872      Y113.0828     R14.6000   
   X84.0472      Y116.8830     R14.6000   
   X82.8318      Y120.4916     R14.6000   
   X80.7238      Y123.6627     R14.6000   
   X77.8670      Y126.1801     R14.6000   
   X74.4559      Y127.8723     R14.6000   
   X70.7231      Y128.6241     R14.6000   
   X66.9229      Y128.3840     R14.6000   
   X63.3143      Y127.1686     R14.6000   
   X60.1433      Y125.0607     R14.6000   
   X57.6259      Y122.2038     R14.6000   
   X55.9336      Y118.7928     R14.6000   
   X55.1819      Y115.0600     R14.6000   
   X55.4219      Y111.2598     R14.6000   
   X56.6373      Y107.6512     R14.6000   
   X58.7453      Y104.4801     R14.6000   
   X61.6021      Y101.9627     R14.6000   
(Pass: 7)
G1   Z0.700     
G17 G3   X65.0132      Y100.2705     R14.6000   
   X68.7460      Y99.5187      R14.6000   
   X72.5462      Y99.7588      R14.6000   
   X76.1548      Y100.9742     R14.6000   
   X79.3258      Y103.0821     R14.6000   
   X81.8432      Y105.9390     R14.6000   
   X83.5355      Y109.3500     R14.6000   
   X84.2872      Y113.0828     R14.6000   
   X84.0472      Y116.8830     R14.6000   
   X82.8318      Y120.4916     R14.6000   
   X80.7238      Y123.6627     R14.6000   
   X77.8670      Y126.1801     R14.6000   
   X74.4559      Y127.8723     R14.6000   
   X70.7231      Y128.6241     R14.6000   
   X66.9229      Y128.3840     R14.6000   
   X63.3143      Y127.1686     R14.6000   
   X60.1433      Y125.0607     R14.6000   
   X57.6259      Y122.2038     R14.6000   
   X55.9336      Y118.7928     R14.6000   
   X55.1819      Y115.0600     R14.6000   
   X55.4219      Y111.2598     R14.6000   
   X56.6373      Y107.6512     R14.6000   
   X58.7453      Y104.4801     R14.6000   
   X61.6021      Y101.9627     R14.6000   
(Pass: 8)
G1   Z-0.100    
G17 G3   X65.0132      Y100.2705     R14.6000   
   X68.7460      Y99.5187      R14.6000   
   X72.5462      Y99.7588      R14.6000   
   X76.1548      Y100.9742     R14.6000   
   X79.3258      Y103.0821     R14.6000   
   X81.8432      Y105.9390     R14.6000   
   X83.5355      Y109.3500     R14.6000   
   X84.2872      Y113.0828     R14.6000   
   X84.0472      Y116.8830     R14.6000   
   X82.8318      Y120.4916     R14.6000   
   X80.7238      Y123.6627     R14.6000   
   X77.8670      Y126.1801     R14.6000   
   X74.4559      Y127.8723     R14.6000   
   X70.7231      Y128.6241     R14.6000   
   X66.9229      Y128.3840     R14.6000   
   X63.3143      Y127.1686     R14.6000   
   X60.1433      Y125.0607     R14.6000   
   X57.6259      Y122.2038     R14.6000   
   X55.9336      Y118.7928     R14.6000   
   X55.1819      Y115.0600     R14.6000   
   X55.4219      Y111.2598     R14.6000   
   X56.6373      Y107.6512     R14.6000   
   X58.7453      Y104.4801     R14.6000   
   X61.6021      Y101.9627     R14.6000   
(Pass: 9)
G1   Z-0.900    
G17 G3   X65.0132      Y100.2705     R14.6000   
   X68.7460      Y99.5187      R14.6000   
   X72.5462      Y99.7588      R14.6000   
   X76.1548      Y100.9742     R14.6000   
   X79.3258      Y103.0821     R14.6000   
   X81.8432      Y105.9390     R14.6000   
   X83.5355      Y109.3500     R14.6000   
   X84.2872      Y113.0828     R14.6000   
   X84.0472      Y116.8830     R14.6000   
   X82.8318      Y120.4916     R14.6000   
   X80.7238      Y123.6627     R14.6000   
   X77.8670      Y126.1801     R14.6000   
   X74.4559      Y127.8723     R14.6000   
   X70.7231      Y128.6241     R14.6000   
   X66.9229      Y128.3840     R14.6000   
   X63.3143      Y127.1686     R14.6000   
   X60.1433      Y125.0607     R14.6000   
   X57.6259      Y122.2038     R14.6000   
   X55.9336      Y118.7928     R14.6000   
   X55.1819      Y115.0600     R14.6000   
   X55.4219      Y111.2598     R14.6000   
   X56.6373      Y107.6512     R14.6000   
   X58.7453      Y104.4801     R14.6000   
   X61.6021      Y101.9627     R14.6000   
(BREAK pass 9)
G0   Z9.500     
(Pass: 1)
   X107.183      Y97.388    
G1   Z5.500      F2540
G17 G3   X107.2629     Y93.8947      R13.4000   
   X108.2440     Y90.5408      R13.4000   
   X110.0598     Y87.5551      R13.4000   
   X112.5865     Y85.1410      R13.4000   
   X115.6518     Y83.4632      R13.4000   
   X119.0470     Y82.6359      R13.4000   
   X122.5406     Y82.7156      R13.4000   
   X125.8945     Y83.6967      R13.4000   
   X128.8802     Y85.5125      R13.4000   
   X131.2942     Y88.0391      R13.4000   
   X132.9721     Y91.1045      R13.4000   
   X133.7993     Y94.4997      R13.4000   
   X133.7197     Y97.9933      R13.4000   
   X132.7386     Y101.3472     R13.4000   
   X130.9228     Y104.3329     R13.4000   
   X128.3961     Y106.7469     R13.4000   
   X125.3308     Y108.4248     R13.4000   
   X121.9356     Y109.2520     R13.4000   
   X118.4420     Y109.1724     R13.4000   
   X115.0881     Y108.1913     R13.4000   
   X112.1024     Y106.3755     R13.4000   
   X109.6884     Y103.8488     R13.4000   
   X108.0105     Y100.7835     R13.4000   
   X107.1833     Y97.3883      R13.4000   
(Pass: 2)
G1   Z4.700     
G17 G3   X107.2629     Y93.8947      R13.4000   
   X108.2440     Y90.5408      R13.4000   
   X110.0598     Y87.5551      R13.4000   
   X112.5865     Y85.1410      R13.4000   
   X115.6518     Y83.4632      R13.4000   
   X119.0470     Y82.6359      R13.4000   
   X122.5406     Y82.7156      R13.4000   
   X125.8945     Y83.6967      R13.4000   
   X128.8802     Y85.5125      R13.4000   
   X131.2942     Y88.0391      R13.4000   
   X132.9721     Y91.1045      R13.4000   
   X133.7993     Y94.4997      R13.4000   
   X133.7197     Y97.9933      R13.4000   
   X132.7386     Y101.3472     R13.4000   
   X130.9228     Y104.3329     R13.4000   
   X128.3961     Y106.7469     R13.4000   
   X125.3308     Y108.4248     R13.4000   
   X121.9356     Y109.2520     R13.4000   
   X118.4420     Y109.1724     R13.4000   
   X115.0881     Y108.1913     R13.4000   
   X112.1024     Y106.3755     R13.4000   
   X109.6884     Y103.8488     R13.4000   
   X108.0105     Y100.7835     R13.4000   
   X107.1833     Y97.3883      R13.4000   
(Pass: 3)
G1   Z3.900     
G17 G3   X107.2629     Y93.8947      R13.4000   
   X108.2440     Y90.5408      R13.4000   
   X110.0598     Y87.5551      R13.4000   
   X112.5865     Y85.1410      R13.4000   
   X115.6518     Y83.4632      R13.4000   
   X119.0470     Y82.6359      R13.4000   
   X122.5406     Y82.7156      R13.4000   
   X125.8945     Y83.6967      R13.4000   
   X128.8802     Y85.5125      R13.4000   
   X131.2942     Y88.0391      R13.4000   
   X132.9721     Y91.1045      R13.4000   
   X133.7993     Y94.4997      R13.4000   
   X133.7197     Y97.9933      R13.4000   
   X132.7386     Y101.3472     R13.4000   
   X130.9228     Y104.3329     R13.4000   
   X128.3961     Y106.7469     R13.4000   
   X125.3308     Y108.4248     R13.4000   
   X121.9356     Y109.2520     R13.4000   
   X118.4420     Y109.1724     R13.4000   
   X115.0881     Y108.1913     R13.4000   
   X112.1024     Y106.3755     R13.4000   
   X109.6884     Y103.8488     R13.4000   
   X108.0105     Y100.7835     R13.4000   
   X107.1833     Y97.3883      R13.4000   
(Pass: 4)
G1   Z3.100     
G17 G3   X107.2629     Y93.8947      R13.4000   
   X108.2440     Y90.5408      R13.4000   
   X110.0598     Y87.5551      R13.4000   
   X112.5865     Y85.1410      R13.4000   
   X115.6518     Y83.4632      R13.4000   
   X119.0470     Y82.6359      R13.4000   
   X122.5406     Y82.7156      R13.4000   
   X125.8945     Y83.6967      R13.4000   
   X128.8802     Y85.5125      R13.4000   
   X131.2942     Y88.0391      R13.4000   
   X132.9721     Y91.1045      R13.4000   
   X133.7993     Y94.4997      R13.4000   
   X133.7197     Y97.9933      R13.4000   
   X132.7386     Y101.3472     R13.4000   
   X130.9228     Y104.3329     R13.4000   
   X128.3961     Y106.7469     R13.4000   
   X125.3308     Y108.4248     R13.4000   
   X121.9356     Y109.2520     R13.4000   
   X118.4420     Y109.1724     R13.4000   
   X115.0881     Y108.1913     R13.4000   
   X112.1024     Y106.3755     R13.4000   
   X109.6884     Y103.8488     R13.4000   
   X108.0105     Y100.7835     R13.4000   
   X107.1833     Y97.3883      R13.4000   
(Pass: 5)
G1   Z2.300     
G17 G3   X107.2629     Y93.8947      R13.4000   
   X108.2440     Y90.5408      R13.4000   
   X110.0598     Y87.5551      R13.4000   
   X112.5865     Y85.1410      R13.4000   
   X115.6518     Y83.4632      R13.4000   
   X119.0470     Y82.6359      R13.4000   
   X122.5406     Y82.7156      R13.4000   
   X125.8945     Y83.6967      R13.4000   
   X128.8802     Y85.5125      R13.4000   
   X131.2942     Y88.0391      R13.4000   
   X132.9721     Y91.1045      R13.4000   
   X133.7993     Y94.4997      R13.4000   
   X133.7197     Y97.9933      R13.4000   
   X132.7386     Y101.3472     R13.4000   
   X130.9228     Y104.3329     R13.4000   
   X128.3961     Y106.7469     R13.4000   
   X125.3308     Y108.4248     R13.4000   
   X121.9356     Y109.2520     R13.4000   
   X118.4420     Y109.1724     R13.4000   
   X115.0881     Y108.1913     R13.4000   
   X112.1024     Y106.3755     R13.4000   
   X109.6884     Y103.8488     R13.4000   
   X108.0105     Y100.7835     R13.4000   
   X107.1833     Y97.3883      R13.4000   
(Pass: 6)
G1   Z1.500     
G17 G3   X107.2629     Y93.8947      R13.4000   
   X108.2440     Y90.5408      R13.4000   
   X110.0598     Y87.5551      R13.4000   
   X112.5865     Y85.1410      R13.4000   
   X115.6518     Y83.4632      R13.4000   
   X119.0470     Y82.6359      R13.4000   
   X122.5406     Y82.7156      R13.4000   
   X125.8945     Y83.6967      R13.4000   
   X128.8802     Y85.5125      R13.4000   
   X131.2942     Y88.0391      R13.4000   
   X132.9721     Y91.1045      R13.4000   
   X133.7993     Y94.4997      R13.4000   
   X133.7197     Y97.9933      R13.4000   
   X132.7386     Y101.3472     R13.4000   
   X130.9228     Y104.3329     R13.4000   
   X128.3961     Y106.7469     R13.4000   
   X125.3308     Y108.4248     R13.4000   
   X121.9356     Y109.2520     R13.4000   
   X118.4420     Y109.1724     R13.4000   
   X115.0881     Y108.1913     R13.4000   
   X112.1024     Y106.3755     R13.4000   
   X109.6884     Y103.8488     R13.4000   
   X108.0105     Y100.7835     R13.4000   
   X107.1833     Y97.3883      R13.4000   
(Pass: 7)
G1   Z0.700     
G17 G3   X107.2629     Y93.8947      R13.4000   
   X108.2440     Y90.5408      R13.4000   
   X110.0598     Y87.5551      R13.4000   
   X112.5865     Y85.1410      R13.4000   
   X115.6518     Y83.4632      R13.4000   
   X119.0470     Y82.6359      R13.4000   
   X122.5406     Y82.7156      R13.4000   
   X125.8945     Y83.6967      R13.4000   
   X128.8802     Y85.5125      R13.4000   
   X131.2942     Y88.0391      R13.4000   
   X132.9721     Y91.1045      R13.4000   
   X133.7993     Y94.4997      R13.4000   
   X133.7197     Y97.9933      R13.4000   
   X132.7386     Y101.3472     R13.4000   
   X130.9228     Y104.3329     R13.4000   
   X128.3961     Y106.7469     R13.4000   
   X125.3308     Y108.4248     R13.4000   
   X121.9356     Y109.2520     R13.4000   
   X118.4420     Y109.1724     R13.4000   
   X115.0881     Y108.1913     R13.4000   
   X112.1024     Y106.3755     R13.4000   
   X109.6884     Y103.8488     R13.4000   
   X108.0105     Y100.7835     R13.4000   
   X107.1833     Y97.3883      R13.4000   
(Pass: 8)
G1   Z-0.100    
G17 G3   X107.2629     Y93.8947      R13.4000   
   X108.2440     Y90.5408      R13.4000   
   X110.0598     Y87.5551      R13.4000   
   X112.5865     Y85.1410      R13.4000   
   X115.6518     Y83.4632      R13.4000   
   X119.0470     Y82.6359      R13.4000   
   X122.5406     Y82.7156      R13.4000   
   X125.8945     Y83.6967      R13.4000   
   X128.8802     Y85.5125      R13.4000   
   X131.2942     Y88.0391      R13.4000   
   X132.9721     Y91.1045      R13.4000   
   X133.7993     Y94.4997      R13.4000   
   X133.7197     Y97.9933      R13.4000   
   X132.7386     Y101.3472     R13.4000   
   X130.9228     Y104.3329     R13.4000   
   X128.3961     Y106.7469     R13.4000   
   X125.3308     Y108.4248     R13.4000   
   X121.9356     Y109.2520     R13.4000   
   X118.4420     Y109.1724     R13.4000   
   X115.0881     Y108.1913     R13.4000   
   X112.1024     Y106.3755     R13.4000   
   X109.6884     Y103.8488     R13.4000   
   X108.0105     Y100.7835     R13.4000   
   X107.1833     Y97.3883      R13.4000   
(Pass: 9)
G1   Z-0.900    
G17 G3   X107.2629     Y93.8947      R13.4000   
   X108.2440     Y90.5408      R13.4000   
   X110.0598     Y87.5551      R13.4000   
   X112.5865     Y85.1410      R13.4000   
   X115.6518     Y83.4632      R13.4000   
   X119.0470     Y82.6359      R13.4000   
   X122.5406     Y82.7156      R13.4000   
   X125.8945     Y83.6967      R13.4000   
   X128.8802     Y85.5125      R13.4000   
   X131.2942     Y88.0391      R13.4000   
   X132.9721     Y91.1045      R13.4000   
   X133.7993     Y94.4997      R13.4000   
   X133.7197     Y97.9933      R13.4000   
   X132.7386     Y101.3472     R13.4000   
   X130.9228     Y104.3329     R13.4000   
   X128.3961     Y106.7469     R13.4000   
   X125.3308     Y108.4248     R13.4000   
   X121.9356     Y109.2520     R13.4000   
   X118.4420     Y109.1724     R13.4000   
   X115.0881     Y108.1913     R13.4000   
   X112.1024     Y106.3755     R13.4000   
   X109.6884     Y103.8488     R13.4000   
   X108.0105     Y100.7835     R13.4000   
   X107.1833     Y97.3883      R13.4000   
(BREAK pass 9)
G0   Z9.500     
(Pass: 1)
   X110.823      Y144.326   
G1   Z5.500      F2540
G17 G3   X111.8550     Y144.4617     R4.0000    
   X112.8164     Y144.8599     R4.0000    
   X113.6420     Y145.4934     R4.0000    
   X114.2755     Y146.3190     R4.0000    
   X114.6737     Y147.2804     R4.0000    
   X114.8095     Y148.3121     R4.0000    
   X114.6737     Y149.3438     R4.0000    
   X114.2755     Y150.3052     R4.0000    
   X113.6420     Y151.1307     R4.0000    
   X112.8164     Y151.7642     R4.0000    
   X111.8550     Y152.1624     R4.0000    
   X110.8233     Y152.2983     R4.0000    
   X109.7916     Y152.1624     R4.0000    
   X108.8302     Y151.7642     R4.0000    
   X108.0047     Y151.1307     R4.0000    
   X107.3712     Y150.3052     R4.0000    
   X106.9730     Y149.3438     R4.0000    
   X106.8372     Y148.3121     R4.0000    
   X106.9730     Y147.2804     R4.0000    
   X107.3712     Y146.3190     R4.0000    
   X108.0047     Y145.4934     R4.0000    
   X108.8302     Y144.8599     R4.0000    
   X109.7916     Y144.4617     R4.0000    
   X110.8233     Y144.3259     R4.0000    
(Pass: 2)
G1   Z4.700     
G17 G3   X111.8550     Y144.4617     R4.0000    
   X112.8164     Y144.8599     R4.0000    
   X113.6420     Y145.4934     R4.0000    
   X114.2755     Y146.3190     R4.0000    
   X114.6737     Y147.2804     R4.0000    
   X114.8095     Y148.3121     R4.0000    
   X114.6737     Y149.3438     R4.0000    
   X114.2755     Y150.3052     R4.0000    
   X113.6420     Y151.1307     R4.0000    
   X112.8164     Y151.7642     R4.0000    
   X111.8550     Y152.1624     R4.0000    
   X110.8233     Y152.2983     R4.0000    
   X109.7916     Y152.1624     R4.0000    
   X108.8302     Y151.7642     R4.0000    
   X108.0047     Y151.1307     R4.0000    
   X107.3712     Y150.3052     R4.0000    
   X106.9730     Y149.3438     R4.0000    
   X106.8372     Y148.3121     R4.0000    
   X106.9730     Y147.2804     R4.0000    
   X107.3712     Y146.3190     R4.0000    
   X108.0047     Y145.4934     R4.0000    
   X108.8302     Y144.8599     R4.0000    
   X109.7916     Y144.4617     R4.0000    
   X110.8233     Y144.3259     R4.0000    
(Pass: 3)
G1   Z3.900     
G17 G3   X111.8550     Y144.4617     R4.0000    
   X112.8164     Y144.8599     R4.0000    
   X113.6420     Y145.4934     R4.0000    
   X114.2755     Y146.3190     R4.0000    
   X114.6737     Y147.2804     R4.0000    
   X114.8095     Y148.3121     R4.0000    
   X114.6737     Y149.3438     R4.0000    
   X114.2755     Y150.3052     R4.0000    
   X113.6420     Y151.1307     R4.0000    
   X112.8164     Y151.7642     R4.0000    
   X111.8550     Y152.1624     R4.0000    
   X110.8233     Y152.2983     R4.0000    
   X109.7916     Y152.1624     R4.0000    
   X108.8302     Y151.7642     R4.0000    
   X108.0047     Y151.1307     R4.0000    
   X107.3712     Y150.3052     R4.0000    
   X106.9730     Y149.3438     R4.0000    
   X106.8372     Y148.3121     R4.0000    
   X106.9730     Y147.2804     R4.0000    
   X107.3712     Y146.3190     R4.0000    
   X108.0047     Y145.4934     R4.0000    
   X108.8302     Y144.8599     R4.0000    
   X109.7916     Y144.4617     R4.0000    
   X110.8233     Y144.3259     R4.0000    
(Pass: 4)
G1   Z3.100     
G17 G3   X111.8550     Y144.4617     R4.0000    
   X112.8164     Y144.8599     R4.0000    
   X113.6420     Y145.4934     R4.0000    
   X114.2755     Y146.3190     R4.0000    
   X114.6737     Y147.2804     R4.0000    
   X114.8095     Y148.3121     R4.0000    
   X114.6737     Y149.3438     R4.0000    
   X114.2755     Y150.3052     R4.0000    
   X113.6420     Y151.1307     R4.0000    
   X112.8164     Y151.7642     R4.0000    
   X111.8550     Y152.1624     R4.0000    
   X110.8233     Y152.2983     R4.0000    
   X109.7916     Y152.1624     R4.0000    
   X108.8302     Y151.7642     R4.0000    
   X108.0047     Y151.1307     R4.0000    
   X107.3712     Y150.3052     R4.0000    
   X106.9730     Y149.3438     R4.0000    
   X106.8372     Y148.3121     R4.0000    
   X106.9730     Y147.2804     R4.0000    
   X107.3712     Y146.3190     R4.0000    
   X108.0047     Y145.4934     R4.0000    
   X108.8302     Y144.8599     R4.0000    
   X109.7916     Y144.4617     R4.0000    
   X110.8233     Y144.3259     R4.0000    
(Pass: 5)
G1   Z2.300     
G17 G3   X111.8550     Y144.4617     R4.0000    
   X112.8164     Y144.8599     R4.0000    
   X113.6420     Y145.4934     R4.0000    
   X114.2755     Y146.3190     R4.0000    
   X114.6737     Y147.2804     R4.0000    
   X114.8095     Y148.3121     R4.0000    
   X114.6737     Y149.3438     R4.0000    
   X114.2755     Y150.3052     R4.0000    
   X113.6420     Y151.1307     R4.0000    
   X112.8164     Y151.7642     R4.0000    
   X111.8550     Y152.1624     R4.0000    
   X110.8233     Y152.2983     R4.0000    
   X109.7916     Y152.1624     R4.0000    
   X108.8302     Y151.7642     R4.0000    
   X108.0047     Y151.1307     R4.0000    
   X107.3712     Y150.3052     R4.0000    
   X106.9730     Y149.3438     R4.0000    
   X106.8372     Y148.3121     R4.0000    
   X106.9730     Y147.2804     R4.0000    
   X107.3712     Y146.3190     R4.0000    
   X108.0047     Y145.4934     R4.0000    
   X108.8302     Y144.8599     R4.0000    
   X109.7916     Y144.4617     R4.0000    
   X110.8233     Y144.3259     R4.0000    
(Pass: 6)
G1   Z1.500     
G17 G3   X111.8550     Y144.4617     R4.0000    
   X112.8164     Y144.8599     R4.0000    
   X113.6420     Y145.4934     R4.0000    
   X114.2755     Y146.3190     R4.0000    
   X114.6737     Y147.2804     R4.0000    
   X114.8095     Y148.3121     R4.0000    
   X114.6737     Y149.3438     R4.0000    
   X114.2755     Y150.3052     R4.0000    
   X113.6420     Y151.1307     R4.0000    
   X112.8164     Y151.7642     R4.0000    
   X111.8550     Y152.1624     R4.0000    
   X110.8233     Y152.2983     R4.0000    
   X109.7916     Y152.1624     R4.0000    
   X108.8302     Y151.7642     R4.0000    
   X108.0047     Y151.1307     R4.0000    
   X107.3712     Y150.3052     R4.0000    
   X106.9730     Y149.3438     R4.0000    
   X106.8372     Y148.3121     R4.0000    
   X106.9730     Y147.2804     R4.0000    
   X107.3712     Y146.3190     R4.0000    
   X108.0047     Y145.4934     R4.0000    
   X108.8302     Y144.8599     R4.0000    
   X109.7916     Y144.4617     R4.0000    
   X110.8233     Y144.3259     R4.0000    
(Pass: 7)
G1   Z0.700     
G17 G3   X111.8550     Y144.4617     R4.0000    
   X112.8164     Y144.8599     R4.0000    
   X113.6420     Y145.4934     R4.0000    
   X114.2755     Y146.3190     R4.0000    
   X114.6737     Y147.2804     R4.0000    
   X114.8095     Y148.3121     R4.0000    
   X114.6737     Y149.3438     R4.0000    
   X114.2755     Y150.3052     R4.0000    
   X113.6420     Y151.1307     R4.0000    
   X112.8164     Y151.7642     R4.0000    
   X111.8550     Y152.1624     R4.0000    
   X110.8233     Y152.2983     R4.0000    
   X109.7916     Y152.1624     R4.0000    
   X108.8302     Y151.7642     R4.0000    
   X108.0047     Y151.1307     R4.0000    
   X107.3712     Y150.3052     R4.0000    
   X106.9730     Y149.3438     R4.0000    
   X106.8372     Y148.3121     R4.0000    
   X106.9730     Y147.2804     R4.0000    
   X107.3712     Y146.3190     R4.0000    
   X108.0047     Y145.4934     R4.0000    
   X108.8302     Y144.8599     R4.0000    
   X109.7916     Y144.4617     R4.0000    
   X110.8233     Y144.3259     R4.0000    
(Pass: 8)
G1   Z-0.100    
G17 G3   X111.8550     Y144.4617     R4.0000    
   X112.8164     Y144.8599     R4.0000    
   X113.6420     Y145.4934     R4.0000    
   X114.2755     Y146.3190     R4.0000    
   X114.6737     Y147.2804     R4.0000    
   X114.8095     Y148.3121     R4.0000    
   X114.6737     Y149.3438     R4.0000    
   X114.2755     Y150.3052     R4.0000    
   X113.6420     Y151.1307     R4.0000    
   X112.8164     Y151.7642     R4.0000    
   X111.8550     Y152.1624     R4.0000    
   X110.8233     Y152.2983     R4.0000    
   X109.7916     Y152.1624     R4.0000    
   X108.8302     Y151.7642     R4.0000    
   X108.0047     Y151.1307     R4.0000    
   X107.3712     Y150.3052     R4.0000    
   X106.9730     Y149.3438     R4.0000    
   X106.8372     Y148.3121     R4.0000    
   X106.9730     Y147.2804     R4.0000    
   X107.3712     Y146.3190     R4.0000    
   X108.0047     Y145.4934     R4.0000    
   X108.8302     Y144.8599     R4.0000    
   X109.7916     Y144.4617     R4.0000    
   X110.8233     Y144.3259     R4.0000    
(Pass: 9)
G1   Z-0.900    
G17 G3   X111.8550     Y144.4617     R4.0000    
   X112.8164     Y144.8599     R4.0000    
   X113.6420     Y145.4934     R4.0000    
   X114.2755     Y146.3190     R4.0000    
   X114.6737     Y147.2804     R4.0000    
   X114.8095     Y148.3121     R4.0000    
   X114.6737     Y149.3438     R4.0000    
   X114.2755     Y150.3052     R4.0000    
   X113.6420     Y151.1307     R4.0000    
   X112.8164     Y151.7642     R4.0000    
   X111.8550     Y152.1624     R4.0000    
   X110.8233     Y152.2983     R4.0000    
   X109.7916     Y152.1624     R4.0000    
   X108.8302     Y151.7642     R4.0000    
   X108.0047     Y151.1307     R4.0000    
   X107.3712     Y150.3052     R4.0000    
   X106.9730     Y149.3438     R4.0000    
   X106.8372     Y148.3121     R4.0000    
   X106.9730     Y147.2804     R4.0000    
   X107.3712     Y146.3190     R4.0000    
   X108.0047     Y145.4934     R4.0000    
   X108.8302     Y144.8599     R4.0000    
   X109.7916     Y144.4617     R4.0000    
   X110.8233     Y144.3259     R4.0000    
(BREAK pass 9)
G0   Z9.500     
(Pass: 1)
   X81.818       Y168.858   
G1   Z5.500      F2540
G17 G3   X82.4518      Y169.6832     R4.0000    
   X82.8500      Y170.6446     R4.0000    
   X82.9859      Y171.6763     R4.0000    
   X82.8500      Y172.7080     R4.0000    
   X82.4518      Y173.6694     R4.0000    
   X81.8183      Y174.4949     R4.0000    
   X80.9928      Y175.1284     R4.0000    
   X80.0314      Y175.5266     R4.0000    
   X78.9997      Y175.6625     R4.0000    
   X77.9680      Y175.5266     R4.0000    
   X77.0066      Y175.1284     R4.0000    
   X76.1810      Y174.4949     R4.0000    
   X75.5475      Y173.6694     R4.0000    
   X75.1493      Y172.7080     R4.0000    
   X75.0135      Y171.6763     R4.0000    
   X75.1493      Y170.6446     R4.0000    
   X75.5475      Y169.6832     R4.0000    
   X76.1810      Y168.8576     R4.0000    
   X77.0066      Y168.2241     R4.0000    
   X77.9680      Y167.8259     R4.0000    
   X78.9997      Y167.6901     R4.0000    
   X80.0314      Y167.8259     R4.0000    
   X80.9928      Y168.2241     R4.0000    
   X81.8183      Y168.8576     R4.0000    
(Pass: 2)
G1   Z4.700     
G17 G3   X82.4518      Y169.6832     R4.0000    
   X82.8500      Y170.6446     R4.0000    
   X82.9859      Y171.6763     R4.0000    
   X82.8500      Y172.7080     R4.0000    
   X82.4518      Y173.6694     R4.0000    
   X81.8183      Y174.4949     R4.0000    
   X80.9928      Y175.1284     R4.0000    
   X80.0314      Y175.5266     R4.0000    
   X78.9997      Y175.6625     R4.0000    
   X77.9680      Y175.5266     R4.0000    
   X77.0066      Y175.1284     R4.0000    
   X76.1810      Y174.4949     R4.0000    
   X75.5475      Y173.6694     R4.0000    
   X75.1493      Y172.7080     R4.0000    
   X75.0135      Y171.6763     R4.0000    
   X75.1493      Y170.6446     R4.0000    
   X75.5475      Y169.6832     R4.0000    
   X76.1810      Y168.8576     R4.0000    
   X77.0066      Y168.2241     R4.0000    
   X77.9680      Y167.8259     R4.0000    
   X78.9997      Y167.6901     R4.0000    
   X80.0314      Y167.8259     R4.0000    
   X80.9928      Y168.2241     R4.0000    
   X81.8183      Y168.8576     R4.0000    
(Pass: 3)
G1   Z3.900     
G17 G3   X82.4518      Y169.6832     R4.0000    
   X82.8500      Y170.6446     R4.0000    
   X82.9859      Y171.6763     R4.0000    
   X82.8500      Y172.7080     R4.0000    
   X82.4518      Y173.6694     R4.0000    
   X81.8183      Y174.4949     R4.0000    
   X80.9928      Y175.1284     R4.0000    
   X80.0314      Y175.5266     R4.0000    
   X78.9997      Y175.6625     R4.0000    
   X77.9680      Y175.5266     R4.0000    
   X77.0066      Y175.1284     R4.0000    
   X76.1810      Y174.4949     R4.0000    
   X75.5475      Y173.6694     R4.0000    
   X75.1493      Y172.7080     R4.0000    
   X75.0135      Y171.6763     R4.0000    
   X75.1493      Y170.6446     R4.0000    
   X75.5475      Y169.6832     R4.0000    
   X76.1810      Y168.8576     R4.0000    
   X77.0066      Y168.2241     R4.0000    
   X77.9680      Y167.8259     R4.0000    
   X78.9997      Y167.6901     R4.0000    
   X80.0314      Y167.8259     R4.0000    
   X80.9928      Y168.2241     R4.0000    
   X81.8183      Y168.8576     R4.0000    
(Pass: 4)
G1   Z3.100     
G17 G3   X82.4518      Y169.6832     R4.0000    
   X82.8500      Y170.6446     R4.0000    
   X82.9859      Y171.6763     R4.0000    
   X82.8500      Y172.7080     R4.0000    
   X82.4518      Y173.6694     R4.0000    
   X81.8183      Y174.4949     R4.0000    
   X80.9928      Y175.1284     R4.0000    
   X80.0314      Y175.5266     R4.0000    
   X78.9997      Y175.6625     R4.0000    
   X77.9680      Y175.5266     R4.0000    
   X77.0066      Y175.1284     R4.0000    
   X76.1810      Y174.4949     R4.0000    
   X75.5475      Y173.6694     R4.0000    
   X75.1493      Y172.7080     R4.0000    
   X75.0135      Y171.6763     R4.0000    
   X75.1493      Y170.6446     R4.0000    
   X75.5475      Y169.6832     R4.0000    
   X76.1810      Y168.8576     R4.0000    
   X77.0066      Y168.2241     R4.0000    
   X77.9680      Y167.8259     R4.0000    
   X78.9997      Y167.6901     R4.0000    
   X80.0314      Y167.8259     R4.0000    
   X80.9928      Y168.2241     R4.0000    
   X81.8183      Y168.8576     R4.0000    
(Pass: 5)
G1   Z2.300     
G17 G3   X82.4518      Y169.6832     R4.0000    
   X82.8500      Y170.6446     R4.0000    
   X82.9859      Y171.6763     R4.0000    
   X82.8500      Y172.7080     R4.0000    
   X82.4518      Y173.6694     R4.0000    
   X81.8183      Y174.4949     R4.0000    
   X80.9928      Y175.1284     R4.0000    
   X80.0314      Y175.5266     R4.0000    
   X78.9997      Y175.6625     R4.0000    
   X77.9680      Y175.5266     R4.0000    
   X77.0066      Y175.1284     R4.0000    
   X76.1810      Y174.4949     R4.0000    
   X75.5475      Y173.6694     R4.0000    
   X75.1493      Y172.7080     R4.0000    
   X75.0135      Y171.6763     R4.0000    
   X75.1493      Y170.6446     R4.0000    
   X75.5475      Y169.6832     R4.0000    
   X76.1810      Y168.8576     R4.0000    
   X77.0066      Y168.2241     R4.0000    
   X77.9680      Y167.8259     R4.0000    
   X78.9997      Y167.6901     R4.0000    
   X80.0314      Y167.8259     R4.0000    
   X80.9928      Y168.2241     R4.0000    
   X81.8183      Y168.8576     R4.0000    
(Pass: 6)
G1   Z1.500     
G17 G3   X82.4518      Y169.6832     R4.0000    
   X82.8500      Y170.6446     R4.0000    
   X82.9859      Y171.6763     R4.0000    
   X82.8500      Y172.7080     R4.0000    
   X82.4518      Y173.6694     R4.0000    
   X81.8183      Y174.4949     R4.0000    
   X80.9928      Y175.1284     R4.0000    
   X80.0314      Y175.5266     R4.0000    
   X78.9997      Y175.6625     R4.0000    
   X77.9680      Y175.5266     R4.0000    
   X77.0066      Y175.1284     R4.0000    
   X76.1810      Y174.4949     R4.0000    
   X75.5475      Y173.6694     R4.0000    
   X75.1493      Y172.7080     R4.0000    
   X75.0135      Y171.6763     R4.0000    
   X75.1493      Y170.6446     R4.0000    
   X75.5475      Y169.6832     R4.0000    
   X76.1810      Y168.8576     R4.0000    
   X77.0066      Y168.2241     R4.0000    
   X77.9680      Y167.8259     R4.0000    
   X78.9997      Y167.6901     R4.0000    
   X80.0314      Y167.8259     R4.0000    
   X80.9928      Y168.2241     R4.0000    
   X81.8183      Y168.8576     R4.0000    
(Pass: 7)
G1   Z0.700     
G17 G3   X82.4518      Y169.6832     R4.0000    
   X82.8500      Y170.6446     R4.0000    
   X82.9859      Y171.6763     R4.0000    
   X82.8500      Y172.7080     R4.0000    
   X82.4518      Y173.6694     R4.0000    
   X81.8183      Y174.4949     R4.0000    
   X80.9928      Y175.1284     R4.0000    
   X80.0314      Y175.5266     R4.0000    
   X78.9997      Y175.6625     R4.0000    
   X77.9680      Y175.5266     R4.0000    
   X77.0066      Y175.1284     R4.0000    
   X76.1810      Y174.4949     R4.0000    
   X75.5475      Y173.6694     R4.0000    
   X75.1493      Y172.7080     R4.0000    
   X75.0135      Y171.6763     R4.0000    
   X75.1493      Y170.6446     R4.0000    
   X75.5475      Y169.6832     R4.0000    
   X76.1810      Y168.8576     R4.0000    
   X77.0066      Y168.2241     R4.0000    
   X77.9680      Y167.8259     R4.0000    
   X78.9997      Y167.6901     R4.0000    
   X80.0314      Y167.8259     R4.0000    
   X80.9928      Y168.2241     R4.0000    
   X81.8183      Y168.8576     R4.0000    
(Pass: 8)
G1   Z-0.100    
G17 G3   X82.4518      Y169.6832     R4.0000    
   X82.8500      Y170.6446     R4.0000    
   X82.9859      Y171.6763     R4.0000    
   X82.8500      Y172.7080     R4.0000    
   X82.4518      Y173.6694     R4.0000    
   X81.8183      Y174.4949     R4.0000    
   X80.9928      Y175.1284     R4.0000    
   X80.0314      Y175.5266     R4.0000    
   X78.9997      Y175.6625     R4.0000    
   X77.9680      Y175.5266     R4.0000    
   X77.0066      Y175.1284     R4.0000    
   X76.1810      Y174.4949     R4.0000    
   X75.5475      Y173.6694     R4.0000    
   X75.1493      Y172.7080     R4.0000    
   X75.0135      Y171.6763     R4.0000    
   X75.1493      Y170.6446     R4.0000    
   X75.5475      Y169.6832     R4.0000    
   X76.1810      Y168.8576     R4.0000    
   X77.0066      Y168.2241     R4.0000    
   X77.9680      Y167.8259     R4.0000    
   X78.9997      Y167.6901     R4.0000    
   X80.0314      Y167.8259     R4.0000    
   X80.9928      Y168.2241     R4.0000    
   X81.8183      Y168.8576     R4.0000    
(Pass: 9)
G1   Z-0.900    
G17 G3   X82.4518      Y169.6832     R4.0000    
   X82.8500      Y170.6446     R4.0000    
   X82.9859      Y171.6763     R4.0000    
   X82.8500      Y172.7080     R4.0000    
   X82.4518      Y173.6694     R4.0000    
   X81.8183      Y174.4949     R4.0000    
   X80.9928      Y175.1284     R4.0000    
   X80.0314      Y175.5266     R4.0000    
   X78.9997      Y175.6625     R4.0000    
   X77.9680      Y175.5266     R4.0000    
   X77.0066      Y175.1284     R4.0000    
   X76.1810      Y174.4949     R4.0000    
   X75.5475      Y173.6694     R4.0000    
   X75.1493      Y172.7080     R4.0000    
   X75.0135      Y171.6763     R4.0000    
   X75.1493      Y170.6446     R4.0000    
   X75.5475      Y169.6832     R4.0000    
   X76.1810      Y168.8576     R4.0000    
   X77.0066      Y168.2241     R4.0000    
   X77.9680      Y167.8259     R4.0000    
   X78.9997      Y167.6901     R4.0000    
   X80.0314      Y167.8259     R4.0000    
   X80.9928      Y168.2241     R4.0000    
   X81.8183      Y168.8576     R4.0000    
(BREAK pass 9)
G0   Z9.500     
(Pass: 1)
   X42.720       Y219.348   
G1   Z5.500      F2540
   X164.020   
   Y25.059    
   X42.720    
   Y219.348   
(Pass: 2)
   Z4.700     
   X164.020   
   Y25.059    
   X42.720    
   Y219.348   
(Pass: 3)
   Z3.900     
   X164.020   
   Y25.059    
   X42.720    
   Y219.348   
(Pass: 4)
   Z3.100     
   X164.020   
   Y25.059    
   X42.720    
   Y219.348   
(Pass: 5)
   Z2.300     
   X164.020   
   Y25.059    
   X42.720    
   Y219.348   
(Pass: 6)
   Z1.500     
   X164.020   
   Y25.059    
   X42.720    
   Y219.348   
(Pass: 7)
   Z0.700     
   X164.020   
   Y25.059    
   X42.720    
   Y219.348   
(Pass: 8)
   Z-0.100    
   X164.020   
   Y25.059    
   X42.720    
   Y219.348   
(Pass: 9)
   Z-0.900    
   X164.020   
   Y25.059    
   X42.720    
   Y219.348   
(BREAK pass 9)
G0   Z9.500     
G0 X0 Y0 (home)
M05
M30
%
