%
(Generated by SketchUcam {1.2a})
(File: YZ_plate.skp)
(Bit diameter: 1/8")
(Feed rate: 80"/min)
(Plunge Feed rate: 60"/min)
(Material Thickness: 1/4")
(Material length: 15" X width: 25")
(Overhead Gantry: true)
(Retract feed rate NOT limited to plunge feed rate)
(Multipass enabled, Depth = 1/16")
(Optimization is ON)
(Z ZERO IS TABLETOP)
(www.PhlatBoyz.com)
G90 G20 G49 
M3 S15000
G0   Z0.3750    
(Pass: 1)
   X0.7025       Y0.6427    
G1   Z0.1875     F60  
   X0.6902       Y0.6588     F80  
   X0.6825       Y0.6775    
   X0.6798       Y0.6975    
   X0.6825       Y0.7175    
   X0.6902       Y0.7362    
   X0.7025       Y0.7523    
   X0.7186       Y0.7646    
   X0.7373       Y0.7723    
   X0.7573       Y0.7750    
   X0.7773       Y0.7723    
   X0.7960       Y0.7646    
   X0.8121       Y0.7523    
   X0.8244       Y0.7362    
   X0.8321       Y0.7175    
   X0.8348       Y0.6975    
   X0.8321       Y0.6775    
   X0.8244       Y0.6588    
   X0.8121       Y0.6427    
   X0.7960       Y0.6304    
   X0.7773       Y0.6227    
   X0.7573       Y0.6200    
   X0.7373       Y0.6227    
   X0.7186       Y0.6304    
   X0.7025       Y0.6427    
(Pass: 2)
   Z0.1250     F60  
   X0.6902       Y0.6588     F80  
   X0.6825       Y0.6775    
   X0.6798       Y0.6975    
   X0.6825       Y0.7175    
   X0.6902       Y0.7362    
   X0.7025       Y0.7523    
   X0.7186       Y0.7646    
   X0.7373       Y0.7723    
   X0.7573       Y0.7750    
   X0.7773       Y0.7723    
   X0.7960       Y0.7646    
   X0.8121       Y0.7523    
   X0.8244       Y0.7362    
   X0.8321       Y0.7175    
   X0.8348       Y0.6975    
   X0.8321       Y0.6775    
   X0.8244       Y0.6588    
   X0.8121       Y0.6427    
   X0.7960       Y0.6304    
   X0.7773       Y0.6227    
   X0.7573       Y0.6200    
   X0.7373       Y0.6227    
   X0.7186       Y0.6304    
   X0.7025       Y0.6427    
(Pass: 3)
   Z0.0625     F60  
   X0.6902       Y0.6588     F80  
   X0.6825       Y0.6775    
   X0.6798       Y0.6975    
   X0.6825       Y0.7175    
   X0.6902       Y0.7362    
   X0.7025       Y0.7523    
   X0.7186       Y0.7646    
   X0.7373       Y0.7723    
   X0.7573       Y0.7750    
   X0.7773       Y0.7723    
   X0.7960       Y0.7646    
   X0.8121       Y0.7523    
   X0.8244       Y0.7362    
   X0.8321       Y0.7175    
   X0.8348       Y0.6975    
   X0.8321       Y0.6775    
   X0.8244       Y0.6588    
   X0.8121       Y0.6427    
   X0.7960       Y0.6304    
   X0.7773       Y0.6227    
   X0.7573       Y0.6200    
   X0.7373       Y0.6227    
   X0.7186       Y0.6304    
   X0.7025       Y0.6427    
(Pass: 4)
   Z0.0000     F60  
   X0.6902       Y0.6588     F80  
   X0.6825       Y0.6775    
   X0.6798       Y0.6975    
   X0.6825       Y0.7175    
   X0.6902       Y0.7362    
   X0.7025       Y0.7523    
   X0.7186       Y0.7646    
   X0.7373       Y0.7723    
   X0.7573       Y0.7750    
   X0.7773       Y0.7723    
   X0.7960       Y0.7646    
   X0.8121       Y0.7523    
   X0.8244       Y0.7362    
   X0.8321       Y0.7175    
   X0.8348       Y0.6975    
   X0.8321       Y0.6775    
   X0.8244       Y0.6588    
   X0.8121       Y0.6427    
   X0.7960       Y0.6304    
   X0.7773       Y0.6227    
   X0.7573       Y0.6200    
   X0.7373       Y0.6227    
   X0.7186       Y0.6304    
   X0.7025       Y0.6427    
G0   Z0.3750    
(Pass: 1)
   X1.4673       Y0.6975    
G1   Z0.1875     F60  
   X1.4699       Y0.7175     F80  
   X1.4776       Y0.7362    
   X1.4899       Y0.7523    
   X1.5060       Y0.7646    
   X1.5247       Y0.7723    
   X1.5447       Y0.7750    
   X1.5648       Y0.7723    
   X1.5834       Y0.7646    
   X1.5995       Y0.7523    
   X1.6118       Y0.7362    
   X1.6195       Y0.7175    
   X1.6222       Y0.6975    
   X1.6195       Y0.6775    
   X1.6118       Y0.6588    
   X1.5995       Y0.6427    
   X1.5834       Y0.6304    
   X1.5648       Y0.6227    
   X1.5447       Y0.6200    
   X1.5247       Y0.6227    
   X1.5060       Y0.6304    
   X1.4899       Y0.6427    
   X1.4776       Y0.6588    
   X1.4699       Y0.6775    
   X1.4673       Y0.6975    
(Pass: 2)
   Z0.1250     F60  
   X1.4699       Y0.7175     F80  
   X1.4776       Y0.7362    
   X1.4899       Y0.7523    
   X1.5060       Y0.7646    
   X1.5247       Y0.7723    
   X1.5447       Y0.7750    
   X1.5648       Y0.7723    
   X1.5834       Y0.7646    
   X1.5995       Y0.7523    
   X1.6118       Y0.7362    
   X1.6195       Y0.7175    
   X1.6222       Y0.6975    
   X1.6195       Y0.6775    
   X1.6118       Y0.6588    
   X1.5995       Y0.6427    
   X1.5834       Y0.6304    
   X1.5648       Y0.6227    
   X1.5447       Y0.6200    
   X1.5247       Y0.6227    
   X1.5060       Y0.6304    
   X1.4899       Y0.6427    
   X1.4776       Y0.6588    
   X1.4699       Y0.6775    
   X1.4673       Y0.6975    
(Pass: 3)
   Z0.0625     F60  
   X1.4699       Y0.7175     F80  
   X1.4776       Y0.7362    
   X1.4899       Y0.7523    
   X1.5060       Y0.7646    
   X1.5247       Y0.7723    
   X1.5447       Y0.7750    
   X1.5648       Y0.7723    
   X1.5834       Y0.7646    
   X1.5995       Y0.7523    
   X1.6118       Y0.7362    
   X1.6195       Y0.7175    
   X1.6222       Y0.6975    
   X1.6195       Y0.6775    
   X1.6118       Y0.6588    
   X1.5995       Y0.6427    
   X1.5834       Y0.6304    
   X1.5648       Y0.6227    
   X1.5447       Y0.6200    
   X1.5247       Y0.6227    
   X1.5060       Y0.6304    
   X1.4899       Y0.6427    
   X1.4776       Y0.6588    
   X1.4699       Y0.6775    
   X1.4673       Y0.6975    
(Pass: 4)
   Z0.0000     F60  
   X1.4699       Y0.7175     F80  
   X1.4776       Y0.7362    
   X1.4899       Y0.7523    
   X1.5060       Y0.7646    
   X1.5247       Y0.7723    
   X1.5447       Y0.7750    
   X1.5648       Y0.7723    
   X1.5834       Y0.7646    
   X1.5995       Y0.7523    
   X1.6118       Y0.7362    
   X1.6195       Y0.7175    
   X1.6222       Y0.6975    
   X1.6195       Y0.6775    
   X1.6118       Y0.6588    
   X1.5995       Y0.6427    
   X1.5834       Y0.6304    
   X1.5648       Y0.6227    
   X1.5447       Y0.6200    
   X1.5247       Y0.6227    
   X1.5060       Y0.6304    
   X1.4899       Y0.6427    
   X1.4776       Y0.6588    
   X1.4699       Y0.6775    
   X1.4673       Y0.6975    
G0   Z0.3750    
(Pass: 1)
   X1.5447       Y3.5854    
G1   Z0.1875     F60  
   X1.5247       Y3.5880     F80  
   X1.5060       Y3.5958    
   X1.4899       Y3.6081    
   X1.4776       Y3.6241    
   X1.4699       Y3.6428    
   X1.4673       Y3.6629    
   X1.4699       Y3.6829    
   X1.4776       Y3.7016    
   X1.4899       Y3.7176    
   X1.5060       Y3.7299    
   X1.5247       Y3.7377    
   X1.5447       Y3.7403    
   X1.5648       Y3.7377    
   X1.5834       Y3.7299    
   X1.5995       Y3.7176    
   X1.6118       Y3.7016    
   X1.6195       Y3.6829    
   X1.6222       Y3.6629    
   X1.6195       Y3.6428    
   X1.6118       Y3.6241    
   X1.5995       Y3.6081    
   X1.5834       Y3.5958    
   X1.5648       Y3.5880    
   X1.5447       Y3.5854    
(Pass: 2)
   Z0.1250     F60  
   X1.5247       Y3.5880     F80  
   X1.5060       Y3.5958    
   X1.4899       Y3.6081    
   X1.4776       Y3.6241    
   X1.4699       Y3.6428    
   X1.4673       Y3.6629    
   X1.4699       Y3.6829    
   X1.4776       Y3.7016    
   X1.4899       Y3.7176    
   X1.5060       Y3.7299    
   X1.5247       Y3.7377    
   X1.5447       Y3.7403    
   X1.5648       Y3.7377    
   X1.5834       Y3.7299    
   X1.5995       Y3.7176    
   X1.6118       Y3.7016    
   X1.6195       Y3.6829    
   X1.6222       Y3.6629    
   X1.6195       Y3.6428    
   X1.6118       Y3.6241    
   X1.5995       Y3.6081    
   X1.5834       Y3.5958    
   X1.5648       Y3.5880    
   X1.5447       Y3.5854    
(Pass: 3)
   Z0.0625     F60  
   X1.5247       Y3.5880     F80  
   X1.5060       Y3.5958    
   X1.4899       Y3.6081    
   X1.4776       Y3.6241    
   X1.4699       Y3.6428    
   X1.4673       Y3.6629    
   X1.4699       Y3.6829    
   X1.4776       Y3.7016    
   X1.4899       Y3.7176    
   X1.5060       Y3.7299    
   X1.5247       Y3.7377    
   X1.5447       Y3.7403    
   X1.5648       Y3.7377    
   X1.5834       Y3.7299    
   X1.5995       Y3.7176    
   X1.6118       Y3.7016    
   X1.6195       Y3.6829    
   X1.6222       Y3.6629    
   X1.6195       Y3.6428    
   X1.6118       Y3.6241    
   X1.5995       Y3.6081    
   X1.5834       Y3.5958    
   X1.5648       Y3.5880    
   X1.5447       Y3.5854    
(Pass: 4)
   Z0.0000     F60  
   X1.5247       Y3.5880     F80  
   X1.5060       Y3.5958    
   X1.4899       Y3.6081    
   X1.4776       Y3.6241    
   X1.4699       Y3.6428    
   X1.4673       Y3.6629    
   X1.4699       Y3.6829    
   X1.4776       Y3.7016    
   X1.4899       Y3.7176    
   X1.5060       Y3.7299    
   X1.5247       Y3.7377    
   X1.5447       Y3.7403    
   X1.5648       Y3.7377    
   X1.5834       Y3.7299    
   X1.5995       Y3.7176    
   X1.6118       Y3.7016    
   X1.6195       Y3.6829    
   X1.6222       Y3.6629    
   X1.6195       Y3.6428    
   X1.6118       Y3.6241    
   X1.5995       Y3.6081    
   X1.5834       Y3.5958    
   X1.5648       Y3.5880    
   X1.5447       Y3.5854    
G0   Z0.3750    
(Pass: 1)
   X0.8348       Y3.6629    
G1   Z0.1875     F60  
   X0.8321       Y3.6428     F80  
   X0.8244       Y3.6241    
   X0.8121       Y3.6081    
   X0.7960       Y3.5958    
   X0.7773       Y3.5880    
   X0.7573       Y3.5854    
   X0.7373       Y3.5880    
   X0.7186       Y3.5958    
   X0.7025       Y3.6081    
   X0.6902       Y3.6241    
   X0.6825       Y3.6428    
   X0.6798       Y3.6629    
   X0.6825       Y3.6829    
   X0.6902       Y3.7016    
   X0.7025       Y3.7176    
   X0.7186       Y3.7299    
   X0.7373       Y3.7377    
   X0.7573       Y3.7403    
   X0.7773       Y3.7377    
   X0.7960       Y3.7299    
   X0.8121       Y3.7176    
   X0.8244       Y3.7016    
   X0.8321       Y3.6829    
   X0.8348       Y3.6629    
(Pass: 2)
   Z0.1250     F60  
   X0.8321       Y3.6428     F80  
   X0.8244       Y3.6241    
   X0.8121       Y3.6081    
   X0.7960       Y3.5958    
   X0.7773       Y3.5880    
   X0.7573       Y3.5854    
   X0.7373       Y3.5880    
   X0.7186       Y3.5958    
   X0.7025       Y3.6081    
   X0.6902       Y3.6241    
   X0.6825       Y3.6428    
   X0.6798       Y3.6629    
   X0.6825       Y3.6829    
   X0.6902       Y3.7016    
   X0.7025       Y3.7176    
   X0.7186       Y3.7299    
   X0.7373       Y3.7377    
   X0.7573       Y3.7403    
   X0.7773       Y3.7377    
   X0.7960       Y3.7299    
   X0.8121       Y3.7176    
   X0.8244       Y3.7016    
   X0.8321       Y3.6829    
   X0.8348       Y3.6629    
(Pass: 3)
   Z0.0625     F60  
   X0.8321       Y3.6428     F80  
   X0.8244       Y3.6241    
   X0.8121       Y3.6081    
   X0.7960       Y3.5958    
   X0.7773       Y3.5880    
   X0.7573       Y3.5854    
   X0.7373       Y3.5880    
   X0.7186       Y3.5958    
   X0.7025       Y3.6081    
   X0.6902       Y3.6241    
   X0.6825       Y3.6428    
   X0.6798       Y3.6629    
   X0.6825       Y3.6829    
   X0.6902       Y3.7016    
   X0.7025       Y3.7176    
   X0.7186       Y3.7299    
   X0.7373       Y3.7377    
   X0.7573       Y3.7403    
   X0.7773       Y3.7377    
   X0.7960       Y3.7299    
   X0.8121       Y3.7176    
   X0.8244       Y3.7016    
   X0.8321       Y3.6829    
   X0.8348       Y3.6629    
(Pass: 4)
   Z0.0000     F60  
   X0.8321       Y3.6428     F80  
   X0.8244       Y3.6241    
   X0.8121       Y3.6081    
   X0.7960       Y3.5958    
   X0.7773       Y3.5880    
   X0.7573       Y3.5854    
   X0.7373       Y3.5880    
   X0.7186       Y3.5958    
   X0.7025       Y3.6081    
   X0.6902       Y3.6241    
   X0.6825       Y3.6428    
   X0.6798       Y3.6629    
   X0.6825       Y3.6829    
   X0.6902       Y3.7016    
   X0.7025       Y3.7176    
   X0.7186       Y3.7299    
   X0.7373       Y3.7377    
   X0.7573       Y3.7403    
   X0.7773       Y3.7377    
   X0.7960       Y3.7299    
   X0.8121       Y3.7176    
   X0.8244       Y3.7016    
   X0.8321       Y3.6829    
   X0.8348       Y3.6629    
G0   Z0.3750    
(Pass: 1)
   X0.7573       Y6.5508    
G1   Z0.1875     F60  
   X0.7373       Y6.5534     F80  
   X0.7186       Y6.5611    
   X0.7025       Y6.5734    
   X0.6902       Y6.5895    
   X0.6825       Y6.6082    
   X0.6798       Y6.6282    
   X0.6825       Y6.6483    
   X0.6902       Y6.6669    
   X0.7025       Y6.6830    
   X0.7186       Y6.6953    
   X0.7373       Y6.7030    
   X0.7573       Y6.7057    
   X0.7773       Y6.7030    
   X0.7960       Y6.6953    
   X0.8121       Y6.6830    
   X0.8244       Y6.6669    
   X0.8321       Y6.6483    
   X0.8348       Y6.6282    
   X0.8321       Y6.6082    
   X0.8244       Y6.5895    
   X0.8121       Y6.5734    
   X0.7960       Y6.5611    
   X0.7773       Y6.5534    
   X0.7573       Y6.5508    
(Pass: 2)
   Z0.1250     F60  
   X0.7373       Y6.5534     F80  
   X0.7186       Y6.5611    
   X0.7025       Y6.5734    
   X0.6902       Y6.5895    
   X0.6825       Y6.6082    
   X0.6798       Y6.6282    
   X0.6825       Y6.6483    
   X0.6902       Y6.6669    
   X0.7025       Y6.6830    
   X0.7186       Y6.6953    
   X0.7373       Y6.7030    
   X0.7573       Y6.7057    
   X0.7773       Y6.7030    
   X0.7960       Y6.6953    
   X0.8121       Y6.6830    
   X0.8244       Y6.6669    
   X0.8321       Y6.6483    
   X0.8348       Y6.6282    
   X0.8321       Y6.6082    
   X0.8244       Y6.5895    
   X0.8121       Y6.5734    
   X0.7960       Y6.5611    
   X0.7773       Y6.5534    
   X0.7573       Y6.5508    
(Pass: 3)
   Z0.0625     F60  
   X0.7373       Y6.5534     F80  
   X0.7186       Y6.5611    
   X0.7025       Y6.5734    
   X0.6902       Y6.5895    
   X0.6825       Y6.6082    
   X0.6798       Y6.6282    
   X0.6825       Y6.6483    
   X0.6902       Y6.6669    
   X0.7025       Y6.6830    
   X0.7186       Y6.6953    
   X0.7373       Y6.7030    
   X0.7573       Y6.7057    
   X0.7773       Y6.7030    
   X0.7960       Y6.6953    
   X0.8121       Y6.6830    
   X0.8244       Y6.6669    
   X0.8321       Y6.6483    
   X0.8348       Y6.6282    
   X0.8321       Y6.6082    
   X0.8244       Y6.5895    
   X0.8121       Y6.5734    
   X0.7960       Y6.5611    
   X0.7773       Y6.5534    
   X0.7573       Y6.5508    
(Pass: 4)
   Z0.0000     F60  
   X0.7373       Y6.5534     F80  
   X0.7186       Y6.5611    
   X0.7025       Y6.5734    
   X0.6902       Y6.5895    
   X0.6825       Y6.6082    
   X0.6798       Y6.6282    
   X0.6825       Y6.6483    
   X0.6902       Y6.6669    
   X0.7025       Y6.6830    
   X0.7186       Y6.6953    
   X0.7373       Y6.7030    
   X0.7573       Y6.7057    
   X0.7773       Y6.7030    
   X0.7960       Y6.6953    
   X0.8121       Y6.6830    
   X0.8244       Y6.6669    
   X0.8321       Y6.6483    
   X0.8348       Y6.6282    
   X0.8321       Y6.6082    
   X0.8244       Y6.5895    
   X0.8121       Y6.5734    
   X0.7960       Y6.5611    
   X0.7773       Y6.5534    
   X0.7573       Y6.5508    
G0   Z0.3750    
(Pass: 1)
   X1.4699       Y6.6082    
G1   Z0.1875     F60  
   X1.4673       Y6.6282     F80  
   X1.4699       Y6.6483    
   X1.4776       Y6.6669    
   X1.4899       Y6.6830    
   X1.5060       Y6.6953    
   X1.5247       Y6.7030    
   X1.5447       Y6.7057    
   X1.5648       Y6.7030    
   X1.5834       Y6.6953    
   X1.5995       Y6.6830    
   X1.6118       Y6.6669    
   X1.6195       Y6.6483    
   X1.6222       Y6.6282    
   X1.6195       Y6.6082    
   X1.6118       Y6.5895    
   X1.5995       Y6.5734    
   X1.5834       Y6.5611    
   X1.5648       Y6.5534    
   X1.5447       Y6.5508    
   X1.5247       Y6.5534    
   X1.5060       Y6.5611    
   X1.4899       Y6.5734    
   X1.4776       Y6.5895    
   X1.4699       Y6.6082    
(Pass: 2)
   Z0.1250     F60  
   X1.4673       Y6.6282     F80  
   X1.4699       Y6.6483    
   X1.4776       Y6.6669    
   X1.4899       Y6.6830    
   X1.5060       Y6.6953    
   X1.5247       Y6.7030    
   X1.5447       Y6.7057    
   X1.5648       Y6.7030    
   X1.5834       Y6.6953    
   X1.5995       Y6.6830    
   X1.6118       Y6.6669    
   X1.6195       Y6.6483    
   X1.6222       Y6.6282    
   X1.6195       Y6.6082    
   X1.6118       Y6.5895    
   X1.5995       Y6.5734    
   X1.5834       Y6.5611    
   X1.5648       Y6.5534    
   X1.5447       Y6.5508    
   X1.5247       Y6.5534    
   X1.5060       Y6.5611    
   X1.4899       Y6.5734    
   X1.4776       Y6.5895    
   X1.4699       Y6.6082    
(Pass: 3)
   Z0.0625     F60  
   X1.4673       Y6.6282     F80  
   X1.4699       Y6.6483    
   X1.4776       Y6.6669    
   X1.4899       Y6.6830    
   X1.5060       Y6.6953    
   X1.5247       Y6.7030    
   X1.5447       Y6.7057    
   X1.5648       Y6.7030    
   X1.5834       Y6.6953    
   X1.5995       Y6.6830    
   X1.6118       Y6.6669    
   X1.6195       Y6.6483    
   X1.6222       Y6.6282    
   X1.6195       Y6.6082    
   X1.6118       Y6.5895    
   X1.5995       Y6.5734    
   X1.5834       Y6.5611    
   X1.5648       Y6.5534    
   X1.5447       Y6.5508    
   X1.5247       Y6.5534    
   X1.5060       Y6.5611    
   X1.4899       Y6.5734    
   X1.4776       Y6.5895    
   X1.4699       Y6.6082    
(Pass: 4)
   Z0.0000     F60  
   X1.4673       Y6.6282     F80  
   X1.4699       Y6.6483    
   X1.4776       Y6.6669    
   X1.4899       Y6.6830    
   X1.5060       Y6.6953    
   X1.5247       Y6.7030    
   X1.5447       Y6.7057    
   X1.5648       Y6.7030    
   X1.5834       Y6.6953    
   X1.5995       Y6.6830    
   X1.6118       Y6.6669    
   X1.6195       Y6.6483    
   X1.6222       Y6.6282    
   X1.6195       Y6.6082    
   X1.6118       Y6.5895    
   X1.5995       Y6.5734    
   X1.5834       Y6.5611    
   X1.5648       Y6.5534    
   X1.5447       Y6.5508    
   X1.5247       Y6.5534    
   X1.5060       Y6.5611    
   X1.4899       Y6.5734    
   X1.4776       Y6.5895    
   X1.4699       Y6.6082    
G0   Z0.3750    
(Pass: 1)
   X4.6338       Y6.6282    
G1   Z0.1875     F60  
   X4.6350       Y6.6374     F80  
   X4.6385       Y6.6459    
   X4.6442       Y6.6532    
   X4.6515       Y6.6589    
   X4.6600       Y6.6624    
   X4.6692       Y6.6636    
   X4.6783       Y6.6624    
   X4.6869       Y6.6589    
   X4.6942       Y6.6532    
   X4.6998       Y6.6459    
   X4.7034       Y6.6374    
   X4.7046       Y6.6282    
   X4.7034       Y6.6191    
   X4.6998       Y6.6105    
   X4.6942       Y6.6032    
   X4.6869       Y6.5976    
   X4.6783       Y6.5940    
   X4.6692       Y6.5928    
   X4.6600       Y6.5940    
   X4.6515       Y6.5976    
   X4.6442       Y6.6032    
   X4.6385       Y6.6105    
   X4.6350       Y6.6191    
   X4.6338       Y6.6282    
(Pass: 2)
   Z0.1250     F60  
   X4.6350       Y6.6374     F80  
   X4.6385       Y6.6459    
   X4.6442       Y6.6532    
   X4.6515       Y6.6589    
   X4.6600       Y6.6624    
   X4.6692       Y6.6636    
   X4.6783       Y6.6624    
   X4.6869       Y6.6589    
   X4.6942       Y6.6532    
   X4.6998       Y6.6459    
   X4.7034       Y6.6374    
   X4.7046       Y6.6282    
   X4.7034       Y6.6191    
   X4.6998       Y6.6105    
   X4.6942       Y6.6032    
   X4.6869       Y6.5976    
   X4.6783       Y6.5940    
   X4.6692       Y6.5928    
   X4.6600       Y6.5940    
   X4.6515       Y6.5976    
   X4.6442       Y6.6032    
   X4.6385       Y6.6105    
   X4.6350       Y6.6191    
   X4.6338       Y6.6282    
(Pass: 3)
   Z0.0625     F60  
   X4.6350       Y6.6374     F80  
   X4.6385       Y6.6459    
   X4.6442       Y6.6532    
   X4.6515       Y6.6589    
   X4.6600       Y6.6624    
   X4.6692       Y6.6636    
   X4.6783       Y6.6624    
   X4.6869       Y6.6589    
   X4.6942       Y6.6532    
   X4.6998       Y6.6459    
   X4.7034       Y6.6374    
   X4.7046       Y6.6282    
   X4.7034       Y6.6191    
   X4.6998       Y6.6105    
   X4.6942       Y6.6032    
   X4.6869       Y6.5976    
   X4.6783       Y6.5940    
   X4.6692       Y6.5928    
   X4.6600       Y6.5940    
   X4.6515       Y6.5976    
   X4.6442       Y6.6032    
   X4.6385       Y6.6105    
   X4.6350       Y6.6191    
   X4.6338       Y6.6282    
(Pass: 4)
   Z0.0000     F60  
   X4.6350       Y6.6374     F80  
   X4.6385       Y6.6459    
   X4.6442       Y6.6532    
   X4.6515       Y6.6589    
   X4.6600       Y6.6624    
   X4.6692       Y6.6636    
   X4.6783       Y6.6624    
   X4.6869       Y6.6589    
   X4.6942       Y6.6532    
   X4.6998       Y6.6459    
   X4.7034       Y6.6374    
   X4.7046       Y6.6282    
   X4.7034       Y6.6191    
   X4.6998       Y6.6105    
   X4.6942       Y6.6032    
   X4.6869       Y6.5976    
   X4.6783       Y6.5940    
   X4.6692       Y6.5928    
   X4.6600       Y6.5940    
   X4.6515       Y6.5976    
   X4.6442       Y6.6032    
   X4.6385       Y6.6105    
   X4.6350       Y6.6191    
   X4.6338       Y6.6282    
G0   Z0.3750    
(Pass: 1)
   X5.2743       Y5.9052    
G1   Z0.1875     F60  
   X5.2817       Y5.9108     F80  
   X5.2902       Y5.9144    
   X5.2994       Y5.9156    
   X5.3085       Y5.9144    
   X5.3171       Y5.9108    
   X5.3244       Y5.9052    
   X5.3300       Y5.8979    
   X5.3336       Y5.8893    
   X5.3348       Y5.8802    
   X5.3336       Y5.8710    
   X5.3300       Y5.8625    
   X5.3244       Y5.8552    
   X5.3171       Y5.8495    
   X5.3085       Y5.8460    
   X5.2994       Y5.8448    
   X5.2902       Y5.8460    
   X5.2817       Y5.8495    
   X5.2743       Y5.8552    
   X5.2687       Y5.8625    
   X5.2652       Y5.8710    
   X5.2640       Y5.8802    
   X5.2652       Y5.8893    
   X5.2687       Y5.8979    
   X5.2743       Y5.9052    
(Pass: 2)
   Z0.1250     F60  
   X5.2817       Y5.9108     F80  
   X5.2902       Y5.9144    
   X5.2994       Y5.9156    
   X5.3085       Y5.9144    
   X5.3171       Y5.9108    
   X5.3244       Y5.9052    
   X5.3300       Y5.8979    
   X5.3336       Y5.8893    
   X5.3348       Y5.8802    
   X5.3336       Y5.8710    
   X5.3300       Y5.8625    
   X5.3244       Y5.8552    
   X5.3171       Y5.8495    
   X5.3085       Y5.8460    
   X5.2994       Y5.8448    
   X5.2902       Y5.8460    
   X5.2817       Y5.8495    
   X5.2743       Y5.8552    
   X5.2687       Y5.8625    
   X5.2652       Y5.8710    
   X5.2640       Y5.8802    
   X5.2652       Y5.8893    
   X5.2687       Y5.8979    
   X5.2743       Y5.9052    
(Pass: 3)
   Z0.0625     F60  
   X5.2817       Y5.9108     F80  
   X5.2902       Y5.9144    
   X5.2994       Y5.9156    
   X5.3085       Y5.9144    
   X5.3171       Y5.9108    
   X5.3244       Y5.9052    
   X5.3300       Y5.8979    
   X5.3336       Y5.8893    
   X5.3348       Y5.8802    
   X5.3336       Y5.8710    
   X5.3300       Y5.8625    
   X5.3244       Y5.8552    
   X5.3171       Y5.8495    
   X5.3085       Y5.8460    
   X5.2994       Y5.8448    
   X5.2902       Y5.8460    
   X5.2817       Y5.8495    
   X5.2743       Y5.8552    
   X5.2687       Y5.8625    
   X5.2652       Y5.8710    
   X5.2640       Y5.8802    
   X5.2652       Y5.8893    
   X5.2687       Y5.8979    
   X5.2743       Y5.9052    
(Pass: 4)
   Z0.0000     F60  
   X5.2817       Y5.9108     F80  
   X5.2902       Y5.9144    
   X5.2994       Y5.9156    
   X5.3085       Y5.9144    
   X5.3171       Y5.9108    
   X5.3244       Y5.9052    
   X5.3300       Y5.8979    
   X5.3336       Y5.8893    
   X5.3348       Y5.8802    
   X5.3336       Y5.8710    
   X5.3300       Y5.8625    
   X5.3244       Y5.8552    
   X5.3171       Y5.8495    
   X5.3085       Y5.8460    
   X5.2994       Y5.8448    
   X5.2902       Y5.8460    
   X5.2817       Y5.8495    
   X5.2743       Y5.8552    
   X5.2687       Y5.8625    
   X5.2652       Y5.8710    
   X5.2640       Y5.8802    
   X5.2652       Y5.8893    
   X5.2687       Y5.8979    
   X5.2743       Y5.9052    
G0   Z0.3750    
(Pass: 1)
   X5.9324       Y5.7165    
G1   Z0.1875     F60  
   X5.9359       Y5.7250     F80  
   X5.9416       Y5.7323    
   X5.9489       Y5.7380    
   X5.9574       Y5.7415    
   X5.9666       Y5.7427    
   X5.9757       Y5.7415    
   X5.9843       Y5.7380    
   X5.9916       Y5.7323    
   X5.9972       Y5.7250    
   X6.0008       Y5.7165    
   X6.0020       Y5.7073    
   X6.0008       Y5.6982    
   X5.9972       Y5.6896    
   X5.9916       Y5.6823    
   X5.9843       Y5.6767    
   X5.9757       Y5.6731    
   X5.9666       Y5.6719    
   X5.9574       Y5.6731    
   X5.9489       Y5.6767    
   X5.9416       Y5.6823    
   X5.9359       Y5.6896    
   X5.9324       Y5.6982    
   X5.9312       Y5.7073    
   X5.9324       Y5.7165    
(Pass: 2)
   Z0.1250     F60  
   X5.9359       Y5.7250     F80  
   X5.9416       Y5.7323    
   X5.9489       Y5.7380    
   X5.9574       Y5.7415    
   X5.9666       Y5.7427    
   X5.9757       Y5.7415    
   X5.9843       Y5.7380    
   X5.9916       Y5.7323    
   X5.9972       Y5.7250    
   X6.0008       Y5.7165    
   X6.0020       Y5.7073    
   X6.0008       Y5.6982    
   X5.9972       Y5.6896    
   X5.9916       Y5.6823    
   X5.9843       Y5.6767    
   X5.9757       Y5.6731    
   X5.9666       Y5.6719    
   X5.9574       Y5.6731    
   X5.9489       Y5.6767    
   X5.9416       Y5.6823    
   X5.9359       Y5.6896    
   X5.9324       Y5.6982    
   X5.9312       Y5.7073    
   X5.9324       Y5.7165    
(Pass: 3)
   Z0.0625     F60  
   X5.9359       Y5.7250     F80  
   X5.9416       Y5.7323    
   X5.9489       Y5.7380    
   X5.9574       Y5.7415    
   X5.9666       Y5.7427    
   X5.9757       Y5.7415    
   X5.9843       Y5.7380    
   X5.9916       Y5.7323    
   X5.9972       Y5.7250    
   X6.0008       Y5.7165    
   X6.0020       Y5.7073    
   X6.0008       Y5.6982    
   X5.9972       Y5.6896    
   X5.9916       Y5.6823    
   X5.9843       Y5.6767    
   X5.9757       Y5.6731    
   X5.9666       Y5.6719    
   X5.9574       Y5.6731    
   X5.9489       Y5.6767    
   X5.9416       Y5.6823    
   X5.9359       Y5.6896    
   X5.9324       Y5.6982    
   X5.9312       Y5.7073    
   X5.9324       Y5.7165    
(Pass: 4)
   Z0.0000     F60  
   X5.9359       Y5.7250     F80  
   X5.9416       Y5.7323    
   X5.9489       Y5.7380    
   X5.9574       Y5.7415    
   X5.9666       Y5.7427    
   X5.9757       Y5.7415    
   X5.9843       Y5.7380    
   X5.9916       Y5.7323    
   X5.9972       Y5.7250    
   X6.0008       Y5.7165    
   X6.0020       Y5.7073    
   X6.0008       Y5.6982    
   X5.9972       Y5.6896    
   X5.9916       Y5.6823    
   X5.9843       Y5.6767    
   X5.9757       Y5.6731    
   X5.9666       Y5.6719    
   X5.9574       Y5.6731    
   X5.9489       Y5.6767    
   X5.9416       Y5.6823    
   X5.9359       Y5.6896    
   X5.9324       Y5.6982    
   X5.9312       Y5.7073    
   X5.9324       Y5.7165    
G0   Z0.3750    
(Pass: 1)
   X5.9666       Y6.5141    
G1   Z0.1875     F60  
   X5.9574       Y6.5153     F80  
   X5.9489       Y6.5188    
   X5.9416       Y6.5244    
   X5.9359       Y6.5318    
   X5.9324       Y6.5403    
   X5.9312       Y6.5495    
   X5.9324       Y6.5586    
   X5.9359       Y6.5672    
   X5.9416       Y6.5745    
   X5.9489       Y6.5801    
   X5.9574       Y6.5836    
   X5.9666       Y6.5849    
   X5.9757       Y6.5836    
   X5.9843       Y6.5801    
   X5.9916       Y6.5745    
   X5.9972       Y6.5672    
   X6.0008       Y6.5586    
   X6.0020       Y6.5495    
   X6.0008       Y6.5403    
   X5.9972       Y6.5318    
   X5.9916       Y6.5244    
   X5.9843       Y6.5188    
   X5.9757       Y6.5153    
   X5.9666       Y6.5141    
(Pass: 2)
   Z0.1250     F60  
   X5.9574       Y6.5153     F80  
   X5.9489       Y6.5188    
   X5.9416       Y6.5244    
   X5.9359       Y6.5318    
   X5.9324       Y6.5403    
   X5.9312       Y6.5495    
   X5.9324       Y6.5586    
   X5.9359       Y6.5672    
   X5.9416       Y6.5745    
   X5.9489       Y6.5801    
   X5.9574       Y6.5836    
   X5.9666       Y6.5849    
   X5.9757       Y6.5836    
   X5.9843       Y6.5801    
   X5.9916       Y6.5745    
   X5.9972       Y6.5672    
   X6.0008       Y6.5586    
   X6.0020       Y6.5495    
   X6.0008       Y6.5403    
   X5.9972       Y6.5318    
   X5.9916       Y6.5244    
   X5.9843       Y6.5188    
   X5.9757       Y6.5153    
   X5.9666       Y6.5141    
(Pass: 3)
   Z0.0625     F60  
   X5.9574       Y6.5153     F80  
   X5.9489       Y6.5188    
   X5.9416       Y6.5244    
   X5.9359       Y6.5318    
   X5.9324       Y6.5403    
   X5.9312       Y6.5495    
   X5.9324       Y6.5586    
   X5.9359       Y6.5672    
   X5.9416       Y6.5745    
   X5.9489       Y6.5801    
   X5.9574       Y6.5836    
   X5.9666       Y6.5849    
   X5.9757       Y6.5836    
   X5.9843       Y6.5801    
   X5.9916       Y6.5745    
   X5.9972       Y6.5672    
   X6.0008       Y6.5586    
   X6.0020       Y6.5495    
   X6.0008       Y6.5403    
   X5.9972       Y6.5318    
   X5.9916       Y6.5244    
   X5.9843       Y6.5188    
   X5.9757       Y6.5153    
   X5.9666       Y6.5141    
(Pass: 4)
   Z0.0000     F60  
   X5.9574       Y6.5153     F80  
   X5.9489       Y6.5188    
   X5.9416       Y6.5244    
   X5.9359       Y6.5318    
   X5.9324       Y6.5403    
   X5.9312       Y6.5495    
   X5.9324       Y6.5586    
   X5.9359       Y6.5672    
   X5.9416       Y6.5745    
   X5.9489       Y6.5801    
   X5.9574       Y6.5836    
   X5.9666       Y6.5849    
   X5.9757       Y6.5836    
   X5.9843       Y6.5801    
   X5.9916       Y6.5745    
   X5.9972       Y6.5672    
   X6.0008       Y6.5586    
   X6.0020       Y6.5495    
   X6.0008       Y6.5403    
   X5.9972       Y6.5318    
   X5.9916       Y6.5244    
   X5.9843       Y6.5188    
   X5.9757       Y6.5153    
   X5.9666       Y6.5141    
G0   Z0.3750    
(Pass: 1)
   X6.7198       Y6.5403    
G1   Z0.1875     F60  
   X6.7186       Y6.5495     F80  
   X6.7198       Y6.5586    
   X6.7233       Y6.5672    
   X6.7290       Y6.5745    
   X6.7363       Y6.5801    
   X6.7448       Y6.5836    
   X6.7540       Y6.5849    
   X6.7632       Y6.5836    
   X6.7717       Y6.5801    
   X6.7790       Y6.5745    
   X6.7846       Y6.5672    
   X6.7882       Y6.5586    
   X6.7894       Y6.5495    
   X6.7882       Y6.5403    
   X6.7846       Y6.5318    
   X6.7790       Y6.5244    
   X6.7717       Y6.5188    
   X6.7632       Y6.5153    
   X6.7540       Y6.5141    
   X6.7448       Y6.5153    
   X6.7363       Y6.5188    
   X6.7290       Y6.5244    
   X6.7233       Y6.5318    
   X6.7198       Y6.5403    
(Pass: 2)
   Z0.1250     F60  
   X6.7186       Y6.5495     F80  
   X6.7198       Y6.5586    
   X6.7233       Y6.5672    
   X6.7290       Y6.5745    
   X6.7363       Y6.5801    
   X6.7448       Y6.5836    
   X6.7540       Y6.5849    
   X6.7632       Y6.5836    
   X6.7717       Y6.5801    
   X6.7790       Y6.5745    
   X6.7846       Y6.5672    
   X6.7882       Y6.5586    
   X6.7894       Y6.5495    
   X6.7882       Y6.5403    
   X6.7846       Y6.5318    
   X6.7790       Y6.5244    
   X6.7717       Y6.5188    
   X6.7632       Y6.5153    
   X6.7540       Y6.5141    
   X6.7448       Y6.5153    
   X6.7363       Y6.5188    
   X6.7290       Y6.5244    
   X6.7233       Y6.5318    
   X6.7198       Y6.5403    
(Pass: 3)
   Z0.0625     F60  
   X6.7186       Y6.5495     F80  
   X6.7198       Y6.5586    
   X6.7233       Y6.5672    
   X6.7290       Y6.5745    
   X6.7363       Y6.5801    
   X6.7448       Y6.5836    
   X6.7540       Y6.5849    
   X6.7632       Y6.5836    
   X6.7717       Y6.5801    
   X6.7790       Y6.5745    
   X6.7846       Y6.5672    
   X6.7882       Y6.5586    
   X6.7894       Y6.5495    
   X6.7882       Y6.5403    
   X6.7846       Y6.5318    
   X6.7790       Y6.5244    
   X6.7717       Y6.5188    
   X6.7632       Y6.5153    
   X6.7540       Y6.5141    
   X6.7448       Y6.5153    
   X6.7363       Y6.5188    
   X6.7290       Y6.5244    
   X6.7233       Y6.5318    
   X6.7198       Y6.5403    
(Pass: 4)
   Z0.0000     F60  
   X6.7186       Y6.5495     F80  
   X6.7198       Y6.5586    
   X6.7233       Y6.5672    
   X6.7290       Y6.5745    
   X6.7363       Y6.5801    
   X6.7448       Y6.5836    
   X6.7540       Y6.5849    
   X6.7632       Y6.5836    
   X6.7717       Y6.5801    
   X6.7790       Y6.5745    
   X6.7846       Y6.5672    
   X6.7882       Y6.5586    
   X6.7894       Y6.5495    
   X6.7882       Y6.5403    
   X6.7846       Y6.5318    
   X6.7790       Y6.5244    
   X6.7717       Y6.5188    
   X6.7632       Y6.5153    
   X6.7540       Y6.5141    
   X6.7448       Y6.5153    
   X6.7363       Y6.5188    
   X6.7290       Y6.5244    
   X6.7233       Y6.5318    
   X6.7198       Y6.5403    
G0   Z0.3750    
(Pass: 1)
   X7.0653       Y6.5446    
G1   Z0.1875     F60  
   X7.0641       Y6.5538     F80  
   X7.0653       Y6.5629    
   X7.0689       Y6.5715    
   X7.0745       Y6.5788    
   X7.0818       Y6.5844    
   X7.0904       Y6.5879    
   X7.1249       Y6.5925    
   X7.2101       Y6.6602    
   Y6.7694    
   X7.3066       Y6.7705    
   X7.7189    
   X7.7206       Y6.3240    
   X7.7193       Y6.3175    
   X7.7150    
   X7.2170    
   X7.2110    
   X7.2097       Y6.3240    
   Y6.4472    
   X7.1249       Y6.5150    
   X7.0904       Y6.5196    
   X7.0818       Y6.5231    
   X7.0745       Y6.5287    
   X7.0689       Y6.5361    
   X7.0653       Y6.5446    
(Pass: 2)
   Z0.1250     F60  
   X7.0641       Y6.5538     F80  
   X7.0653       Y6.5629    
   X7.0689       Y6.5715    
   X7.0745       Y6.5788    
   X7.0818       Y6.5844    
   X7.0904       Y6.5879    
   X7.1249       Y6.5925    
   X7.2101       Y6.6602    
   Y6.7694    
   X7.3066       Y6.7705    
   X7.7189    
   X7.7206       Y6.3240    
   X7.7193       Y6.3175    
   X7.7150    
   X7.2170    
   X7.2110    
   X7.2097       Y6.3240    
   Y6.4472    
   X7.1249       Y6.5150    
   X7.0904       Y6.5196    
   X7.0818       Y6.5231    
   X7.0745       Y6.5287    
   X7.0689       Y6.5361    
   X7.0653       Y6.5446    
(Pass: 3)
   Z0.0625     F60  
   X7.0641       Y6.5538     F80  
   X7.0653       Y6.5629    
   X7.0689       Y6.5715    
   X7.0745       Y6.5788    
   X7.0818       Y6.5844    
   X7.0904       Y6.5879    
   X7.1249       Y6.5925    
   X7.2101       Y6.6602    
   Y6.7694    
   X7.3066       Y6.7705    
   X7.7189    
   X7.7206       Y6.3240    
   X7.7193       Y6.3175    
   X7.7150    
   X7.2170    
   X7.2110    
   X7.2097       Y6.3240    
   Y6.4472    
   X7.1249       Y6.5150    
   X7.0904       Y6.5196    
   X7.0818       Y6.5231    
   X7.0745       Y6.5287    
   X7.0689       Y6.5361    
   X7.0653       Y6.5446    
(Pass: 4)
   Z0.0000     F60  
   X7.0641       Y6.5538     F80  
   X7.0653       Y6.5629    
   X7.0689       Y6.5715    
   X7.0745       Y6.5788    
   X7.0818       Y6.5844    
   X7.0904       Y6.5879    
   X7.1249       Y6.5925    
   X7.2101       Y6.6602    
   Y6.7694    
   X7.3066       Y6.7705    
   X7.7189    
   X7.7206       Y6.3240    
   X7.7193       Y6.3175    
   X7.7150    
   X7.2170    
   X7.2110    
   X7.2097       Y6.3240    
   Y6.4472    
   X7.1249       Y6.5150    
   X7.0904       Y6.5196    
   X7.0818       Y6.5231    
   X7.0745       Y6.5287    
   X7.0689       Y6.5361    
   X7.0653       Y6.5446    
G0   Z0.3750    
(Pass: 1)
   X7.6722       Y5.7920    
G1   Z0.1875     F60  
   X7.6796       Y5.7977     F80  
   X7.6881       Y5.8012    
   X7.6973       Y5.8024    
   X7.7064       Y5.8012    
   X7.7149       Y5.7977    
   X7.7223       Y5.7920    
   X7.7279       Y5.7847    
   X7.7314       Y5.7762    
   X7.7326       Y5.7670    
   X7.7314       Y5.7579    
   X7.7279       Y5.7493    
   X7.7223       Y5.7420    
   X7.7149       Y5.7364    
   X7.7064       Y5.7328    
   X7.6973       Y5.7316    
   X7.6881       Y5.7328    
   X7.6796       Y5.7364    
   X7.6722       Y5.7420    
   X7.6666       Y5.7493    
   X7.6631       Y5.7579    
   X7.6619       Y5.7670    
   X7.6631       Y5.7762    
   X7.6666       Y5.7847    
   X7.6722       Y5.7920    
(Pass: 2)
   Z0.1250     F60  
   X7.6796       Y5.7977     F80  
   X7.6881       Y5.8012    
   X7.6973       Y5.8024    
   X7.7064       Y5.8012    
   X7.7149       Y5.7977    
   X7.7223       Y5.7920    
   X7.7279       Y5.7847    
   X7.7314       Y5.7762    
   X7.7326       Y5.7670    
   X7.7314       Y5.7579    
   X7.7279       Y5.7493    
   X7.7223       Y5.7420    
   X7.7149       Y5.7364    
   X7.7064       Y5.7328    
   X7.6973       Y5.7316    
   X7.6881       Y5.7328    
   X7.6796       Y5.7364    
   X7.6722       Y5.7420    
   X7.6666       Y5.7493    
   X7.6631       Y5.7579    
   X7.6619       Y5.7670    
   X7.6631       Y5.7762    
   X7.6666       Y5.7847    
   X7.6722       Y5.7920    
(Pass: 3)
   Z0.0625     F60  
   X7.6796       Y5.7977     F80  
   X7.6881       Y5.8012    
   X7.6973       Y5.8024    
   X7.7064       Y5.8012    
   X7.7149       Y5.7977    
   X7.7223       Y5.7920    
   X7.7279       Y5.7847    
   X7.7314       Y5.7762    
   X7.7326       Y5.7670    
   X7.7314       Y5.7579    
   X7.7279       Y5.7493    
   X7.7223       Y5.7420    
   X7.7149       Y5.7364    
   X7.7064       Y5.7328    
   X7.6973       Y5.7316    
   X7.6881       Y5.7328    
   X7.6796       Y5.7364    
   X7.6722       Y5.7420    
   X7.6666       Y5.7493    
   X7.6631       Y5.7579    
   X7.6619       Y5.7670    
   X7.6631       Y5.7762    
   X7.6666       Y5.7847    
   X7.6722       Y5.7920    
(Pass: 4)
   Z0.0000     F60  
   X7.6796       Y5.7977     F80  
   X7.6881       Y5.8012    
   X7.6973       Y5.8024    
   X7.7064       Y5.8012    
   X7.7149       Y5.7977    
   X7.7223       Y5.7920    
   X7.7279       Y5.7847    
   X7.7314       Y5.7762    
   X7.7326       Y5.7670    
   X7.7314       Y5.7579    
   X7.7279       Y5.7493    
   X7.7223       Y5.7420    
   X7.7149       Y5.7364    
   X7.7064       Y5.7328    
   X7.6973       Y5.7316    
   X7.6881       Y5.7328    
   X7.6796       Y5.7364    
   X7.6722       Y5.7420    
   X7.6666       Y5.7493    
   X7.6631       Y5.7579    
   X7.6619       Y5.7670    
   X7.6631       Y5.7762    
   X7.6666       Y5.7847    
   X7.6722       Y5.7920    
G0   Z0.3750    
(Pass: 1)
   X8.2353       Y5.6396    
G1   Z0.1875     F60  
   Y6.7075     F80  
   Y6.7175    
   X8.2375       Y6.7253    
   X8.2400       Y6.7328    
   X8.2436       Y6.7399    
   X8.2480       Y6.7466    
   X8.2532       Y6.7525    
   X8.2592       Y6.7578    
   X8.2658       Y6.7622    
   X8.2730       Y6.7657    
   X8.2805       Y6.7683    
   X8.2883       Y6.7698    
   X8.2983    
   X8.5378    
   X8.5659       Y6.7687    
   X8.5914       Y6.7636    
   X8.6161       Y6.7552    
   X8.6394       Y6.7437    
   X8.6611       Y6.7292    
   X8.6807       Y6.7120    
   X8.6979       Y6.6924    
   X8.7123       Y6.6708    
   X8.7238       Y6.6474    
   X8.7322       Y6.6228    
   X8.7373       Y6.5972    
   X8.7391       Y6.5692    
   Y5.6396    
   Y5.6296    
   X8.7369       Y5.6218    
   X8.7344       Y5.6143    
   X8.7309       Y5.6071    
   X8.7264       Y5.6005    
   X8.7212       Y5.5945    
   X8.7152       Y5.5893    
   X8.7086       Y5.5849    
   X8.7014       Y5.5814    
   X8.6939       Y5.5788    
   X8.6861       Y5.5772    
   X8.6761    
   X8.2983    
   X8.2883    
   X8.2805       Y5.5788    
   X8.2730       Y5.5814    
   X8.2658       Y5.5849    
   X8.2592       Y5.5893    
   X8.2532       Y5.5945    
   X8.2480       Y5.6005    
   X8.2436       Y5.6071    
   X8.2400       Y5.6143    
   X8.2375       Y5.6218    
   X8.2359       Y5.6296    
   Y5.6396    
(Pass: 2)
   Z0.1250     F60  
   Y6.7075     F80  
   Y6.7175    
   X8.2375       Y6.7253    
   X8.2400       Y6.7328    
   X8.2436       Y6.7399    
   X8.2480       Y6.7466    
   X8.2532       Y6.7525    
   X8.2592       Y6.7578    
   X8.2658       Y6.7622    
   X8.2730       Y6.7657    
   X8.2805       Y6.7683    
   X8.2883       Y6.7698    
   X8.2983    
   X8.5378    
   X8.5659       Y6.7687    
   X8.5914       Y6.7636    
   X8.6161       Y6.7552    
   X8.6394       Y6.7437    
   X8.6611       Y6.7292    
   X8.6807       Y6.7120    
   X8.6979       Y6.6924    
   X8.7123       Y6.6708    
   X8.7238       Y6.6474    
   X8.7322       Y6.6228    
   X8.7373       Y6.5972    
   X8.7391       Y6.5692    
   Y5.6396    
   Y5.6296    
   X8.7369       Y5.6218    
   X8.7344       Y5.6143    
   X8.7309       Y5.6071    
   X8.7264       Y5.6005    
   X8.7212       Y5.5945    
   X8.7152       Y5.5893    
   X8.7086       Y5.5849    
   X8.7014       Y5.5814    
   X8.6939       Y5.5788    
   X8.6861       Y5.5772    
   X8.6761    
   X8.2983    
   X8.2883    
   X8.2805       Y5.5788    
   X8.2730       Y5.5814    
   X8.2658       Y5.5849    
   X8.2592       Y5.5893    
   X8.2532       Y5.5945    
   X8.2480       Y5.6005    
   X8.2436       Y5.6071    
   X8.2400       Y5.6143    
   X8.2375       Y5.6218    
   X8.2359       Y5.6296    
   Y5.6396    
(Pass: 3)
   Z0.0625     F60  
   Y6.7075     F80  
   Y6.7175    
   X8.2375       Y6.7253    
   X8.2400       Y6.7328    
   X8.2436       Y6.7399    
   X8.2480       Y6.7466    
   X8.2532       Y6.7525    
   X8.2592       Y6.7578    
   X8.2658       Y6.7622    
   X8.2730       Y6.7657    
   X8.2805       Y6.7683    
   X8.2883       Y6.7698    
   X8.2983    
   X8.5378    
   X8.5659       Y6.7687    
   X8.5914       Y6.7636    
   X8.6161       Y6.7552    
   X8.6394       Y6.7437    
   X8.6611       Y6.7292    
   X8.6807       Y6.7120    
   X8.6979       Y6.6924    
   X8.7123       Y6.6708    
   X8.7238       Y6.6474    
   X8.7322       Y6.6228    
   X8.7373       Y6.5972    
   X8.7391       Y6.5692    
   Y5.6396    
   Y5.6296    
   X8.7369       Y5.6218    
   X8.7344       Y5.6143    
   X8.7309       Y5.6071    
   X8.7264       Y5.6005    
   X8.7212       Y5.5945    
   X8.7152       Y5.5893    
   X8.7086       Y5.5849    
   X8.7014       Y5.5814    
   X8.6939       Y5.5788    
   X8.6861       Y5.5772    
   X8.6761    
   X8.2983    
   X8.2883    
   X8.2805       Y5.5788    
   X8.2730       Y5.5814    
   X8.2658       Y5.5849    
   X8.2592       Y5.5893    
   X8.2532       Y5.5945    
   X8.2480       Y5.6005    
   X8.2436       Y5.6071    
   X8.2400       Y5.6143    
   X8.2375       Y5.6218    
   X8.2359       Y5.6296    
   Y5.6396    
(Pass: 4)
   Z0.0000     F60  
   Y6.7075     F80  
   Y6.7175    
   X8.2375       Y6.7253    
   X8.2400       Y6.7328    
   X8.2436       Y6.7399    
   X8.2480       Y6.7466    
   X8.2532       Y6.7525    
   X8.2592       Y6.7578    
   X8.2658       Y6.7622    
   X8.2730       Y6.7657    
   X8.2805       Y6.7683    
   X8.2883       Y6.7698    
   X8.2983    
   X8.5378    
   X8.5659       Y6.7687    
   X8.5914       Y6.7636    
   X8.6161       Y6.7552    
   X8.6394       Y6.7437    
   X8.6611       Y6.7292    
   X8.6807       Y6.7120    
   X8.6979       Y6.6924    
   X8.7123       Y6.6708    
   X8.7238       Y6.6474    
   X8.7322       Y6.6228    
   X8.7373       Y6.5972    
   X8.7391       Y6.5692    
   Y5.6396    
   Y5.6296    
   X8.7369       Y5.6218    
   X8.7344       Y5.6143    
   X8.7309       Y5.6071    
   X8.7264       Y5.6005    
   X8.7212       Y5.5945    
   X8.7152       Y5.5893    
   X8.7086       Y5.5849    
   X8.7014       Y5.5814    
   X8.6939       Y5.5788    
   X8.6861       Y5.5772    
   X8.6761    
   X8.2983    
   X8.2883    
   X8.2805       Y5.5788    
   X8.2730       Y5.5814    
   X8.2658       Y5.5849    
   X8.2592       Y5.5893    
   X8.2532       Y5.5945    
   X8.2480       Y5.6005    
   X8.2436       Y5.6071    
   X8.2400       Y5.6143    
   X8.2375       Y5.6218    
   X8.2359       Y5.6296    
   Y5.6396    
G0   Z0.3750    
(Pass: 1)
   X8.7671       Y5.1368    
G1   Z0.1875     F60  
   X8.8375       Y5.1379     F80  
   X8.8386       Y4.7927    
   X8.7736       Y4.7910    
   X8.7673       Y4.7923    
   Y4.7983    
   Y4.8323    
   Y5.1055    
   Y5.1368    
(Pass: 2)
   Z0.1250     F60  
   X8.8375       Y5.1379     F80  
   X8.8386       Y4.7927    
   X8.7736       Y4.7910    
   X8.7673       Y4.7923    
   Y4.7983    
   Y4.8323    
   Y5.1055    
   Y5.1368    
(Pass: 3)
   Z0.0625     F60  
   X8.8375       Y5.1379     F80  
   X8.8386       Y4.7927    
   X8.7736       Y4.7910    
   X8.7673       Y4.7923    
   Y4.7983    
   Y4.8323    
   Y5.1055    
   Y5.1368    
(Pass: 4)
   Z0.0000     F60  
   X8.8375       Y5.1379     F80  
   X8.8386       Y4.7927    
   X8.7736       Y4.7910    
   X8.7673       Y4.7923    
   Y4.7983    
   Y4.8323    
   Y5.1055    
   Y5.1368    
G0   Z0.3750    
(Pass: 1)
   X8.5183       Y4.9824    
G1   Z0.1875     F60  
   X8.5218       Y4.9739     F80  
   X8.5235       Y4.9606    
   Y4.1421    
   X8.5218       Y4.1288    
   X8.5183       Y4.1203    
   X8.5126       Y4.1129    
   X8.5053       Y4.1073    
   X8.4968       Y4.1038    
   X8.4876       Y4.1026    
   X8.4785       Y4.1038    
   X8.4699       Y4.1073    
   X8.4626       Y4.1129    
   X8.4570       Y4.1203    
   X8.4534       Y4.1288    
   X8.4517       Y4.1421    
   Y4.9606    
   X8.4534       Y4.9739    
   X8.4570       Y4.9824    
   X8.4626       Y4.9898    
   X8.4699       Y4.9954    
   X8.4785       Y4.9989    
   X8.4876       Y5.0001    
   X8.4968       Y4.9989    
   X8.5053       Y4.9954    
   X8.5126       Y4.9898    
   X8.5183       Y4.9824    
(Pass: 2)
   Z0.1250     F60  
   X8.5218       Y4.9739     F80  
   X8.5235       Y4.9606    
   Y4.1421    
   X8.5218       Y4.1288    
   X8.5183       Y4.1203    
   X8.5126       Y4.1129    
   X8.5053       Y4.1073    
   X8.4968       Y4.1038    
   X8.4876       Y4.1026    
   X8.4785       Y4.1038    
   X8.4699       Y4.1073    
   X8.4626       Y4.1129    
   X8.4570       Y4.1203    
   X8.4534       Y4.1288    
   X8.4517       Y4.1421    
   Y4.9606    
   X8.4534       Y4.9739    
   X8.4570       Y4.9824    
   X8.4626       Y4.9898    
   X8.4699       Y4.9954    
   X8.4785       Y4.9989    
   X8.4876       Y5.0001    
   X8.4968       Y4.9989    
   X8.5053       Y4.9954    
   X8.5126       Y4.9898    
   X8.5183       Y4.9824    
(Pass: 3)
   Z0.0625     F60  
   X8.5218       Y4.9739     F80  
   X8.5235       Y4.9606    
   Y4.1421    
   X8.5218       Y4.1288    
   X8.5183       Y4.1203    
   X8.5126       Y4.1129    
   X8.5053       Y4.1073    
   X8.4968       Y4.1038    
   X8.4876       Y4.1026    
   X8.4785       Y4.1038    
   X8.4699       Y4.1073    
   X8.4626       Y4.1129    
   X8.4570       Y4.1203    
   X8.4534       Y4.1288    
   X8.4517       Y4.1421    
   Y4.9606    
   X8.4534       Y4.9739    
   X8.4570       Y4.9824    
   X8.4626       Y4.9898    
   X8.4699       Y4.9954    
   X8.4785       Y4.9989    
   X8.4876       Y5.0001    
   X8.4968       Y4.9989    
   X8.5053       Y4.9954    
   X8.5126       Y4.9898    
   X8.5183       Y4.9824    
(Pass: 4)
   Z0.0000     F60  
   X8.5218       Y4.9739     F80  
   X8.5235       Y4.9606    
   Y4.1421    
   X8.5218       Y4.1288    
   X8.5183       Y4.1203    
   X8.5126       Y4.1129    
   X8.5053       Y4.1073    
   X8.4968       Y4.1038    
   X8.4876       Y4.1026    
   X8.4785       Y4.1038    
   X8.4699       Y4.1073    
   X8.4626       Y4.1129    
   X8.4570       Y4.1203    
   X8.4534       Y4.1288    
   X8.4517       Y4.1421    
   Y4.9606    
   X8.4534       Y4.9739    
   X8.4570       Y4.9824    
   X8.4626       Y4.9898    
   X8.4699       Y4.9954    
   X8.4785       Y4.9989    
   X8.4876       Y5.0001    
   X8.4968       Y4.9989    
   X8.5053       Y4.9954    
   X8.5126       Y4.9898    
   X8.5183       Y4.9824    
G0   Z0.3750    
(Pass: 1)
   X8.4865       Y3.4113    
G1   Z0.1875     F60  
   X8.4956       Y3.4101     F80  
   X8.5042       Y3.4065    
   X8.5115       Y3.4009    
   X8.5171       Y3.3936    
   X8.5206       Y3.3850    
   X8.5219       Y3.3759    
   X8.5206       Y3.3667    
   X8.5171       Y3.3582    
   X8.5115       Y3.3509    
   X8.5042       Y3.3452    
   X8.4956       Y3.3417    
   X8.4865       Y3.3405    
   X8.4773       Y3.3417    
   X8.4688       Y3.3452    
   X8.4614       Y3.3509    
   X8.4558       Y3.3582    
   X8.4523       Y3.3667    
   X8.4511       Y3.3759    
   X8.4523       Y3.3850    
   X8.4558       Y3.3936    
   X8.4614       Y3.4009    
   X8.4688       Y3.4065    
   X8.4773       Y3.4101    
   X8.4865       Y3.4113    
(Pass: 2)
   Z0.1250     F60  
   X8.4956       Y3.4101     F80  
   X8.5042       Y3.4065    
   X8.5115       Y3.4009    
   X8.5171       Y3.3936    
   X8.5206       Y3.3850    
   X8.5219       Y3.3759    
   X8.5206       Y3.3667    
   X8.5171       Y3.3582    
   X8.5115       Y3.3509    
   X8.5042       Y3.3452    
   X8.4956       Y3.3417    
   X8.4865       Y3.3405    
   X8.4773       Y3.3417    
   X8.4688       Y3.3452    
   X8.4614       Y3.3509    
   X8.4558       Y3.3582    
   X8.4523       Y3.3667    
   X8.4511       Y3.3759    
   X8.4523       Y3.3850    
   X8.4558       Y3.3936    
   X8.4614       Y3.4009    
   X8.4688       Y3.4065    
   X8.4773       Y3.4101    
   X8.4865       Y3.4113    
(Pass: 3)
   Z0.0625     F60  
   X8.4956       Y3.4101     F80  
   X8.5042       Y3.4065    
   X8.5115       Y3.4009    
   X8.5171       Y3.3936    
   X8.5206       Y3.3850    
   X8.5219       Y3.3759    
   X8.5206       Y3.3667    
   X8.5171       Y3.3582    
   X8.5115       Y3.3509    
   X8.5042       Y3.3452    
   X8.4956       Y3.3417    
   X8.4865       Y3.3405    
   X8.4773       Y3.3417    
   X8.4688       Y3.3452    
   X8.4614       Y3.3509    
   X8.4558       Y3.3582    
   X8.4523       Y3.3667    
   X8.4511       Y3.3759    
   X8.4523       Y3.3850    
   X8.4558       Y3.3936    
   X8.4614       Y3.4009    
   X8.4688       Y3.4065    
   X8.4773       Y3.4101    
   X8.4865       Y3.4113    
(Pass: 4)
   Z0.0000     F60  
   X8.4956       Y3.4101     F80  
   X8.5042       Y3.4065    
   X8.5115       Y3.4009    
   X8.5171       Y3.3936    
   X8.5206       Y3.3850    
   X8.5219       Y3.3759    
   X8.5206       Y3.3667    
   X8.5171       Y3.3582    
   X8.5115       Y3.3509    
   X8.5042       Y3.3452    
   X8.4956       Y3.3417    
   X8.4865       Y3.3405    
   X8.4773       Y3.3417    
   X8.4688       Y3.3452    
   X8.4614       Y3.3509    
   X8.4558       Y3.3582    
   X8.4523       Y3.3667    
   X8.4511       Y3.3759    
   X8.4523       Y3.3850    
   X8.4558       Y3.3936    
   X8.4614       Y3.4009    
   X8.4688       Y3.4065    
   X8.4773       Y3.4101    
   X8.4865       Y3.4113    
G0   Z0.3750    
(Pass: 1)
   X7.7332       Y3.3850    
G1   Z0.1875     F60  
   X7.7345       Y3.3759     F80  
   X7.7332       Y3.3667    
   X7.7297       Y3.3582    
   X7.7241       Y3.3509    
   X7.7168       Y3.3452    
   X7.7082       Y3.3417    
   X7.6991       Y3.3405    
   X7.6899       Y3.3417    
   X7.6814       Y3.3452    
   X7.6740       Y3.3509    
   X7.6684       Y3.3582    
   X7.6649       Y3.3667    
   X7.6637       Y3.3759    
   X7.6649       Y3.3850    
   X7.6684       Y3.3936    
   X7.6740       Y3.4009    
   X7.6814       Y3.4065    
   X7.6899       Y3.4101    
   X7.6991       Y3.4113    
   X7.7082       Y3.4101    
   X7.7168       Y3.4065    
   X7.7241       Y3.4009    
   X7.7297       Y3.3936    
   X7.7332       Y3.3850    
(Pass: 2)
   Z0.1250     F60  
   X7.7345       Y3.3759     F80  
   X7.7332       Y3.3667    
   X7.7297       Y3.3582    
   X7.7241       Y3.3509    
   X7.7168       Y3.3452    
   X7.7082       Y3.3417    
   X7.6991       Y3.3405    
   X7.6899       Y3.3417    
   X7.6814       Y3.3452    
   X7.6740       Y3.3509    
   X7.6684       Y3.3582    
   X7.6649       Y3.3667    
   X7.6637       Y3.3759    
   X7.6649       Y3.3850    
   X7.6684       Y3.3936    
   X7.6740       Y3.4009    
   X7.6814       Y3.4065    
   X7.6899       Y3.4101    
   X7.6991       Y3.4113    
   X7.7082       Y3.4101    
   X7.7168       Y3.4065    
   X7.7241       Y3.4009    
   X7.7297       Y3.3936    
   X7.7332       Y3.3850    
(Pass: 3)
   Z0.0625     F60  
   X7.7345       Y3.3759     F80  
   X7.7332       Y3.3667    
   X7.7297       Y3.3582    
   X7.7241       Y3.3509    
   X7.7168       Y3.3452    
   X7.7082       Y3.3417    
   X7.6991       Y3.3405    
   X7.6899       Y3.3417    
   X7.6814       Y3.3452    
   X7.6740       Y3.3509    
   X7.6684       Y3.3582    
   X7.6649       Y3.3667    
   X7.6637       Y3.3759    
   X7.6649       Y3.3850    
   X7.6684       Y3.3936    
   X7.6740       Y3.4009    
   X7.6814       Y3.4065    
   X7.6899       Y3.4101    
   X7.6991       Y3.4113    
   X7.7082       Y3.4101    
   X7.7168       Y3.4065    
   X7.7241       Y3.4009    
   X7.7297       Y3.3936    
   X7.7332       Y3.3850    
(Pass: 4)
   Z0.0000     F60  
   X7.7345       Y3.3759     F80  
   X7.7332       Y3.3667    
   X7.7297       Y3.3582    
   X7.7241       Y3.3509    
   X7.7168       Y3.3452    
   X7.7082       Y3.3417    
   X7.6991       Y3.3405    
   X7.6899       Y3.3417    
   X7.6814       Y3.3452    
   X7.6740       Y3.3509    
   X7.6684       Y3.3582    
   X7.6649       Y3.3667    
   X7.6637       Y3.3759    
   X7.6649       Y3.3850    
   X7.6684       Y3.3936    
   X7.6740       Y3.4009    
   X7.6814       Y3.4065    
   X7.6899       Y3.4101    
   X7.6991       Y3.4113    
   X7.7082       Y3.4101    
   X7.7168       Y3.4065    
   X7.7241       Y3.4009    
   X7.7297       Y3.3936    
   X7.7332       Y3.3850    
G0   Z0.3750    
(Pass: 1)
   X7.7094       Y4.1038    
G1   Z0.1875     F60  
   X7.7002       Y4.1026     F80  
   X7.6911       Y4.1038    
   X7.6825       Y4.1073    
   X7.6752       Y4.1129    
   X7.6696       Y4.1203    
   X7.6660       Y4.1288    
   X7.6643       Y4.1421    
   Y4.9606    
   X7.6660       Y4.9739    
   X7.6696       Y4.9824    
   X7.6752       Y4.9898    
   X7.6825       Y4.9954    
   X7.6911       Y4.9989    
   X7.7002       Y5.0001    
   X7.7094       Y4.9989    
   X7.7179       Y4.9954    
   X7.7252       Y4.9898    
   X7.7309       Y4.9824    
   X7.7344       Y4.9739    
   X7.7361       Y4.9606    
   Y4.1421    
   X7.7344       Y4.1288    
   X7.7309       Y4.1203    
   X7.7252       Y4.1129    
   X7.7179       Y4.1073    
   X7.7094       Y4.1038    
(Pass: 2)
   Z0.1250     F60  
   X7.7002       Y4.1026     F80  
   X7.6911       Y4.1038    
   X7.6825       Y4.1073    
   X7.6752       Y4.1129    
   X7.6696       Y4.1203    
   X7.6660       Y4.1288    
   X7.6643       Y4.1421    
   Y4.9606    
   X7.6660       Y4.9739    
   X7.6696       Y4.9824    
   X7.6752       Y4.9898    
   X7.6825       Y4.9954    
   X7.6911       Y4.9989    
   X7.7002       Y5.0001    
   X7.7094       Y4.9989    
   X7.7179       Y4.9954    
   X7.7252       Y4.9898    
   X7.7309       Y4.9824    
   X7.7344       Y4.9739    
   X7.7361       Y4.9606    
   Y4.1421    
   X7.7344       Y4.1288    
   X7.7309       Y4.1203    
   X7.7252       Y4.1129    
   X7.7179       Y4.1073    
   X7.7094       Y4.1038    
(Pass: 3)
   Z0.0625     F60  
   X7.7002       Y4.1026     F80  
   X7.6911       Y4.1038    
   X7.6825       Y4.1073    
   X7.6752       Y4.1129    
   X7.6696       Y4.1203    
   X7.6660       Y4.1288    
   X7.6643       Y4.1421    
   Y4.9606    
   X7.6660       Y4.9739    
   X7.6696       Y4.9824    
   X7.6752       Y4.9898    
   X7.6825       Y4.9954    
   X7.6911       Y4.9989    
   X7.7002       Y5.0001    
   X7.7094       Y4.9989    
   X7.7179       Y4.9954    
   X7.7252       Y4.9898    
   X7.7309       Y4.9824    
   X7.7344       Y4.9739    
   X7.7361       Y4.9606    
   Y4.1421    
   X7.7344       Y4.1288    
   X7.7309       Y4.1203    
   X7.7252       Y4.1129    
   X7.7179       Y4.1073    
   X7.7094       Y4.1038    
(Pass: 4)
   Z0.0000     F60  
   X7.7002       Y4.1026     F80  
   X7.6911       Y4.1038    
   X7.6825       Y4.1073    
   X7.6752       Y4.1129    
   X7.6696       Y4.1203    
   X7.6660       Y4.1288    
   X7.6643       Y4.1421    
   Y4.9606    
   X7.6660       Y4.9739    
   X7.6696       Y4.9824    
   X7.6752       Y4.9898    
   X7.6825       Y4.9954    
   X7.6911       Y4.9989    
   X7.7002       Y5.0001    
   X7.7094       Y4.9989    
   X7.7179       Y4.9954    
   X7.7252       Y4.9898    
   X7.7309       Y4.9824    
   X7.7344       Y4.9739    
   X7.7361       Y4.9606    
   Y4.1421    
   X7.7344       Y4.1288    
   X7.7309       Y4.1203    
   X7.7252       Y4.1129    
   X7.7179       Y4.1073    
   X7.7094       Y4.1038    
G0   Z0.3750    
(Pass: 1)
   X6.9487       Y4.1421    
G1   Z0.1875     F60  
   X6.9470       Y4.1288     F80  
   X6.9435       Y4.1203    
   X6.9378       Y4.1129    
   X6.9305       Y4.1073    
   X6.9220       Y4.1038    
   X6.9128       Y4.1026    
   X6.9037       Y4.1038    
   X6.8951       Y4.1073    
   X6.8878       Y4.1129    
   X6.8822       Y4.1203    
   X6.8786       Y4.1288    
   X6.8769       Y4.1421    
   Y4.9606    
   X6.8786       Y4.9739    
   X6.8822       Y4.9824    
   X6.8878       Y4.9898    
   X6.8951       Y4.9954    
   X6.9037       Y4.9989    
   X6.9128       Y5.0001    
   X6.9220       Y4.9989    
   X6.9305       Y4.9954    
   X6.9378       Y4.9898    
   X6.9435       Y4.9824    
   X6.9470       Y4.9739    
   X6.9487       Y4.9606    
   Y4.1421    
(Pass: 2)
   Z0.1250     F60  
   X6.9470       Y4.1288     F80  
   X6.9435       Y4.1203    
   X6.9378       Y4.1129    
   X6.9305       Y4.1073    
   X6.9220       Y4.1038    
   X6.9128       Y4.1026    
   X6.9037       Y4.1038    
   X6.8951       Y4.1073    
   X6.8878       Y4.1129    
   X6.8822       Y4.1203    
   X6.8786       Y4.1288    
   X6.8769       Y4.1421    
   Y4.9606    
   X6.8786       Y4.9739    
   X6.8822       Y4.9824    
   X6.8878       Y4.9898    
   X6.8951       Y4.9954    
   X6.9037       Y4.9989    
   X6.9128       Y5.0001    
   X6.9220       Y4.9989    
   X6.9305       Y4.9954    
   X6.9378       Y4.9898    
   X6.9435       Y4.9824    
   X6.9470       Y4.9739    
   X6.9487       Y4.9606    
   Y4.1421    
(Pass: 3)
   Z0.0625     F60  
   X6.9470       Y4.1288     F80  
   X6.9435       Y4.1203    
   X6.9378       Y4.1129    
   X6.9305       Y4.1073    
   X6.9220       Y4.1038    
   X6.9128       Y4.1026    
   X6.9037       Y4.1038    
   X6.8951       Y4.1073    
   X6.8878       Y4.1129    
   X6.8822       Y4.1203    
   X6.8786       Y4.1288    
   X6.8769       Y4.1421    
   Y4.9606    
   X6.8786       Y4.9739    
   X6.8822       Y4.9824    
   X6.8878       Y4.9898    
   X6.8951       Y4.9954    
   X6.9037       Y4.9989    
   X6.9128       Y5.0001    
   X6.9220       Y4.9989    
   X6.9305       Y4.9954    
   X6.9378       Y4.9898    
   X6.9435       Y4.9824    
   X6.9470       Y4.9739    
   X6.9487       Y4.9606    
   Y4.1421    
(Pass: 4)
   Z0.0000     F60  
   X6.9470       Y4.1288     F80  
   X6.9435       Y4.1203    
   X6.9378       Y4.1129    
   X6.9305       Y4.1073    
   X6.9220       Y4.1038    
   X6.9128       Y4.1026    
   X6.9037       Y4.1038    
   X6.8951       Y4.1073    
   X6.8878       Y4.1129    
   X6.8822       Y4.1203    
   X6.8786       Y4.1288    
   X6.8769       Y4.1421    
   Y4.9606    
   X6.8786       Y4.9739    
   X6.8822       Y4.9824    
   X6.8878       Y4.9898    
   X6.8951       Y4.9954    
   X6.9037       Y4.9989    
   X6.9128       Y5.0001    
   X6.9220       Y4.9989    
   X6.9305       Y4.9954    
   X6.9378       Y4.9898    
   X6.9435       Y4.9824    
   X6.9470       Y4.9739    
   X6.9487       Y4.9606    
   Y4.1421    
G0   Z0.3750    
(Pass: 1)
   X6.9097       Y3.4113    
G1   Z0.1875     F60  
   X6.9189       Y3.4101     F80  
   X6.9274       Y3.4065    
   X6.9348       Y3.4009    
   X6.9404       Y3.3936    
   X6.9439       Y3.3850    
   X6.9451       Y3.3759    
   X6.9439       Y3.3667    
   X6.9404       Y3.3582    
   X6.9348       Y3.3509    
   X6.9274       Y3.3452    
   X6.9189       Y3.3417    
   X6.9097       Y3.3405    
   X6.9006       Y3.3417    
   X6.8920       Y3.3452    
   X6.8847       Y3.3509    
   X6.8791       Y3.3582    
   X6.8755       Y3.3667    
   X6.8743       Y3.3759    
   X6.8755       Y3.3850    
   X6.8791       Y3.3936    
   X6.8847       Y3.4009    
   X6.8920       Y3.4065    
   X6.9006       Y3.4101    
   X6.9097       Y3.4113    
(Pass: 2)
   Z0.1250     F60  
   X6.9189       Y3.4101     F80  
   X6.9274       Y3.4065    
   X6.9348       Y3.4009    
   X6.9404       Y3.3936    
   X6.9439       Y3.3850    
   X6.9451       Y3.3759    
   X6.9439       Y3.3667    
   X6.9404       Y3.3582    
   X6.9348       Y3.3509    
   X6.9274       Y3.3452    
   X6.9189       Y3.3417    
   X6.9097       Y3.3405    
   X6.9006       Y3.3417    
   X6.8920       Y3.3452    
   X6.8847       Y3.3509    
   X6.8791       Y3.3582    
   X6.8755       Y3.3667    
   X6.8743       Y3.3759    
   X6.8755       Y3.3850    
   X6.8791       Y3.3936    
   X6.8847       Y3.4009    
   X6.8920       Y3.4065    
   X6.9006       Y3.4101    
   X6.9097       Y3.4113    
(Pass: 3)
   Z0.0625     F60  
   X6.9189       Y3.4101     F80  
   X6.9274       Y3.4065    
   X6.9348       Y3.4009    
   X6.9404       Y3.3936    
   X6.9439       Y3.3850    
   X6.9451       Y3.3759    
   X6.9439       Y3.3667    
   X6.9404       Y3.3582    
   X6.9348       Y3.3509    
   X6.9274       Y3.3452    
   X6.9189       Y3.3417    
   X6.9097       Y3.3405    
   X6.9006       Y3.3417    
   X6.8920       Y3.3452    
   X6.8847       Y3.3509    
   X6.8791       Y3.3582    
   X6.8755       Y3.3667    
   X6.8743       Y3.3759    
   X6.8755       Y3.3850    
   X6.8791       Y3.3936    
   X6.8847       Y3.4009    
   X6.8920       Y3.4065    
   X6.9006       Y3.4101    
   X6.9097       Y3.4113    
(Pass: 4)
   Z0.0000     F60  
   X6.9189       Y3.4101     F80  
   X6.9274       Y3.4065    
   X6.9348       Y3.4009    
   X6.9404       Y3.3936    
   X6.9439       Y3.3850    
   X6.9451       Y3.3759    
   X6.9439       Y3.3667    
   X6.9404       Y3.3582    
   X6.9348       Y3.3509    
   X6.9274       Y3.3452    
   X6.9189       Y3.3417    
   X6.9097       Y3.3405    
   X6.9006       Y3.3417    
   X6.8920       Y3.3452    
   X6.8847       Y3.3509    
   X6.8791       Y3.3582    
   X6.8755       Y3.3667    
   X6.8743       Y3.3759    
   X6.8755       Y3.3850    
   X6.8791       Y3.3936    
   X6.8847       Y3.4009    
   X6.8920       Y3.4065    
   X6.9006       Y3.4101    
   X6.9097       Y3.4113    
G0   Z0.3750    
(Pass: 1)
   X6.3973       Y2.7645    
G1   Z0.1875     F60  
   X6.4049       Y2.7586     F80  
   X6.4108       Y2.7509    
   X6.4145       Y2.7420    
   X6.4158       Y2.7325    
   X6.4145       Y2.7229    
   X6.4108       Y2.7140    
   X6.4049       Y2.7063    
   X6.3973       Y2.7005    
   X6.3884       Y2.6968    
   X6.3747       Y2.6950    
   X6.0286    
   X6.0149       Y2.6968    
   X6.0060       Y2.7005    
   X5.9983       Y2.7063    
   X5.9925       Y2.7140    
   X5.9888       Y2.7229    
   X5.9875       Y2.7325    
   X5.9888       Y2.7420    
   X5.9925       Y2.7509    
   X5.9983       Y2.7586    
   X6.0060       Y2.7645    
   X6.0149       Y2.7682    
   X6.0286       Y2.7700    
   X6.3747    
   X6.3884       Y2.7682    
   X6.3973       Y2.7645    
(Pass: 2)
   Z0.1250     F60  
   X6.4049       Y2.7586     F80  
   X6.4108       Y2.7509    
   X6.4145       Y2.7420    
   X6.4158       Y2.7325    
   X6.4145       Y2.7229    
   X6.4108       Y2.7140    
   X6.4049       Y2.7063    
   X6.3973       Y2.7005    
   X6.3884       Y2.6968    
   X6.3747       Y2.6950    
   X6.0286    
   X6.0149       Y2.6968    
   X6.0060       Y2.7005    
   X5.9983       Y2.7063    
   X5.9925       Y2.7140    
   X5.9888       Y2.7229    
   X5.9875       Y2.7325    
   X5.9888       Y2.7420    
   X5.9925       Y2.7509    
   X5.9983       Y2.7586    
   X6.0060       Y2.7645    
   X6.0149       Y2.7682    
   X6.0286       Y2.7700    
   X6.3747    
   X6.3884       Y2.7682    
   X6.3973       Y2.7645    
(Pass: 3)
   Z0.0625     F60  
   X6.4049       Y2.7586     F80  
   X6.4108       Y2.7509    
   X6.4145       Y2.7420    
   X6.4158       Y2.7325    
   X6.4145       Y2.7229    
   X6.4108       Y2.7140    
   X6.4049       Y2.7063    
   X6.3973       Y2.7005    
   X6.3884       Y2.6968    
   X6.3747       Y2.6950    
   X6.0286    
   X6.0149       Y2.6968    
   X6.0060       Y2.7005    
   X5.9983       Y2.7063    
   X5.9925       Y2.7140    
   X5.9888       Y2.7229    
   X5.9875       Y2.7325    
   X5.9888       Y2.7420    
   X5.9925       Y2.7509    
   X5.9983       Y2.7586    
   X6.0060       Y2.7645    
   X6.0149       Y2.7682    
   X6.0286       Y2.7700    
   X6.3747    
   X6.3884       Y2.7682    
   X6.3973       Y2.7645    
(Pass: 4)
   Z0.0000     F60  
   X6.4049       Y2.7586     F80  
   X6.4108       Y2.7509    
   X6.4145       Y2.7420    
   X6.4158       Y2.7325    
   X6.4145       Y2.7229    
   X6.4108       Y2.7140    
   X6.4049       Y2.7063    
   X6.3973       Y2.7005    
   X6.3884       Y2.6968    
   X6.3747       Y2.6950    
   X6.0286    
   X6.0149       Y2.6968    
   X6.0060       Y2.7005    
   X5.9983       Y2.7063    
   X5.9925       Y2.7140    
   X5.9888       Y2.7229    
   X5.9875       Y2.7325    
   X5.9888       Y2.7420    
   X5.9925       Y2.7509    
   X5.9983       Y2.7586    
   X6.0060       Y2.7645    
   X6.0149       Y2.7682    
   X6.0286       Y2.7700    
   X6.3747    
   X6.3884       Y2.7682    
   X6.3973       Y2.7645    
G0   Z0.3750    
(Pass: 1)
   X4.7034       Y2.2815    
G1   Z0.1875     F60  
   X4.7046       Y2.2723     F80  
   X4.7034       Y2.2631    
   X4.6998       Y2.2546    
   X4.6942       Y2.2473    
   X4.6869       Y2.2417    
   X4.6783       Y2.2381    
   X4.6692       Y2.2369    
   X4.6600       Y2.2381    
   X4.6515       Y2.2417    
   X4.6442       Y2.2473    
   X4.6385       Y2.2546    
   X4.6350       Y2.2631    
   X4.6338       Y2.2723    
   X4.6350       Y2.2815    
   X4.6385       Y2.2900    
   X4.6442       Y2.2973    
   X4.6515       Y2.3029    
   X4.6600       Y2.3065    
   X4.6692       Y2.3077    
   X4.6783       Y2.3065    
   X4.6869       Y2.3029    
   X4.6942       Y2.2973    
   X4.6998       Y2.2900    
   X4.7034       Y2.2815    
(Pass: 2)
   Z0.1250     F60  
   X4.7046       Y2.2723     F80  
   X4.7034       Y2.2631    
   X4.6998       Y2.2546    
   X4.6942       Y2.2473    
   X4.6869       Y2.2417    
   X4.6783       Y2.2381    
   X4.6692       Y2.2369    
   X4.6600       Y2.2381    
   X4.6515       Y2.2417    
   X4.6442       Y2.2473    
   X4.6385       Y2.2546    
   X4.6350       Y2.2631    
   X4.6338       Y2.2723    
   X4.6350       Y2.2815    
   X4.6385       Y2.2900    
   X4.6442       Y2.2973    
   X4.6515       Y2.3029    
   X4.6600       Y2.3065    
   X4.6692       Y2.3077    
   X4.6783       Y2.3065    
   X4.6869       Y2.3029    
   X4.6942       Y2.2973    
   X4.6998       Y2.2900    
   X4.7034       Y2.2815    
(Pass: 3)
   Z0.0625     F60  
   X4.7046       Y2.2723     F80  
   X4.7034       Y2.2631    
   X4.6998       Y2.2546    
   X4.6942       Y2.2473    
   X4.6869       Y2.2417    
   X4.6783       Y2.2381    
   X4.6692       Y2.2369    
   X4.6600       Y2.2381    
   X4.6515       Y2.2417    
   X4.6442       Y2.2473    
   X4.6385       Y2.2546    
   X4.6350       Y2.2631    
   X4.6338       Y2.2723    
   X4.6350       Y2.2815    
   X4.6385       Y2.2900    
   X4.6442       Y2.2973    
   X4.6515       Y2.3029    
   X4.6600       Y2.3065    
   X4.6692       Y2.3077    
   X4.6783       Y2.3065    
   X4.6869       Y2.3029    
   X4.6942       Y2.2973    
   X4.6998       Y2.2900    
   X4.7034       Y2.2815    
(Pass: 4)
   Z0.0000     F60  
   X4.7046       Y2.2723     F80  
   X4.7034       Y2.2631    
   X4.6998       Y2.2546    
   X4.6942       Y2.2473    
   X4.6869       Y2.2417    
   X4.6783       Y2.2381    
   X4.6692       Y2.2369    
   X4.6600       Y2.2381    
   X4.6515       Y2.2417    
   X4.6442       Y2.2473    
   X4.6385       Y2.2546    
   X4.6350       Y2.2631    
   X4.6338       Y2.2723    
   X4.6350       Y2.2815    
   X4.6385       Y2.2900    
   X4.6442       Y2.2973    
   X4.6515       Y2.3029    
   X4.6600       Y2.3065    
   X4.6692       Y2.3077    
   X4.6783       Y2.3065    
   X4.6869       Y2.3029    
   X4.6942       Y2.2973    
   X4.6998       Y2.2900    
   X4.7034       Y2.2815    
G0   Z0.3750    
(Pass: 1)
   X4.5373       Y2.7005    
G1   Z0.1875     F60  
   X4.5284       Y2.6968     F80  
   X4.5147       Y2.6950    
   X4.1686    
   X4.1549       Y2.6968    
   X4.1460       Y2.7005    
   X4.1383       Y2.7063    
   X4.1325       Y2.7140    
   X4.1288       Y2.7229    
   X4.1275       Y2.7325    
   X4.1288       Y2.7420    
   X4.1325       Y2.7509    
   X4.1383       Y2.7586    
   X4.1460       Y2.7645    
   X4.1549       Y2.7682    
   X4.1686       Y2.7700    
   X4.5147    
   X4.5284       Y2.7682    
   X4.5373       Y2.7645    
   X4.5449       Y2.7586    
   X4.5508       Y2.7509    
   X4.5545       Y2.7420    
   X4.5558       Y2.7325    
   X4.5545       Y2.7229    
   X4.5508       Y2.7140    
   X4.5449       Y2.7063    
   X4.5373       Y2.7005    
(Pass: 2)
   Z0.1250     F60  
   X4.5284       Y2.6968     F80  
   X4.5147       Y2.6950    
   X4.1686    
   X4.1549       Y2.6968    
   X4.1460       Y2.7005    
   X4.1383       Y2.7063    
   X4.1325       Y2.7140    
   X4.1288       Y2.7229    
   X4.1275       Y2.7325    
   X4.1288       Y2.7420    
   X4.1325       Y2.7509    
   X4.1383       Y2.7586    
   X4.1460       Y2.7645    
   X4.1549       Y2.7682    
   X4.1686       Y2.7700    
   X4.5147    
   X4.5284       Y2.7682    
   X4.5373       Y2.7645    
   X4.5449       Y2.7586    
   X4.5508       Y2.7509    
   X4.5545       Y2.7420    
   X4.5558       Y2.7325    
   X4.5545       Y2.7229    
   X4.5508       Y2.7140    
   X4.5449       Y2.7063    
   X4.5373       Y2.7005    
(Pass: 3)
   Z0.0625     F60  
   X4.5284       Y2.6968     F80  
   X4.5147       Y2.6950    
   X4.1686    
   X4.1549       Y2.6968    
   X4.1460       Y2.7005    
   X4.1383       Y2.7063    
   X4.1325       Y2.7140    
   X4.1288       Y2.7229    
   X4.1275       Y2.7325    
   X4.1288       Y2.7420    
   X4.1325       Y2.7509    
   X4.1383       Y2.7586    
   X4.1460       Y2.7645    
   X4.1549       Y2.7682    
   X4.1686       Y2.7700    
   X4.5147    
   X4.5284       Y2.7682    
   X4.5373       Y2.7645    
   X4.5449       Y2.7586    
   X4.5508       Y2.7509    
   X4.5545       Y2.7420    
   X4.5558       Y2.7325    
   X4.5545       Y2.7229    
   X4.5508       Y2.7140    
   X4.5449       Y2.7063    
   X4.5373       Y2.7005    
(Pass: 4)
   Z0.0000     F60  
   X4.5284       Y2.6968     F80  
   X4.5147       Y2.6950    
   X4.1686    
   X4.1549       Y2.6968    
   X4.1460       Y2.7005    
   X4.1383       Y2.7063    
   X4.1325       Y2.7140    
   X4.1288       Y2.7229    
   X4.1275       Y2.7325    
   X4.1288       Y2.7420    
   X4.1325       Y2.7509    
   X4.1383       Y2.7586    
   X4.1460       Y2.7645    
   X4.1549       Y2.7682    
   X4.1686       Y2.7700    
   X4.5147    
   X4.5284       Y2.7682    
   X4.5373       Y2.7645    
   X4.5449       Y2.7586    
   X4.5508       Y2.7509    
   X4.5545       Y2.7420    
   X4.5558       Y2.7325    
   X4.5545       Y2.7229    
   X4.5508       Y2.7140    
   X4.5449       Y2.7063    
   X4.5373       Y2.7005    
G0   Z0.3750    
(Pass: 1)
   X4.8599       Y3.2905    
G1   Z0.1875     F60  
   X4.7711       Y3.3587     F80  
   X4.7029       Y3.4475    
   X4.6600       Y3.5510    
   X4.6454       Y3.6621    
   X4.6600       Y3.7731    
   X4.7029       Y3.8766    
   X4.7711       Y3.9655    
   X4.8599       Y4.0337    
   X4.9634       Y4.0765    
   X5.0786       Y4.0917    
   X5.4641    
   X5.5792       Y4.0765    
   X5.6827       Y4.0337    
   X5.7716       Y3.9655    
   X5.8398       Y3.8766    
   X5.8826       Y3.7731    
   X5.8973       Y3.6621    
   X5.8826       Y3.5510    
   X5.8398       Y3.4475    
   X5.7716       Y3.3587    
   X5.6827       Y3.2905    
   X5.5792       Y3.2476    
   X5.4641       Y3.2324    
   X5.0786    
   X4.9634       Y3.2476    
   X4.8599       Y3.2905    
(Pass: 2)
   Z0.1250     F60  
   X4.7711       Y3.3587     F80  
   X4.7029       Y3.4475    
   X4.6600       Y3.5510    
   X4.6454       Y3.6621    
   X4.6600       Y3.7731    
   X4.7029       Y3.8766    
   X4.7711       Y3.9655    
   X4.8599       Y4.0337    
   X4.9634       Y4.0765    
   X5.0786       Y4.0917    
   X5.4641    
   X5.5792       Y4.0765    
   X5.6827       Y4.0337    
   X5.7716       Y3.9655    
   X5.8398       Y3.8766    
   X5.8826       Y3.7731    
   X5.8973       Y3.6621    
   X5.8826       Y3.5510    
   X5.8398       Y3.4475    
   X5.7716       Y3.3587    
   X5.6827       Y3.2905    
   X5.5792       Y3.2476    
   X5.4641       Y3.2324    
   X5.0786    
   X4.9634       Y3.2476    
   X4.8599       Y3.2905    
(Pass: 3)
   Z0.0625     F60  
   X4.7711       Y3.3587     F80  
   X4.7029       Y3.4475    
   X4.6600       Y3.5510    
   X4.6454       Y3.6621    
   X4.6600       Y3.7731    
   X4.7029       Y3.8766    
   X4.7711       Y3.9655    
   X4.8599       Y4.0337    
   X4.9634       Y4.0765    
   X5.0786       Y4.0917    
   X5.4641    
   X5.5792       Y4.0765    
   X5.6827       Y4.0337    
   X5.7716       Y3.9655    
   X5.8398       Y3.8766    
   X5.8826       Y3.7731    
   X5.8973       Y3.6621    
   X5.8826       Y3.5510    
   X5.8398       Y3.4475    
   X5.7716       Y3.3587    
   X5.6827       Y3.2905    
   X5.5792       Y3.2476    
   X5.4641       Y3.2324    
   X5.0786    
   X4.9634       Y3.2476    
   X4.8599       Y3.2905    
(Pass: 4)
   Z0.0000     F60  
   X4.7711       Y3.3587     F80  
   X4.7029       Y3.4475    
   X4.6600       Y3.5510    
   X4.6454       Y3.6621    
   X4.6600       Y3.7731    
   X4.7029       Y3.8766    
   X4.7711       Y3.9655    
   X4.8599       Y4.0337    
   X4.9634       Y4.0765    
   X5.0786       Y4.0917    
   X5.4641    
   X5.5792       Y4.0765    
   X5.6827       Y4.0337    
   X5.7716       Y3.9655    
   X5.8398       Y3.8766    
   X5.8826       Y3.7731    
   X5.8973       Y3.6621    
   X5.8826       Y3.5510    
   X5.8398       Y3.4475    
   X5.7716       Y3.3587    
   X5.6827       Y3.2905    
   X5.5792       Y3.2476    
   X5.4641       Y3.2324    
   X5.0786    
   X4.9634       Y3.2476    
   X4.8599       Y3.2905    
G0   Z0.3750    
(Pass: 1)
   X4.5284       Y4.5568    
G1   Z0.1875     F60  
   X4.5147       Y4.5550     F80  
   X4.1686    
   X4.1549       Y4.5568    
   X4.1460       Y4.5604    
   X4.1383       Y4.5663    
   X4.1325       Y4.5740    
   X4.1288       Y4.5829    
   X4.1275       Y4.5925    
   X4.1288       Y4.6020    
   X4.1325       Y4.6109    
   X4.1383       Y4.6186    
   X4.1460       Y4.6245    
   X4.1549       Y4.6282    
   X4.1686       Y4.6300    
   X4.5147    
   X4.5284       Y4.6282    
   X4.5373       Y4.6245    
   X4.5449       Y4.6186    
   X4.5508       Y4.6109    
   X4.5545       Y4.6020    
   X4.5558       Y4.5925    
   X4.5545       Y4.5829    
   X4.5508       Y4.5740    
   X4.5449       Y4.5663    
   X4.5373       Y4.5604    
   X4.5284       Y4.5568    
(Pass: 2)
   Z0.1250     F60  
   X4.5147       Y4.5550     F80  
   X4.1686    
   X4.1549       Y4.5568    
   X4.1460       Y4.5604    
   X4.1383       Y4.5663    
   X4.1325       Y4.5740    
   X4.1288       Y4.5829    
   X4.1275       Y4.5925    
   X4.1288       Y4.6020    
   X4.1325       Y4.6109    
   X4.1383       Y4.6186    
   X4.1460       Y4.6245    
   X4.1549       Y4.6282    
   X4.1686       Y4.6300    
   X4.5147    
   X4.5284       Y4.6282    
   X4.5373       Y4.6245    
   X4.5449       Y4.6186    
   X4.5508       Y4.6109    
   X4.5545       Y4.6020    
   X4.5558       Y4.5925    
   X4.5545       Y4.5829    
   X4.5508       Y4.5740    
   X4.5449       Y4.5663    
   X4.5373       Y4.5604    
   X4.5284       Y4.5568    
(Pass: 3)
   Z0.0625     F60  
   X4.5147       Y4.5550     F80  
   X4.1686    
   X4.1549       Y4.5568    
   X4.1460       Y4.5604    
   X4.1383       Y4.5663    
   X4.1325       Y4.5740    
   X4.1288       Y4.5829    
   X4.1275       Y4.5925    
   X4.1288       Y4.6020    
   X4.1325       Y4.6109    
   X4.1383       Y4.6186    
   X4.1460       Y4.6245    
   X4.1549       Y4.6282    
   X4.1686       Y4.6300    
   X4.5147    
   X4.5284       Y4.6282    
   X4.5373       Y4.6245    
   X4.5449       Y4.6186    
   X4.5508       Y4.6109    
   X4.5545       Y4.6020    
   X4.5558       Y4.5925    
   X4.5545       Y4.5829    
   X4.5508       Y4.5740    
   X4.5449       Y4.5663    
   X4.5373       Y4.5604    
   X4.5284       Y4.5568    
(Pass: 4)
   Z0.0000     F60  
   X4.5147       Y4.5550     F80  
   X4.1686    
   X4.1549       Y4.5568    
   X4.1460       Y4.5604    
   X4.1383       Y4.5663    
   X4.1325       Y4.5740    
   X4.1288       Y4.5829    
   X4.1275       Y4.5925    
   X4.1288       Y4.6020    
   X4.1325       Y4.6109    
   X4.1383       Y4.6186    
   X4.1460       Y4.6245    
   X4.1549       Y4.6282    
   X4.1686       Y4.6300    
   X4.5147    
   X4.5284       Y4.6282    
   X4.5373       Y4.6245    
   X4.5449       Y4.6186    
   X4.5508       Y4.6109    
   X4.5545       Y4.6020    
   X4.5558       Y4.5925    
   X4.5545       Y4.5829    
   X4.5508       Y4.5740    
   X4.5449       Y4.5663    
   X4.5373       Y4.5604    
   X4.5284       Y4.5568    
G0   Z0.3750    
(Pass: 1)
   X4.6600       Y5.0192    
G1   Z0.1875     F60  
   X4.6515       Y5.0228     F80  
   X4.6442       Y5.0284    
   X4.6385       Y5.0357    
   X4.6350       Y5.0442    
   X4.6338       Y5.0534    
   X4.6350       Y5.0626    
   X4.6385       Y5.0711    
   X4.6442       Y5.0784    
   X4.6515       Y5.0841    
   X4.6600       Y5.0876    
   X4.6692       Y5.0888    
   X4.6783       Y5.0876    
   X4.6869       Y5.0841    
   X4.6942       Y5.0784    
   X4.6998       Y5.0711    
   X4.7034       Y5.0626    
   X4.7046       Y5.0534    
   X4.7034       Y5.0442    
   X4.6998       Y5.0357    
   X4.6942       Y5.0284    
   X4.6869       Y5.0228    
   X4.6783       Y5.0192    
   X4.6692       Y5.0180    
   X4.6600       Y5.0192    
(Pass: 2)
   Z0.1250     F60  
   X4.6515       Y5.0228     F80  
   X4.6442       Y5.0284    
   X4.6385       Y5.0357    
   X4.6350       Y5.0442    
   X4.6338       Y5.0534    
   X4.6350       Y5.0626    
   X4.6385       Y5.0711    
   X4.6442       Y5.0784    
   X4.6515       Y5.0841    
   X4.6600       Y5.0876    
   X4.6692       Y5.0888    
   X4.6783       Y5.0876    
   X4.6869       Y5.0841    
   X4.6942       Y5.0784    
   X4.6998       Y5.0711    
   X4.7034       Y5.0626    
   X4.7046       Y5.0534    
   X4.7034       Y5.0442    
   X4.6998       Y5.0357    
   X4.6942       Y5.0284    
   X4.6869       Y5.0228    
   X4.6783       Y5.0192    
   X4.6692       Y5.0180    
   X4.6600       Y5.0192    
(Pass: 3)
   Z0.0625     F60  
   X4.6515       Y5.0228     F80  
   X4.6442       Y5.0284    
   X4.6385       Y5.0357    
   X4.6350       Y5.0442    
   X4.6338       Y5.0534    
   X4.6350       Y5.0626    
   X4.6385       Y5.0711    
   X4.6442       Y5.0784    
   X4.6515       Y5.0841    
   X4.6600       Y5.0876    
   X4.6692       Y5.0888    
   X4.6783       Y5.0876    
   X4.6869       Y5.0841    
   X4.6942       Y5.0784    
   X4.6998       Y5.0711    
   X4.7034       Y5.0626    
   X4.7046       Y5.0534    
   X4.7034       Y5.0442    
   X4.6998       Y5.0357    
   X4.6942       Y5.0284    
   X4.6869       Y5.0228    
   X4.6783       Y5.0192    
   X4.6692       Y5.0180    
   X4.6600       Y5.0192    
(Pass: 4)
   Z0.0000     F60  
   X4.6515       Y5.0228     F80  
   X4.6442       Y5.0284    
   X4.6385       Y5.0357    
   X4.6350       Y5.0442    
   X4.6338       Y5.0534    
   X4.6350       Y5.0626    
   X4.6385       Y5.0711    
   X4.6442       Y5.0784    
   X4.6515       Y5.0841    
   X4.6600       Y5.0876    
   X4.6692       Y5.0888    
   X4.6783       Y5.0876    
   X4.6869       Y5.0841    
   X4.6942       Y5.0784    
   X4.6998       Y5.0711    
   X4.7034       Y5.0626    
   X4.7046       Y5.0534    
   X4.7034       Y5.0442    
   X4.6998       Y5.0357    
   X4.6942       Y5.0284    
   X4.6869       Y5.0228    
   X4.6783       Y5.0192    
   X4.6692       Y5.0180    
   X4.6600       Y5.0192    
G0   Z0.3750    
(Pass: 1)
   X5.9888       Y4.6020    
G1   Z0.1875     F60  
   X5.9925       Y4.6109     F80  
   X5.9983       Y4.6186    
   X6.0060       Y4.6245    
   X6.0149       Y4.6282    
   X6.0286       Y4.6300    
   X6.3747    
   X6.3884       Y4.6282    
   X6.3973       Y4.6245    
   X6.4049       Y4.6186    
   X6.4108       Y4.6109    
   X6.4145       Y4.6020    
   X6.4158       Y4.5925    
   X6.4145       Y4.5829    
   X6.4108       Y4.5740    
   X6.4049       Y4.5663    
   X6.3973       Y4.5604    
   X6.3884       Y4.5568    
   X6.3747       Y4.5550    
   X6.0286    
   X6.0149       Y4.5568    
   X6.0060       Y4.5604    
   X5.9983       Y4.5663    
   X5.9925       Y4.5740    
   X5.9888       Y4.5829    
   X5.9875       Y4.5925    
   X5.9888       Y4.6020    
(Pass: 2)
   Z0.1250     F60  
   X5.9925       Y4.6109     F80  
   X5.9983       Y4.6186    
   X6.0060       Y4.6245    
   X6.0149       Y4.6282    
   X6.0286       Y4.6300    
   X6.3747    
   X6.3884       Y4.6282    
   X6.3973       Y4.6245    
   X6.4049       Y4.6186    
   X6.4108       Y4.6109    
   X6.4145       Y4.6020    
   X6.4158       Y4.5925    
   X6.4145       Y4.5829    
   X6.4108       Y4.5740    
   X6.4049       Y4.5663    
   X6.3973       Y4.5604    
   X6.3884       Y4.5568    
   X6.3747       Y4.5550    
   X6.0286    
   X6.0149       Y4.5568    
   X6.0060       Y4.5604    
   X5.9983       Y4.5663    
   X5.9925       Y4.5740    
   X5.9888       Y4.5829    
   X5.9875       Y4.5925    
   X5.9888       Y4.6020    
(Pass: 3)
   Z0.0625     F60  
   X5.9925       Y4.6109     F80  
   X5.9983       Y4.6186    
   X6.0060       Y4.6245    
   X6.0149       Y4.6282    
   X6.0286       Y4.6300    
   X6.3747    
   X6.3884       Y4.6282    
   X6.3973       Y4.6245    
   X6.4049       Y4.6186    
   X6.4108       Y4.6109    
   X6.4145       Y4.6020    
   X6.4158       Y4.5925    
   X6.4145       Y4.5829    
   X6.4108       Y4.5740    
   X6.4049       Y4.5663    
   X6.3973       Y4.5604    
   X6.3884       Y4.5568    
   X6.3747       Y4.5550    
   X6.0286    
   X6.0149       Y4.5568    
   X6.0060       Y4.5604    
   X5.9983       Y4.5663    
   X5.9925       Y4.5740    
   X5.9888       Y4.5829    
   X5.9875       Y4.5925    
   X5.9888       Y4.6020    
(Pass: 4)
   Z0.0000     F60  
   X5.9925       Y4.6109     F80  
   X5.9983       Y4.6186    
   X6.0060       Y4.6245    
   X6.0149       Y4.6282    
   X6.0286       Y4.6300    
   X6.3747    
   X6.3884       Y4.6282    
   X6.3973       Y4.6245    
   X6.4049       Y4.6186    
   X6.4108       Y4.6109    
   X6.4145       Y4.6020    
   X6.4158       Y4.5925    
   X6.4145       Y4.5829    
   X6.4108       Y4.5740    
   X6.4049       Y4.5663    
   X6.3973       Y4.5604    
   X6.3884       Y4.5568    
   X6.3747       Y4.5550    
   X6.0286    
   X6.0149       Y4.5568    
   X6.0060       Y4.5604    
   X5.9983       Y4.5663    
   X5.9925       Y4.5740    
   X5.9888       Y4.5829    
   X5.9875       Y4.5925    
   X5.9888       Y4.6020    
G0   Z0.3750    
(Pass: 1)
   X4.6783       Y0.7317    
G1   Z0.1875     F60  
   X4.6869       Y0.7281     F80  
   X4.6942       Y0.7225    
   X4.6998       Y0.7152    
   X4.7034       Y0.7067    
   X4.7046       Y0.6975    
   X4.7034       Y0.6883    
   X4.6998       Y0.6798    
   X4.6942       Y0.6725    
   X4.6869       Y0.6669    
   X4.6783       Y0.6633    
   X4.6692       Y0.6621    
   X4.6600       Y0.6633    
   X4.6515       Y0.6669    
   X4.6442       Y0.6725    
   X4.6385       Y0.6798    
   X4.6350       Y0.6883    
   X4.6338       Y0.6975    
   X4.6350       Y0.7067    
   X4.6385       Y0.7152    
   X4.6442       Y0.7225    
   X4.6515       Y0.7281    
   X4.6600       Y0.7317    
   X4.6692       Y0.7329    
   X4.6783       Y0.7317    
(Pass: 2)
   Z0.1250     F60  
   X4.6869       Y0.7281     F80  
   X4.6942       Y0.7225    
   X4.6998       Y0.7152    
   X4.7034       Y0.7067    
   X4.7046       Y0.6975    
   X4.7034       Y0.6883    
   X4.6998       Y0.6798    
   X4.6942       Y0.6725    
   X4.6869       Y0.6669    
   X4.6783       Y0.6633    
   X4.6692       Y0.6621    
   X4.6600       Y0.6633    
   X4.6515       Y0.6669    
   X4.6442       Y0.6725    
   X4.6385       Y0.6798    
   X4.6350       Y0.6883    
   X4.6338       Y0.6975    
   X4.6350       Y0.7067    
   X4.6385       Y0.7152    
   X4.6442       Y0.7225    
   X4.6515       Y0.7281    
   X4.6600       Y0.7317    
   X4.6692       Y0.7329    
   X4.6783       Y0.7317    
(Pass: 3)
   Z0.0625     F60  
   X4.6869       Y0.7281     F80  
   X4.6942       Y0.7225    
   X4.6998       Y0.7152    
   X4.7034       Y0.7067    
   X4.7046       Y0.6975    
   X4.7034       Y0.6883    
   X4.6998       Y0.6798    
   X4.6942       Y0.6725    
   X4.6869       Y0.6669    
   X4.6783       Y0.6633    
   X4.6692       Y0.6621    
   X4.6600       Y0.6633    
   X4.6515       Y0.6669    
   X4.6442       Y0.6725    
   X4.6385       Y0.6798    
   X4.6350       Y0.6883    
   X4.6338       Y0.6975    
   X4.6350       Y0.7067    
   X4.6385       Y0.7152    
   X4.6442       Y0.7225    
   X4.6515       Y0.7281    
   X4.6600       Y0.7317    
   X4.6692       Y0.7329    
   X4.6783       Y0.7317    
(Pass: 4)
   Z0.0000     F60  
   X4.6869       Y0.7281     F80  
   X4.6942       Y0.7225    
   X4.6998       Y0.7152    
   X4.7034       Y0.7067    
   X4.7046       Y0.6975    
   X4.7034       Y0.6883    
   X4.6998       Y0.6798    
   X4.6942       Y0.6725    
   X4.6869       Y0.6669    
   X4.6783       Y0.6633    
   X4.6692       Y0.6621    
   X4.6600       Y0.6633    
   X4.6515       Y0.6669    
   X4.6442       Y0.6725    
   X4.6385       Y0.6798    
   X4.6350       Y0.6883    
   X4.6338       Y0.6975    
   X4.6350       Y0.7067    
   X4.6385       Y0.7152    
   X4.6442       Y0.7225    
   X4.6515       Y0.7281    
   X4.6600       Y0.7317    
   X4.6692       Y0.7329    
   X4.6783       Y0.7317    
G0   Z0.3750    
(Pass: 1)
   X4.6580       Y0.0563    
G1   Z0.1875     F60  
   X4.7553       Y0.0595     F80  
   X4.8051       Y0.0637    
   X4.8542       Y0.0694    
   X4.9030       Y0.0768    
   X4.9517       Y0.0858    
   X4.9999       Y0.0965    
   X5.0478       Y0.1087    
   X5.0953       Y0.1226    
   X5.1428       Y0.1381    
   X5.2379       Y0.1747    
   X7.0040       Y1.2549    
   X7.2173       Y1.3853    
   X8.9834       Y2.4655    
   X9.0201       Y2.4902    
   X9.0556       Y2.5188    
   X9.0886       Y2.5502    
   X9.1188       Y2.5844    
   X9.1459       Y2.6210    
   X9.1699       Y2.6598    
   X9.1904       Y2.7005    
   X9.2075       Y2.7428    
   X9.2208       Y2.7863    
   X9.2305       Y2.8309    
   X9.2363       Y2.8761    
   X9.2382       Y2.9203    
   Y3.8035    
   Y4.0535    
   Y6.0152    
   Y6.2652    
   Y6.8285    
   X9.2345       Y6.8843    
   X9.2232       Y6.9412    
   X9.2046       Y6.9961    
   X9.1789       Y7.0481    
   X9.1467       Y7.0963    
   X9.1085       Y7.1398    
   X9.0649       Y7.1781    
   X9.0167       Y7.2103    
   X8.9647       Y7.2359    
   X8.9098       Y7.2545    
   X8.8530       Y7.2659    
   X8.7972       Y7.2695    
   X7.5173    
   X7.2673    
   X3.6380    
   X3.3880    
   X0.3497    
   X0.3263       Y7.2679    
   X0.3013       Y7.2629    
   X0.2771       Y7.2547    
   X0.2542       Y7.2435    
   X0.2330       Y7.2293    
   X0.2138       Y7.2125    
   X0.1970       Y7.1933    
   X0.1829       Y7.1721    
   X0.1716       Y7.1492    
   X0.1634       Y7.1250    
   X0.1584       Y7.1000    
   X0.1569       Y7.0766    
   Y6.3772    
   Y6.1272    
   Y2.0504    
   Y1.8004    
   Y0.2491    
   X0.1584       Y0.2257    
   X0.1634       Y0.2007    
   X0.1716       Y0.1765    
   X0.1829       Y0.1536    
   X0.1970       Y0.1324    
   X0.2138       Y0.1132    
   X0.2330       Y0.0964    
   X0.2542       Y0.0823    
   X0.2771       Y0.0710    
   X0.3013       Y0.0628    
   X0.3263       Y0.0578    
   X0.3497       Y0.0563    
   X4.6580    
(Pass: 2)
   Z0.1250     F60  
   X4.7553       Y0.0595     F80  
   X4.8051       Y0.0637    
   X4.8542       Y0.0694    
   X4.9030       Y0.0768    
   X4.9517       Y0.0858    
   X4.9999       Y0.0965    
   X5.0478       Y0.1087    
   X5.0953       Y0.1226    
   X5.1428       Y0.1381    
   X5.2379       Y0.1747    
   X7.0040       Y1.2549    
   X7.2173       Y1.3853    
   X8.9834       Y2.4655    
   X9.0201       Y2.4902    
   X9.0556       Y2.5188    
   X9.0886       Y2.5502    
   X9.1188       Y2.5844    
   X9.1459       Y2.6210    
   X9.1699       Y2.6598    
   X9.1904       Y2.7005    
   X9.2075       Y2.7428    
   X9.2208       Y2.7863    
   X9.2305       Y2.8309    
   X9.2363       Y2.8761    
   X9.2382       Y2.9203    
   Y3.8035    
   Y4.0535    
   Y6.0152    
   Y6.2652    
   Y6.8285    
   X9.2345       Y6.8843    
   X9.2232       Y6.9412    
   X9.2046       Y6.9961    
   X9.1789       Y7.0481    
   X9.1467       Y7.0963    
   X9.1085       Y7.1398    
   X9.0649       Y7.1781    
   X9.0167       Y7.2103    
   X8.9647       Y7.2359    
   X8.9098       Y7.2545    
   X8.8530       Y7.2659    
   X8.7972       Y7.2695    
   X7.5173    
   X7.2673    
   X3.6380    
   X3.3880    
   X0.3497    
   X0.3263       Y7.2679    
   X0.3013       Y7.2629    
   X0.2771       Y7.2547    
   X0.2542       Y7.2435    
   X0.2330       Y7.2293    
   X0.2138       Y7.2125    
   X0.1970       Y7.1933    
   X0.1829       Y7.1721    
   X0.1716       Y7.1492    
   X0.1634       Y7.1250    
   X0.1584       Y7.1000    
   X0.1569       Y7.0766    
   Y6.3772    
   Y6.1272    
   Y2.0504    
   Y1.8004    
   Y0.2491    
   X0.1584       Y0.2257    
   X0.1634       Y0.2007    
   X0.1716       Y0.1765    
   X0.1829       Y0.1536    
   X0.1970       Y0.1324    
   X0.2138       Y0.1132    
   X0.2330       Y0.0964    
   X0.2542       Y0.0823    
   X0.2771       Y0.0710    
   X0.3013       Y0.0628    
   X0.3263       Y0.0578    
   X0.3497       Y0.0563    
   X4.6580    
(Pass: 3)
   Z0.0625     F60  
   X4.7553       Y0.0595     F80  
   X4.8051       Y0.0637    
   X4.8542       Y0.0694    
   X4.9030       Y0.0768    
   X4.9517       Y0.0858    
   X4.9999       Y0.0965    
   X5.0478       Y0.1087    
   X5.0953       Y0.1226    
   X5.1428       Y0.1381    
   X5.2379       Y0.1747    
   X7.0040       Y1.2549    
   Z0.1250    
   X7.2173       Y1.3853    
   Z0.0625     F60  
   X8.9834       Y2.4655     F80  
   X9.0201       Y2.4902    
   X9.0556       Y2.5188    
   X9.0886       Y2.5502    
   X9.1188       Y2.5844    
   X9.1459       Y2.6210    
   X9.1699       Y2.6598    
   X9.1904       Y2.7005    
   X9.2075       Y2.7428    
   X9.2208       Y2.7863    
   X9.2305       Y2.8309    
   X9.2363       Y2.8761    
   X9.2382       Y2.9203    
   Y3.8035    
   Z0.1250    
   Y4.0535    
   Z0.0625     F60  
   Y6.0152     F80  
   Z0.1250    
   Y6.2652    
   Z0.0625     F60  
   Y6.8285     F80  
   X9.2345       Y6.8843    
   X9.2232       Y6.9412    
   X9.2046       Y6.9961    
   X9.1789       Y7.0481    
   X9.1467       Y7.0963    
   X9.1085       Y7.1398    
   X9.0649       Y7.1781    
   X9.0167       Y7.2103    
   X8.9647       Y7.2359    
   X8.9098       Y7.2545    
   X8.8530       Y7.2659    
   X8.7972       Y7.2695    
   X7.5173    
   Z0.1250    
   X7.2673    
   Z0.0625     F60  
   X3.6380     F80  
   Z0.1250    
   X3.3880    
   Z0.0625     F60  
   X0.3497     F80  
   X0.3263       Y7.2679    
   X0.3013       Y7.2629    
   X0.2771       Y7.2547    
   X0.2542       Y7.2435    
   X0.2330       Y7.2293    
   X0.2138       Y7.2125    
   X0.1970       Y7.1933    
   X0.1829       Y7.1721    
   X0.1716       Y7.1492    
   X0.1634       Y7.1250    
   X0.1584       Y7.1000    
   X0.1569       Y7.0766    
   Y6.3772    
   Z0.1250    
   Y6.1272    
   Z0.0625     F60  
   Y2.0504     F80  
   Z0.1250    
   Y1.8004    
   Z0.0625     F60  
   Y0.2491     F80  
   X0.1584       Y0.2257    
   X0.1634       Y0.2007    
   X0.1716       Y0.1765    
   X0.1829       Y0.1536    
   X0.1970       Y0.1324    
   X0.2138       Y0.1132    
   X0.2330       Y0.0964    
   X0.2542       Y0.0823    
   X0.2771       Y0.0710    
   X0.3013       Y0.0628    
   X0.3263       Y0.0578    
   X0.3497       Y0.0563    
   X4.6580    
(Pass: 4)
   Z0.0000     F60  
   X4.7553       Y0.0595     F80  
   X4.8051       Y0.0637    
   X4.8542       Y0.0694    
   X4.9030       Y0.0768    
   X4.9517       Y0.0858    
   X4.9999       Y0.0965    
   X5.0478       Y0.1087    
   X5.0953       Y0.1226    
   X5.1428       Y0.1381    
   X5.2379       Y0.1747    
   X7.0040       Y1.2549    
   Z0.1250    
   X7.2173       Y1.3853    
   Z0.0000     F60  
   X8.9834       Y2.4655     F80  
   X9.0201       Y2.4902    
   X9.0556       Y2.5188    
   X9.0886       Y2.5502    
   X9.1188       Y2.5844    
   X9.1459       Y2.6210    
   X9.1699       Y2.6598    
   X9.1904       Y2.7005    
   X9.2075       Y2.7428    
   X9.2208       Y2.7863    
   X9.2305       Y2.8309    
   X9.2363       Y2.8761    
   X9.2382       Y2.9203    
   Y3.8035    
   Z0.1250    
   Y4.0535    
   Z0.0000     F60  
   Y6.0152     F80  
   Z0.1250    
   Y6.2652    
   Z0.0000     F60  
   Y6.8285     F80  
   X9.2345       Y6.8843    
   X9.2232       Y6.9412    
   X9.2046       Y6.9961    
   X9.1789       Y7.0481    
   X9.1467       Y7.0963    
   X9.1085       Y7.1398    
   X9.0649       Y7.1781    
   X9.0167       Y7.2103    
   X8.9647       Y7.2359    
   X8.9098       Y7.2545    
   X8.8530       Y7.2659    
   X8.7972       Y7.2695    
   X7.5173    
   Z0.1250    
   X7.2673    
   Z0.0000     F60  
   X3.6380     F80  
   Z0.1250    
   X3.3880    
   Z0.0000     F60  
   X0.3497     F80  
   X0.3263       Y7.2679    
   X0.3013       Y7.2629    
   X0.2771       Y7.2547    
   X0.2542       Y7.2435    
   X0.2330       Y7.2293    
   X0.2138       Y7.2125    
   X0.1970       Y7.1933    
   X0.1829       Y7.1721    
   X0.1716       Y7.1492    
   X0.1634       Y7.1250    
   X0.1584       Y7.1000    
   X0.1569       Y7.0766    
   Y6.3772    
   Z0.1250    
   Y6.1272    
   Z0.0000     F60  
   Y2.0504     F80  
   Z0.1250    
   Y1.8004    
   Z0.0000     F60  
   Y0.2491     F80  
   X0.1584       Y0.2257    
   X0.1634       Y0.2007    
   X0.1716       Y0.1765    
   X0.1829       Y0.1536    
   X0.1970       Y0.1324    
   X0.2138       Y0.1132    
   X0.2330       Y0.0964    
   X0.2542       Y0.0823    
   X0.2771       Y0.0710    
   X0.3013       Y0.0628    
   X0.3263       Y0.0578    
   X0.3497       Y0.0563    
   X4.6580    
G0   Z0.3750    
(Pass: 1)
   X1.3567       Y7.9495    
G1   Z0.1875     F60  
   X1.3380       Y7.9417     F80  
   X1.3179       Y7.9391    
   X1.2979       Y7.9417    
   X1.2792       Y7.9495    
   X1.2632       Y7.9618    
   X1.2509       Y7.9778    
   X1.2431       Y7.9965    
   X1.2405       Y8.0165    
   X1.2431       Y8.0366    
   X1.2509       Y8.0553    
   X1.2632       Y8.0713    
   X1.2792       Y8.0836    
   X1.2979       Y8.0914    
   X1.3179       Y8.0940    
   X1.3380       Y8.0914    
   X1.3567       Y8.0836    
   X1.3727       Y8.0713    
   X1.3850       Y8.0553    
   X1.3927       Y8.0366    
   X1.3954       Y8.0165    
   X1.3927       Y7.9965    
   X1.3850       Y7.9778    
   X1.3727       Y7.9618    
   X1.3567       Y7.9495    
(Pass: 2)
   Z0.1250     F60  
   X1.3380       Y7.9417     F80  
   X1.3179       Y7.9391    
   X1.2979       Y7.9417    
   X1.2792       Y7.9495    
   X1.2632       Y7.9618    
   X1.2509       Y7.9778    
   X1.2431       Y7.9965    
   X1.2405       Y8.0165    
   X1.2431       Y8.0366    
   X1.2509       Y8.0553    
   X1.2632       Y8.0713    
   X1.2792       Y8.0836    
   X1.2979       Y8.0914    
   X1.3179       Y8.0940    
   X1.3380       Y8.0914    
   X1.3567       Y8.0836    
   X1.3727       Y8.0713    
   X1.3850       Y8.0553    
   X1.3927       Y8.0366    
   X1.3954       Y8.0165    
   X1.3927       Y7.9965    
   X1.3850       Y7.9778    
   X1.3727       Y7.9618    
   X1.3567       Y7.9495    
(Pass: 3)
   Z0.0625     F60  
   X1.3380       Y7.9417     F80  
   X1.3179       Y7.9391    
   X1.2979       Y7.9417    
   X1.2792       Y7.9495    
   X1.2632       Y7.9618    
   X1.2509       Y7.9778    
   X1.2431       Y7.9965    
   X1.2405       Y8.0165    
   X1.2431       Y8.0366    
   X1.2509       Y8.0553    
   X1.2632       Y8.0713    
   X1.2792       Y8.0836    
   X1.2979       Y8.0914    
   X1.3179       Y8.0940    
   X1.3380       Y8.0914    
   X1.3567       Y8.0836    
   X1.3727       Y8.0713    
   X1.3850       Y8.0553    
   X1.3927       Y8.0366    
   X1.3954       Y8.0165    
   X1.3927       Y7.9965    
   X1.3850       Y7.9778    
   X1.3727       Y7.9618    
   X1.3567       Y7.9495    
(Pass: 4)
   Z0.0000     F60  
   X1.3380       Y7.9417     F80  
   X1.3179       Y7.9391    
   X1.2979       Y7.9417    
   X1.2792       Y7.9495    
   X1.2632       Y7.9618    
   X1.2509       Y7.9778    
   X1.2431       Y7.9965    
   X1.2405       Y8.0165    
   X1.2431       Y8.0366    
   X1.2509       Y8.0553    
   X1.2632       Y8.0713    
   X1.2792       Y8.0836    
   X1.2979       Y8.0914    
   X1.3179       Y8.0940    
   X1.3380       Y8.0914    
   X1.3567       Y8.0836    
   X1.3727       Y8.0713    
   X1.3850       Y8.0553    
   X1.3927       Y8.0366    
   X1.3954       Y8.0165    
   X1.3927       Y7.9965    
   X1.3850       Y7.9778    
   X1.3727       Y7.9618    
   X1.3567       Y7.9495    
G0   Z0.3750    
(Pass: 1)
   X1.9509       Y7.9571    
G1   Z0.1875     F60  
   X1.9521       Y7.9662     F80  
   X1.9556       Y7.9748    
