%
(Generated by SketchUcam V1.3a)
(File: YZ_plate.skp)
(Bit diameter: 3.175000mm)
(Feed rate: 762.000000mm/min)
(Plunge Feed rate: 127.000000mm/min)
(Material Thickness: 6.350000mm)
(Material length: 304.800000mm X width: 457.20)
(0000mm)
(Overhead Gantry: true)
(Multipass enabled, Depth = 0.396875mm)
(Optimization is ON)
(www.PhlatBoyz.com)
(Loaded profile phenalboard)
G90 G21 G49  G17
M3 S15000
(Group: _diam_5.430872mm)
G00 Z9.525
(Pass: 1)
 X95.236 Y174.764
(plungebore  DEPTH=6.731  DIAM=5.431)
G00 Z3.175
G01 Z-0.397 F127 
G00 Z3.175
G01 Z-0.794
G00 Z3.175
G01 Z-1.191
G00 Z3.175
G01 Z-1.587
G00 Z3.175
G01 Z-1.984
G00 Z3.175
G01 Z-2.381
G00 Z3.175
G01 Z-2.778
G00 Z3.175
G01 Z-3.175
G00 Z3.175
G01 Z-3.572
G00 Z3.175
G01 Z-3.969
G00 Z3.175
G01 Z-4.366
G00 Z3.175
G01 Z-4.762
G00 Z3.175
G01 Z-5.159
G00 Z3.175
G01 Z-5.556
G00 Z3.175
G01 Z-5.953
G00 Z3.175
G01 Z-6.350
G00 Z3.175
G01 Z-6.731
G00 Z3.175
G00 Y173.6358
G01 Z0.0000 F762 
G03 X96.3637 Y174.7637 Z-0.0992 I0.0000 J1.1279
G03 X95.2357 Y175.8917 Z-0.1984 I-1.1279 J0.0000
G03 X94.1078 Y174.7637 Z-0.2977 I0.0000 J-1.1279
G03 X95.2357 Y173.6358 Z-0.3969 I1.1279 J0.0000
G03 X96.3637 Y174.7637 Z-0.4961 I0.0000 J1.1279
G03 X95.2357 Y175.8917 Z-0.5953 I-1.1279 J0.0000
G03 X94.1078 Y174.7637 Z-0.6945 I0.0000 J-1.1279
G03 X95.2357 Y173.6358 Z-0.7937 I1.1279 J0.0000
G03 X96.3637 Y174.7637 Z-0.8930 I0.0000 J1.1279
G03 X95.2357 Y175.8917 Z-0.9922 I-1.1279 J0.0000
G03 X94.1078 Y174.7637 Z-1.0914 I0.0000 J-1.1279
G03 X95.2357 Y173.6358 Z-1.1906 I1.1279 J0.0000
G03 X96.3637 Y174.7637 Z-1.2898 I0.0000 J1.1279
G03 X95.2357 Y175.8917 Z-1.3891 I-1.1279 J0.0000
G03 X94.1078 Y174.7637 Z-1.4883 I0.0000 J-1.1279
G03 X95.2357 Y173.6358 Z-1.5875 I1.1279 J0.0000
G03 X96.3637 Y174.7637 Z-1.6867 I0.0000 J1.1279
G03 X95.2357 Y175.8917 Z-1.7859 I-1.1279 J0.0000
G03 X94.1078 Y174.7637 Z-1.8852 I0.0000 J-1.1279
G03 X95.2357 Y173.6358 Z-1.9844 I1.1279 J0.0000
G03 X96.3637 Y174.7637 Z-2.0836 I0.0000 J1.1279
G03 X95.2357 Y175.8917 Z-2.1828 I-1.1279 J0.0000
G03 X94.1078 Y174.7637 Z-2.2820 I0.0000 J-1.1279
G03 X95.2357 Y173.6358 Z-2.3812 I1.1279 J0.0000
G03 X96.3637 Y174.7637 Z-2.4805 I0.0000 J1.1279
G03 X95.2357 Y175.8917 Z-2.5797 I-1.1279 J0.0000
G03 X94.1078 Y174.7637 Z-2.6789 I0.0000 J-1.1279
G03 X95.2357 Y173.6358 Z-2.7781 I1.1279 J0.0000
G03 X96.3637 Y174.7637 Z-2.8773 I0.0000 J1.1279
G03 X95.2357 Y175.8917 Z-2.9766 I-1.1279 J0.0000
G03 X94.1078 Y174.7637 Z-3.0758 I0.0000 J-1.1279
G03 X95.2357 Y173.6358 Z-3.1750 I1.1279 J0.0000
G03 X96.3637 Y174.7637 Z-3.2742 I0.0000 J1.1279
G03 X95.2357 Y175.8917 Z-3.3734 I-1.1279 J0.0000
G03 X94.1078 Y174.7637 Z-3.4727 I0.0000 J-1.1279
G03 X95.2357 Y173.6358 Z-3.5719 I1.1279 J0.0000
G03 X96.3637 Y174.7637 Z-3.6711 I0.0000 J1.1279
G03 X95.2357 Y175.8917 Z-3.7703 I-1.1279 J0.0000
G03 X94.1078 Y174.7637 Z-3.8695 I0.0000 J-1.1279
G03 X95.2357 Y173.6358 Z-3.9688 I1.1279 J0.0000
G03 X96.3637 Y174.7637 Z-4.0680 I0.0000 J1.1279
G03 X95.2357 Y175.8917 Z-4.1672 I-1.1279 J0.0000
G03 X94.1078 Y174.7637 Z-4.2664 I0.0000 J-1.1279
G03 X95.2357 Y173.6358 Z-4.3656 I1.1279 J0.0000
G03 X96.3637 Y174.7637 Z-4.4648 I0.0000 J1.1279
G03 X95.2357 Y175.8917 Z-4.5641 I-1.1279 J0.0000
G03 X94.1078 Y174.7637 Z-4.6633 I0.0000 J-1.1279
G03 X95.2357 Y173.6358 Z-4.7625 I1.1279 J0.0000
G03 X96.3637 Y174.7637 Z-4.8617 I0.0000 J1.1279
G03 X95.2357 Y175.8917 Z-4.9609 I-1.1279 J0.0000
G03 X94.1078 Y174.7637 Z-5.0602 I0.0000 J-1.1279
G03 X95.2357 Y173.6358 Z-5.1594 I1.1279 J0.0000
G03 X96.3637 Y174.7637 Z-5.2586 I0.0000 J1.1279
G03 X95.2357 Y175.8917 Z-5.3578 I-1.1279 J0.0000
G03 X94.1078 Y174.7637 Z-5.4570 I0.0000 J-1.1279
G03 X95.2357 Y173.6358 Z-5.5562 I1.1279 J0.0000
G03 X96.3637 Y174.7637 Z-5.6555 I0.0000 J1.1279
G03 X95.2357 Y175.8917 Z-5.7547 I-1.1279 J0.0000
G03 X94.1078 Y174.7637 Z-5.8539 I0.0000 J-1.1279
G03 X95.2357 Y173.6358 Z-5.9531 I1.1279 J0.0000
G03 X96.3637 Y174.7637 Z-6.1476 I0.0000 J1.1279
G03 X95.2357 Y175.8917 Z-6.3421 I-1.1279 J0.0000
G03 X94.1078 Y174.7637 Z-6.5365 I0.0000 J-1.1279
G03 X95.2357 Y173.6358 Z-6.7310 I1.1279 J0.0000
G03 X96.3637 Y174.7637 I0.0000 J1.1279
G03 X95.2357 Y175.8917 I-1.1279 J0.0000
G03 X94.1078 Y174.7637 I0.0000 J-1.1279
G03 X95.2357 Y173.6358 I1.1279 J0.0000
G00 Y174.764 Z9.525
(plungebore end)
(Group complete: _diam_5.430872mm)
(Group: _diam_5.430872mm)
(Pass: 1)
G00 X111.203 Y144.216
(plungebore  DEPTH=6.731  DIAM=5.431)
G00 Z3.175
G01 Z-0.397 F127 
G00 Z3.175
G01 Z-0.794
G00 Z3.175
G01 Z-1.191
G00 Z3.175
G01 Z-1.587
G00 Z3.175
G01 Z-1.984
G00 Z3.175
G01 Z-2.381
G00 Z3.175
G01 Z-2.778
G00 Z3.175
G01 Z-3.175
G00 Z3.175
G01 Z-3.572
G00 Z3.175
G01 Z-3.969
G00 Z3.175
G01 Z-4.366
G00 Z3.175
G01 Z-4.762
G00 Z3.175
G01 Z-5.159
G00 Z3.175
G01 Z-5.556
G00 Z3.175
G01 Z-5.953
G00 Z3.175
G01 Z-6.350
G00 Z3.175
G01 Z-6.731
G00 Z3.175
G00 Y143.0879
G01 Z0.0000 F762 
G03 X112.3312 Y144.2158 Z-0.0992 I0.0000 J1.1279
G03 X111.2033 Y145.3438 Z-0.1984 I-1.1279 J0.0000
G03 X110.0754 Y144.2158 Z-0.2977 I0.0000 J-1.1279
G03 X111.2033 Y143.0879 Z-0.3969 I1.1279 J0.0000
G03 X112.3312 Y144.2158 Z-0.4961 I0.0000 J1.1279
G03 X111.2033 Y145.3438 Z-0.5953 I-1.1279 J0.0000
G03 X110.0754 Y144.2158 Z-0.6945 I0.0000 J-1.1279
G03 X111.2033 Y143.0879 Z-0.7937 I1.1279 J0.0000
G03 X112.3312 Y144.2158 Z-0.8930 I0.0000 J1.1279
G03 X111.2033 Y145.3438 Z-0.9922 I-1.1279 J0.0000
G03 X110.0754 Y144.2158 Z-1.0914 I0.0000 J-1.1279
G03 X111.2033 Y143.0879 Z-1.1906 I1.1279 J0.0000
G03 X112.3312 Y144.2158 Z-1.2898 I0.0000 J1.1279
G03 X111.2033 Y145.3438 Z-1.3891 I-1.1279 J0.0000
G03 X110.0754 Y144.2158 Z-1.4883 I0.0000 J-1.1279
G03 X111.2033 Y143.0879 Z-1.5875 I1.1279 J0.0000
G03 X112.3312 Y144.2158 Z-1.6867 I0.0000 J1.1279
G03 X111.2033 Y145.3438 Z-1.7859 I-1.1279 J0.0000
G03 X110.0754 Y144.2158 Z-1.8852 I0.0000 J-1.1279
G03 X111.2033 Y143.0879 Z-1.9844 I1.1279 J0.0000
G03 X112.3312 Y144.2158 Z-2.0836 I0.0000 J1.1279
G03 X111.2033 Y145.3438 Z-2.1828 I-1.1279 J0.0000
G03 X110.0754 Y144.2158 Z-2.2820 I0.0000 J-1.1279
G03 X111.2033 Y143.0879 Z-2.3812 I1.1279 J0.0000
G03 X112.3312 Y144.2158 Z-2.4805 I0.0000 J1.1279
G03 X111.2033 Y145.3438 Z-2.5797 I-1.1279 J0.0000
G03 X110.0754 Y144.2158 Z-2.6789 I0.0000 J-1.1279
G03 X111.2033 Y143.0879 Z-2.7781 I1.1279 J0.0000
G03 X112.3312 Y144.2158 Z-2.8773 I0.0000 J1.1279
G03 X111.2033 Y145.3438 Z-2.9766 I-1.1279 J0.0000
G03 X110.0754 Y144.2158 Z-3.0758 I0.0000 J-1.1279
G03 X111.2033 Y143.0879 Z-3.1750 I1.1279 J0.0000
G03 X112.3312 Y144.2158 Z-3.2742 I0.0000 J1.1279
G03 X111.2033 Y145.3438 Z-3.3734 I-1.1279 J0.0000
G03 X110.0754 Y144.2158 Z-3.4727 I0.0000 J-1.1279
G03 X111.2033 Y143.0879 Z-3.5719 I1.1279 J0.0000
G03 X112.3312 Y144.2158 Z-3.6711 I0.0000 J1.1279
G03 X111.2033 Y145.3438 Z-3.7703 I-1.1279 J0.0000
G03 X110.0754 Y144.2158 Z-3.8695 I0.0000 J-1.1279
G03 X111.2033 Y143.0879 Z-3.9688 I1.1279 J0.0000
G03 X112.3312 Y144.2158 Z-4.0680 I0.0000 J1.1279
G03 X111.2033 Y145.3438 Z-4.1672 I-1.1279 J0.0000
G03 X110.0754 Y144.2158 Z-4.2664 I0.0000 J-1.1279
G03 X111.2033 Y143.0879 Z-4.3656 I1.1279 J0.0000
G03 X112.3312 Y144.2158 Z-4.4648 I0.0000 J1.1279
G03 X111.2033 Y145.3438 Z-4.5641 I-1.1279 J0.0000
G03 X110.0754 Y144.2158 Z-4.6633 I0.0000 J-1.1279
G03 X111.2033 Y143.0879 Z-4.7625 I1.1279 J0.0000
G03 X112.3312 Y144.2158 Z-4.8617 I0.0000 J1.1279
G03 X111.2033 Y145.3438 Z-4.9609 I-1.1279 J0.0000
G03 X110.0754 Y144.2158 Z-5.0602 I0.0000 J-1.1279
G03 X111.2033 Y143.0879 Z-5.1594 I1.1279 J0.0000
G03 X112.3312 Y144.2158 Z-5.2586 I0.0000 J1.1279
G03 X111.2033 Y145.3438 Z-5.3578 I-1.1279 J0.0000
G03 X110.0754 Y144.2158 Z-5.4570 I0.0000 J-1.1279
G03 X111.2033 Y143.0879 Z-5.5562 I1.1279 J0.0000
G03 X112.3312 Y144.2158 Z-5.6555 I0.0000 J1.1279
G03 X111.2033 Y145.3438 Z-5.7547 I-1.1279 J0.0000
G03 X110.0754 Y144.2158 Z-5.8539 I0.0000 J-1.1279
G03 X111.2033 Y143.0879 Z-5.9531 I1.1279 J0.0000
G03 X112.3312 Y144.2158 Z-6.1476 I0.0000 J1.1279
G03 X111.2033 Y145.3438 Z-6.3421 I-1.1279 J0.0000
G03 X110.0754 Y144.2158 Z-6.5365 I0.0000 J-1.1279
G03 X111.2033 Y143.0879 Z-6.7310 I1.1279 J0.0000
G03 X112.3312 Y144.2158 I0.0000 J1.1279
G03 X111.2033 Y145.3438 I-1.1279 J0.0000
G03 X110.0754 Y144.2158 I0.0000 J-1.1279
G03 X111.2033 Y143.0879 I1.1279 J0.0000
G00 Y144.216 Z9.525
(plungebore end)
(Group complete: _diam_5.430872mm)
(Group: _diam_7.1370000000000005mm)
(Pass: 1)
G00 X134.268 Y19.772
(plungebore  DEPTH=6.731  DIAM=7.137)
G00 Z3.175
G01 Z-0.397 F127 
G00 Z3.175
G01 Z-0.794
G00 Z3.175
G01 Z-1.191
G00 Z3.175
G01 Z-1.587
G00 Z3.175
G01 Z-1.984
G00 Z3.175
G01 Z-2.381
G00 Z3.175
G01 Z-2.778
G00 Z3.175
G01 Z-3.175
G00 Z3.175
G01 Z-3.572
G00 Z3.175
G01 Z-3.969
G00 Z3.175
G01 Z-4.366
G00 Z3.175
G01 Z-4.762
G00 Z3.175
G01 Z-5.159
G00 Z3.175
G01 Z-5.556
G00 Z3.175
G01 Z-5.953
G00 Z3.175
G01 Z-6.350
G00 Z3.175
G01 Z-6.731
G00 Z3.175
G00 Y17.7908
G01 Z0.0000 F762 
G03 X136.2487 Y19.7718 Z-0.0992 I0.0000 J1.9810
G03 X134.2677 Y21.7528 Z-0.1984 I-1.9810 J0.0000
G03 X132.2867 Y19.7718 Z-0.2977 I0.0000 J-1.9810
G03 X134.2677 Y17.7908 Z-0.3969 I1.9810 J0.0000
G03 X136.2487 Y19.7718 Z-0.4961 I0.0000 J1.9810
G03 X134.2677 Y21.7528 Z-0.5953 I-1.9810 J0.0000
G03 X132.2867 Y19.7718 Z-0.6945 I0.0000 J-1.9810
G03 X134.2677 Y17.7908 Z-0.7937 I1.9810 J0.0000
G03 X136.2487 Y19.7718 Z-0.8930 I0.0000 J1.9810
G03 X134.2677 Y21.7528 Z-0.9922 I-1.9810 J0.0000
G03 X132.2867 Y19.7718 Z-1.0914 I0.0000 J-1.9810
G03 X134.2677 Y17.7908 Z-1.1906 I1.9810 J0.0000
G03 X136.2487 Y19.7718 Z-1.2898 I0.0000 J1.9810
G03 X134.2677 Y21.7528 Z-1.3891 I-1.9810 J0.0000
G03 X132.2867 Y19.7718 Z-1.4883 I0.0000 J-1.9810
G03 X134.2677 Y17.7908 Z-1.5875 I1.9810 J0.0000
G03 X136.2487 Y19.7718 Z-1.6867 I0.0000 J1.9810
G03 X134.2677 Y21.7528 Z-1.7859 I-1.9810 J0.0000
G03 X132.2867 Y19.7718 Z-1.8852 I0.0000 J-1.9810
G03 X134.2677 Y17.7908 Z-1.9844 I1.9810 J0.0000
G03 X136.2487 Y19.7718 Z-2.0836 I0.0000 J1.9810
G03 X134.2677 Y21.7528 Z-2.1828 I-1.9810 J0.0000
G03 X132.2867 Y19.7718 Z-2.2820 I0.0000 J-1.9810
G03 X134.2677 Y17.7908 Z-2.3812 I1.9810 J0.0000
G03 X136.2487 Y19.7718 Z-2.4805 I0.0000 J1.9810
G03 X134.2677 Y21.7528 Z-2.5797 I-1.9810 J0.0000
G03 X132.2867 Y19.7718 Z-2.6789 I0.0000 J-1.9810
G03 X134.2677 Y17.7908 Z-2.7781 I1.9810 J0.0000
G03 X136.2487 Y19.7718 Z-2.8773 I0.0000 J1.9810
G03 X134.2677 Y21.7528 Z-2.9766 I-1.9810 J0.0000
G03 X132.2867 Y19.7718 Z-3.0758 I0.0000 J-1.9810
G03 X134.2677 Y17.7908 Z-3.1750 I1.9810 J0.0000
G03 X136.2487 Y19.7718 Z-3.2742 I0.0000 J1.9810
G03 X134.2677 Y21.7528 Z-3.3734 I-1.9810 J0.0000
G03 X132.2867 Y19.7718 Z-3.4727 I0.0000 J-1.9810
G03 X134.2677 Y17.7908 Z-3.5719 I1.9810 J0.0000
G03 X136.2487 Y19.7718 Z-3.6711 I0.0000 J1.9810
G03 X134.2677 Y21.7528 Z-3.7703 I-1.9810 J0.0000
G03 X132.2867 Y19.7718 Z-3.8695 I0.0000 J-1.9810
G03 X134.2677 Y17.7908 Z-3.9688 I1.9810 J0.0000
G03 X136.2487 Y19.7718 Z-4.0680 I0.0000 J1.9810
G03 X134.2677 Y21.7528 Z-4.1672 I-1.9810 J0.0000
G03 X132.2867 Y19.7718 Z-4.2664 I0.0000 J-1.9810
G03 X134.2677 Y17.7908 Z-4.3656 I1.9810 J0.0000
G03 X136.2487 Y19.7718 Z-4.4648 I0.0000 J1.9810
G03 X134.2677 Y21.7528 Z-4.5641 I-1.9810 J0.0000
G03 X132.2867 Y19.7718 Z-4.6633 I0.0000 J-1.9810
G03 X134.2677 Y17.7908 Z-4.7625 I1.9810 J0.0000
G03 X136.2487 Y19.7718 Z-4.8617 I0.0000 J1.9810
G03 X134.2677 Y21.7528 Z-4.9609 I-1.9810 J0.0000
G03 X132.2867 Y19.7718 Z-5.0602 I0.0000 J-1.9810
G03 X134.2677 Y17.7908 Z-5.1594 I1.9810 J0.0000
G03 X136.2487 Y19.7718 Z-5.2586 I0.0000 J1.9810
G03 X134.2677 Y21.7528 Z-5.3578 I-1.9810 J0.0000
G03 X132.2867 Y19.7718 Z-5.4570 I0.0000 J-1.9810
G03 X134.2677 Y17.7908 Z-5.5562 I1.9810 J0.0000
G03 X136.2487 Y19.7718 Z-5.6555 I0.0000 J1.9810
G03 X134.2677 Y21.7528 Z-5.7547 I-1.9810 J0.0000
G03 X132.2867 Y19.7718 Z-5.8539 I0.0000 J-1.9810
G03 X134.2677 Y17.7908 Z-5.9531 I1.9810 J0.0000
G03 X136.2487 Y19.7718 Z-6.1476 I0.0000 J1.9810
G03 X134.2677 Y21.7528 Z-6.3421 I-1.9810 J0.0000
G03 X132.2867 Y19.7718 Z-6.5365 I0.0000 J-1.9810
G03 X134.2677 Y17.7908 Z-6.7310 I1.9810 J0.0000
G03 X136.2487 Y19.7718 I0.0000 J1.9810
G03 X134.2677 Y21.7528 I-1.9810 J0.0000
G03 X132.2867 Y19.7718 I0.0000 J-1.9810
G03 X134.2677 Y17.7908 I1.9810 J0.0000
G00 Y19.772 Z9.525
(plungebore end)
(Group complete: _diam_7.1370000000000005mm)
(Group: _diam_5.430872mm)
(Pass: 1)
G00 Y98.642
(plungebore  DEPTH=6.731  DIAM=5.431)
G00 Z3.175
G01 Z-0.397 F127 
G00 Z3.175
G01 Z-0.794
G00 Z3.175
G01 Z-1.191
G00 Z3.175
G01 Z-1.587
G00 Z3.175
G01 Z-1.984
G00 Z3.175
G01 Z-2.381
G00 Z3.175
G01 Z-2.778
G00 Z3.175
G01 Z-3.175
G00 Z3.175
G01 Z-3.572
G00 Z3.175
G01 Z-3.969
G00 Z3.175
G01 Z-4.366
G00 Z3.175
G01 Z-4.762
G00 Z3.175
G01 Z-5.159
G00 Z3.175
G01 Z-5.556
G00 Z3.175
G01 Z-5.953
G00 Z3.175
G01 Z-6.350
G00 Z3.175
G01 Z-6.731
G00 Z3.175
G00 Y97.5139
G01 Z0.0000 F762 
G03 X135.3957 Y98.6418 Z-0.0992 I0.0000 J1.1279
G03 X134.2677 Y99.7697 Z-0.1984 I-1.1279 J0.0000
G03 X133.1398 Y98.6418 Z-0.2977 I0.0000 J-1.1279
G03 X134.2677 Y97.5139 Z-0.3969 I1.1279 J0.0000
G03 X135.3957 Y98.6418 Z-0.4961 I0.0000 J1.1279
G03 X134.2677 Y99.7697 Z-0.5953 I-1.1279 J0.0000
G03 X133.1398 Y98.6418 Z-0.6945 I0.0000 J-1.1279
G03 X134.2677 Y97.5139 Z-0.7937 I1.1279 J0.0000
G03 X135.3957 Y98.6418 Z-0.8930 I0.0000 J1.1279
G03 X134.2677 Y99.7697 Z-0.9922 I-1.1279 J0.0000
G03 X133.1398 Y98.6418 Z-1.0914 I0.0000 J-1.1279
G03 X134.2677 Y97.5139 Z-1.1906 I1.1279 J0.0000
G03 X135.3957 Y98.6418 Z-1.2898 I0.0000 J1.1279
G03 X134.2677 Y99.7697 Z-1.3891 I-1.1279 J0.0000
G03 X133.1398 Y98.6418 Z-1.4883 I0.0000 J-1.1279
G03 X134.2677 Y97.5139 Z-1.5875 I1.1279 J0.0000
G03 X135.3957 Y98.6418 Z-1.6867 I0.0000 J1.1279
G03 X134.2677 Y99.7697 Z-1.7859 I-1.1279 J0.0000
G03 X133.1398 Y98.6418 Z-1.8852 I0.0000 J-1.1279
G03 X134.2677 Y97.5139 Z-1.9844 I1.1279 J0.0000
G03 X135.3957 Y98.6418 Z-2.0836 I0.0000 J1.1279
G03 X134.2677 Y99.7697 Z-2.1828 I-1.1279 J0.0000
G03 X133.1398 Y98.6418 Z-2.2820 I0.0000 J-1.1279
G03 X134.2677 Y97.5139 Z-2.3812 I1.1279 J0.0000
G03 X135.3957 Y98.6418 Z-2.4805 I0.0000 J1.1279
G03 X134.2677 Y99.7697 Z-2.5797 I-1.1279 J0.0000
G03 X133.1398 Y98.6418 Z-2.6789 I0.0000 J-1.1279
G03 X134.2677 Y97.5139 Z-2.7781 I1.1279 J0.0000
G03 X135.3957 Y98.6418 Z-2.8773 I0.0000 J1.1279
G03 X134.2677 Y99.7697 Z-2.9766 I-1.1279 J0.0000
G03 X133.1398 Y98.6418 Z-3.0758 I0.0000 J-1.1279
G03 X134.2677 Y97.5139 Z-3.1750 I1.1279 J0.0000
G03 X135.3957 Y98.6418 Z-3.2742 I0.0000 J1.1279
G03 X134.2677 Y99.7697 Z-3.3734 I-1.1279 J0.0000
G03 X133.1398 Y98.6418 Z-3.4727 I0.0000 J-1.1279
G03 X134.2677 Y97.5139 Z-3.5719 I1.1279 J0.0000
G03 X135.3957 Y98.6418 Z-3.6711 I0.0000 J1.1279
G03 X134.2677 Y99.7697 Z-3.7703 I-1.1279 J0.0000
G03 X133.1398 Y98.6418 Z-3.8695 I0.0000 J-1.1279
G03 X134.2677 Y97.5139 Z-3.9688 I1.1279 J0.0000
G03 X135.3957 Y98.6418 Z-4.0680 I0.0000 J1.1279
G03 X134.2677 Y99.7697 Z-4.1672 I-1.1279 J0.0000
G03 X133.1398 Y98.6418 Z-4.2664 I0.0000 J-1.1279
G03 X134.2677 Y97.5139 Z-4.3656 I1.1279 J0.0000
G03 X135.3957 Y98.6418 Z-4.4648 I0.0000 J1.1279
G03 X134.2677 Y99.7697 Z-4.5641 I-1.1279 J0.0000
G03 X133.1398 Y98.6418 Z-4.6633 I0.0000 J-1.1279
G03 X134.2677 Y97.5139 Z-4.7625 I1.1279 J0.0000
G03 X135.3957 Y98.6418 Z-4.8617 I0.0000 J1.1279
G03 X134.2677 Y99.7697 Z-4.9609 I-1.1279 J0.0000
G03 X133.1398 Y98.6418 Z-5.0602 I0.0000 J-1.1279
G03 X134.2677 Y97.5139 Z-5.1594 I1.1279 J0.0000
G03 X135.3957 Y98.6418 Z-5.2586 I0.0000 J1.1279
G03 X134.2677 Y99.7697 Z-5.3578 I-1.1279 J0.0000
G03 X133.1398 Y98.6418 Z-5.4570 I0.0000 J-1.1279
G03 X134.2677 Y97.5139 Z-5.5562 I1.1279 J0.0000
G03 X135.3957 Y98.6418 Z-5.6555 I0.0000 J1.1279
G03 X134.2677 Y99.7697 Z-5.7547 I-1.1279 J0.0000
G03 X133.1398 Y98.6418 Z-5.8539 I0.0000 J-1.1279
G03 X134.2677 Y97.5139 Z-5.9531 I1.1279 J0.0000
G03 X135.3957 Y98.6418 Z-6.1476 I0.0000 J1.1279
G03 X134.2677 Y99.7697 Z-6.3421 I-1.1279 J0.0000
G03 X133.1398 Y98.6418 Z-6.5365 I0.0000 J-1.1279
G03 X134.2677 Y97.5139 Z-6.7310 I1.1279 J0.0000
G03 X135.3957 Y98.6418 I0.0000 J1.1279
G03 X134.2677 Y99.7697 I-1.1279 J0.0000
G03 X133.1398 Y98.6418 I0.0000 J-1.1279
G03 X134.2677 Y97.5139 I1.1279 J0.0000
G00 Y98.642 Z9.525
(plungebore end)
(Group complete: _diam_5.430872mm)
(Group: _diam_5.430872mm)
(Pass: 1)
G00 X20.484
(plungebore  DEPTH=6.731  DIAM=5.431)
G00 Z3.175
G01 Z-0.397 F127 
G00 Z3.175
G01 Z-0.794
G00 Z3.175
G01 Z-1.191
G00 Z3.175
G01 Z-1.587
G00 Z3.175
G01 Z-1.984
G00 Z3.175
G01 Z-2.381
G00 Z3.175
G01 Z-2.778
G00 Z3.175
G01 Z-3.175
G00 Z3.175
G01 Z-3.572
G00 Z3.175
G01 Z-3.969
G00 Z3.175
G01 Z-4.366
G00 Z3.175
G01 Z-4.762
G00 Z3.175
G01 Z-5.159
G00 Z3.175
G01 Z-5.556
G00 Z3.175
G01 Z-5.953
G00 Z3.175
G01 Z-6.350
G00 Z3.175
G01 Z-6.731
G00 Z3.175
G00 Y97.5139
G01 Z0.0000 F762 
G03 X21.6124 Y98.6418 Z-0.0992 I0.0000 J1.1279
G03 X20.4845 Y99.7697 Z-0.1984 I-1.1279 J0.0000
G03 X19.3565 Y98.6418 Z-0.2977 I0.0000 J-1.1279
G03 X20.4845 Y97.5139 Z-0.3969 I1.1279 J0.0000
G03 X21.6124 Y98.6418 Z-0.4961 I0.0000 J1.1279
G03 X20.4845 Y99.7697 Z-0.5953 I-1.1279 J0.0000
G03 X19.3565 Y98.6418 Z-0.6945 I0.0000 J-1.1279
G03 X20.4845 Y97.5139 Z-0.7937 I1.1279 J0.0000
G03 X21.6124 Y98.6418 Z-0.8930 I0.0000 J1.1279
G03 X20.4845 Y99.7697 Z-0.9922 I-1.1279 J0.0000
G03 X19.3565 Y98.6418 Z-1.0914 I0.0000 J-1.1279
G03 X20.4845 Y97.5139 Z-1.1906 I1.1279 J0.0000
G03 X21.6124 Y98.6418 Z-1.2898 I0.0000 J1.1279
G03 X20.4845 Y99.7697 Z-1.3891 I-1.1279 J0.0000
G03 X19.3565 Y98.6418 Z-1.4883 I0.0000 J-1.1279
G03 X20.4845 Y97.5139 Z-1.5875 I1.1279 J0.0000
G03 X21.6124 Y98.6418 Z-1.6867 I0.0000 J1.1279
G03 X20.4845 Y99.7697 Z-1.7859 I-1.1279 J0.0000
G03 X19.3565 Y98.6418 Z-1.8852 I0.0000 J-1.1279
G03 X20.4845 Y97.5139 Z-1.9844 I1.1279 J0.0000
G03 X21.6124 Y98.6418 Z-2.0836 I0.0000 J1.1279
G03 X20.4845 Y99.7697 Z-2.1828 I-1.1279 J0.0000
G03 X19.3565 Y98.6418 Z-2.2820 I0.0000 J-1.1279
G03 X20.4845 Y97.5139 Z-2.3812 I1.1279 J0.0000
G03 X21.6124 Y98.6418 Z-2.4805 I0.0000 J1.1279
G03 X20.4845 Y99.7697 Z-2.5797 I-1.1279 J0.0000
G03 X19.3565 Y98.6418 Z-2.6789 I0.0000 J-1.1279
G03 X20.4845 Y97.5139 Z-2.7781 I1.1279 J0.0000
G03 X21.6124 Y98.6418 Z-2.8773 I0.0000 J1.1279
G03 X20.4845 Y99.7697 Z-2.9766 I-1.1279 J0.0000
G03 X19.3565 Y98.6418 Z-3.0758 I0.0000 J-1.1279
G03 X20.4845 Y97.5139 Z-3.1750 I1.1279 J0.0000
G03 X21.6124 Y98.6418 Z-3.2742 I0.0000 J1.1279
G03 X20.4845 Y99.7697 Z-3.3734 I-1.1279 J0.0000
G03 X19.3565 Y98.6418 Z-3.4727 I0.0000 J-1.1279
G03 X20.4845 Y97.5139 Z-3.5719 I1.1279 J0.0000
G03 X21.6124 Y98.6418 Z-3.6711 I0.0000 J1.1279
G03 X20.4845 Y99.7697 Z-3.7703 I-1.1279 J0.0000
G03 X19.3565 Y98.6418 Z-3.8695 I0.0000 J-1.1279
G03 X20.4845 Y97.5139 Z-3.9688 I1.1279 J0.0000
G03 X21.6124 Y98.6418 Z-4.0680 I0.0000 J1.1279
G03 X20.4845 Y99.7697 Z-4.1672 I-1.1279 J0.0000
G03 X19.3565 Y98.6418 Z-4.2664 I0.0000 J-1.1279
G03 X20.4845 Y97.5139 Z-4.3656 I1.1279 J0.0000
G03 X21.6124 Y98.6418 Z-4.4648 I0.0000 J1.1279
G03 X20.4845 Y99.7697 Z-4.5641 I-1.1279 J0.0000
G03 X19.3565 Y98.6418 Z-4.6633 I0.0000 J-1.1279
G03 X20.4845 Y97.5139 Z-4.7625 I1.1279 J0.0000
G03 X21.6124 Y98.6418 Z-4.8617 I0.0000 J1.1279
G03 X20.4845 Y99.7697 Z-4.9609 I-1.1279 J0.0000
G03 X19.3565 Y98.6418 Z-5.0602 I0.0000 J-1.1279
G03 X20.4845 Y97.5139 Z-5.1594 I1.1279 J0.0000
G03 X21.6124 Y98.6418 Z-5.2586 I0.0000 J1.1279
G03 X20.4845 Y99.7697 Z-5.3578 I-1.1279 J0.0000
G03 X19.3565 Y98.6418 Z-5.4570 I0.0000 J-1.1279
G03 X20.4845 Y97.5139 Z-5.5562 I1.1279 J0.0000
G03 X21.6124 Y98.6418 Z-5.6555 I0.0000 J1.1279
G03 X20.4845 Y99.7697 Z-5.7547 I-1.1279 J0.0000
G03 X19.3565 Y98.6418 Z-5.8539 I0.0000 J-1.1279
G03 X20.4845 Y97.5139 Z-5.9531 I1.1279 J0.0000
G03 X21.6124 Y98.6418 Z-6.1476 I0.0000 J1.1279
G03 X20.4845 Y99.7697 Z-6.3421 I-1.1279 J0.0000
G03 X19.3565 Y98.6418 Z-6.5365 I0.0000 J-1.1279
G03 X20.4845 Y97.5139 Z-6.7310 I1.1279 J0.0000
G03 X21.6124 Y98.6418 I0.0000 J1.1279
G03 X20.4845 Y99.7697 I-1.1279 J0.0000
G03 X19.3565 Y98.6418 I0.0000 J-1.1279
G03 X20.4845 Y97.5139 I1.1279 J0.0000
G00 Y98.642 Z9.525
(plungebore end)
(Group complete: _diam_5.430872mm)
(Group: _diam_7.1370000000000005mm)
(Pass: 1)
G00 Y19.772
(plungebore  DEPTH=6.731  DIAM=7.137)
G00 Z3.175
G01 Z-0.397 F127 
G00 Z3.175
G01 Z-0.794
G00 Z3.175
G01 Z-1.191
G00 Z3.175
G01 Z-1.587
G00 Z3.175
G01 Z-1.984
G00 Z3.175
G01 Z-2.381
G00 Z3.175
G01 Z-2.778
G00 Z3.175
G01 Z-3.175
G00 Z3.175
G01 Z-3.572
G00 Z3.175
G01 Z-3.969
G00 Z3.175
G01 Z-4.366
G00 Z3.175
G01 Z-4.762
G00 Z3.175
G01 Z-5.159
G00 Z3.175
G01 Z-5.556
G00 Z3.175
G01 Z-5.953
G00 Z3.175
G01 Z-6.350
G00 Z3.175
G01 Z-6.731
G00 Z3.175
G00 Y17.7908
G01 Z0.0000 F762 
G03 X22.4655 Y19.7718 Z-0.0992 I0.0000 J1.9810
G03 X20.4845 Y21.7528 Z-0.1984 I-1.9810 J0.0000
G03 X18.5035 Y19.7718 Z-0.2977 I0.0000 J-1.9810
G03 X20.4845 Y17.7908 Z-0.3969 I1.9810 J0.0000
G03 X22.4655 Y19.7718 Z-0.4961 I0.0000 J1.9810
G03 X20.4845 Y21.7528 Z-0.5953 I-1.9810 J0.0000
G03 X18.5035 Y19.7718 Z-0.6945 I0.0000 J-1.9810
G03 X20.4845 Y17.7908 Z-0.7937 I1.9810 J0.0000
G03 X22.4655 Y19.7718 Z-0.8930 I0.0000 J1.9810
G03 X20.4845 Y21.7528 Z-0.9922 I-1.9810 J0.0000
G03 X18.5035 Y19.7718 Z-1.0914 I0.0000 J-1.9810
G03 X20.4845 Y17.7908 Z-1.1906 I1.9810 J0.0000
G03 X22.4655 Y19.7718 Z-1.2898 I0.0000 J1.9810
G03 X20.4845 Y21.7528 Z-1.3891 I-1.9810 J0.0000
G03 X18.5035 Y19.7718 Z-1.4883 I0.0000 J-1.9810
G03 X20.4845 Y17.7908 Z-1.5875 I1.9810 J0.0000
G03 X22.4655 Y19.7718 Z-1.6867 I0.0000 J1.9810
G03 X20.4845 Y21.7528 Z-1.7859 I-1.9810 J0.0000
G03 X18.5035 Y19.7718 Z-1.8852 I0.0000 J-1.9810
G03 X20.4845 Y17.7908 Z-1.9844 I1.9810 J0.0000
G03 X22.4655 Y19.7718 Z-2.0836 I0.0000 J1.9810
G03 X20.4845 Y21.7528 Z-2.1828 I-1.9810 J0.0000
G03 X18.5035 Y19.7718 Z-2.2820 I0.0000 J-1.9810
G03 X20.4845 Y17.7908 Z-2.3812 I1.9810 J0.0000
G03 X22.4655 Y19.7718 Z-2.4805 I0.0000 J1.9810
G03 X20.4845 Y21.7528 Z-2.5797 I-1.9810 J0.0000
G03 X18.5035 Y19.7718 Z-2.6789 I0.0000 J-1.9810
G03 X20.4845 Y17.7908 Z-2.7781 I1.9810 J0.0000
G03 X22.4655 Y19.7718 Z-2.8773 I0.0000 J1.9810
G03 X20.4845 Y21.7528 Z-2.9766 I-1.9810 J0.0000
G03 X18.5035 Y19.7718 Z-3.0758 I0.0000 J-1.9810
G03 X20.4845 Y17.7908 Z-3.1750 I1.9810 J0.0000
G03 X22.4655 Y19.7718 Z-3.2742 I0.0000 J1.9810
G03 X20.4845 Y21.7528 Z-3.3734 I-1.9810 J0.0000
G03 X18.5035 Y19.7718 Z-3.4727 I0.0000 J-1.9810
G03 X20.4845 Y17.7908 Z-3.5719 I1.9810 J0.0000
G03 X22.4655 Y19.7718 Z-3.6711 I0.0000 J1.9810
G03 X20.4845 Y21.7528 Z-3.7703 I-1.9810 J0.0000
G03 X18.5035 Y19.7718 Z-3.8695 I0.0000 J-1.9810
G03 X20.4845 Y17.7908 Z-3.9688 I1.9810 J0.0000
G03 X22.4655 Y19.7718 Z-4.0680 I0.0000 J1.9810
G03 X20.4845 Y21.7528 Z-4.1672 I-1.9810 J0.0000
G03 X18.5035 Y19.7718 Z-4.2664 I0.0000 J-1.9810
G03 X20.4845 Y17.7908 Z-4.3656 I1.9810 J0.0000
G03 X22.4655 Y19.7718 Z-4.4648 I0.0000 J1.9810
G03 X20.4845 Y21.7528 Z-4.5641 I-1.9810 J0.0000
G03 X18.5035 Y19.7718 Z-4.6633 I0.0000 J-1.9810
G03 X20.4845 Y17.7908 Z-4.7625 I1.9810 J0.0000
G03 X22.4655 Y19.7718 Z-4.8617 I0.0000 J1.9810
G03 X20.4845 Y21.7528 Z-4.9609 I-1.9810 J0.0000
G03 X18.5035 Y19.7718 Z-5.0602 I0.0000 J-1.9810
G03 X20.4845 Y17.7908 Z-5.1594 I1.9810 J0.0000
G03 X22.4655 Y19.7718 Z-5.2586 I0.0000 J1.9810
G03 X20.4845 Y21.7528 Z-5.3578 I-1.9810 J0.0000
G03 X18.5035 Y19.7718 Z-5.4570 I0.0000 J-1.9810
G03 X20.4845 Y17.7908 Z-5.5562 I1.9810 J0.0000
G03 X22.4655 Y19.7718 Z-5.6555 I0.0000 J1.9810
G03 X20.4845 Y21.7528 Z-5.7547 I-1.9810 J0.0000
G03 X18.5035 Y19.7718 Z-5.8539 I0.0000 J-1.9810
G03 X20.4845 Y17.7908 Z-5.9531 I1.9810 J0.0000
G03 X22.4655 Y19.7718 Z-6.1476 I0.0000 J1.9810
G03 X20.4845 Y21.7528 Z-6.3421 I-1.9810 J0.0000
G03 X18.5035 Y19.7718 Z-6.5365 I0.0000 J-1.9810
G03 X20.4845 Y17.7908 Z-6.7310 I1.9810 J0.0000
G03 X22.4655 Y19.7718 I0.0000 J1.9810
G03 X20.4845 Y21.7528 I-1.9810 J0.0000
G03 X18.5035 Y19.7718 I0.0000 J-1.9810
G03 X20.4845 Y17.7908 I1.9810 J0.0000
G00 Y19.772 Z9.525
(plungebore end)
(Group complete: _diam_7.1370000000000005mm)
(Group: _diam_5.430872mm)
(Pass: 1)
G00 X43.589 Y144.216
(plungebore  DEPTH=6.731  DIAM=5.431)
G00 Z3.175
G01 Z-0.397 F127 
G00 Z3.175
G01 Z-0.794
G00 Z3.175
G01 Z-1.191
G00 Z3.175
G01 Z-1.587
G00 Z3.175
G01 Z-1.984
G00 Z3.175
G01 Z-2.381
G00 Z3.175
G01 Z-2.778
G00 Z3.175
G01 Z-3.175
G00 Z3.175
G01 Z-3.572
G00 Z3.175
G01 Z-3.969
G00 Z3.175
G01 Z-4.366
G00 Z3.175
G01 Z-4.762
G00 Z3.175
G01 Z-5.159
G00 Z3.175
G01 Z-5.556
G00 Z3.175
G01 Z-5.953
G00 Z3.175
G01 Z-6.350
G00 Z3.175
G01 Z-6.731
G00 Z3.175
G00 Y143.0879
G01 Z0.0000 F762 
G03 X44.7168 Y144.2158 Z-0.0992 I0.0000 J1.1279
G03 X43.5889 Y145.3438 Z-0.1984 I-1.1279 J0.0000
G03 X42.4610 Y144.2158 Z-0.2977 I0.0000 J-1.1279
G03 X43.5889 Y143.0879 Z-0.3969 I1.1279 J0.0000
G03 X44.7168 Y144.2158 Z-0.4961 I0.0000 J1.1279
G03 X43.5889 Y145.3438 Z-0.5953 I-1.1279 J0.0000
G03 X42.4610 Y144.2158 Z-0.6945 I0.0000 J-1.1279
G03 X43.5889 Y143.0879 Z-0.7937 I1.1279 J0.0000
G03 X44.7168 Y144.2158 Z-0.8930 I0.0000 J1.1279
G03 X43.5889 Y145.3438 Z-0.9922 I-1.1279 J0.0000
G03 X42.4610 Y144.2158 Z-1.0914 I0.0000 J-1.1279
G03 X43.5889 Y143.0879 Z-1.1906 I1.1279 J0.0000
G03 X44.7168 Y144.2158 Z-1.2898 I0.0000 J1.1279
G03 X43.5889 Y145.3438 Z-1.3891 I-1.1279 J0.0000
G03 X42.4610 Y144.2158 Z-1.4883 I0.0000 J-1.1279
G03 X43.5889 Y143.0879 Z-1.5875 I1.1279 J0.0000
G03 X44.7168 Y144.2158 Z-1.6867 I0.0000 J1.1279
G03 X43.5889 Y145.3438 Z-1.7859 I-1.1279 J0.0000
G03 X42.4610 Y144.2158 Z-1.8852 I0.0000 J-1.1279
G03 X43.5889 Y143.0879 Z-1.9844 I1.1279 J0.0000
G03 X44.7168 Y144.2158 Z-2.0836 I0.0000 J1.1279
G03 X43.5889 Y145.3438 Z-2.1828 I-1.1279 J0.0000
G03 X42.4610 Y144.2158 Z-2.2820 I0.0000 J-1.1279
G03 X43.5889 Y143.0879 Z-2.3812 I1.1279 J0.0000
G03 X44.7168 Y144.2158 Z-2.4805 I0.0000 J1.1279
G03 X43.5889 Y145.3438 Z-2.5797 I-1.1279 J0.0000
G03 X42.4610 Y144.2158 Z-2.6789 I0.0000 J-1.1279
G03 X43.5889 Y143.0879 Z-2.7781 I1.1279 J0.0000
G03 X44.7168 Y144.2158 Z-2.8773 I0.0000 J1.1279
G03 X43.5889 Y145.3438 Z-2.9766 I-1.1279 J0.0000
G03 X42.4610 Y144.2158 Z-3.0758 I0.0000 J-1.1279
G03 X43.5889 Y143.0879 Z-3.1750 I1.1279 J0.0000
G03 X44.7168 Y144.2158 Z-3.2742 I0.0000 J1.1279
G03 X43.5889 Y145.3438 Z-3.3734 I-1.1279 J0.0000
G03 X42.4610 Y144.2158 Z-3.4727 I0.0000 J-1.1279
G03 X43.5889 Y143.0879 Z-3.5719 I1.1279 J0.0000
G03 X44.7168 Y144.2158 Z-3.6711 I0.0000 J1.1279
G03 X43.5889 Y145.3438 Z-3.7703 I-1.1279 J0.0000
G03 X42.4610 Y144.2158 Z-3.8695 I0.0000 J-1.1279
G03 X43.5889 Y143.0879 Z-3.9688 I1.1279 J0.0000
G03 X44.7168 Y144.2158 Z-4.0680 I0.0000 J1.1279
G03 X43.5889 Y145.3438 Z-4.1672 I-1.1279 J0.0000
G03 X42.4610 Y144.2158 Z-4.2664 I0.0000 J-1.1279
G03 X43.5889 Y143.0879 Z-4.3656 I1.1279 J0.0000
G03 X44.7168 Y144.2158 Z-4.4648 I0.0000 J1.1279
G03 X43.5889 Y145.3438 Z-4.5641 I-1.1279 J0.0000
G03 X42.4610 Y144.2158 Z-4.6633 I0.0000 J-1.1279
G03 X43.5889 Y143.0879 Z-4.7625 I1.1279 J0.0000
G03 X44.7168 Y144.2158 Z-4.8617 I0.0000 J1.1279
G03 X43.5889 Y145.3438 Z-4.9609 I-1.1279 J0.0000
G03 X42.4610 Y144.2158 Z-5.0602 I0.0000 J-1.1279
G03 X43.5889 Y143.0879 Z-5.1594 I1.1279 J0.0000
G03 X44.7168 Y144.2158 Z-5.2586 I0.0000 J1.1279
G03 X43.5889 Y145.3438 Z-5.3578 I-1.1279 J0.0000
G03 X42.4610 Y144.2158 Z-5.4570 I0.0000 J-1.1279
G03 X43.5889 Y143.0879 Z-5.5562 I1.1279 J0.0000
G03 X44.7168 Y144.2158 Z-5.6555 I0.0000 J1.1279
G03 X43.5889 Y145.3438 Z-5.7547 I-1.1279 J0.0000
G03 X42.4610 Y144.2158 Z-5.8539 I0.0000 J-1.1279
G03 X43.5889 Y143.0879 Z-5.9531 I1.1279 J0.0000
G03 X44.7168 Y144.2158 Z-6.1476 I0.0000 J1.1279
G03 X43.5889 Y145.3438 Z-6.3421 I-1.1279 J0.0000
G03 X42.4610 Y144.2158 Z-6.5365 I0.0000 J-1.1279
G03 X43.5889 Y143.0879 Z-6.7310 I1.1279 J0.0000
G03 X44.7168 Y144.2158 I0.0000 J1.1279
G03 X43.5889 Y145.3438 I-1.1279 J0.0000
G03 X42.4610 Y144.2158 I0.0000 J-1.1279
G03 X43.5889 Y143.0879 I1.1279 J0.0000
G00 Y144.216 Z9.525
(plungebore end)
(Group complete: _diam_5.430872mm)
(Group: _diam_5.430872mm)
(Pass: 1)
G00 X59.516 Y174.764
(plungebore  DEPTH=6.731  DIAM=5.431)
G00 Z3.175
G01 Z-0.397 F127 
G00 Z3.175
G01 Z-0.794
G00 Z3.175
G01 Z-1.191
G00 Z3.175
G01 Z-1.587
G00 Z3.175
G01 Z-1.984
G00 Z3.175
G01 Z-2.381
G00 Z3.175
G01 Z-2.778
G00 Z3.175
G01 Z-3.175
G00 Z3.175
G01 Z-3.572
G00 Z3.175
G01 Z-3.969
G00 Z3.175
G01 Z-4.366
G00 Z3.175
G01 Z-4.762
G00 Z3.175
G01 Z-5.159
G00 Z3.175
G01 Z-5.556
G00 Z3.175
G01 Z-5.953
G00 Z3.175
G01 Z-6.350
G00 Z3.175
G01 Z-6.731
G00 Z3.175
G00 Y173.6358
G01 Z0.0000 F762 
G03 X60.6444 Y174.7637 Z-0.0992 I0.0000 J1.1279
G03 X59.5165 Y175.8917 Z-0.1984 I-1.1279 J0.0000
G03 X58.3886 Y174.7637 Z-0.2977 I0.0000 J-1.1279
G03 X59.5165 Y173.6358 Z-0.3969 I1.1279 J0.0000
G03 X60.6444 Y174.7637 Z-0.4961 I0.0000 J1.1279
G03 X59.5165 Y175.8917 Z-0.5953 I-1.1279 J0.0000
G03 X58.3886 Y174.7637 Z-0.6945 I0.0000 J-1.1279
G03 X59.5165 Y173.6358 Z-0.7937 I1.1279 J0.0000
G03 X60.6444 Y174.7637 Z-0.8930 I0.0000 J1.1279
G03 X59.5165 Y175.8917 Z-0.9922 I-1.1279 J0.0000
G03 X58.3886 Y174.7637 Z-1.0914 I0.0000 J-1.1279
G03 X59.5165 Y173.6358 Z-1.1906 I1.1279 J0.0000
G03 X60.6444 Y174.7637 Z-1.2898 I0.0000 J1.1279
G03 X59.5165 Y175.8917 Z-1.3891 I-1.1279 J0.0000
G03 X58.3886 Y174.7637 Z-1.4883 I0.0000 J-1.1279
G03 X59.5165 Y173.6358 Z-1.5875 I1.1279 J0.0000
G03 X60.6444 Y174.7637 Z-1.6867 I0.0000 J1.1279
G03 X59.5165 Y175.8917 Z-1.7859 I-1.1279 J0.0000
G03 X58.3886 Y174.7637 Z-1.8852 I0.0000 J-1.1279
G03 X59.5165 Y173.6358 Z-1.9844 I1.1279 J0.0000
G03 X60.6444 Y174.7637 Z-2.0836 I0.0000 J1.1279
G03 X59.5165 Y175.8917 Z-2.1828 I-1.1279 J0.0000
G03 X58.3886 Y174.7637 Z-2.2820 I0.0000 J-1.1279
G03 X59.5165 Y173.6358 Z-2.3812 I1.1279 J0.0000
G03 X60.6444 Y174.7637 Z-2.4805 I0.0000 J1.1279
G03 X59.5165 Y175.8917 Z-2.5797 I-1.1279 J0.0000
G03 X58.3886 Y174.7637 Z-2.6789 I0.0000 J-1.1279
G03 X59.5165 Y173.6358 Z-2.7781 I1.1279 J0.0000
G03 X60.6444 Y174.7637 Z-2.8773 I0.0000 J1.1279
G03 X59.5165 Y175.8917 Z-2.9766 I-1.1279 J0.0000
G03 X58.3886 Y174.7637 Z-3.0758 I0.0000 J-1.1279
G03 X59.5165 Y173.6358 Z-3.1750 I1.1279 J0.0000
G03 X60.6444 Y174.7637 Z-3.2742 I0.0000 J1.1279
G03 X59.5165 Y175.8917 Z-3.3734 I-1.1279 J0.0000
G03 X58.3886 Y174.7637 Z-3.4727 I0.0000 J-1.1279
G03 X59.5165 Y173.6358 Z-3.5719 I1.1279 J0.0000
G03 X60.6444 Y174.7637 Z-3.6711 I0.0000 J1.1279
G03 X59.5165 Y175.8917 Z-3.7703 I-1.1279 J0.0000
G03 X58.3886 Y174.7637 Z-3.8695 I0.0000 J-1.1279
G03 X59.5165 Y173.6358 Z-3.9688 I1.1279 J0.0000
G03 X60.6444 Y174.7637 Z-4.0680 I0.0000 J1.1279
G03 X59.5165 Y175.8917 Z-4.1672 I-1.1279 J0.0000
G03 X58.3886 Y174.7637 Z-4.2664 I0.0000 J-1.1279
G03 X59.5165 Y173.6358 Z-4.3656 I1.1279 J0.0000
G03 X60.6444 Y174.7637 Z-4.4648 I0.0000 J1.1279
G03 X59.5165 Y175.8917 Z-4.5641 I-1.1279 J0.0000
G03 X58.3886 Y174.7637 Z-4.6633 I0.0000 J-1.1279
G03 X59.5165 Y173.6358 Z-4.7625 I1.1279 J0.0000
G03 X60.6444 Y174.7637 Z-4.8617 I0.0000 J1.1279
G03 X59.5165 Y175.8917 Z-4.9609 I-1.1279 J0.0000
G03 X58.3886 Y174.7637 Z-5.0602 I0.0000 J-1.1279
G03 X59.5165 Y173.6358 Z-5.1594 I1.1279 J0.0000
G03 X60.6444 Y174.7637 Z-5.2586 I0.0000 J1.1279
G03 X59.5165 Y175.8917 Z-5.3578 I-1.1279 J0.0000
G03 X58.3886 Y174.7637 Z-5.4570 I0.0000 J-1.1279
G03 X59.5165 Y173.6358 Z-5.5562 I1.1279 J0.0000
G03 X60.6444 Y174.7637 Z-5.6555 I0.0000 J1.1279
G03 X59.5165 Y175.8917 Z-5.7547 I-1.1279 J0.0000
G03 X58.3886 Y174.7637 Z-5.8539 I0.0000 J-1.1279
G03 X59.5165 Y173.6358 Z-5.9531 I1.1279 J0.0000
G03 X60.6444 Y174.7637 Z-6.1476 I0.0000 J1.1279
G03 X59.5165 Y175.8917 Z-6.3421 I-1.1279 J0.0000
G03 X58.3886 Y174.7637 Z-6.5365 I0.0000 J-1.1279
G03 X59.5165 Y173.6358 Z-6.7310 I1.1279 J0.0000
G03 X60.6444 Y174.7637 I0.0000 J1.1279
G03 X59.5165 Y175.8917 I-1.1279 J0.0000
G03 X58.3886 Y174.7637 I0.0000 J-1.1279
G03 X59.5165 Y173.6358 I1.1279 J0.0000
G00 Y174.764 Z9.525
(plungebore end)
(Group complete: _diam_5.430872mm)
(Pass: 1)
G00 X57.625 Y86.737
G01 Z-0.397 F127 
 X74.201 F762 
 X80.551
 X97.127
 X98.887 Y86.622
 X100.770 Y86.247
 X102.588 Y85.630
 X104.310 Y84.781
 X105.906 Y83.714
 X107.350 Y82.448
 X108.616 Y81.005
 X109.682 Y79.409
 X110.532 Y77.687
 X111.149 Y75.869
 X111.523 Y73.986
 X111.639 Y72.226
 Y46.723
 X111.523 Y44.963
 X111.149 Y43.080
 X110.532 Y41.262
 X109.682 Y39.540
 X108.616 Y37.944
 X107.350 Y36.501
 X105.906 Y35.235
 X104.310 Y34.168
 X102.588 Y33.319
 X100.770 Y32.702
 X98.887 Y32.327
 X97.127 Y32.212
 X80.551
 X74.201
 X57.625
 X55.865 Y32.327
 X53.982 Y32.702
 X52.164 Y33.319
 X50.442 Y34.168
 X48.846 Y35.235
 X47.402 Y36.501
 X46.136 Y37.944
 X45.070 Y39.540
 X44.221 Y41.262
 X43.604 Y43.080
 X43.229 Y44.963
 X43.114 Y46.723
 Y72.226
 X43.229 Y73.986
 X43.604 Y75.869
 X44.221 Y77.687
 X45.070 Y79.409
 X46.136 Y81.005
 X47.402 Y82.448
 X48.846 Y83.714
 X50.442 Y84.781
 X52.164 Y85.630
 X53.982 Y86.247
 X55.865 Y86.622
 X57.625 Y86.737
(Pass: 2)
 Z-0.794 F127 
 X74.201 F762 
 X80.551
 X97.127
 X98.887 Y86.622
 X100.770 Y86.247
 X102.588 Y85.630
 X104.310 Y84.781
 X105.906 Y83.714
 X107.350 Y82.448
 X108.616 Y81.005
 X109.682 Y79.409
 X110.532 Y77.687
 X111.149 Y75.869
 X111.523 Y73.986
 X111.639 Y72.226
 Y46.723
 X111.523 Y44.963
 X111.149 Y43.080
 X110.532 Y41.262
 X109.682 Y39.540
 X108.616 Y37.944
 X107.350 Y36.501
 X105.906 Y35.235
 X104.310 Y34.168
 X102.588 Y33.319
 X100.770 Y32.702
 X98.887 Y32.327
 X97.127 Y32.212
 X80.551
 X74.201
 X57.625
 X55.865 Y32.327
 X53.982 Y32.702
 X52.164 Y33.319
 X50.442 Y34.168
 X48.846 Y35.235
 X47.402 Y36.501
 X46.136 Y37.944
 X45.070 Y39.540
 X44.221 Y41.262
 X43.604 Y43.080
 X43.229 Y44.963
 X43.114 Y46.723
 Y72.226
 X43.229 Y73.986
 X43.604 Y75.869
 X44.221 Y77.687
 X45.070 Y79.409
 X46.136 Y81.005
 X47.402 Y82.448
 X48.846 Y83.714
 X50.442 Y84.781
 X52.164 Y85.630
 X53.982 Y86.247
 X55.865 Y86.622
 X57.625 Y86.737
(Pass: 3)
 Z-1.191 F127 
 X74.201 F762 
 X80.551
 X97.127
 X98.887 Y86.622
 X100.770 Y86.247
 X102.588 Y85.630
 X104.310 Y84.781
 X105.906 Y83.714
 X107.350 Y82.448
 X108.616 Y81.005
 X109.682 Y79.409
 X110.532 Y77.687
 X111.149 Y75.869
 X111.523 Y73.986
 X111.639 Y72.226
 Y46.723
 X111.523 Y44.963
 X111.149 Y43.080
 X110.532 Y41.262
 X109.682 Y39.540
 X108.616 Y37.944
 X107.350 Y36.501
 X105.906 Y35.235
 X104.310 Y34.168
 X102.588 Y33.319
 X100.770 Y32.702
 X98.887 Y32.327
 X97.127 Y32.212
 X80.551
 X74.201
 X57.625
 X55.865 Y32.327
 X53.982 Y32.702
 X52.164 Y33.319
 X50.442 Y34.168
 X48.846 Y35.235
 X47.402 Y36.501
 X46.136 Y37.944
 X45.070 Y39.540
 X44.221 Y41.262
 X43.604 Y43.080
 X43.229 Y44.963
 X43.114 Y46.723
 Y72.226
 X43.229 Y73.986
 X43.604 Y75.869
 X44.221 Y77.687
 X45.070 Y79.409
 X46.136 Y81.005
 X47.402 Y82.448
 X48.846 Y83.714
 X50.442 Y84.781
 X52.164 Y85.630
 X53.982 Y86.247
 X55.865 Y86.622
 X57.625 Y86.737
(Pass: 4)
 Z-1.587 F127 
 X74.201 F762 
 X80.551
 X97.127
 X98.887 Y86.622
 X100.770 Y86.247
 X102.588 Y85.630
 X104.310 Y84.781
 X105.906 Y83.714
 X107.350 Y82.448
 X108.616 Y81.005
 X109.682 Y79.409
 X110.532 Y77.687
 X111.149 Y75.869
 X111.523 Y73.986
 X111.639 Y72.226
 Y46.723
 X111.523 Y44.963
 X111.149 Y43.080
 X110.532 Y41.262
 X109.682 Y39.540
 X108.616 Y37.944
 X107.350 Y36.501
 X105.906 Y35.235
 X104.310 Y34.168
 X102.588 Y33.319
 X100.770 Y32.702
 X98.887 Y32.327
 X97.127 Y32.212
 X80.551
 X74.201
 X57.625
 X55.865 Y32.327
 X53.982 Y32.702
 X52.164 Y33.319
 X50.442 Y34.168
 X48.846 Y35.235
 X47.402 Y36.501
 X46.136 Y37.944
 X45.070 Y39.540
 X44.221 Y41.262
 X43.604 Y43.080
 X43.229 Y44.963
 X43.114 Y46.723
 Y72.226
 X43.229 Y73.986
 X43.604 Y75.869
 X44.221 Y77.687
 X45.070 Y79.409
 X46.136 Y81.005
 X47.402 Y82.448
 X48.846 Y83.714
 X50.442 Y84.781
 X52.164 Y85.630
 X53.982 Y86.247
 X55.865 Y86.622
 X57.625 Y86.737
(Pass: 5)
 Z-1.984 F127 
 X74.201 F762 
 X80.551
 X97.127
 X98.887 Y86.622
 X100.770 Y86.247
 X102.588 Y85.630
 X104.310 Y84.781
 X105.906 Y83.714
 X107.350 Y82.448
 X108.616 Y81.005
 X109.682 Y79.409
 X110.532 Y77.687
 X111.149 Y75.869
 X111.523 Y73.986
 X111.639 Y72.226
 Y46.723
 X111.523 Y44.963
 X111.149 Y43.080
 X110.532 Y41.262
 X109.682 Y39.540
 X108.616 Y37.944
 X107.350 Y36.501
 X105.906 Y35.235
 X104.310 Y34.168
 X102.588 Y33.319
 X100.770 Y32.702
 X98.887 Y32.327
 X97.127 Y32.212
 X80.551
 X74.201
 X57.625
 X55.865 Y32.327
 X53.982 Y32.702
 X52.164 Y33.319
 X50.442 Y34.168
 X48.846 Y35.235
 X47.402 Y36.501
 X46.136 Y37.944
 X45.070 Y39.540
 X44.221 Y41.262
 X43.604 Y43.080
 X43.229 Y44.963
 X43.114 Y46.723
 Y72.226
 X43.229 Y73.986
 X43.604 Y75.869
 X44.221 Y77.687
 X45.070 Y79.409
 X46.136 Y81.005
 X47.402 Y82.448
 X48.846 Y83.714
 X50.442 Y84.781
 X52.164 Y85.630
 X53.982 Y86.247
 X55.865 Y86.622
 X57.625 Y86.737
(Pass: 6)
 Z-2.381 F127 
 X74.201 F762 
 X80.551
 X97.127
 X98.887 Y86.622
 X100.770 Y86.247
 X102.588 Y85.630
 X104.310 Y84.781
 X105.906 Y83.714
 X107.350 Y82.448
 X108.616 Y81.005
 X109.682 Y79.409
 X110.532 Y77.687
 X111.149 Y75.869
 X111.523 Y73.986
 X111.639 Y72.226
 Y46.723
 X111.523 Y44.963
 X111.149 Y43.080
 X110.532 Y41.262
 X109.682 Y39.540
 X108.616 Y37.944
 X107.350 Y36.501
 X105.906 Y35.235
 X104.310 Y34.168
 X102.588 Y33.319
 X100.770 Y32.702
 X98.887 Y32.327
 X97.127 Y32.212
 X80.551
 X74.201
 X57.625
 X55.865 Y32.327
 X53.982 Y32.702
 X52.164 Y33.319
 X50.442 Y34.168
 X48.846 Y35.235
 X47.402 Y36.501
 X46.136 Y37.944
 X45.070 Y39.540
 X44.221 Y41.262
 X43.604 Y43.080
 X43.229 Y44.963
 X43.114 Y46.723
 Y72.226
 X43.229 Y73.986
 X43.604 Y75.869
 X44.221 Y77.687
 X45.070 Y79.409
 X46.136 Y81.005
 X47.402 Y82.448
 X48.846 Y83.714
 X50.442 Y84.781
 X52.164 Y85.630
 X53.982 Y86.247
 X55.865 Y86.622
 X57.625 Y86.737
(Pass: 7)
 Z-2.778 F127 
 X74.201 F762 
 X80.551
 X97.127
 X98.887 Y86.622
 X100.770 Y86.247
 X102.588 Y85.630
 X104.310 Y84.781
 X105.906 Y83.714
 X107.350 Y82.448
 X108.616 Y81.005
 X109.682 Y79.409
 X110.532 Y77.687
 X111.149 Y75.869
 X111.523 Y73.986
 X111.639 Y72.226
 Y46.723
 X111.523 Y44.963
 X111.149 Y43.080
 X110.532 Y41.262
 X109.682 Y39.540
 X108.616 Y37.944
 X107.350 Y36.501
 X105.906 Y35.235
 X104.310 Y34.168
 X102.588 Y33.319
 X100.770 Y32.702
 X98.887 Y32.327
 X97.127 Y32.212
 X80.551
 X74.201
 X57.625
 X55.865 Y32.327
 X53.982 Y32.702
 X52.164 Y33.319
 X50.442 Y34.168
 X48.846 Y35.235
 X47.402 Y36.501
 X46.136 Y37.944
 X45.070 Y39.540
 X44.221 Y41.262
 X43.604 Y43.080
 X43.229 Y44.963
 X43.114 Y46.723
 Y72.226
 X43.229 Y73.986
 X43.604 Y75.869
 X44.221 Y77.687
 X45.070 Y79.409
 X46.136 Y81.005
 X47.402 Y82.448
 X48.846 Y83.714
 X50.442 Y84.781
 X52.164 Y85.630
 X53.982 Y86.247
 X55.865 Y86.622
 X57.625 Y86.737
(Pass: 8)
 Z-3.175 F127 
 X74.201 F762 
 X80.551
 X97.127
 X98.887 Y86.622
 X100.770 Y86.247
 X102.588 Y85.630
 X104.310 Y84.781
 X105.906 Y83.714
 X107.350 Y82.448
 X108.616 Y81.005
 X109.682 Y79.409
 X110.532 Y77.687
 X111.149 Y75.869
 X111.523 Y73.986
 X111.639 Y72.226
 Y46.723
 X111.523 Y44.963
 X111.149 Y43.080
 X110.532 Y41.262
 X109.682 Y39.540
 X108.616 Y37.944
 X107.350 Y36.501
 X105.906 Y35.235
 X104.310 Y34.168
 X102.588 Y33.319
 X100.770 Y32.702
 X98.887 Y32.327
 X97.127 Y32.212
 X80.551
 X74.201
 X57.625
 X55.865 Y32.327
 X53.982 Y32.702
 X52.164 Y33.319
 X50.442 Y34.168
 X48.846 Y35.235
 X47.402 Y36.501
 X46.136 Y37.944
 X45.070 Y39.540
 X44.221 Y41.262
 X43.604 Y43.080
 X43.229 Y44.963
 X43.114 Y46.723
 Y72.226
 X43.229 Y73.986
 X43.604 Y75.869
 X44.221 Y77.687
 X45.070 Y79.409
 X46.136 Y81.005
 X47.402 Y82.448
 X48.846 Y83.714
 X50.442 Y84.781
 X52.164 Y85.630
 X53.982 Y86.247
 X55.865 Y86.622
 X57.625 Y86.737
(Pass: 9)
 Z-3.572 F127 
 X74.201 F762 
 Z-3.175
 X80.551
 Z-3.572 F127 
 X97.127 F762 
 X98.887 Y86.622
 X100.770 Y86.247
 X102.588 Y85.630
 X104.310 Y84.781
 X105.906 Y83.714
 X107.350 Y82.448
 X108.616 Y81.005
 X109.682 Y79.409
 X110.532 Y77.687
 X111.149 Y75.869
 X111.523 Y73.986
 X111.639 Y72.226
 Y46.723
 X111.523 Y44.963
 X111.149 Y43.080
 X110.532 Y41.262
 X109.682 Y39.540
 X108.616 Y37.944
 X107.350 Y36.501
 X105.906 Y35.235
 X104.310 Y34.168
 X102.588 Y33.319
 X100.770 Y32.702
 X98.887 Y32.327
 X97.127 Y32.212
 X80.551
 Z-3.175
 X74.201
 Z-3.572 F127 
 X57.625 F762 
 X55.865 Y32.327
 X53.982 Y32.702
 X52.164 Y33.319
 X50.442 Y34.168
 X48.846 Y35.235
 X47.402 Y36.501
 X46.136 Y37.944
 X45.070 Y39.540
 X44.221 Y41.262
 X43.604 Y43.080
 X43.229 Y44.963
 X43.114 Y46.723
 Y72.226
 X43.229 Y73.986
 X43.604 Y75.869
 X44.221 Y77.687
 X45.070 Y79.409
 X46.136 Y81.005
 X47.402 Y82.448
 X48.846 Y83.714
 X50.442 Y84.781
 X52.164 Y85.630
 X53.982 Y86.247
 X55.865 Y86.622
 X57.625 Y86.737
(Pass: 10)
 Z-3.969 F127 
 X74.201 F762 
 Z-3.175
 X80.551
 Z-3.969 F127 
 X97.127 F762 
 X98.887 Y86.622
 X100.770 Y86.247
 X102.588 Y85.630
 X104.310 Y84.781
 X105.906 Y83.714
 X107.350 Y82.448
 X108.616 Y81.005
 X109.682 Y79.409
 X110.532 Y77.687
 X111.149 Y75.869
 X111.523 Y73.986
 X111.639 Y72.226
 Y46.723
 X111.523 Y44.963
 X111.149 Y43.080
 X110.532 Y41.262
 X109.682 Y39.540
 X108.616 Y37.944
 X107.350 Y36.501
 X105.906 Y35.235
 X104.310 Y34.168
 X102.588 Y33.319
 X100.770 Y32.702
 X98.887 Y32.327
 X97.127 Y32.212
 X80.551
 Z-3.175
 X74.201
 Z-3.969 F127 
 X57.625 F762 
 X55.865 Y32.327
 X53.982 Y32.702
 X52.164 Y33.319
 X50.442 Y34.168
 X48.846 Y35.235
 X47.402 Y36.501
 X46.136 Y37.944
 X45.070 Y39.540
 X44.221 Y41.262
 X43.604 Y43.080
 X43.229 Y44.963
 X43.114 Y46.723
 Y72.226
 X43.229 Y73.986
 X43.604 Y75.869
 X44.221 Y77.687
 X45.070 Y79.409
 X46.136 Y81.005
 X47.402 Y82.448
 X48.846 Y83.714
 X50.442 Y84.781
 X52.164 Y85.630
 X53.982 Y86.247
 X55.865 Y86.622
 X57.625 Y86.737
(Pass: 11)
 Z-4.366 F127 
 X74.201 F762 
 Z-3.175
 X80.551
 Z-4.366 F127 
 X97.127 F762 
 X98.887 Y86.622
 X100.770 Y86.247
 X102.588 Y85.630
 X104.310 Y84.781
 X105.906 Y83.714
 X107.350 Y82.448
 X108.616 Y81.005
 X109.682 Y79.409
 X110.532 Y77.687
 X111.149 Y75.869
 X111.523 Y73.986
 X111.639 Y72.226
 Y46.723
 X111.523 Y44.963
 X111.149 Y43.080
 X110.532 Y41.262
 X109.682 Y39.540
 X108.616 Y37.944
 X107.350 Y36.501
 X105.906 Y35.235
 X104.310 Y34.168
 X102.588 Y33.319
 X100.770 Y32.702
 X98.887 Y32.327
 X97.127 Y32.212
 X80.551
 Z-3.175
 X74.201
 Z-4.366 F127 
 X57.625 F762 
 X55.865 Y32.327
 X53.982 Y32.702
 X52.164 Y33.319
 X50.442 Y34.168
 X48.846 Y35.235
 X47.402 Y36.501
 X46.136 Y37.944
 X45.070 Y39.540
 X44.221 Y41.262
 X43.604 Y43.080
 X43.229 Y44.963
 X43.114 Y46.723
 Y72.226
 X43.229 Y73.986
 X43.604 Y75.869
 X44.221 Y77.687
 X45.070 Y79.409
 X46.136 Y81.005
 X47.402 Y82.448
 X48.846 Y83.714
 X50.442 Y84.781
 X52.164 Y85.630
 X53.982 Y86.247
 X55.865 Y86.622
 X57.625 Y86.737
(Pass: 12)
 Z-4.762 F127 
 X74.201 F762 
 Z-3.175
 X80.551
 Z-4.762 F127 
 X97.127 F762 
 X98.887 Y86.622
 X100.770 Y86.247
 X102.588 Y85.630
 X104.310 Y84.781
 X105.906 Y83.714
 X107.350 Y82.448
 X108.616 Y81.005
 X109.682 Y79.409
 X110.532 Y77.687
 X111.149 Y75.869
 X111.523 Y73.986
 X111.639 Y72.226
 Y46.723
 X111.523 Y44.963
 X111.149 Y43.080
 X110.532 Y41.262
 X109.682 Y39.540
 X108.616 Y37.944
 X107.350 Y36.501
 X105.906 Y35.235
 X104.310 Y34.168
 X102.588 Y33.319
 X100.770 Y32.702
 X98.887 Y32.327
 X97.127 Y32.212
 X80.551
 Z-3.175
 X74.201
 Z-4.762 F127 
 X57.625 F762 
 X55.865 Y32.327
 X53.982 Y32.702
 X52.164 Y33.319
 X50.442 Y34.168
 X48.846 Y35.235
 X47.402 Y36.501
 X46.136 Y37.944
 X45.070 Y39.540
 X44.221 Y41.262
 X43.604 Y43.080
 X43.229 Y44.963
 X43.114 Y46.723
 Y72.226
 X43.229 Y73.986
 X43.604 Y75.869
 X44.221 Y77.687
 X45.070 Y79.409
 X46.136 Y81.005
 X47.402 Y82.448
 X48.846 Y83.714
 X50.442 Y84.781
 X52.164 Y85.630
 X53.982 Y86.247
 X55.865 Y86.622
 X57.625 Y86.737
(Pass: 13)
 Z-5.159 F127 
 X74.201 F762 
 Z-3.175
 X80.551
 Z-5.159 F127 
 X97.127 F762 
 X98.887 Y86.622
 X100.770 Y86.247
 X102.588 Y85.630
 X104.310 Y84.781
 X105.906 Y83.714
 X107.350 Y82.448
 X108.616 Y81.005
 X109.682 Y79.409
 X110.532 Y77.687
 X111.149 Y75.869
 X111.523 Y73.986
 X111.639 Y72.226
 Y46.723
 X111.523 Y44.963
 X111.149 Y43.080
 X110.532 Y41.262
 X109.682 Y39.540
 X108.616 Y37.944
 X107.350 Y36.501
 X105.906 Y35.235
 X104.310 Y34.168
 X102.588 Y33.319
 X100.770 Y32.702
 X98.887 Y32.327
 X97.127 Y32.212
 X80.551
 Z-3.175
 X74.201
 Z-5.159 F127 
 X57.625 F762 
 X55.865 Y32.327
 X53.982 Y32.702
 X52.164 Y33.319
 X50.442 Y34.168
 X48.846 Y35.235
 X47.402 Y36.501
 X46.136 Y37.944
 X45.070 Y39.540
 X44.221 Y41.262
 X43.604 Y43.080
 X43.229 Y44.963
 X43.114 Y46.723
 Y72.226
 X43.229 Y73.986
 X43.604 Y75.869
 X44.221 Y77.687
 X45.070 Y79.409
 X46.136 Y81.005
 X47.402 Y82.448
 X48.846 Y83.714
 X50.442 Y84.781
 X52.164 Y85.630
 X53.982 Y86.247
 X55.865 Y86.622
 X57.625 Y86.737
(Pass: 14)
 Z-5.556 F127 
 X74.201 F762 
 Z-3.175
 X80.551
 Z-5.556 F127 
 X97.127 F762 
 X98.887 Y86.622
 X100.770 Y86.247
 X102.588 Y85.630
 X104.310 Y84.781
 X105.906 Y83.714
 X107.350 Y82.448
 X108.616 Y81.005
 X109.682 Y79.409
 X110.532 Y77.687
 X111.149 Y75.869
 X111.523 Y73.986
 X111.639 Y72.226
 Y46.723
 X111.523 Y44.963
 X111.149 Y43.080
 X110.532 Y41.262
 X109.682 Y39.540
 X108.616 Y37.944
 X107.350 Y36.501
 X105.906 Y35.235
 X104.310 Y34.168
 X102.588 Y33.319
 X100.770 Y32.702
 X98.887 Y32.327
 X97.127 Y32.212
 X80.551
 Z-3.175
 X74.201
 Z-5.556 F127 
 X57.625 F762 
 X55.865 Y32.327
 X53.982 Y32.702
 X52.164 Y33.319
 X50.442 Y34.168
 X48.846 Y35.235
 X47.402 Y36.501
 X46.136 Y37.944
 X45.070 Y39.540
 X44.221 Y41.262
 X43.604 Y43.080
 X43.229 Y44.963
 X43.114 Y46.723
 Y72.226
 X43.229 Y73.986
 X43.604 Y75.869
 X44.221 Y77.687
 X45.070 Y79.409
 X46.136 Y81.005
 X47.402 Y82.448
 X48.846 Y83.714
 X50.442 Y84.781
 X52.164 Y85.630
 X53.982 Y86.247
 X55.865 Y86.622
 X57.625 Y86.737
(Pass: 15)
 Z-5.953 F127 
 X74.201 F762 
 Z-3.175
 X80.551
 Z-5.953 F127 
 X97.127 F762 
 X98.887 Y86.622
 X100.770 Y86.247
 X102.588 Y85.630
 X104.310 Y84.781
 X105.906 Y83.714
 X107.350 Y82.448
 X108.616 Y81.005
 X109.682 Y79.409
 X110.532 Y77.687
 X111.149 Y75.869
 X111.523 Y73.986
 X111.639 Y72.226
 Y46.723
 X111.523 Y44.963
 X111.149 Y43.080
 X110.532 Y41.262
 X109.682 Y39.540
 X108.616 Y37.944
 X107.350 Y36.501
 X105.906 Y35.235
 X104.310 Y34.168
 X102.588 Y33.319
 X100.770 Y32.702
 X98.887 Y32.327
 X97.127 Y32.212
 X80.551
 Z-3.175
 X74.201
 Z-5.953 F127 
 X57.625 F762 
 X55.865 Y32.327
 X53.982 Y32.702
 X52.164 Y33.319
 X50.442 Y34.168
 X48.846 Y35.235
 X47.402 Y36.501
 X46.136 Y37.944
 X45.070 Y39.540
 X44.221 Y41.262
 X43.604 Y43.080
 X43.229 Y44.963
 X43.114 Y46.723
 Y72.226
 X43.229 Y73.986
 X43.604 Y75.869
 X44.221 Y77.687
 X45.070 Y79.409
 X46.136 Y81.005
 X47.402 Y82.448
 X48.846 Y83.714
 X50.442 Y84.781
 X52.164 Y85.630
 X53.982 Y86.247
 X55.865 Y86.622
 X57.625 Y86.737
(Pass: 16)
 Z-6.350 F127 
 X74.201 F762 
 Z-3.175
 X80.551
 Z-6.350 F127 
 X97.127 F762 
 X98.887 Y86.622
 X100.770 Y86.247
 X102.588 Y85.630
 X104.310 Y84.781
 X105.906 Y83.714
 X107.350 Y82.448
 X108.616 Y81.005
 X109.682 Y79.409
 X110.532 Y77.687
 X111.149 Y75.869
 X111.523 Y73.986
 X111.639 Y72.226
 Y46.723
 X111.523 Y44.963
 X111.149 Y43.080
 X110.532 Y41.262
 X109.682 Y39.540
 X108.616 Y37.944
 X107.350 Y36.501
 X105.906 Y35.235
 X104.310 Y34.168
 X102.588 Y33.319
 X100.770 Y32.702
 X98.887 Y32.327
 X97.127 Y32.212
 X80.551
 Z-3.175
 X74.201
 Z-6.350 F127 
 X57.625 F762 
 X55.865 Y32.327
 X53.982 Y32.702
 X52.164 Y33.319
 X50.442 Y34.168
 X48.846 Y35.235
 X47.402 Y36.501
 X46.136 Y37.944
 X45.070 Y39.540
 X44.221 Y41.262
 X43.604 Y43.080
 X43.229 Y44.963
 X43.114 Y46.723
 Y72.226
 X43.229 Y73.986
 X43.604 Y75.869
 X44.221 Y77.687
 X45.070 Y79.409
 X46.136 Y81.005
 X47.402 Y82.448
 X48.846 Y83.714
 X50.442 Y84.781
 X52.164 Y85.630
 X53.982 Y86.247
 X55.865 Y86.622
 X57.625 Y86.737
(Pass: 17)
 Z-6.731 F127 
 X74.201 F762 
 Z-3.175
 X80.551
 Z-6.731 F127 
 X97.127 F762 
 X98.887 Y86.622
 X100.770 Y86.247
 X102.588 Y85.630
 X104.310 Y84.781
 X105.906 Y83.714
 X107.350 Y82.448
 X108.616 Y81.005
 X109.682 Y79.409
 X110.532 Y77.687
 X111.149 Y75.869
 X111.523 Y73.986
 X111.639 Y72.226
 Y46.723
 X111.523 Y44.963
 X111.149 Y43.080
 X110.532 Y41.262
 X109.682 Y39.540
 X108.616 Y37.944
 X107.350 Y36.501
 X105.906 Y35.235
 X104.310 Y34.168
 X102.588 Y33.319
 X100.770 Y32.702
 X98.887 Y32.327
 X97.127 Y32.212
 X80.551
 Z-3.175
 X74.201
 Z-6.731 F127 
 X57.625 F762 
 X55.865 Y32.327
 X53.982 Y32.702
 X52.164 Y33.319
 X50.442 Y34.168
 X48.846 Y35.235
 X47.402 Y36.501
 X46.136 Y37.944
 X45.070 Y39.540
 X44.221 Y41.262
 X43.604 Y43.080
 X43.229 Y44.963
 X43.114 Y46.723
 Y72.226
 X43.229 Y73.986
 X43.604 Y75.869
 X44.221 Y77.687
 X45.070 Y79.409
 X46.136 Y81.005
 X47.402 Y82.448
 X48.846 Y83.714
 X50.442 Y84.781
 X52.164 Y85.630
 X53.982 Y86.247
 X55.865 Y86.622
 X57.625 Y86.737
G00 Z9.525
(Pass: 1)
 X54.007 Y106.876
G01 Z-0.397 F127 
 X53.764 Y106.844 F762 
 X53.521 Y106.876
 X53.295 Y106.969
 X53.100 Y107.119
 X52.951 Y107.313
 X52.857 Y107.540
 X52.812 Y107.887
 Y116.678
 X52.857 Y117.025
 X52.951 Y117.252
 X53.100 Y117.446
 X53.295 Y117.596
 X53.521 Y117.689
 X53.764 Y117.721
 X54.007 Y117.689
 X54.234 Y117.596
 X54.428 Y117.446
 X54.577 Y117.252
 X54.671 Y117.026
 X54.717 Y116.678
 Y107.887
 X54.671 Y107.540
 X54.577 Y107.313
 X54.428 Y107.119
 X54.234 Y106.970
 X54.007 Y106.876
(Pass: 2)
 Z-0.794 F127 
 X53.764 Y106.844 F762 
 X53.521 Y106.876
 X53.295 Y106.969
 X53.100 Y107.119
 X52.951 Y107.313
 X52.857 Y107.540
 X52.812 Y107.887
 Y116.678
 X52.857 Y117.025
 X52.951 Y117.252
 X53.100 Y117.446
 X53.295 Y117.596
 X53.521 Y117.689
 X53.764 Y117.721
 X54.007 Y117.689
 X54.234 Y117.596
 X54.428 Y117.446
 X54.577 Y117.252
 X54.671 Y117.026
 X54.717 Y116.678
 Y107.887
 X54.671 Y107.540
 X54.577 Y107.313
 X54.428 Y107.119
 X54.234 Y106.970
 X54.007 Y106.876
(Pass: 3)
 Z-1.191 F127 
 X53.764 Y106.844 F762 
 X53.521 Y106.876
 X53.295 Y106.969
 X53.100 Y107.119
 X52.951 Y107.313
 X52.857 Y107.540
 X52.812 Y107.887
 Y116.678
 X52.857 Y117.025
 X52.951 Y117.252
 X53.100 Y117.446
 X53.295 Y117.596
 X53.521 Y117.689
 X53.764 Y117.721
 X54.007 Y117.689
 X54.234 Y117.596
 X54.428 Y117.446
 X54.577 Y117.252
 X54.671 Y117.026
 X54.717 Y116.678
 Y107.887
 X54.671 Y107.540
 X54.577 Y107.313
 X54.428 Y107.119
 X54.234 Y106.970
 X54.007 Y106.876
(Pass: 4)
 Z-1.587 F127 
 X53.764 Y106.844 F762 
 X53.521 Y106.876
 X53.295 Y106.969
 X53.100 Y107.119
 X52.951 Y107.313
 X52.857 Y107.540
 X52.812 Y107.887
 Y116.678
 X52.857 Y117.025
 X52.951 Y117.252
 X53.100 Y117.446
 X53.295 Y117.596
 X53.521 Y117.689
 X53.764 Y117.721
 X54.007 Y117.689
 X54.234 Y117.596
 X54.428 Y117.446
 X54.577 Y117.252
 X54.671 Y117.026
 X54.717 Y116.678
 Y107.887
 X54.671 Y107.540
 X54.577 Y107.313
 X54.428 Y107.119
 X54.234 Y106.970
 X54.007 Y106.876
(Pass: 5)
 Z-1.984 F127 
 X53.764 Y106.844 F762 
 X53.521 Y106.876
 X53.295 Y106.969
 X53.100 Y107.119
 X52.951 Y107.313
 X52.857 Y107.540
 X52.812 Y107.887
 Y116.678
 X52.857 Y117.025
 X52.951 Y117.252
 X53.100 Y117.446
 X53.295 Y117.596
 X53.521 Y117.689
 X53.764 Y117.721
 X54.007 Y117.689
 X54.234 Y117.596
 X54.428 Y117.446
 X54.577 Y117.252
 X54.671 Y117.026
 X54.717 Y116.678
 Y107.887
 X54.671 Y107.540
 X54.577 Y107.313
 X54.428 Y107.119
 X54.234 Y106.970
 X54.007 Y106.876
(Pass: 6)
 Z-2.381 F127 
 X53.764 Y106.844 F762 
 X53.521 Y106.876
 X53.295 Y106.969
 X53.100 Y107.119
 X52.951 Y107.313
 X52.857 Y107.540
 X52.812 Y107.887
 Y116.678
 X52.857 Y117.025
 X52.951 Y117.252
 X53.100 Y117.446
 X53.295 Y117.596
 X53.521 Y117.689
 X53.764 Y117.721
 X54.007 Y117.689
 X54.234 Y117.596
 X54.428 Y117.446
 X54.577 Y117.252
 X54.671 Y117.026
 X54.717 Y116.678
 Y107.887
 X54.671 Y107.540
 X54.577 Y107.313
 X54.428 Y107.119
 X54.234 Y106.970
 X54.007 Y106.876
(Pass: 7)
 Z-2.778 F127 
 X53.764 Y106.844 F762 
 X53.521 Y106.876
 X53.295 Y106.969
 X53.100 Y107.119
 X52.951 Y107.313
 X52.857 Y107.540
 X52.812 Y107.887
 Y116.678
 X52.857 Y117.025
 X52.951 Y117.252
 X53.100 Y117.446
 X53.295 Y117.596
 X53.521 Y117.689
 X53.764 Y117.721
 X54.007 Y117.689
 X54.234 Y117.596
 X54.428 Y117.446
 X54.577 Y117.252
 X54.671 Y117.026
 X54.717 Y116.678
 Y107.887
 X54.671 Y107.540
 X54.577 Y107.313
 X54.428 Y107.119
 X54.234 Y106.970
 X54.007 Y106.876
(Pass: 8)
 Z-3.175 F127 
 X53.764 Y106.844 F762 
 X53.521 Y106.876
 X53.295 Y106.969
 X53.100 Y107.119
 X52.951 Y107.313
 X52.857 Y107.540
 X52.812 Y107.887
 Y116.678
 X52.857 Y117.025
 X52.951 Y117.252
 X53.100 Y117.446
 X53.295 Y117.596
 X53.521 Y117.689
 X53.764 Y117.721
 X54.007 Y117.689
 X54.234 Y117.596
 X54.428 Y117.446
 X54.577 Y117.252
 X54.671 Y117.026
 X54.717 Y116.678
 Y107.887
 X54.671 Y107.540
 X54.577 Y107.313
 X54.428 Y107.119
 X54.234 Y106.970
 X54.007 Y106.876
(Pass: 9)
 Z-3.572 F127 
 X53.764 Y106.844 F762 
 X53.521 Y106.876
 X53.295 Y106.969
 X53.100 Y107.119
 X52.951 Y107.313
 X52.857 Y107.540
 X52.812 Y107.887
 Y116.678
 X52.857 Y117.025
 X52.951 Y117.252
 X53.100 Y117.446
 X53.295 Y117.596
 X53.521 Y117.689
 X53.764 Y117.721
 X54.007 Y117.689
 X54.234 Y117.596
 X54.428 Y117.446
 X54.577 Y117.252
 X54.671 Y117.026
 X54.717 Y116.678
 Y107.887
 X54.671 Y107.540
 X54.577 Y107.313
 X54.428 Y107.119
 X54.234 Y106.970
 X54.007 Y106.876
(Pass: 10)
 Z-3.969 F127 
 X53.764 Y106.844 F762 
 X53.521 Y106.876
 X53.295 Y106.969
 X53.100 Y107.119
 X52.951 Y107.313
 X52.857 Y107.540
 X52.812 Y107.887
 Y116.678
 X52.857 Y117.025
 X52.951 Y117.252
 X53.100 Y117.446
 X53.295 Y117.596
 X53.521 Y117.689
 X53.764 Y117.721
 X54.007 Y117.689
 X54.234 Y117.596
 X54.428 Y117.446
 X54.577 Y117.252
 X54.671 Y117.026
 X54.717 Y116.678
 Y107.887
 X54.671 Y107.540
 X54.577 Y107.313
 X54.428 Y107.119
 X54.234 Y106.970
 X54.007 Y106.876
(Pass: 11)
 Z-4.366 F127 
 X53.764 Y106.844 F762 
 X53.521 Y106.876
 X53.295 Y106.969
 X53.100 Y107.119
 X52.951 Y107.313
 X52.857 Y107.540
 X52.812 Y107.887
 Y116.678
 X52.857 Y117.025
 X52.951 Y117.252
 X53.100 Y117.446
 X53.295 Y117.596
 X53.521 Y117.689
 X53.764 Y117.721
 X54.007 Y117.689
 X54.234 Y117.596
 X54.428 Y117.446
 X54.577 Y117.252
 X54.671 Y117.026
 X54.717 Y116.678
 Y107.887
 X54.671 Y107.540
 X54.577 Y107.313
 X54.428 Y107.119
 X54.234 Y106.970
 X54.007 Y106.876
(Pass: 12)
 Z-4.762 F127 
 X53.764 Y106.844 F762 
 X53.521 Y106.876
 X53.295 Y106.969
 X53.100 Y107.119
 X52.951 Y107.313
 X52.857 Y107.540
 X52.812 Y107.887
 Y116.678
 X52.857 Y117.025
 X52.951 Y117.252
 X53.100 Y117.446
 X53.295 Y117.596
 X53.521 Y117.689
 X53.764 Y117.721
 X54.007 Y117.689
 X54.234 Y117.596
 X54.428 Y117.446
 X54.577 Y117.252
 X54.671 Y117.026
 X54.717 Y116.678
 Y107.887
 X54.671 Y107.540
 X54.577 Y107.313
 X54.428 Y107.119
 X54.234 Y106.970
 X54.007 Y106.876
(Pass: 13)
 Z-5.159 F127 
 X53.764 Y106.844 F762 
 X53.521 Y106.876
 X53.295 Y106.969
 X53.100 Y107.119
 X52.951 Y107.313
 X52.857 Y107.540
 X52.812 Y107.887
 Y116.678
 X52.857 Y117.025
 X52.951 Y117.252
 X53.100 Y117.446
 X53.295 Y117.596
 X53.521 Y117.689
 X53.764 Y117.721
 X54.007 Y117.689
 X54.234 Y117.596
 X54.428 Y117.446
 X54.577 Y117.252
 X54.671 Y117.026
 X54.717 Y116.678
 Y107.887
 X54.671 Y107.540
 X54.577 Y107.313
 X54.428 Y107.119
 X54.234 Y106.970
 X54.007 Y106.876
(Pass: 14)
 Z-5.556 F127 
 X53.764 Y106.844 F762 
 X53.521 Y106.876
 X53.295 Y106.969
 X53.100 Y107.119
 X52.951 Y107.313
 X52.857 Y107.540
 X52.812 Y107.887
 Y116.678
 X52.857 Y117.025
 X52.951 Y117.252
 X53.100 Y117.446
 X53.295 Y117.596
 X53.521 Y117.689
 X53.764 Y117.721
 X54.007 Y117.689
 X54.234 Y117.596
 X54.428 Y117.446
 X54.577 Y117.252
 X54.671 Y117.026
 X54.717 Y116.678
 Y107.887
 X54.671 Y107.540
 X54.577 Y107.313
 X54.428 Y107.119
 X54.234 Y106.970
 X54.007 Y106.876
(Pass: 15)
 Z-5.953 F127 
 X53.764 Y106.844 F762 
 X53.521 Y106.876
 X53.295 Y106.969
 X53.100 Y107.119
 X52.951 Y107.313
 X52.857 Y107.540
 X52.812 Y107.887
 Y116.678
 X52.857 Y117.025
 X52.951 Y117.252
 X53.100 Y117.446
 X53.295 Y117.596
 X53.521 Y117.689
 X53.764 Y117.721
 X54.007 Y117.689
 X54.234 Y117.596
 X54.428 Y117.446
 X54.577 Y117.252
 X54.671 Y117.026
 X54.717 Y116.678
 Y107.887
 X54.671 Y107.540
 X54.577 Y107.313
 X54.428 Y107.119
 X54.234 Y106.970
 X54.007 Y106.876
(Pass: 16)
 Z-6.350 F127 
 X53.764 Y106.844 F762 
 X53.521 Y106.876
 X53.295 Y106.969
 X53.100 Y107.119
 X52.951 Y107.313
 X52.857 Y107.540
 X52.812 Y107.887
 Y116.678
 X52.857 Y117.025
 X52.951 Y117.252
 X53.100 Y117.446
 X53.295 Y117.596
 X53.521 Y117.689
 X53.764 Y117.721
 X54.007 Y117.689
 X54.234 Y117.596
 X54.428 Y117.446
 X54.577 Y117.252
 X54.671 Y117.026
 X54.717 Y116.678
 Y107.887
 X54.671 Y107.540
 X54.577 Y107.313
 X54.428 Y107.119
 X54.234 Y106.970
 X54.007 Y106.876
(Pass: 17)
 Z-6.731 F127 
 X53.764 Y106.844 F762 
 X53.521 Y106.876
 X53.295 Y106.969
 X53.100 Y107.119
 X52.951 Y107.313
 X52.857 Y107.540
 X52.812 Y107.887
 Y116.678
 X52.857 Y117.025
 X52.951 Y117.252
 X53.100 Y117.446
 X53.295 Y117.596
 X53.521 Y117.689
 X53.764 Y117.721
 X54.007 Y117.689
 X54.234 Y117.596
 X54.428 Y117.446
 X54.577 Y117.252
 X54.671 Y117.026
 X54.717 Y116.678
 Y107.887
 X54.671 Y107.540
 X54.577 Y107.313
 X54.428 Y107.119
 X54.234 Y106.970
 X54.007 Y106.876
G00 Z9.525
(Pass: 1)
 X69.689 Y123.190
G01 Z-0.397 F127 
 X67.957 Y125.447 F762 
 X66.869 Y128.076
 X66.484 Y131.001
 Y140.793
 X66.869 Y143.717
 X67.957 Y146.346
 X69.689 Y148.603
 X71.947 Y150.335
 X74.575 Y151.424
 X77.396 Y151.795
 X80.217 Y151.424
 X82.846 Y150.335
 X85.103 Y148.603
 X86.835 Y146.346
 X87.924 Y143.717
 X88.309 Y140.793
 Y139.072
 Y132.722
 Y131.001
 X87.924 Y128.076
 X86.835 Y125.447
 X85.103 Y123.190
 X82.846 Y121.458
 X80.217 Y120.369
 X77.396 Y119.998
 X74.575 Y120.369
 X71.947 Y121.458
 X69.689 Y123.190
(Pass: 2)
 Z-0.794 F127 
 X67.957 Y125.447 F762 
 X66.869 Y128.076
 X66.484 Y131.001
 Y140.793
 X66.869 Y143.717
 X67.957 Y146.346
 X69.689 Y148.603
 X71.947 Y150.335
 X74.575 Y151.424
 X77.396 Y151.795
 X80.217 Y151.424
 X82.846 Y150.335
 X85.103 Y148.603
 X86.835 Y146.346
 X87.924 Y143.717
 X88.309 Y140.793
 Y139.072
 Y132.722
 Y131.001
 X87.924 Y128.076
 X86.835 Y125.447
 X85.103 Y123.190
 X82.846 Y121.458
 X80.217 Y120.369
 X77.396 Y119.998
 X74.575 Y120.369
 X71.947 Y121.458
 X69.689 Y123.190
(Pass: 3)
 Z-1.191 F127 
 X67.957 Y125.447 F762 
 X66.869 Y128.076
 X66.484 Y131.001
 Y140.793
 X66.869 Y143.717
 X67.957 Y146.346
 X69.689 Y148.603
 X71.947 Y150.335
 X74.575 Y151.424
 X77.396 Y151.795
 X80.217 Y151.424
 X82.846 Y150.335
 X85.103 Y148.603
 X86.835 Y146.346
 X87.924 Y143.717
 X88.309 Y140.793
 Y139.072
 Y132.722
 Y131.001
 X87.924 Y128.076
 X86.835 Y125.447
 X85.103 Y123.190
 X82.846 Y121.458
 X80.217 Y120.369
 X77.396 Y119.998
 X74.575 Y120.369
 X71.947 Y121.458
 X69.689 Y123.190
(Pass: 4)
 Z-1.587 F127 
 X67.957 Y125.447 F762 
 X66.869 Y128.076
 X66.484 Y131.001
 Y140.793
 X66.869 Y143.717
 X67.957 Y146.346
 X69.689 Y148.603
 X71.947 Y150.335
 X74.575 Y151.424
 X77.396 Y151.795
 X80.217 Y151.424
 X82.846 Y150.335
 X85.103 Y148.603
 X86.835 Y146.346
 X87.924 Y143.717
 X88.309 Y140.793
 Y139.072
 Y132.722
 Y131.001
 X87.924 Y128.076
 X86.835 Y125.447
 X85.103 Y123.190
 X82.846 Y121.458
 X80.217 Y120.369
 X77.396 Y119.998
 X74.575 Y120.369
 X71.947 Y121.458
 X69.689 Y123.190
(Pass: 5)
 Z-1.984 F127 
 X67.957 Y125.447 F762 
 X66.869 Y128.076
 X66.484 Y131.001
 Y140.793
 X66.869 Y143.717
 X67.957 Y146.346
 X69.689 Y148.603
 X71.947 Y150.335
 X74.575 Y151.424
 X77.396 Y151.795
 X80.217 Y151.424
 X82.846 Y150.335
 X85.103 Y148.603
 X86.835 Y146.346
 X87.924 Y143.717
 X88.309 Y140.793
 Y139.072
 Y132.722
 Y131.001
 X87.924 Y128.076
 X86.835 Y125.447
 X85.103 Y123.190
 X82.846 Y121.458
 X80.217 Y120.369
 X77.396 Y119.998
 X74.575 Y120.369
 X71.947 Y121.458
 X69.689 Y123.190
(Pass: 6)
 Z-2.381 F127 
 X67.957 Y125.447 F762 
 X66.869 Y128.076
 X66.484 Y131.001
 Y140.793
 X66.869 Y143.717
 X67.957 Y146.346
 X69.689 Y148.603
 X71.947 Y150.335
 X74.575 Y151.424
 X77.396 Y151.795
 X80.217 Y151.424
 X82.846 Y150.335
 X85.103 Y148.603
 X86.835 Y146.346
 X87.924 Y143.717
 X88.309 Y140.793
 Y139.072
 Y132.722
 Y131.001
 X87.924 Y128.076
 X86.835 Y125.447
 X85.103 Y123.190
 X82.846 Y121.458
 X80.217 Y120.369
 X77.396 Y119.998
 X74.575 Y120.369
 X71.947 Y121.458
 X69.689 Y123.190
(Pass: 7)
 Z-2.778 F127 
 X67.957 Y125.447 F762 
 X66.869 Y128.076
 X66.484 Y131.001
 Y140.793
 X66.869 Y143.717
 X67.957 Y146.346
 X69.689 Y148.603
 X71.947 Y150.335
 X74.575 Y151.424
 X77.396 Y151.795
 X80.217 Y151.424
 X82.846 Y150.335
 X85.103 Y148.603
 X86.835 Y146.346
 X87.924 Y143.717
 X88.309 Y140.793
 Y139.072
 Y132.722
 Y131.001
 X87.924 Y128.076
 X86.835 Y125.447
 X85.103 Y123.190
 X82.846 Y121.458
 X80.217 Y120.369
 X77.396 Y119.998
 X74.575 Y120.369
 X71.947 Y121.458
 X69.689 Y123.190
(Pass: 8)
 Z-3.175 F127 
 X67.957 Y125.447 F762 
 X66.869 Y128.076
 X66.484 Y131.001
 Y140.793
 X66.869 Y143.717
 X67.957 Y146.346
 X69.689 Y148.603
 X71.947 Y150.335
 X74.575 Y151.424
 X77.396 Y151.795
 X80.217 Y151.424
 X82.846 Y150.335
 X85.103 Y148.603
 X86.835 Y146.346
 X87.924 Y143.717
 X88.309 Y140.793
 Y139.072
 Y132.722
 Y131.001
 X87.924 Y128.076
 X86.835 Y125.447
 X85.103 Y123.190
 X82.846 Y121.458
 X80.217 Y120.369
 X77.396 Y119.998
 X74.575 Y120.369
 X71.947 Y121.458
 X69.689 Y123.190
(Pass: 9)
 Z-3.572 F127 
 X67.957 Y125.447 F762 
 X66.869 Y128.076
 X66.484 Y131.001
 Y140.793
 X66.869 Y143.717
 X67.957 Y146.346
 X69.689 Y148.603
 X71.947 Y150.335
 X74.575 Y151.424
 X77.396 Y151.795
 X80.217 Y151.424
 X82.846 Y150.335
 X85.103 Y148.603
 X86.835 Y146.346
 X87.924 Y143.717
 X88.309 Y140.793
 Y139.072
 Z-3.175
 Y132.722
 Z-3.572 F127 
 Y131.001 F762 
 X87.924 Y128.076
 X86.835 Y125.447
 X85.103 Y123.190
 X82.846 Y121.458
 X80.217 Y120.369
 X77.396 Y119.998
 X74.575 Y120.369
 X71.947 Y121.458
 X69.689 Y123.190
(Pass: 10)
 Z-3.969 F127 
 X67.957 Y125.447 F762 
 X66.869 Y128.076
 X66.484 Y131.001
 Y140.793
 X66.869 Y143.717
 X67.957 Y146.346
 X69.689 Y148.603
 X71.947 Y150.335
 X74.575 Y151.424
 X77.396 Y151.795
 X80.217 Y151.424
 X82.846 Y150.335
 X85.103 Y148.603
 X86.835 Y146.346
 X87.924 Y143.717
 X88.309 Y140.793
 Y139.072
 Z-3.175
 Y132.722
 Z-3.969 F127 
 Y131.001 F762 
 X87.924 Y128.076
 X86.835 Y125.447
 X85.103 Y123.190
 X82.846 Y121.458
 X80.217 Y120.369
 X77.396 Y119.998
 X74.575 Y120.369
 X71.947 Y121.458
 X69.689 Y123.190
(Pass: 11)
 Z-4.366 F127 
 X67.957 Y125.447 F762 
 X66.869 Y128.076
 X66.484 Y131.001
 Y140.793
 X66.869 Y143.717
 X67.957 Y146.346
 X69.689 Y148.603
 X71.947 Y150.335
 X74.575 Y151.424
 X77.396 Y151.795
 X80.217 Y151.424
 X82.846 Y150.335
 X85.103 Y148.603
 X86.835 Y146.346
 X87.924 Y143.717
 X88.309 Y140.793
 Y139.072
 Z-3.175
 Y132.722
 Z-4.366 F127 
 Y131.001 F762 
 X87.924 Y128.076
 X86.835 Y125.447
 X85.103 Y123.190
 X82.846 Y121.458
 X80.217 Y120.369
 X77.396 Y119.998
 X74.575 Y120.369
 X71.947 Y121.458
 X69.689 Y123.190
(Pass: 12)
 Z-4.762 F127 
 X67.957 Y125.447 F762 
 X66.869 Y128.076
 X66.484 Y131.001
 Y140.793
 X66.869 Y143.717
 X67.957 Y146.346
 X69.689 Y148.603
 X71.947 Y150.335
 X74.575 Y151.424
 X77.396 Y151.795
 X80.217 Y151.424
 X82.846 Y150.335
 X85.103 Y148.603
 X86.835 Y146.346
 X87.924 Y143.717
 X88.309 Y140.793
 Y139.072
 Z-3.175
 Y132.722
 Z-4.762 F127 
 Y131.001 F762 
 X87.924 Y128.076
 X86.835 Y125.447
 X85.103 Y123.190
 X82.846 Y121.458
 X80.217 Y120.369
 X77.396 Y119.998
 X74.575 Y120.369
 X71.947 Y121.458
 X69.689 Y123.190
(Pass: 13)
 Z-5.159 F127 
 X67.957 Y125.447 F762 
 X66.869 Y128.076
 X66.484 Y131.001
 Y140.793
 X66.869 Y143.717
 X67.957 Y146.346
 X69.689 Y148.603
 X71.947 Y150.335
 X74.575 Y151.424
 X77.396 Y151.795
 X80.217 Y151.424
 X82.846 Y150.335
 X85.103 Y148.603
 X86.835 Y146.346
 X87.924 Y143.717
 X88.309 Y140.793
 Y139.072
 Z-3.175
 Y132.722
 Z-5.159 F127 
 Y131.001 F762 
 X87.924 Y128.076
 X86.835 Y125.447
 X85.103 Y123.190
 X82.846 Y121.458
 X80.217 Y120.369
 X77.396 Y119.998
 X74.575 Y120.369
 X71.947 Y121.458
 X69.689 Y123.190
(Pass: 14)
 Z-5.556 F127 
 X67.957 Y125.447 F762 
 X66.869 Y128.076
 X66.484 Y131.001
 Y140.793
 X66.869 Y143.717
 X67.957 Y146.346
 X69.689 Y148.603
 X71.947 Y150.335
 X74.575 Y151.424
 X77.396 Y151.795
 X80.217 Y151.424
 X82.846 Y150.335
 X85.103 Y148.603
 X86.835 Y146.346
 X87.924 Y143.717
 X88.309 Y140.793
 Y139.072
 Z-3.175
 Y132.722
 Z-5.556 F127 
 Y131.001 F762 
 X87.924 Y128.076
 X86.835 Y125.447
 X85.103 Y123.190
 X82.846 Y121.458
 X80.217 Y120.369
 X77.396 Y119.998
 X74.575 Y120.369
 X71.947 Y121.458
 X69.689 Y123.190
(Pass: 15)
 Z-5.953 F127 
 X67.957 Y125.447 F762 
 X66.869 Y128.076
 X66.484 Y131.001
 Y140.793
 X66.869 Y143.717
 X67.957 Y146.346
 X69.689 Y148.603
 X71.947 Y150.335
 X74.575 Y151.424
 X77.396 Y151.795
 X80.217 Y151.424
 X82.846 Y150.335
 X85.103 Y148.603
 X86.835 Y146.346
 X87.924 Y143.717
 X88.309 Y140.793
 Y139.072
 Z-3.175
 Y132.722
 Z-5.953 F127 
 Y131.001 F762 
 X87.924 Y128.076
 X86.835 Y125.447
 X85.103 Y123.190
 X82.846 Y121.458
 X80.217 Y120.369
 X77.396 Y119.998
 X74.575 Y120.369
 X71.947 Y121.458
 X69.689 Y123.190
(Pass: 16)
 Z-6.350 F127 
 X67.957 Y125.447 F762 
 X66.869 Y128.076
 X66.484 Y131.001
 Y140.793
 X66.869 Y143.717
 X67.957 Y146.346
 X69.689 Y148.603
 X71.947 Y150.335
 X74.575 Y151.424
 X77.396 Y151.795
 X80.217 Y151.424
 X82.846 Y150.335
 X85.103 Y148.603
 X86.835 Y146.346
 X87.924 Y143.717
 X88.309 Y140.793
 Y139.072
 Z-3.175
 Y132.722
 Z-6.350 F127 
 Y131.001 F762 
 X87.924 Y128.076
 X86.835 Y125.447
 X85.103 Y123.190
 X82.846 Y121.458
 X80.217 Y120.369
 X77.396 Y119.998
 X74.575 Y120.369
 X71.947 Y121.458
 X69.689 Y123.190
(Pass: 17)
 Z-6.731 F127 
 X67.957 Y125.447 F762 
 X66.869 Y128.076
 X66.484 Y131.001
 Y140.793
 X66.869 Y143.717
 X67.957 Y146.346
 X69.689 Y148.603
 X71.947 Y150.335
 X74.575 Y151.424
 X77.396 Y151.795
 X80.217 Y151.424
 X82.846 Y150.335
 X85.103 Y148.603
 X86.835 Y146.346
 X87.924 Y143.717
 X88.309 Y140.793
 Y139.072
 Z-3.175
 Y132.722
 Z-6.731 F127 
 Y131.001 F762 
 X87.924 Y128.076
 X86.835 Y125.447
 X85.103 Y123.190
 X82.846 Y121.458
 X80.217 Y120.369
 X77.396 Y119.998
 X74.575 Y120.369
 X71.947 Y121.458
 X69.689 Y123.190
G00 Z9.525
(Pass: 1)
 X100.101 Y117.025
G01 Z-0.397 F127 
 X100.195 Y117.252 F762 
 X100.344 Y117.446
 X100.539 Y117.596
 X100.765 Y117.689
 X101.008 Y117.721
 X101.251 Y117.689
 X101.477 Y117.596
 X101.672 Y117.446
 X101.821 Y117.252
 X101.915 Y117.026
 X101.961 Y116.678
 Y107.887
 X101.915 Y107.540
 X101.821 Y107.313
 X101.672 Y107.119
 X101.477 Y106.970
 X101.251 Y106.876
 X101.008 Y106.844
 X100.765 Y106.876
 X100.539 Y106.969
 X100.344 Y107.119
 X100.195 Y107.313
 X100.101 Y107.540
 X100.056 Y107.887
 Y116.678
 X100.101 Y117.025
(Pass: 2)
 Z-0.794 F127 
 X100.195 Y117.252 F762 
 X100.344 Y117.446
 X100.539 Y117.596
 X100.765 Y117.689
 X101.008 Y117.721
 X101.251 Y117.689
 X101.477 Y117.596
 X101.672 Y117.446
 X101.821 Y117.252
 X101.915 Y117.026
 X101.961 Y116.678
 Y107.887
 X101.915 Y107.540
 X101.821 Y107.313
 X101.672 Y107.119
 X101.477 Y106.970
 X101.251 Y106.876
 X101.008 Y106.844
 X100.765 Y106.876
 X100.539 Y106.969
 X100.344 Y107.119
 X100.195 Y107.313
 X100.101 Y107.540
 X100.056 Y107.887
 Y116.678
 X100.101 Y117.025
(Pass: 3)
 Z-1.191 F127 
 X100.195 Y117.252 F762 
 X100.344 Y117.446
 X100.539 Y117.596
 X100.765 Y117.689
 X101.008 Y117.721
 X101.251 Y117.689
 X101.477 Y117.596
 X101.672 Y117.446
 X101.821 Y117.252
 X101.915 Y117.026
 X101.961 Y116.678
 Y107.887
 X101.915 Y107.540
 X101.821 Y107.313
 X101.672 Y107.119
 X101.477 Y106.970
 X101.251 Y106.876
 X101.008 Y106.844
 X100.765 Y106.876
 X100.539 Y106.969
 X100.344 Y107.119
 X100.195 Y107.313
 X100.101 Y107.540
 X100.056 Y107.887
 Y116.678
 X100.101 Y117.025
(Pass: 4)
 Z-1.587 F127 
 X100.195 Y117.252 F762 
 X100.344 Y117.446
 X100.539 Y117.596
 X100.765 Y117.689
 X101.008 Y117.721
 X101.251 Y117.689
 X101.477 Y117.596
 X101.672 Y117.446
 X101.821 Y117.252
 X101.915 Y117.026
 X101.961 Y116.678
 Y107.887
 X101.915 Y107.540
 X101.821 Y107.313
 X101.672 Y107.119
 X101.477 Y106.970
 X101.251 Y106.876
 X101.008 Y106.844
 X100.765 Y106.876
 X100.539 Y106.969
 X100.344 Y107.119
 X100.195 Y107.313
 X100.101 Y107.540
 X100.056 Y107.887
 Y116.678
 X100.101 Y117.025
(Pass: 5)
 Z-1.984 F127 
 X100.195 Y117.252 F762 
 X100.344 Y117.446
 X100.539 Y117.596
 X100.765 Y117.689
 X101.008 Y117.721
 X101.251 Y117.689
 X101.477 Y117.596
 X101.672 Y117.446
 X101.821 Y117.252
 X101.915 Y117.026
 X101.961 Y116.678
 Y107.887
 X101.915 Y107.540
 X101.821 Y107.313
 X101.672 Y107.119
 X101.477 Y106.970
 X101.251 Y106.876
 X101.008 Y106.844
 X100.765 Y106.876
 X100.539 Y106.969
 X100.344 Y107.119
 X100.195 Y107.313
 X100.101 Y107.540
 X100.056 Y107.887
 Y116.678
 X100.101 Y117.025
(Pass: 6)
 Z-2.381 F127 
 X100.195 Y117.252 F762 
 X100.344 Y117.446
 X100.539 Y117.596
 X100.765 Y117.689
 X101.008 Y117.721
 X101.251 Y117.689
 X101.477 Y117.596
 X101.672 Y117.446
 X101.821 Y117.252
 X101.915 Y117.026
 X101.961 Y116.678
 Y107.887
 X101.915 Y107.540
 X101.821 Y107.313
 X101.672 Y107.119
 X101.477 Y106.970
 X101.251 Y106.876
 X101.008 Y106.844
 X100.765 Y106.876
 X100.539 Y106.969
 X100.344 Y107.119
 X100.195 Y107.313
 X100.101 Y107.540
 X100.056 Y107.887
 Y116.678
 X100.101 Y117.025
(Pass: 7)
 Z-2.778 F127 
 X100.195 Y117.252 F762 
 X100.344 Y117.446
 X100.539 Y117.596
 X100.765 Y117.689
 X101.008 Y117.721
 X101.251 Y117.689
 X101.477 Y117.596
 X101.672 Y117.446
 X101.821 Y117.252
 X101.915 Y117.026
 X101.961 Y116.678
 Y107.887
 X101.915 Y107.540
 X101.821 Y107.313
 X101.672 Y107.119
 X101.477 Y106.970
 X101.251 Y106.876
 X101.008 Y106.844
 X100.765 Y106.876
 X100.539 Y106.969
 X100.344 Y107.119
 X100.195 Y107.313
 X100.101 Y107.540
 X100.056 Y107.887
 Y116.678
 X100.101 Y117.025
(Pass: 8)
 Z-3.175 F127 
 X100.195 Y117.252 F762 
 X100.344 Y117.446
 X100.539 Y117.596
 X100.765 Y117.689
 X101.008 Y117.721
 X101.251 Y117.689
 X101.477 Y117.596
 X101.672 Y117.446
 X101.821 Y117.252
 X101.915 Y117.026
 X101.961 Y116.678
 Y107.887
 X101.915 Y107.540
 X101.821 Y107.313
 X101.672 Y107.119
 X101.477 Y106.970
 X101.251 Y106.876
 X101.008 Y106.844
 X100.765 Y106.876
 X100.539 Y106.969
 X100.344 Y107.119
 X100.195 Y107.313
 X100.101 Y107.540
 X100.056 Y107.887
 Y116.678
 X100.101 Y117.025
(Pass: 9)
 Z-3.572 F127 
 X100.195 Y117.252 F762 
 X100.344 Y117.446
 X100.539 Y117.596
 X100.765 Y117.689
 X101.008 Y117.721
 X101.251 Y117.689
 X101.477 Y117.596
 X101.672 Y117.446
 X101.821 Y117.252
 X101.915 Y117.026
 X101.961 Y116.678
 Y107.887
 X101.915 Y107.540
 X101.821 Y107.313
 X101.672 Y107.119
 X101.477 Y106.970
 X101.251 Y106.876
 X101.008 Y106.844
 X100.765 Y106.876
 X100.539 Y106.969
 X100.344 Y107.119
 X100.195 Y107.313
 X100.101 Y107.540
 X100.056 Y107.887
 Y116.678
 X100.101 Y117.025
(Pass: 10)
 Z-3.969 F127 
 X100.195 Y117.252 F762 
 X100.344 Y117.446
 X100.539 Y117.596
 X100.765 Y117.689
 X101.008 Y117.721
 X101.251 Y117.689
 X101.477 Y117.596
 X101.672 Y117.446
 X101.821 Y117.252
 X101.915 Y117.026
 X101.961 Y116.678
 Y107.887
 X101.915 Y107.540
 X101.821 Y107.313
 X101.672 Y107.119
 X101.477 Y106.970
 X101.251 Y106.876
 X101.008 Y106.844
 X100.765 Y106.876
 X100.539 Y106.969
 X100.344 Y107.119
 X100.195 Y107.313
 X100.101 Y107.540
 X100.056 Y107.887
 Y116.678
 X100.101 Y117.025
(Pass: 11)
 Z-4.366 F127 
 X100.195 Y117.252 F762 
 X100.344 Y117.446
 X100.539 Y117.596
 X100.765 Y117.689
 X101.008 Y117.721
 X101.251 Y117.689
 X101.477 Y117.596
 X101.672 Y117.446
 X101.821 Y117.252
 X101.915 Y117.026
 X101.961 Y116.678
 Y107.887
 X101.915 Y107.540
 X101.821 Y107.313
 X101.672 Y107.119
 X101.477 Y106.970
 X101.251 Y106.876
 X101.008 Y106.844
 X100.765 Y106.876
 X100.539 Y106.969
 X100.344 Y107.119
 X100.195 Y107.313
 X100.101 Y107.540
 X100.056 Y107.887
 Y116.678
 X100.101 Y117.025
(Pass: 12)
 Z-4.762 F127 
 X100.195 Y117.252 F762 
 X100.344 Y117.446
 X100.539 Y117.596
 X100.765 Y117.689
 X101.008 Y117.721
 X101.251 Y117.689
 X101.477 Y117.596
 X101.672 Y117.446
 X101.821 Y117.252
 X101.915 Y117.026
 X101.961 Y116.678
 Y107.887
 X101.915 Y107.540
 X101.821 Y107.313
 X101.672 Y107.119
 X101.477 Y106.970
 X101.251 Y106.876
 X101.008 Y106.844
 X100.765 Y106.876
 X100.539 Y106.969
 X100.344 Y107.119
 X100.195 Y107.313
 X100.101 Y107.540
 X100.056 Y107.887
 Y116.678
 X100.101 Y117.025
(Pass: 13)
 Z-5.159 F127 
 X100.195 Y117.252 F762 
 X100.344 Y117.446
 X100.539 Y117.596
 X100.765 Y117.689
 X101.008 Y117.721
 X101.251 Y117.689
 X101.477 Y117.596
 X101.672 Y117.446
 X101.821 Y117.252
 X101.915 Y117.026
 X101.961 Y116.678
 Y107.887
 X101.915 Y107.540
 X101.821 Y107.313
 X101.672 Y107.119
 X101.477 Y106.970
 X101.251 Y106.876
 X101.008 Y106.844
 X100.765 Y106.876
 X100.539 Y106.969
 X100.344 Y107.119
 X100.195 Y107.313
 X100.101 Y107.540
 X100.056 Y107.887
 Y116.678
 X100.101 Y117.025
(Pass: 14)
 Z-5.556 F127 
 X100.195 Y117.252 F762 
 X100.344 Y117.446
 X100.539 Y117.596
 X100.765 Y117.689
 X101.008 Y117.721
 X101.251 Y117.689
 X101.477 Y117.596
 X101.672 Y117.446
 X101.821 Y117.252
 X101.915 Y117.026
 X101.961 Y116.678
 Y107.887
 X101.915 Y107.540
 X101.821 Y107.313
 X101.672 Y107.119
 X101.477 Y106.970
 X101.251 Y106.876
 X101.008 Y106.844
 X100.765 Y106.876
 X100.539 Y106.969
 X100.344 Y107.119
 X100.195 Y107.313
 X100.101 Y107.540
 X100.056 Y107.887
 Y116.678
 X100.101 Y117.025
(Pass: 15)
 Z-5.953 F127 
 X100.195 Y117.252 F762 
 X100.344 Y117.446
 X100.539 Y117.596
 X100.765 Y117.689
 X101.008 Y117.721
 X101.251 Y117.689
 X101.477 Y117.596
 X101.672 Y117.446
 X101.821 Y117.252
 X101.915 Y117.026
 X101.961 Y116.678
 Y107.887
 X101.915 Y107.540
 X101.821 Y107.313
 X101.672 Y107.119
 X101.477 Y106.970
 X101.251 Y106.876
 X101.008 Y106.844
 X100.765 Y106.876
 X100.539 Y106.969
 X100.344 Y107.119
 X100.195 Y107.313
 X100.101 Y107.540
 X100.056 Y107.887
 Y116.678
 X100.101 Y117.025
(Pass: 16)
 Z-6.350 F127 
 X100.195 Y117.252 F762 
 X100.344 Y117.446
 X100.539 Y117.596
 X100.765 Y117.689
 X101.008 Y117.721
 X101.251 Y117.689
 X101.477 Y117.596
 X101.672 Y117.446
 X101.821 Y117.252
 X101.915 Y117.026
 X101.961 Y116.678
 Y107.887
 X101.915 Y107.540
 X101.821 Y107.313
 X101.672 Y107.119
 X101.477 Y106.970
 X101.251 Y106.876
 X101.008 Y106.844
 X100.765 Y106.876
 X100.539 Y106.969
 X100.344 Y107.119
 X100.195 Y107.313
 X100.101 Y107.540
 X100.056 Y107.887
 Y116.678
 X100.101 Y117.025
(Pass: 17)
 Z-6.731 F127 
 X100.195 Y117.252 F762 
 X100.344 Y117.446
 X100.539 Y117.596
 X100.765 Y117.689
 X101.008 Y117.721
 X101.251 Y117.689
 X101.477 Y117.596
 X101.672 Y117.446
 X101.821 Y117.252
 X101.915 Y117.026
 X101.961 Y116.678
 Y107.887
 X101.915 Y107.540
 X101.821 Y107.313
 X101.672 Y107.119
 X101.477 Y106.970
 X101.251 Y106.876
 X101.008 Y106.844
 X100.765 Y106.876
 X100.539 Y106.969
 X100.344 Y107.119
 X100.195 Y107.313
 X100.101 Y107.540
 X100.056 Y107.887
 Y116.678
 X100.101 Y117.025
G00 Z9.525
(Pass: 1)
 X101.008 Y154.088
G01 Z-0.397 F127 
 X100.765 Y154.120 F762 
 X100.539 Y154.213
 X100.344 Y154.363
 X100.195 Y154.557
 X100.101 Y154.783
 X100.056 Y155.130
 Y163.922
 X100.101 Y164.269
 X100.195 Y164.496
 X100.344 Y164.690
 X100.539 Y164.839
 X100.765 Y164.933
 X101.008 Y164.965
 X101.251 Y164.933
 X101.477 Y164.839
 X101.672 Y164.690
 X101.821 Y164.496
 X101.915 Y164.269
 X101.961 Y163.922
 Y155.130
 X101.915 Y154.783
 X101.821 Y154.557
 X101.672 Y154.363
 X101.477 Y154.213
 X101.251 Y154.120
 X101.008 Y154.088
(Pass: 2)
 Z-0.794 F127 
 X100.765 Y154.120 F762 
 X100.539 Y154.213
 X100.344 Y154.363
 X100.195 Y154.557
 X100.101 Y154.783
 X100.056 Y155.130
 Y163.922
 X100.101 Y164.269
 X100.195 Y164.496
 X100.344 Y164.690
 X100.539 Y164.839
 X100.765 Y164.933
 X101.008 Y164.965
 X101.251 Y164.933
 X101.477 Y164.839
 X101.672 Y164.690
 X101.821 Y164.496
 X101.915 Y164.269
 X101.961 Y163.922
 Y155.130
 X101.915 Y154.783
 X101.821 Y154.557
 X101.672 Y154.363
 X101.477 Y154.213
 X101.251 Y154.120
 X101.008 Y154.088
(Pass: 3)
 Z-1.191 F127 
 X100.765 Y154.120 F762 
 X100.539 Y154.213
 X100.344 Y154.363
 X100.195 Y154.557
 X100.101 Y154.783
 X100.056 Y155.130
 Y163.922
 X100.101 Y164.269
 X100.195 Y164.496
 X100.344 Y164.690
 X100.539 Y164.839
 X100.765 Y164.933
 X101.008 Y164.965
 X101.251 Y164.933
 X101.477 Y164.839
 X101.672 Y164.690
 X101.821 Y164.496
 X101.915 Y164.269
 X101.961 Y163.922
 Y155.130
 X101.915 Y154.783
 X101.821 Y154.557
 X101.672 Y154.363
 X101.477 Y154.213
 X101.251 Y154.120
 X101.008 Y154.088
(Pass: 4)
 Z-1.587 F127 
 X100.765 Y154.120 F762 
 X100.539 Y154.213
 X100.344 Y154.363
 X100.195 Y154.557
 X100.101 Y154.783
 X100.056 Y155.130
 Y163.922
 X100.101 Y164.269
 X100.195 Y164.496
 X100.344 Y164.690
 X100.539 Y164.839
 X100.765 Y164.933
 X101.008 Y164.965
 X101.251 Y164.933
 X101.477 Y164.839
 X101.672 Y164.690
 X101.821 Y164.496
 X101.915 Y164.269
 X101.961 Y163.922
 Y155.130
 X101.915 Y154.783
 X101.821 Y154.557
 X101.672 Y154.363
 X101.477 Y154.213
 X101.251 Y154.120
 X101.008 Y154.088
(Pass: 5)
 Z-1.984 F127 
 X100.765 Y154.120 F762 
 X100.539 Y154.213
 X100.344 Y154.363
 X100.195 Y154.557
 X100.101 Y154.783
 X100.056 Y155.130
 Y163.922
 X100.101 Y164.269
 X100.195 Y164.496
 X100.344 Y164.690
 X100.539 Y164.839
 X100.765 Y164.933
 X101.008 Y164.965
 X101.251 Y164.933
 X101.477 Y164.839
 X101.672 Y164.690
 X101.821 Y164.496
 X101.915 Y164.269
 X101.961 Y163.922
 Y155.130
 X101.915 Y154.783
 X101.821 Y154.557
 X101.672 Y154.363
 X101.477 Y154.213
 X101.251 Y154.120
 X101.008 Y154.088
(Pass: 6)
 Z-2.381 F127 
 X100.765 Y154.120 F762 
 X100.539 Y154.213
 X100.344 Y154.363
 X100.195 Y154.557
 X100.101 Y154.783
 X100.056 Y155.130
 Y163.922
 X100.101 Y164.269
 X100.195 Y164.496
 X100.344 Y164.690
 X100.539 Y164.839
 X100.765 Y164.933
 X101.008 Y164.965
 X101.251 Y164.933
 X101.477 Y164.839
 X101.672 Y164.690
 X101.821 Y164.496
 X101.915 Y164.269
 X101.961 Y163.922
 Y155.130
 X101.915 Y154.783
 X101.821 Y154.557
 X101.672 Y154.363
 X101.477 Y154.213
 X101.251 Y154.120
 X101.008 Y154.088
(Pass: 7)
 Z-2.778 F127 
 X100.765 Y154.120 F762 
 X100.539 Y154.213
 X100.344 Y154.363
 X100.195 Y154.557
 X100.101 Y154.783
 X100.056 Y155.130
 Y163.922
 X100.101 Y164.269
 X100.195 Y164.496
 X100.344 Y164.690
 X100.539 Y164.839
 X100.765 Y164.933
 X101.008 Y164.965
 X101.251 Y164.933
 X101.477 Y164.839
 X101.672 Y164.690
 X101.821 Y164.496
 X101.915 Y164.269
 X101.961 Y163.922
 Y155.130
 X101.915 Y154.783
 X101.821 Y154.557
 X101.672 Y154.363
 X101.477 Y154.213
 X101.251 Y154.120
 X101.008 Y154.088
(Pass: 8)
 Z-3.175 F127 
 X100.765 Y154.120 F762 
 X100.539 Y154.213
 X100.344 Y154.363
 X100.195 Y154.557
 X100.101 Y154.783
 X100.056 Y155.130
 Y163.922
 X100.101 Y164.269
 X100.195 Y164.496
 X100.344 Y164.690
 X100.539 Y164.839
 X100.765 Y164.933
 X101.008 Y164.965
 X101.251 Y164.933
 X101.477 Y164.839
 X101.672 Y164.690
 X101.821 Y164.496
 X101.915 Y164.269
 X101.961 Y163.922
 Y155.130
 X101.915 Y154.783
 X101.821 Y154.557
 X101.672 Y154.363
 X101.477 Y154.213
 X101.251 Y154.120
 X101.008 Y154.088
(Pass: 9)
 Z-3.572 F127 
 X100.765 Y154.120 F762 
 X100.539 Y154.213
 X100.344 Y154.363
 X100.195 Y154.557
 X100.101 Y154.783
 X100.056 Y155.130
 Y163.922
 X100.101 Y164.269
 X100.195 Y164.496
 X100.344 Y164.690
 X100.539 Y164.839
 X100.765 Y164.933
 X101.008 Y164.965
 X101.251 Y164.933
 X101.477 Y164.839
 X101.672 Y164.690
 X101.821 Y164.496
 X101.915 Y164.269
 X101.961 Y163.922
 Y155.130
 X101.915 Y154.783
 X101.821 Y154.557
 X101.672 Y154.363
 X101.477 Y154.213
 X101.251 Y154.120
 X101.008 Y154.088
(Pass: 10)
 Z-3.969 F127 
 X100.765 Y154.120 F762 
 X100.539 Y154.213
 X100.344 Y154.363
 X100.195 Y154.557
 X100.101 Y154.783
 X100.056 Y155.130
 Y163.922
 X100.101 Y164.269
 X100.195 Y164.496
 X100.344 Y164.690
 X100.539 Y164.839
 X100.765 Y164.933
 X101.008 Y164.965
 X101.251 Y164.933
 X101.477 Y164.839
 X101.672 Y164.690
 X101.821 Y164.496
 X101.915 Y164.269
 X101.961 Y163.922
 Y155.130
 X101.915 Y154.783
 X101.821 Y154.557
 X101.672 Y154.363
 X101.477 Y154.213
 X101.251 Y154.120
 X101.008 Y154.088
(Pass: 11)
 Z-4.366 F127 
 X100.765 Y154.120 F762 
 X100.539 Y154.213
 X100.344 Y154.363
 X100.195 Y154.557
 X100.101 Y154.783
 X100.056 Y155.130
 Y163.922
 X100.101 Y164.269
 X100.195 Y164.496
 X100.344 Y164.690
 X100.539 Y164.839
 X100.765 Y164.933
 X101.008 Y164.965
 X101.251 Y164.933
 X101.477 Y164.839
 X101.672 Y164.690
 X101.821 Y164.496
 X101.915 Y164.269
 X101.961 Y163.922
 Y155.130
 X101.915 Y154.783
 X101.821 Y154.557
 X101.672 Y154.363
 X101.477 Y154.213
 X101.251 Y154.120
 X101.008 Y154.088
(Pass: 12)
 Z-4.762 F127 
 X100.765 Y154.120 F762 
 X100.539 Y154.213
 X100.344 Y154.363
 X100.195 Y154.557
 X100.101 Y154.783
 X100.056 Y155.130
 Y163.922
 X100.101 Y164.269
 X100.195 Y164.496
 X100.344 Y164.690
 X100.539 Y164.839
 X100.765 Y164.933
 X101.008 Y164.965
 X101.251 Y164.933
 X101.477 Y164.839
 X101.672 Y164.690
 X101.821 Y164.496
 X101.915 Y164.269
 X101.961 Y163.922
 Y155.130
 X101.915 Y154.783
 X101.821 Y154.557
 X101.672 Y154.363
 X101.477 Y154.213
 X101.251 Y154.120
 X101.008 Y154.088
(Pass: 13)
 Z-5.159 F127 
 X100.765 Y154.120 F762 
 X100.539 Y154.213
 X100.344 Y154.363
 X100.195 Y154.557
 X100.101 Y154.783
 X100.056 Y155.130
 Y163.922
 X100.101 Y164.269
 X100.195 Y164.496
 X100.344 Y164.690
 X100.539 Y164.839
 X100.765 Y164.933
 X101.008 Y164.965
 X101.251 Y164.933
 X101.477 Y164.839
 X101.672 Y164.690
 X101.821 Y164.496
 X101.915 Y164.269
 X101.961 Y163.922
 Y155.130
 X101.915 Y154.783
 X101.821 Y154.557
 X101.672 Y154.363
 X101.477 Y154.213
 X101.251 Y154.120
 X101.008 Y154.088
(Pass: 14)
 Z-5.556 F127 
 X100.765 Y154.120 F762 
 X100.539 Y154.213
 X100.344 Y154.363
 X100.195 Y154.557
 X100.101 Y154.783
 X100.056 Y155.130
 Y163.922
 X100.101 Y164.269
 X100.195 Y164.496
 X100.344 Y164.690
 X100.539 Y164.839
 X100.765 Y164.933
 X101.008 Y164.965
 X101.251 Y164.933
 X101.477 Y164.839
 X101.672 Y164.690
 X101.821 Y164.496
 X101.915 Y164.269
 X101.961 Y163.922
 Y155.130
 X101.915 Y154.783
 X101.821 Y154.557
 X101.672 Y154.363
 X101.477 Y154.213
 X101.251 Y154.120
 X101.008 Y154.088
(Pass: 15)
 Z-5.953 F127 
 X100.765 Y154.120 F762 
 X100.539 Y154.213
 X100.344 Y154.363
 X100.195 Y154.557
 X100.101 Y154.783
 X100.056 Y155.130
 Y163.922
 X100.101 Y164.269
 X100.195 Y164.496
 X100.344 Y164.690
 X100.539 Y164.839
 X100.765 Y164.933
 X101.008 Y164.965
 X101.251 Y164.933
 X101.477 Y164.839
 X101.672 Y164.690
 X101.821 Y164.496
 X101.915 Y164.269
 X101.961 Y163.922
 Y155.130
 X101.915 Y154.783
 X101.821 Y154.557
 X101.672 Y154.363
 X101.477 Y154.213
 X101.251 Y154.120
 X101.008 Y154.088
(Pass: 16)
 Z-6.350 F127 
 X100.765 Y154.120 F762 
 X100.539 Y154.213
 X100.344 Y154.363
 X100.195 Y154.557
 X100.101 Y154.783
 X100.056 Y155.130
 Y163.922
 X100.101 Y164.269
 X100.195 Y164.496
 X100.344 Y164.690
 X100.539 Y164.839
 X100.765 Y164.933
 X101.008 Y164.965
 X101.251 Y164.933
 X101.477 Y164.839
 X101.672 Y164.690
 X101.821 Y164.496
 X101.915 Y164.269
 X101.961 Y163.922
 Y155.130
 X101.915 Y154.783
 X101.821 Y154.557
 X101.672 Y154.363
 X101.477 Y154.213
 X101.251 Y154.120
 X101.008 Y154.088
(Pass: 17)
 Z-6.731 F127 
 X100.765 Y154.120 F762 
 X100.539 Y154.213
 X100.344 Y154.363
 X100.195 Y154.557
 X100.101 Y154.783
 X100.056 Y155.130
 Y163.922
 X100.101 Y164.269
 X100.195 Y164.496
 X100.344 Y164.690
 X100.539 Y164.839
 X100.765 Y164.933
 X101.008 Y164.965
 X101.251 Y164.933
 X101.477 Y164.839
 X101.672 Y164.690
 X101.821 Y164.496
 X101.915 Y164.269
 X101.961 Y163.922
 Y155.130
 X101.915 Y154.783
 X101.821 Y154.557
 X101.672 Y154.363
 X101.477 Y154.213
 X101.251 Y154.120
 X101.008 Y154.088
G00 Z9.525
(Pass: 1)
 X54.717 Y155.130
G01 Z-0.397 F127 
 X54.671 Y154.783 F762 
 X54.577 Y154.557
 X54.428 Y154.363
 X54.234 Y154.213
 X54.007 Y154.120
 X53.764 Y154.088
 X53.521 Y154.120
 X53.295 Y154.213
 X53.100 Y154.363
 X52.951 Y154.557
 X52.857 Y154.783
 X52.812 Y155.130
 Y163.922
 X52.857 Y164.269
 X52.951 Y164.496
 X53.100 Y164.690
 X53.295 Y164.839
 X53.521 Y164.933
 X53.764 Y164.965
 X54.007 Y164.933
 X54.234 Y164.839
 X54.428 Y164.690
 X54.577 Y164.496
 X54.671 Y164.269
 X54.717 Y163.922
 Y155.130
(Pass: 2)
 Z-0.794 F127 
 X54.671 Y154.783 F762 
 X54.577 Y154.557
 X54.428 Y154.363
 X54.234 Y154.213
 X54.007 Y154.120
 X53.764 Y154.088
 X53.521 Y154.120
 X53.295 Y154.213
 X53.100 Y154.363
 X52.951 Y154.557
 X52.857 Y154.783
 X52.812 Y155.130
 Y163.922
 X52.857 Y164.269
 X52.951 Y164.496
 X53.100 Y164.690
 X53.295 Y164.839
 X53.521 Y164.933
 X53.764 Y164.965
 X54.007 Y164.933
 X54.234 Y164.839
 X54.428 Y164.690
 X54.577 Y164.496
 X54.671 Y164.269
 X54.717 Y163.922
 Y155.130
(Pass: 3)
 Z-1.191 F127 
 X54.671 Y154.783 F762 
 X54.577 Y154.557
 X54.428 Y154.363
 X54.234 Y154.213
 X54.007 Y154.120
 X53.764 Y154.088
 X53.521 Y154.120
 X53.295 Y154.213
 X53.100 Y154.363
 X52.951 Y154.557
 X52.857 Y154.783
 X52.812 Y155.130
 Y163.922
 X52.857 Y164.269
 X52.951 Y164.496
 X53.100 Y164.690
 X53.295 Y164.839
 X53.521 Y164.933
 X53.764 Y164.965
 X54.007 Y164.933
 X54.234 Y164.839
 X54.428 Y164.690
 X54.577 Y164.496
 X54.671 Y164.269
 X54.717 Y163.922
 Y155.130
(Pass: 4)
 Z-1.587 F127 
 X54.671 Y154.783 F762 
 X54.577 Y154.557
 X54.428 Y154.363
 X54.234 Y154.213
 X54.007 Y154.120
 X53.764 Y154.088
 X53.521 Y154.120
 X53.295 Y154.213
 X53.100 Y154.363
 X52.951 Y154.557
 X52.857 Y154.783
 X52.812 Y155.130
 Y163.922
 X52.857 Y164.269
 X52.951 Y164.496
 X53.100 Y164.690
 X53.295 Y164.839
 X53.521 Y164.933
 X53.764 Y164.965
 X54.007 Y164.933
 X54.234 Y164.839
 X54.428 Y164.690
 X54.577 Y164.496
 X54.671 Y164.269
 X54.717 Y163.922
 Y155.130
(Pass: 5)
 Z-1.984 F127 
 X54.671 Y154.783 F762 
 X54.577 Y154.557
 X54.428 Y154.363
 X54.234 Y154.213
 X54.007 Y154.120
 X53.764 Y154.088
 X53.521 Y154.120
 X53.295 Y154.213
 X53.100 Y154.363
 X52.951 Y154.557
 X52.857 Y154.783
 X52.812 Y155.130
 Y163.922
 X52.857 Y164.269
 X52.951 Y164.496
 X53.100 Y164.690
 X53.295 Y164.839
 X53.521 Y164.933
 X53.764 Y164.965
 X54.007 Y164.933
 X54.234 Y164.839
 X54.428 Y164.690
 X54.577 Y164.496
 X54.671 Y164.269
 X54.717 Y163.922
 Y155.130
(Pass: 6)
 Z-2.381 F127 
 X54.671 Y154.783 F762 
 X54.577 Y154.557
 X54.428 Y154.363
 X54.234 Y154.213
 X54.007 Y154.120
 X53.764 Y154.088
 X53.521 Y154.120
 X53.295 Y154.213
 X53.100 Y154.363
 X52.951 Y154.557
 X52.857 Y154.783
 X52.812 Y155.130
 Y163.922
 X52.857 Y164.269
 X52.951 Y164.496
 X53.100 Y164.690
 X53.295 Y164.839
 X53.521 Y164.933
 X53.764 Y164.965
 X54.007 Y164.933
 X54.234 Y164.839
 X54.428 Y164.690
 X54.577 Y164.496
 X54.671 Y164.269
 X54.717 Y163.922
 Y155.130
(Pass: 7)
 Z-2.778 F127 
 X54.671 Y154.783 F762 
 X54.577 Y154.557
 X54.428 Y154.363
 X54.234 Y154.213
 X54.007 Y154.120
 X53.764 Y154.088
 X53.521 Y154.120
 X53.295 Y154.213
 X53.100 Y154.363
 X52.951 Y154.557
 X52.857 Y154.783
 X52.812 Y155.130
 Y163.922
 X52.857 Y164.269
 X52.951 Y164.496
 X53.100 Y164.690
 X53.295 Y164.839
 X53.521 Y164.933
 X53.764 Y164.965
 X54.007 Y164.933
 X54.234 Y164.839
 X54.428 Y164.690
 X54.577 Y164.496
 X54.671 Y164.269
 X54.717 Y163.922
 Y155.130
(Pass: 8)
 Z-3.175 F127 
 X54.671 Y154.783 F762 
 X54.577 Y154.557
 X54.428 Y154.363
 X54.234 Y154.213
 X54.007 Y154.120
 X53.764 Y154.088
 X53.521 Y154.120
 X53.295 Y154.213
 X53.100 Y154.363
 X52.951 Y154.557
 X52.857 Y154.783
 X52.812 Y155.130
 Y163.922
 X52.857 Y164.269
 X52.951 Y164.496
 X53.100 Y164.690
 X53.295 Y164.839
 X53.521 Y164.933
 X53.764 Y164.965
 X54.007 Y164.933
 X54.234 Y164.839
 X54.428 Y164.690
 X54.577 Y164.496
 X54.671 Y164.269
 X54.717 Y163.922
 Y155.130
(Pass: 9)
 Z-3.572 F127 
 X54.671 Y154.783 F762 
 X54.577 Y154.557
 X54.428 Y154.363
 X54.234 Y154.213
 X54.007 Y154.120
 X53.764 Y154.088
 X53.521 Y154.120
 X53.295 Y154.213
 X53.100 Y154.363
 X52.951 Y154.557
 X52.857 Y154.783
 X52.812 Y155.130
 Y163.922
 X52.857 Y164.269
 X52.951 Y164.496
 X53.100 Y164.690
 X53.295 Y164.839
 X53.521 Y164.933
 X53.764 Y164.965
 X54.007 Y164.933
 X54.234 Y164.839
 X54.428 Y164.690
 X54.577 Y164.496
 X54.671 Y164.269
 X54.717 Y163.922
 Y155.130
(Pass: 10)
 Z-3.969 F127 
 X54.671 Y154.783 F762 
 X54.577 Y154.557
 X54.428 Y154.363
 X54.234 Y154.213
 X54.007 Y154.120
 X53.764 Y154.088
 X53.521 Y154.120
 X53.295 Y154.213
 X53.100 Y154.363
 X52.951 Y154.557
 X52.857 Y154.783
 X52.812 Y155.130
 Y163.922
 X52.857 Y164.269
 X52.951 Y164.496
 X53.100 Y164.690
 X53.295 Y164.839
 X53.521 Y164.933
 X53.764 Y164.965
 X54.007 Y164.933
 X54.234 Y164.839
 X54.428 Y164.690
 X54.577 Y164.496
 X54.671 Y164.269
 X54.717 Y163.922
 Y155.130
(Pass: 11)
 Z-4.366 F127 
 X54.671 Y154.783 F762 
 X54.577 Y154.557
 X54.428 Y154.363
 X54.234 Y154.213
 X54.007 Y154.120
 X53.764 Y154.088
 X53.521 Y154.120
 X53.295 Y154.213
 X53.100 Y154.363
 X52.951 Y154.557
 X52.857 Y154.783
 X52.812 Y155.130
 Y163.922
 X52.857 Y164.269
 X52.951 Y164.496
 X53.100 Y164.690
 X53.295 Y164.839
 X53.521 Y164.933
 X53.764 Y164.965
 X54.007 Y164.933
 X54.234 Y164.839
 X54.428 Y164.690
 X54.577 Y164.496
 X54.671 Y164.269
 X54.717 Y163.922
 Y155.130
(Pass: 12)
 Z-4.762 F127 
 X54.671 Y154.783 F762 
 X54.577 Y154.557
 X54.428 Y154.363
 X54.234 Y154.213
 X54.007 Y154.120
 X53.764 Y154.088
 X53.521 Y154.120
 X53.295 Y154.213
 X53.100 Y154.363
 X52.951 Y154.557
 X52.857 Y154.783
 X52.812 Y155.130
 Y163.922
 X52.857 Y164.269
 X52.951 Y164.496
 X53.100 Y164.690
 X53.295 Y164.839
 X53.521 Y164.933
 X53.764 Y164.965
 X54.007 Y164.933
 X54.234 Y164.839
 X54.428 Y164.690
 X54.577 Y164.496
 X54.671 Y164.269
 X54.717 Y163.922
 Y155.130
(Pass: 13)
 Z-5.159 F127 
 X54.671 Y154.783 F762 
 X54.577 Y154.557
 X54.428 Y154.363
 X54.234 Y154.213
 X54.007 Y154.120
 X53.764 Y154.088
 X53.521 Y154.120
 X53.295 Y154.213
 X53.100 Y154.363
 X52.951 Y154.557
 X52.857 Y154.783
 X52.812 Y155.130
 Y163.922
 X52.857 Y164.269
 X52.951 Y164.496
 X53.100 Y164.690
 X53.295 Y164.839
 X53.521 Y164.933
 X53.764 Y164.965
 X54.007 Y164.933
 X54.234 Y164.839
 X54.428 Y164.690
 X54.577 Y164.496
 X54.671 Y164.269
 X54.717 Y163.922
 Y155.130
(Pass: 14)
 Z-5.556 F127 
 X54.671 Y154.783 F762 
 X54.577 Y154.557
 X54.428 Y154.363
 X54.234 Y154.213
 X54.007 Y154.120
 X53.764 Y154.088
 X53.521 Y154.120
 X53.295 Y154.213
 X53.100 Y154.363
 X52.951 Y154.557
 X52.857 Y154.783
 X52.812 Y155.130
 Y163.922
 X52.857 Y164.269
 X52.951 Y164.496
 X53.100 Y164.690
 X53.295 Y164.839
 X53.521 Y164.933
 X53.764 Y164.965
 X54.007 Y164.933
 X54.234 Y164.839
 X54.428 Y164.690
 X54.577 Y164.496
 X54.671 Y164.269
 X54.717 Y163.922
 Y155.130
(Pass: 15)
 Z-5.953 F127 
 X54.671 Y154.783 F762 
 X54.577 Y154.557
 X54.428 Y154.363
 X54.234 Y154.213
 X54.007 Y154.120
 X53.764 Y154.088
 X53.521 Y154.120
 X53.295 Y154.213
 X53.100 Y154.363
 X52.951 Y154.557
 X52.857 Y154.783
 X52.812 Y155.130
 Y163.922
 X52.857 Y164.269
 X52.951 Y164.496
 X53.100 Y164.690
 X53.295 Y164.839
 X53.521 Y164.933
 X53.764 Y164.965
 X54.007 Y164.933
 X54.234 Y164.839
 X54.428 Y164.690
 X54.577 Y164.496
 X54.671 Y164.269
 X54.717 Y163.922
 Y155.130
(Pass: 16)
 Z-6.350 F127 
 X54.671 Y154.783 F762 
 X54.577 Y154.557
 X54.428 Y154.363
 X54.234 Y154.213
 X54.007 Y154.120
 X53.764 Y154.088
 X53.521 Y154.120
 X53.295 Y154.213
 X53.100 Y154.363
 X52.951 Y154.557
 X52.857 Y154.783
 X52.812 Y155.130
 Y163.922
 X52.857 Y164.269
 X52.951 Y164.496
 X53.100 Y164.690
 X53.295 Y164.839
 X53.521 Y164.933
 X53.764 Y164.965
 X54.007 Y164.933
 X54.234 Y164.839
 X54.428 Y164.690
 X54.577 Y164.496
 X54.671 Y164.269
 X54.717 Y163.922
 Y155.130
(Pass: 17)
 Z-6.731 F127 
 X54.671 Y154.783 F762 
 X54.577 Y154.557
 X54.428 Y154.363
 X54.234 Y154.213
 X54.007 Y154.120
 X53.764 Y154.088
 X53.521 Y154.120
 X53.295 Y154.213
 X53.100 Y154.363
 X52.951 Y154.557
 X52.857 Y154.783
 X52.812 Y155.130
 Y163.922
 X52.857 Y164.269
 X52.951 Y164.496
 X53.100 Y164.690
 X53.295 Y164.839
 X53.521 Y164.933
 X53.764 Y164.965
 X54.007 Y164.933
 X54.234 Y164.839
 X54.428 Y164.690
 X54.577 Y164.496
 X54.671 Y164.269
 X54.717 Y163.922
 Y155.130
G00 Z9.525
(Pass: 1)
 X50.200 Y173.866
G01 Z-0.397 F127 
 X48.837 Y173.797 F762 
 X47.302 Y173.561
 X45.798 Y173.170
 X44.342 Y172.629
 X42.949 Y171.944
 X41.632 Y171.120
 X40.406 Y170.167
 X39.282 Y169.094
 X38.274 Y167.913
 X37.390 Y166.636
 X36.640 Y165.276
 X36.109 Y164.027
 X35.982 Y163.818
 X31.780 Y136.220
 X30.824 Y129.942
 X30.027 Y124.708
 X11.052 Y113.432
 X10.587 Y113.080
 X10.170 Y112.714
 X9.782 Y112.318
 X9.424 Y111.895
 X9.099 Y111.446
 X8.808 Y110.974
 X8.552 Y110.482
 X8.334 Y109.972
 X8.145 Y109.420
 X7.923 Y108.424
 X7.308 Y104.204
 X6.393 Y97.920
 X5.778 Y93.700
 Y93.379
 X5.844 Y92.517
 X5.951 Y91.678
 X6.100 Y90.846
 X6.291 Y90.023
 X6.524 Y89.210
 X6.798 Y88.410
 X7.111 Y87.625
 X7.465 Y86.857
 X7.866 Y86.091
 X8.729 Y84.708
 X17.759 Y71.749
 Y47.199
 X8.350 Y33.687
 X7.970 Y33.171
 X7.275 Y32.043
 X6.956 Y31.413
 X6.680 Y30.787
 X6.440 Y30.146
 X6.235 Y29.493
 X6.067 Y28.830
 X5.936 Y28.159
 X5.842 Y27.481
 X5.783 Y26.778
 Y8.888
 X5.808 Y8.293
 X5.934 Y7.657
 X6.142 Y7.044
 X6.429 Y6.462
 X6.789 Y5.924
 X7.216 Y5.436
 X7.703 Y5.009
 X8.242 Y4.649
 X8.823 Y4.363
 X9.437 Y4.154
 X10.072 Y4.028
 X10.667 Y3.989
 X39.719
 X46.069
 X74.201
 X80.551
 X110.108
 X116.458
 X144.085
 X144.680 Y4.028
 X145.315 Y4.154
 X145.929 Y4.363
 X146.510 Y4.649
 X147.049 Y5.009
 X147.536 Y5.436
 X147.963 Y5.924
 X148.323 Y6.462
 X148.610 Y7.044
 X148.818 Y7.657
 X148.945 Y8.293
 X148.984 Y8.887
 Y26.777
 X148.926 Y27.481
 X148.832 Y28.159
 X148.700 Y28.830
 X148.532 Y29.493
 X148.328 Y30.146
 X148.087 Y30.787
 X147.812 Y31.413
 X147.492 Y32.043
 X146.798 Y33.171
 X146.417 Y33.687
 X137.000 Y47.200
 Y71.750
 X146.023 Y84.708
 X146.886 Y86.091
 X147.287 Y86.857
 X147.640 Y87.625
 X147.954 Y88.410
 X148.228 Y89.210
 X148.461 Y90.023
 X148.652 Y90.846
 X148.801 Y91.678
 X148.908 Y92.517
 X148.983 Y93.495
 X148.353 Y97.818
 X147.437 Y104.101
 X146.807 Y108.424
 X146.586 Y109.420
 X146.396 Y109.972
 X146.178 Y110.482
 X145.923 Y110.974
 X145.632 Y111.446
 X145.306 Y111.895
 X144.948 Y112.318
 X144.560 Y112.714
 X144.144 Y113.080
 X143.678 Y113.432
 X124.704 Y124.708
 X123.837 Y130.405
 X122.882 Y136.683
 X118.766 Y163.736
 X118.112 Y165.276
 X117.362 Y166.636
 X116.479 Y167.913
 X115.470 Y169.094
 X114.347 Y170.167
 X113.120 Y171.120
 X111.803 Y171.944
 X110.410 Y172.629
 X108.954 Y173.170
 X107.451 Y173.561
 X105.915 Y173.797
 X104.552 Y173.866
 X102.500 Y180.565
 X101.865 Y181.515
 X101.197 Y182.277
 X100.435 Y182.946
 X99.592 Y183.509
 X98.683 Y183.957
 X97.723 Y184.283
 X96.728 Y184.481
 X95.769 Y184.544
 X83.876
 X80.551
 X74.201
 X70.876
 X58.983
 X58.024 Y184.481
 X57.029 Y184.283
 X56.069 Y183.957
 X55.160 Y183.509
 X54.317 Y182.946
 X53.555 Y182.277
 X52.887 Y181.515
 X52.252 Y180.565
 X50.200 Y173.866
(Pass: 2)
 Z-0.794 F127 
 X48.837 Y173.797 F762 
 X47.302 Y173.561
 X45.798 Y173.170
 X44.342 Y172.629
 X42.949 Y171.944
 X41.632 Y171.120
 X40.406 Y170.167
 X39.282 Y169.094
 X38.274 Y167.913
 X37.390 Y166.636
 X36.640 Y165.276
 X36.109 Y164.027
 X35.982 Y163.818
 X31.780 Y136.220
 X30.824 Y129.942
 X30.027 Y124.708
 X11.052 Y113.432
 X10.587 Y113.080
 X10.170 Y112.714
 X9.782 Y112.318
 X9.424 Y111.895
 X9.099 Y111.446
 X8.808 Y110.974
 X8.552 Y110.482
 X8.334 Y109.972
 X8.145 Y109.420
 X7.923 Y108.424
 X7.308 Y104.204
 X6.393 Y97.920
 X5.778 Y93.700
 Y93.379
 X5.844 Y92.517
 X5.951 Y91.678
 X6.100 Y90.846
 X6.291 Y90.023
 X6.524 Y89.210
 X6.798 Y88.410
 X7.111 Y87.625
 X7.465 Y86.857
 X7.866 Y86.091
 X8.729 Y84.708
 X17.759 Y71.749
 Y47.199
 X8.350 Y33.687
 X7.970 Y33.171
 X7.275 Y32.043
 X6.956 Y31.413
 X6.680 Y30.787
 X6.440 Y30.146
 X6.235 Y29.493
 X6.067 Y28.830
 X5.936 Y28.159
 X5.842 Y27.481
 X5.783 Y26.778
 Y8.888
 X5.808 Y8.293
 X5.934 Y7.657
 X6.142 Y7.044
 X6.429 Y6.462
 X6.789 Y5.924
 X7.216 Y5.436
 X7.703 Y5.009
 X8.242 Y4.649
 X8.823 Y4.363
 X9.437 Y4.154
 X10.072 Y4.028
 X10.667 Y3.989
 X39.719
 X46.069
 X74.201
 X80.551
 X110.108
 X116.458
 X144.085
 X144.680 Y4.028
 X145.315 Y4.154
 X145.929 Y4.363
 X146.510 Y4.649
 X147.049 Y5.009
 X147.536 Y5.436
 X147.963 Y5.924
 X148.323 Y6.462
 X148.610 Y7.044
 X148.818 Y7.657
 X148.945 Y8.293
 X148.984 Y8.887
 Y26.777
 X148.926 Y27.481
 X148.832 Y28.159
 X148.700 Y28.830
 X148.532 Y29.493
 X148.328 Y30.146
 X148.087 Y30.787
 X147.812 Y31.413
 X147.492 Y32.043
 X146.798 Y33.171
 X146.417 Y33.687
 X137.000 Y47.200
 Y71.750
 X146.023 Y84.708
 X146.886 Y86.091
 X147.287 Y86.857
 X147.640 Y87.625
 X147.954 Y88.410
 X148.228 Y89.210
 X148.461 Y90.023
 X148.652 Y90.846
 X148.801 Y91.678
 X148.908 Y92.517
 X148.983 Y93.495
 X148.353 Y97.818
 X147.437 Y104.101
 X146.807 Y108.424
 X146.586 Y109.420
 X146.396 Y109.972
 X146.178 Y110.482
 X145.923 Y110.974
 X145.632 Y111.446
 X145.306 Y111.895
 X144.948 Y112.318
 X144.560 Y112.714
 X144.144 Y113.080
 X143.678 Y113.432
 X124.704 Y124.708
 X123.837 Y130.405
 X122.882 Y136.683
 X118.766 Y163.736
 X118.112 Y165.276
 X117.362 Y166.636
 X116.479 Y167.913
 X115.470 Y169.094
 X114.347 Y170.167
 X113.120 Y171.120
 X111.803 Y171.944
 X110.410 Y172.629
 X108.954 Y173.170
 X107.451 Y173.561
 X105.915 Y173.797
 X104.552 Y173.866
 X102.500 Y180.565
 X101.865 Y181.515
 X101.197 Y182.277
 X100.435 Y182.946
 X99.592 Y183.509
 X98.683 Y183.957
 X97.723 Y184.283
 X96.728 Y184.481
 X95.769 Y184.544
 X83.876
 X80.551
 X74.201
 X70.876
 X58.983
 X58.024 Y184.481
 X57.029 Y184.283
 X56.069 Y183.957
 X55.160 Y183.509
 X54.317 Y182.946
 X53.555 Y182.277
 X52.887 Y181.515
 X52.252 Y180.565
 X50.200 Y173.866
(Pass: 3)
 Z-1.191 F127 
 X48.837 Y173.797 F762 
 X47.302 Y173.561
 X45.798 Y173.170
 X44.342 Y172.629
 X42.949 Y171.944
 X41.632 Y171.120
 X40.406 Y170.167
 X39.282 Y169.094
 X38.274 Y167.913
 X37.390 Y166.636
 X36.640 Y165.276
 X36.109 Y164.027
 X35.982 Y163.818
 X31.780 Y136.220
 X30.824 Y129.942
 X30.027 Y124.708
 X11.052 Y113.432
 X10.587 Y113.080
 X10.170 Y112.714
 X9.782 Y112.318
 X9.424 Y111.895
 X9.099 Y111.446
 X8.808 Y110.974
 X8.552 Y110.482
 X8.334 Y109.972
 X8.145 Y109.420
 X7.923 Y108.424
 X7.308 Y104.204
 X6.393 Y97.920
 X5.778 Y93.700
 Y93.379
 X5.844 Y92.517
 X5.951 Y91.678
 X6.100 Y90.846
 X6.291 Y90.023
 X6.524 Y89.210
 X6.798 Y88.410
 X7.111 Y87.625
 X7.465 Y86.857
 X7.866 Y86.091
 X8.729 Y84.708
 X17.759 Y71.749
 Y47.199
 X8.350 Y33.687
 X7.970 Y33.171
 X7.275 Y32.043
 X6.956 Y31.413
 X6.680 Y30.787
 X6.440 Y30.146
 X6.235 Y29.493
 X6.067 Y28.830
 X5.936 Y28.159
 X5.842 Y27.481
 X5.783 Y26.778
 Y8.888
 X5.808 Y8.293
 X5.934 Y7.657
 X6.142 Y7.044
 X6.429 Y6.462
 X6.789 Y5.924
 X7.216 Y5.436
 X7.703 Y5.009
 X8.242 Y4.649
 X8.823 Y4.363
 X9.437 Y4.154
 X10.072 Y4.028
 X10.667 Y3.989
 X39.719
 X46.069
 X74.201
 X80.551
 X110.108
 X116.458
 X144.085
 X144.680 Y4.028
 X145.315 Y4.154
 X145.929 Y4.363
 X146.510 Y4.649
 X147.049 Y5.009
 X147.536 Y5.436
 X147.963 Y5.924
 X148.323 Y6.462
 X148.610 Y7.044
 X148.818 Y7.657
 X148.945 Y8.293
 X148.984 Y8.887
 Y26.777
 X148.926 Y27.481
 X148.832 Y28.159
 X148.700 Y28.830
 X148.532 Y29.493
 X148.328 Y30.146
 X148.087 Y30.787
 X147.812 Y31.413
 X147.492 Y32.043
 X146.798 Y33.171
 X146.417 Y33.687
 X137.000 Y47.200
 Y71.750
 X146.023 Y84.708
 X146.886 Y86.091
 X147.287 Y86.857
 X147.640 Y87.625
 X147.954 Y88.410
 X148.228 Y89.210
 X148.461 Y90.023
 X148.652 Y90.846
 X148.801 Y91.678
 X148.908 Y92.517
 X148.983 Y93.495
 X148.353 Y97.818
 X147.437 Y104.101
 X146.807 Y108.424
 X146.586 Y109.420
 X146.396 Y109.972
 X146.178 Y110.482
 X145.923 Y110.974
 X145.632 Y111.446
 X145.306 Y111.895
 X144.948 Y112.318
 X144.560 Y112.714
 X144.144 Y113.080
 X143.678 Y113.432
 X124.704 Y124.708
 X123.837 Y130.405
 X122.882 Y136.683
 X118.766 Y163.736
 X118.112 Y165.276
 X117.362 Y166.636
 X116.479 Y167.913
 X115.470 Y169.094
 X114.347 Y170.167
 X113.120 Y171.120
 X111.803 Y171.944
 X110.410 Y172.629
 X108.954 Y173.170
 X107.451 Y173.561
 X105.915 Y173.797
 X104.552 Y173.866
 X102.500 Y180.565
 X101.865 Y181.515
 X101.197 Y182.277
 X100.435 Y182.946
 X99.592 Y183.509
 X98.683 Y183.957
 X97.723 Y184.283
 X96.728 Y184.481
 X95.769 Y184.544
 X83.876
 X80.551
 X74.201
 X70.876
 X58.983
 X58.024 Y184.481
 X57.029 Y184.283
 X56.069 Y183.957
 X55.160 Y183.509
 X54.317 Y182.946
 X53.555 Y182.277
 X52.887 Y181.515
 X52.252 Y180.565
 X50.200 Y173.866
(Pass: 4)
 Z-1.587 F127 
 X48.837 Y173.797 F762 
 X47.302 Y173.561
 X45.798 Y173.170
 X44.342 Y172.629
 X42.949 Y171.944
 X41.632 Y171.120
 X40.406 Y170.167
 X39.282 Y169.094
 X38.274 Y167.913
 X37.390 Y166.636
 X36.640 Y165.276
 X36.109 Y164.027
 X35.982 Y163.818
 X31.780 Y136.220
 X30.824 Y129.942
 X30.027 Y124.708
 X11.052 Y113.432
 X10.587 Y113.080
 X10.170 Y112.714
 X9.782 Y112.318
 X9.424 Y111.895
 X9.099 Y111.446
 X8.808 Y110.974
 X8.552 Y110.482
 X8.334 Y109.972
 X8.145 Y109.420
 X7.923 Y108.424
 X7.308 Y104.204
 X6.393 Y97.920
 X5.778 Y93.700
 Y93.379
 X5.844 Y92.517
 X5.951 Y91.678
 X6.100 Y90.846
 X6.291 Y90.023
 X6.524 Y89.210
 X6.798 Y88.410
 X7.111 Y87.625
 X7.465 Y86.857
 X7.866 Y86.091
 X8.729 Y84.708
 X17.759 Y71.749
 Y47.199
 X8.350 Y33.687
 X7.970 Y33.171
 X7.275 Y32.043
 X6.956 Y31.413
 X6.680 Y30.787
 X6.440 Y30.146
 X6.235 Y29.493
 X6.067 Y28.830
 X5.936 Y28.159
 X5.842 Y27.481
 X5.783 Y26.778
 Y8.888
 X5.808 Y8.293
 X5.934 Y7.657
 X6.142 Y7.044
 X6.429 Y6.462
 X6.789 Y5.924
 X7.216 Y5.436
 X7.703 Y5.009
 X8.242 Y4.649
 X8.823 Y4.363
 X9.437 Y4.154
 X10.072 Y4.028
 X10.667 Y3.989
 X39.719
 X46.069
 X74.201
 X80.551
 X110.108
 X116.458
 X144.085
 X144.680 Y4.028
 X145.315 Y4.154
 X145.929 Y4.363
 X146.510 Y4.649
