%
(Generated by SketchUcam {1.2a})
(File: clamps.skp)
(Bit diameter: 1/8")
(Feed rate: 60"/min)
(Material Thickness: 1/4")
(Material length: 12" X width: 18")
(Overhead Gantry: true)
(Retract feed rate NOT limited to plunge feed rate)
(Multipass enabled, Depth = 1/32")
(Optimization is ON)
(Z ZERO IS TABLETOP)
(www.PhlatBoyz.com)
G90 G20 G49 
M3 S15000
G0   Z0.3750    
(Pass: 1)
   X1.4378       Y0.7665    
G1   Z0.2188     F60  
   Y0.9516    
   X3.8525    
   Y0.7665    
   X1.4378    
(Pass: 2)
   Z0.1875    
   Y0.9516    
   X3.8525    
   Y0.7665    
   X1.4378    
(Pass: 3)
   Z0.1562    
   Y0.9516    
   X3.8525    
   Y0.7665    
   X1.4378    
(Pass: 4)
   Z0.1250    
   Y0.9516    
   X3.8525    
   Y0.7665    
   X1.4378    
(Pass: 5)
   Z0.0938    
   Y0.9516    
   X3.8525    
   Y0.7665    
   X1.4378    
(Pass: 6)
   Z0.0625    
   Y0.9516    
   X3.8525    
   Y0.7665    
   X1.4378    
(Pass: 7)
   Z0.0312    
   Y0.9516    
   X3.8525    
   Y0.7665    
   X1.4378    
(Pass: 8)
   Z0.0000    
   Y0.9516    
   X3.8525    
   Y0.7665    
   X1.4378    
G0   Z0.3750    
(Pass: 1)
   X4.7499       Y0.8431    
G1   Z0.2188     F60  
   X4.7526       Y0.8631    
   X4.7603       Y0.8818    
   X4.7726       Y0.8978    
   X4.7887       Y0.9101    
   X4.8073       Y0.9179    
   X4.8274       Y0.9205    
   X4.8474       Y0.9179    
   X4.8661       Y0.9101    
   X4.8822       Y0.8978    
   X4.8945       Y0.8818    
   X4.9022       Y0.8631    
   X4.9048       Y0.8431    
   X4.9022       Y0.8230    
   X4.8945       Y0.8043    
   X4.8822       Y0.7883    
   X4.8661       Y0.7760    
   X4.8474       Y0.7682    
   X4.8274       Y0.7656    
   X4.8073       Y0.7682    
   X4.7887       Y0.7760    
   X4.7726       Y0.7883    
   X4.7603       Y0.8043    
   X4.7526       Y0.8230    
   X4.7499       Y0.8431    
(Pass: 2)
   Z0.1875    
   X4.7526       Y0.8631    
   X4.7603       Y0.8818    
   X4.7726       Y0.8978    
   X4.7887       Y0.9101    
   X4.8073       Y0.9179    
   X4.8274       Y0.9205    
   X4.8474       Y0.9179    
   X4.8661       Y0.9101    
   X4.8822       Y0.8978    
   X4.8945       Y0.8818    
   X4.9022       Y0.8631    
   X4.9048       Y0.8431    
   X4.9022       Y0.8230    
   X4.8945       Y0.8043    
   X4.8822       Y0.7883    
   X4.8661       Y0.7760    
   X4.8474       Y0.7682    
   X4.8274       Y0.7656    
   X4.8073       Y0.7682    
   X4.7887       Y0.7760    
   X4.7726       Y0.7883    
   X4.7603       Y0.8043    
   X4.7526       Y0.8230    
   X4.7499       Y0.8431    
(Pass: 3)
   Z0.1562    
   X4.7526       Y0.8631    
   X4.7603       Y0.8818    
   X4.7726       Y0.8978    
   X4.7887       Y0.9101    
   X4.8073       Y0.9179    
   X4.8274       Y0.9205    
   X4.8474       Y0.9179    
   X4.8661       Y0.9101    
   X4.8822       Y0.8978    
   X4.8945       Y0.8818    
   X4.9022       Y0.8631    
   X4.9048       Y0.8431    
   X4.9022       Y0.8230    
   X4.8945       Y0.8043    
   X4.8822       Y0.7883    
   X4.8661       Y0.7760    
   X4.8474       Y0.7682    
   X4.8274       Y0.7656    
   X4.8073       Y0.7682    
   X4.7887       Y0.7760    
   X4.7726       Y0.7883    
   X4.7603       Y0.8043    
   X4.7526       Y0.8230    
   X4.7499       Y0.8431    
(Pass: 4)
   Z0.1250    
   X4.7526       Y0.8631    
   X4.7603       Y0.8818    
   X4.7726       Y0.8978    
   X4.7887       Y0.9101    
   X4.8073       Y0.9179    
   X4.8274       Y0.9205    
   X4.8474       Y0.9179    
   X4.8661       Y0.9101    
   X4.8822       Y0.8978    
   X4.8945       Y0.8818    
   X4.9022       Y0.8631    
   X4.9048       Y0.8431    
   X4.9022       Y0.8230    
   X4.8945       Y0.8043    
   X4.8822       Y0.7883    
   X4.8661       Y0.7760    
   X4.8474       Y0.7682    
   X4.8274       Y0.7656    
   X4.8073       Y0.7682    
   X4.7887       Y0.7760    
   X4.7726       Y0.7883    
   X4.7603       Y0.8043    
   X4.7526       Y0.8230    
   X4.7499       Y0.8431    
(Pass: 5)
   Z0.0938    
   X4.7526       Y0.8631    
   X4.7603       Y0.8818    
   X4.7726       Y0.8978    
   X4.7887       Y0.9101    
   X4.8073       Y0.9179    
   X4.8274       Y0.9205    
   X4.8474       Y0.9179    
   X4.8661       Y0.9101    
   X4.8822       Y0.8978    
   X4.8945       Y0.8818    
   X4.9022       Y0.8631    
   X4.9048       Y0.8431    
   X4.9022       Y0.8230    
   X4.8945       Y0.8043    
   X4.8822       Y0.7883    
   X4.8661       Y0.7760    
   X4.8474       Y0.7682    
   X4.8274       Y0.7656    
   X4.8073       Y0.7682    
   X4.7887       Y0.7760    
   X4.7726       Y0.7883    
   X4.7603       Y0.8043    
   X4.7526       Y0.8230    
   X4.7499       Y0.8431    
(Pass: 6)
   Z0.0625    
   X4.7526       Y0.8631    
   X4.7603       Y0.8818    
   X4.7726       Y0.8978    
   X4.7887       Y0.9101    
   X4.8073       Y0.9179    
   X4.8274       Y0.9205    
   X4.8474       Y0.9179    
   X4.8661       Y0.9101    
   X4.8822       Y0.8978    
   X4.8945       Y0.8818    
   X4.9022       Y0.8631    
   X4.9048       Y0.8431    
   X4.9022       Y0.8230    
   X4.8945       Y0.8043    
   X4.8822       Y0.7883    
   X4.8661       Y0.7760    
   X4.8474       Y0.7682    
   X4.8274       Y0.7656    
   X4.8073       Y0.7682    
   X4.7887       Y0.7760    
   X4.7726       Y0.7883    
   X4.7603       Y0.8043    
   X4.7526       Y0.8230    
   X4.7499       Y0.8431    
(Pass: 7)
   Z0.0312    
   X4.7526       Y0.8631    
   X4.7603       Y0.8818    
   X4.7726       Y0.8978    
   X4.7887       Y0.9101    
   X4.8073       Y0.9179    
   X4.8274       Y0.9205    
   X4.8474       Y0.9179    
   X4.8661       Y0.9101    
   X4.8822       Y0.8978    
   X4.8945       Y0.8818    
   X4.9022       Y0.8631    
   X4.9048       Y0.8431    
   X4.9022       Y0.8230    
   X4.8945       Y0.8043    
   X4.8822       Y0.7883    
   X4.8661       Y0.7760    
   X4.8474       Y0.7682    
   X4.8274       Y0.7656    
   X4.8073       Y0.7682    
   X4.7887       Y0.7760    
   X4.7726       Y0.7883    
   X4.7603       Y0.8043    
   X4.7526       Y0.8230    
   X4.7499       Y0.8431    
(Pass: 8)
   Z0.0000    
   X4.7526       Y0.8631    
   X4.7603       Y0.8818    
   X4.7726       Y0.8978    
   X4.7887       Y0.9101    
   X4.8073       Y0.9179    
   X4.8274       Y0.9205    
   X4.8474       Y0.9179    
   X4.8661       Y0.9101    
   X4.8822       Y0.8978    
   X4.8945       Y0.8818    
   X4.9022       Y0.8631    
   X4.9048       Y0.8431    
   X4.9022       Y0.8230    
   X4.8945       Y0.8043    
   X4.8822       Y0.7883    
   X4.8661       Y0.7760    
   X4.8474       Y0.7682    
   X4.8274       Y0.7656    
   X4.8073       Y0.7682    
   X4.7887       Y0.7760    
   X4.7726       Y0.7883    
   X4.7603       Y0.8043    
   X4.7526       Y0.8230    
   X4.7499       Y0.8431    
G0   Z0.3750    
(Pass: 1)
   X5.4822       Y0.1849    
G1   Z0.2188     F60  
   Y1.5158    
   X2.7787    
   X2.5287    
   X0.2963    
   Y0.1849    
   X2.5406    
   X2.7906    
   X5.4822    
(Pass: 2)
   Z0.1875    
   Y1.5158    
   X2.7787    
   X2.5287    
   X0.2963    
   Y0.1849    
   X2.5406    
   X2.7906    
   X5.4822    
(Pass: 3)
   Z0.1562    
   Y1.5158    
   X2.7787    
   X2.5287    
   X0.2963    
   Y0.1849    
   X2.5406    
   X2.7906    
   X5.4822    
(Pass: 4)
   Z0.1250    
   Y1.5158    
   X2.7787    
   X2.5287    
   X0.2963    
   Y0.1849    
   X2.5406    
   X2.7906    
   X5.4822    
(Pass: 5)
   Z0.0938    
   Y1.5158    
   X2.7787    
   Z0.1250    
   X2.5287    
   Z0.0938    
   X0.2963    
   Y0.1849    
   X2.5406    
   Z0.1250    
   X2.7906    
   Z0.0938    
   X5.4822    
(Pass: 6)
   Z0.0625    
   Y1.5158    
   X2.7787    
   Z0.1250    
   X2.5287    
   Z0.0625    
   X0.2963    
   Y0.1849    
   X2.5406    
   Z0.1250    
   X2.7906    
   Z0.0625    
   X5.4822    
(Pass: 7)
   Z0.0312    
   Y1.5158    
   X2.7787    
   Z0.1250    
   X2.5287    
   Z0.0312    
   X0.2963    
   Y0.1849    
   X2.5406    
   Z0.1250    
   X2.7906    
   Z0.0312    
   X5.4822    
(Pass: 8)
   Z0.0000    
   Y1.5158    
   X2.7787    
   Z0.1250    
   X2.5287    
   Z0.0000    
   X0.2963    
   Y0.1849    
   X2.5406    
   Z0.1250    
   X2.7906    
   Z0.0000    
   X5.4822    
G0   Z0.3750    
(Pass: 1)
   X3.8525       Y2.2798    
G1   Z0.2188     F60  
   X1.4378    
   Y2.4649    
   X3.8525    
   Y2.2798    
(Pass: 2)
   Z0.1875    
   X1.4378    
   Y2.4649    
   X3.8525    
   Y2.2798    
(Pass: 3)
   Z0.1562    
   X1.4378    
   Y2.4649    
   X3.8525    
   Y2.2798    
(Pass: 4)
   Z0.1250    
   X1.4378    
   Y2.4649    
   X3.8525    
   Y2.2798    
(Pass: 5)
   Z0.0938    
   X1.4378    
   Y2.4649    
   X3.8525    
   Y2.2798    
(Pass: 6)
   Z0.0625    
   X1.4378    
   Y2.4649    
   X3.8525    
   Y2.2798    
(Pass: 7)
   Z0.0312    
   X1.4378    
   Y2.4649    
   X3.8525    
   Y2.2798    
(Pass: 8)
   Z0.0000    
   X1.4378    
   Y2.4649    
   X3.8525    
   Y2.2798    
G0   Z0.3750    
(Pass: 1)
   X4.7499       Y2.3564    
G1   Z0.2188     F60  
   X4.7526       Y2.3764    
   X4.7603       Y2.3951    
   X4.7726       Y2.4111    
   X4.7887       Y2.4234    
   X4.8073       Y2.4312    
   X4.8274       Y2.4338    
   X4.8474       Y2.4312    
   X4.8661       Y2.4234    
   X4.8822       Y2.4111    
   X4.8945       Y2.3951    
   X4.9022       Y2.3764    
   X4.9048       Y2.3564    
   X4.9022       Y2.3363    
   X4.8945       Y2.3176    
   X4.8822       Y2.3016    
   X4.8661       Y2.2893    
   X4.8474       Y2.2816    
   X4.8274       Y2.2789    
   X4.8073       Y2.2816    
   X4.7887       Y2.2893    
   X4.7726       Y2.3016    
   X4.7603       Y2.3176    
   X4.7526       Y2.3363    
   X4.7499       Y2.3564    
(Pass: 2)
   Z0.1875    
   X4.7526       Y2.3764    
   X4.7603       Y2.3951    
   X4.7726       Y2.4111    
   X4.7887       Y2.4234    
   X4.8073       Y2.4312    
   X4.8274       Y2.4338    
   X4.8474       Y2.4312    
   X4.8661       Y2.4234    
   X4.8822       Y2.4111    
   X4.8945       Y2.3951    
   X4.9022       Y2.3764    
   X4.9048       Y2.3564    
   X4.9022       Y2.3363    
   X4.8945       Y2.3176    
   X4.8822       Y2.3016    
   X4.8661       Y2.2893    
   X4.8474       Y2.2816    
   X4.8274       Y2.2789    
   X4.8073       Y2.2816    
   X4.7887       Y2.2893    
   X4.7726       Y2.3016    
   X4.7603       Y2.3176    
   X4.7526       Y2.3363    
   X4.7499       Y2.3564    
(Pass: 3)
   Z0.1562    
   X4.7526       Y2.3764    
   X4.7603       Y2.3951    
   X4.7726       Y2.4111    
   X4.7887       Y2.4234    
   X4.8073       Y2.4312    
   X4.8274       Y2.4338    
   X4.8474       Y2.4312    
   X4.8661       Y2.4234    
   X4.8822       Y2.4111    
   X4.8945       Y2.3951    
   X4.9022       Y2.3764    
   X4.9048       Y2.3564    
   X4.9022       Y2.3363    
   X4.8945       Y2.3176    
   X4.8822       Y2.3016    
   X4.8661       Y2.2893    
   X4.8474       Y2.2816    
   X4.8274       Y2.2789    
   X4.8073       Y2.2816    
   X4.7887       Y2.2893    
   X4.7726       Y2.3016    
   X4.7603       Y2.3176    
   X4.7526       Y2.3363    
   X4.7499       Y2.3564    
(Pass: 4)
   Z0.1250    
   X4.7526       Y2.3764    
   X4.7603       Y2.3951    
   X4.7726       Y2.4111    
   X4.7887       Y2.4234    
   X4.8073       Y2.4312    
   X4.8274       Y2.4338    
   X4.8474       Y2.4312    
   X4.8661       Y2.4234    
   X4.8822       Y2.4111    
   X4.8945       Y2.3951    
   X4.9022       Y2.3764    
   X4.9048       Y2.3564    
   X4.9022       Y2.3363    
   X4.8945       Y2.3176    
   X4.8822       Y2.3016    
   X4.8661       Y2.2893    
   X4.8474       Y2.2816    
   X4.8274       Y2.2789    
   X4.8073       Y2.2816    
   X4.7887       Y2.2893    
   X4.7726       Y2.3016    
   X4.7603       Y2.3176    
   X4.7526       Y2.3363    
   X4.7499       Y2.3564    
(Pass: 5)
   Z0.0938    
   X4.7526       Y2.3764    
   X4.7603       Y2.3951    
   X4.7726       Y2.4111    
   X4.7887       Y2.4234    
   X4.8073       Y2.4312    
   X4.8274       Y2.4338    
   X4.8474       Y2.4312    
   X4.8661       Y2.4234    
   X4.8822       Y2.4111    
   X4.8945       Y2.3951    
   X4.9022       Y2.3764    
   X4.9048       Y2.3564    
   X4.9022       Y2.3363    
   X4.8945       Y2.3176    
   X4.8822       Y2.3016    
   X4.8661       Y2.2893    
   X4.8474       Y2.2816    
   X4.8274       Y2.2789    
   X4.8073       Y2.2816    
   X4.7887       Y2.2893    
   X4.7726       Y2.3016    
   X4.7603       Y2.3176    
   X4.7526       Y2.3363    
   X4.7499       Y2.3564    
(Pass: 6)
   Z0.0625    
   X4.7526       Y2.3764    
   X4.7603       Y2.3951    
   X4.7726       Y2.4111    
   X4.7887       Y2.4234    
   X4.8073       Y2.4312    
   X4.8274       Y2.4338    
   X4.8474       Y2.4312    
   X4.8661       Y2.4234    
   X4.8822       Y2.4111    
   X4.8945       Y2.3951    
   X4.9022       Y2.3764    
   X4.9048       Y2.3564    
   X4.9022       Y2.3363    
   X4.8945       Y2.3176    
   X4.8822       Y2.3016    
   X4.8661       Y2.2893    
   X4.8474       Y2.2816    
   X4.8274       Y2.2789    
   X4.8073       Y2.2816    
   X4.7887       Y2.2893    
   X4.7726       Y2.3016    
   X4.7603       Y2.3176    
   X4.7526       Y2.3363    
   X4.7499       Y2.3564    
(Pass: 7)
   Z0.0312    
   X4.7526       Y2.3764    
   X4.7603       Y2.3951    
   X4.7726       Y2.4111    
   X4.7887       Y2.4234    
   X4.8073       Y2.4312    
   X4.8274       Y2.4338    
   X4.8474       Y2.4312    
   X4.8661       Y2.4234    
   X4.8822       Y2.4111    
   X4.8945       Y2.3951    
   X4.9022       Y2.3764    
   X4.9048       Y2.3564    
   X4.9022       Y2.3363    
   X4.8945       Y2.3176    
   X4.8822       Y2.3016    
   X4.8661       Y2.2893    
   X4.8474       Y2.2816    
   X4.8274       Y2.2789    
   X4.8073       Y2.2816    
   X4.7887       Y2.2893    
   X4.7726       Y2.3016    
   X4.7603       Y2.3176    
   X4.7526       Y2.3363    
   X4.7499       Y2.3564    
(Pass: 8)
   Z0.0000    
   X4.7526       Y2.3764    
   X4.7603       Y2.3951    
   X4.7726       Y2.4111    
   X4.7887       Y2.4234    
   X4.8073       Y2.4312    
   X4.8274       Y2.4338    
   X4.8474       Y2.4312    
   X4.8661       Y2.4234    
   X4.8822       Y2.4111    
   X4.8945       Y2.3951    
   X4.9022       Y2.3764    
   X4.9048       Y2.3564    
   X4.9022       Y2.3363    
   X4.8945       Y2.3176    
   X4.8822       Y2.3016    
   X4.8661       Y2.2893    
   X4.8474       Y2.2816    
   X4.8274       Y2.2789    
   X4.8073       Y2.2816    
   X4.7887       Y2.2893    
   X4.7726       Y2.3016    
   X4.7603       Y2.3176    
   X4.7526       Y2.3363    
   X4.7499       Y2.3564    
G0   Z0.3750    
(Pass: 1)
   X5.4822       Y1.6982    
G1   Z0.2188     F60  
   Y3.0291    
   X2.7787    
   X2.5287    
   X0.2963    
   Y1.6982    
   X2.5406    
   X2.7906    
   X5.4822    
(Pass: 2)
   Z0.1875    
   Y3.0291    
   X2.7787    
   X2.5287    
   X0.2963    
   Y1.6982    
   X2.5406    
   X2.7906    
   X5.4822    
(Pass: 3)
   Z0.1562    
   Y3.0291    
   X2.7787    
   X2.5287    
   X0.2963    
   Y1.6982    
   X2.5406    
   X2.7906    
   X5.4822    
(Pass: 4)
   Z0.1250    
   Y3.0291    
   X2.7787    
   X2.5287    
   X0.2963    
   Y1.6982    
   X2.5406    
   X2.7906    
   X5.4822    
(Pass: 5)
   Z0.0938    
   Y3.0291    
   X2.7787    
   Z0.1250    
   X2.5287    
   Z0.0938    
   X0.2963    
   Y1.6982    
   X2.5406    
   Z0.1250    
   X2.7906    
   Z0.0938    
   X5.4822    
(Pass: 6)
   Z0.0625    
   Y3.0291    
   X2.7787    
   Z0.1250    
   X2.5287    
   Z0.0625    
   X0.2963    
   Y1.6982    
   X2.5406    
   Z0.1250    
   X2.7906    
   Z0.0625    
   X5.4822    
(Pass: 7)
   Z0.0312    
   Y3.0291    
   X2.7787    
   Z0.1250    
   X2.5287    
   Z0.0312    
   X0.2963    
   Y1.6982    
   X2.5406    
   Z0.1250    
   X2.7906    
   Z0.0312    
   X5.4822    
(Pass: 8)
   Z0.0000    
   Y3.0291    
   X2.7787    
   Z0.1250    
   X2.5287    
   Z0.0000    
   X0.2963    
   Y1.6982    
   X2.5406    
   Z0.1250    
   X2.7906    
   Z0.0000    
   X5.4822    
G0   Z0.3750    
(Pass: 1)
   X3.8525       Y3.8314    
G1   Z0.2188     F60  
   X1.4378    
   Y4.0165    
   X3.8525    
   Y3.8314    
(Pass: 2)
   Z0.1875    
   X1.4378    
   Y4.0165    
   X3.8525    
   Y3.8314    
(Pass: 3)
   Z0.1562    
   X1.4378    
   Y4.0165    
   X3.8525    
   Y3.8314    
(Pass: 4)
   Z0.1250    
   X1.4378    
   Y4.0165    
   X3.8525    
   Y3.8314    
(Pass: 5)
   Z0.0938    
   X1.4378    
   Y4.0165    
   X3.8525    
   Y3.8314    
(Pass: 6)
   Z0.0625    
   X1.4378    
   Y4.0165    
   X3.8525    
   Y3.8314    
(Pass: 7)
   Z0.0312    
   X1.4378    
   Y4.0165    
   X3.8525    
   Y3.8314    
(Pass: 8)
   Z0.0000    
   X1.4378    
   Y4.0165    
   X3.8525    
   Y3.8314    
G0   Z0.3750    
(Pass: 1)
   X4.7499       Y3.9080    
G1   Z0.2188     F60  
   X4.7526       Y3.9280    
   X4.7603       Y3.9467    
   X4.7726       Y3.9628    
   X4.7887       Y3.9751    
   X4.8073       Y3.9828    
   X4.8274       Y3.9854    
   X4.8474       Y3.9828    
   X4.8661       Y3.9751    
   X4.8822       Y3.9628    
   X4.8945       Y3.9467    
   X4.9022       Y3.9280    
   X4.9048       Y3.9080    
   X4.9022       Y3.8879    
   X4.8945       Y3.8693    
   X4.8822       Y3.8532    
   X4.8661       Y3.8409    
   X4.8474       Y3.8332    
   X4.8274       Y3.8305    
   X4.8073       Y3.8332    
   X4.7887       Y3.8409    
   X4.7726       Y3.8532    
   X4.7603       Y3.8693    
   X4.7526       Y3.8879    
   X4.7499       Y3.9080    
(Pass: 2)
   Z0.1875    
   X4.7526       Y3.9280    
   X4.7603       Y3.9467    
   X4.7726       Y3.9628    
   X4.7887       Y3.9751    
   X4.8073       Y3.9828    
   X4.8274       Y3.9854    
   X4.8474       Y3.9828    
   X4.8661       Y3.9751    
   X4.8822       Y3.9628    
   X4.8945       Y3.9467    
   X4.9022       Y3.9280    
   X4.9048       Y3.9080    
   X4.9022       Y3.8879    
   X4.8945       Y3.8693    
   X4.8822       Y3.8532    
   X4.8661       Y3.8409    
   X4.8474       Y3.8332    
   X4.8274       Y3.8305    
   X4.8073       Y3.8332    
   X4.7887       Y3.8409    
   X4.7726       Y3.8532    
   X4.7603       Y3.8693    
   X4.7526       Y3.8879    
   X4.7499       Y3.9080    
(Pass: 3)
   Z0.1562    
   X4.7526       Y3.9280    
   X4.7603       Y3.9467    
   X4.7726       Y3.9628    
   X4.7887       Y3.9751    
   X4.8073       Y3.9828    
   X4.8274       Y3.9854    
   X4.8474       Y3.9828    
   X4.8661       Y3.9751    
   X4.8822       Y3.9628    
   X4.8945       Y3.9467    
   X4.9022       Y3.9280    
   X4.9048       Y3.9080    
   X4.9022       Y3.8879    
   X4.8945       Y3.8693    
   X4.8822       Y3.8532    
   X4.8661       Y3.8409    
   X4.8474       Y3.8332    
   X4.8274       Y3.8305    
   X4.8073       Y3.8332    
   X4.7887       Y3.8409    
   X4.7726       Y3.8532    
   X4.7603       Y3.8693    
   X4.7526       Y3.8879    
   X4.7499       Y3.9080    
(Pass: 4)
   Z0.1250    
   X4.7526       Y3.9280    
   X4.7603       Y3.9467    
   X4.7726       Y3.9628    
   X4.7887       Y3.9751    
   X4.8073       Y3.9828    
   X4.8274       Y3.9854    
   X4.8474       Y3.9828    
   X4.8661       Y3.9751    
   X4.8822       Y3.9628    
   X4.8945       Y3.9467    
   X4.9022       Y3.9280    
   X4.9048       Y3.9080    
   X4.9022       Y3.8879    
   X4.8945       Y3.8693    
   X4.8822       Y3.8532    
   X4.8661       Y3.8409    
   X4.8474       Y3.8332    
   X4.8274       Y3.8305    
   X4.8073       Y3.8332    
   X4.7887       Y3.8409    
   X4.7726       Y3.8532    
   X4.7603       Y3.8693    
   X4.7526       Y3.8879    
   X4.7499       Y3.9080    
(Pass: 5)
   Z0.0938    
   X4.7526       Y3.9280    
   X4.7603       Y3.9467    
   X4.7726       Y3.9628    
   X4.7887       Y3.9751    
   X4.8073       Y3.9828    
   X4.8274       Y3.9854    
   X4.8474       Y3.9828    
   X4.8661       Y3.9751    
   X4.8822       Y3.9628    
   X4.8945       Y3.9467    
   X4.9022       Y3.9280    
   X4.9048       Y3.9080    
   X4.9022       Y3.8879    
   X4.8945       Y3.8693    
   X4.8822       Y3.8532    
   X4.8661       Y3.8409    
   X4.8474       Y3.8332    
   X4.8274       Y3.8305    
   X4.8073       Y3.8332    
   X4.7887       Y3.8409    
   X4.7726       Y3.8532    
   X4.7603       Y3.8693    
   X4.7526       Y3.8879    
   X4.7499       Y3.9080    
(Pass: 6)
   Z0.0625    
   X4.7526       Y3.9280    
   X4.7603       Y3.9467    
   X4.7726       Y3.9628    
   X4.7887       Y3.9751    
   X4.8073       Y3.9828    
   X4.8274       Y3.9854    
   X4.8474       Y3.9828    
   X4.8661       Y3.9751    
   X4.8822       Y3.9628    
   X4.8945       Y3.9467    
   X4.9022       Y3.9280    
   X4.9048       Y3.9080    
   X4.9022       Y3.8879    
   X4.8945       Y3.8693    
   X4.8822       Y3.8532    
   X4.8661       Y3.8409    
   X4.8474       Y3.8332    
   X4.8274       Y3.8305    
   X4.8073       Y3.8332    
   X4.7887       Y3.8409    
   X4.7726       Y3.8532    
   X4.7603       Y3.8693    
   X4.7526       Y3.8879    
   X4.7499       Y3.9080    
(Pass: 7)
   Z0.0312    
   X4.7526       Y3.9280    
   X4.7603       Y3.9467    
   X4.7726       Y3.9628    
   X4.7887       Y3.9751    
   X4.8073       Y3.9828    
   X4.8274       Y3.9854    
   X4.8474       Y3.9828    
   X4.8661       Y3.9751    
   X4.8822       Y3.9628    
   X4.8945       Y3.9467    
   X4.9022       Y3.9280    
   X4.9048       Y3.9080    
   X4.9022       Y3.8879    
   X4.8945       Y3.8693    
   X4.8822       Y3.8532    
   X4.8661       Y3.8409    
   X4.8474       Y3.8332    
   X4.8274       Y3.8305    
   X4.8073       Y3.8332    
   X4.7887       Y3.8409    
   X4.7726       Y3.8532    
   X4.7603       Y3.8693    
   X4.7526       Y3.8879    
   X4.7499       Y3.9080    
(Pass: 8)
   Z0.0000    
   X4.7526       Y3.9280    
   X4.7603       Y3.9467    
   X4.7726       Y3.9628    
   X4.7887       Y3.9751    
   X4.8073       Y3.9828    
   X4.8274       Y3.9854    
   X4.8474       Y3.9828    
   X4.8661       Y3.9751    
   X4.8822       Y3.9628    
   X4.8945       Y3.9467    
   X4.9022       Y3.9280    
   X4.9048       Y3.9080    
   X4.9022       Y3.8879    
   X4.8945       Y3.8693    
   X4.8822       Y3.8532    
   X4.8661       Y3.8409    
   X4.8474       Y3.8332    
   X4.8274       Y3.8305    
   X4.8073       Y3.8332    
   X4.7887       Y3.8409    
   X4.7726       Y3.8532    
   X4.7603       Y3.8693    
   X4.7526       Y3.8879    
   X4.7499       Y3.9080    
G0   Z0.3750    
(Pass: 1)
   X5.4822       Y3.2499    
G1   Z0.2188     F60  
   Y4.5808    
   X2.7787    
   X2.5287    
   X0.2963    
   Y3.2499    
   X2.5406    
   X2.7906    
   X5.4822    
(Pass: 2)
   Z0.1875    
   Y4.5808    
   X2.7787    
   X2.5287    
   X0.2963    
   Y3.2499    
   X2.5406    
   X2.7906    
   X5.4822    
(Pass: 3)
   Z0.1562    
   Y4.5808    
   X2.7787    
   X2.5287    
   X0.2963    
   Y3.2499    
   X2.5406    
   X2.7906    
   X5.4822    
(Pass: 4)
   Z0.1250    
   Y4.5808    
   X2.7787    
   X2.5287    
   X0.2963    
   Y3.2499    
   X2.5406    
   X2.7906    
   X5.4822    
(Pass: 5)
   Z0.0938    
   Y4.5808    
   X2.7787    
   Z0.1250    
   X2.5287    
   Z0.0938    
   X0.2963    
   Y3.2499    
   X2.5406    
   Z0.1250    
   X2.7906    
   Z0.0938    
   X5.4822    
(Pass: 6)
   Z0.0625    
   Y4.5808    
   X2.7787    
   Z0.1250    
   X2.5287    
   Z0.0625    
   X0.2963    
   Y3.2499    
   X2.5406    
   Z0.1250    
   X2.7906    
   Z0.0625    
   X5.4822    
(Pass: 7)
   Z0.0312    
   Y4.5808    
   X2.7787    
   Z0.1250    
   X2.5287    
   Z0.0312    
   X0.2963    
   Y3.2499    
   X2.5406    
   Z0.1250    
   X2.7906    
   Z0.0312    
   X5.4822    
(Pass: 8)
   Z0.0000    
   Y4.5808    
   X2.7787    
   Z0.1250    
   X2.5287    
   Z0.0000    
   X0.2963    
   Y3.2499    
   X2.5406    
   Z0.1250    
   X2.7906    
   Z0.0000    
   X5.4822    
G0   Z0.3750    
(Pass: 1)
   X3.8525       Y5.4788    
G1   Z0.2188     F60  
   X1.4378    
   Y5.6639    
   X3.8525    
   Y5.4788    
(Pass: 2)
   Z0.1875    
   X1.4378    
   Y5.6639    
   X3.8525    
   Y5.4788    
(Pass: 3)
   Z0.1562    
   X1.4378    
   Y5.6639    
   X3.8525    
   Y5.4788    
(Pass: 4)
   Z0.1250    
   X1.4378    
   Y5.6639    
   X3.8525    
   Y5.4788    
(Pass: 5)
   Z0.0938    
   X1.4378    
   Y5.6639    
   X3.8525    
   Y5.4788    
(Pass: 6)
   Z0.0625    
   X1.4378    
   Y5.6639    
   X3.8525    
   Y5.4788    
(Pass: 7)
   Z0.0312    
   X1.4378    
   Y5.6639    
   X3.8525    
   Y5.4788    
(Pass: 8)
   Z0.0000    
   X1.4378    
   Y5.6639    
   X3.8525    
   Y5.4788    
G0   Z0.3750    
(Pass: 1)
   X4.7499       Y5.5554    
G1   Z0.2188     F60  
   X4.7526       Y5.5754    
   X4.7603       Y5.5941    
   X4.7726       Y5.6102    
   X4.7887       Y5.6225    
   X4.8073       Y5.6302    
   X4.8274       Y5.6328    
   X4.8474       Y5.6302    
   X4.8661       Y5.6225    
   X4.8822       Y5.6102    
   X4.8945       Y5.5941    
   X4.9022       Y5.5754    
   X4.9048       Y5.5554    
   X4.9022       Y5.5353    
   X4.8945       Y5.5167    
   X4.8822       Y5.5006    
   X4.8661       Y5.4883    
   X4.8474       Y5.4806    
   X4.8274       Y5.4779    
   X4.8073       Y5.4806    
   X4.7887       Y5.4883    
   X4.7726       Y5.5006    
   X4.7603       Y5.5167    
   X4.7526       Y5.5353    
   X4.7499       Y5.5554    
(Pass: 2)
   Z0.1875    
   X4.7526       Y5.5754    
   X4.7603       Y5.5941    
   X4.7726       Y5.6102    
   X4.7887       Y5.6225    
   X4.8073       Y5.6302    
   X4.8274       Y5.6328    
   X4.8474       Y5.6302    
   X4.8661       Y5.6225    
   X4.8822       Y5.6102    
   X4.8945       Y5.5941    
   X4.9022       Y5.5754    
   X4.9048       Y5.5554    
   X4.9022       Y5.5353    
   X4.8945       Y5.5167    
   X4.8822       Y5.5006    
   X4.8661       Y5.4883    
   X4.8474       Y5.4806    
   X4.8274       Y5.4779    
   X4.8073       Y5.4806    
   X4.7887       Y5.4883    
   X4.7726       Y5.5006    
   X4.7603       Y5.5167    
   X4.7526       Y5.5353    
   X4.7499       Y5.5554    
(Pass: 3)
   Z0.1562    
   X4.7526       Y5.5754    
   X4.7603       Y5.5941    
   X4.7726       Y5.6102    
   X4.7887       Y5.6225    
   X4.8073       Y5.6302    
   X4.8274       Y5.6328    
   X4.8474       Y5.6302    
   X4.8661       Y5.6225    
   X4.8822       Y5.6102    
   X4.8945       Y5.5941    
   X4.9022       Y5.5754    
   X4.9048       Y5.5554    
   X4.9022       Y5.5353    
   X4.8945       Y5.5167    
   X4.8822       Y5.5006    
   X4.8661       Y5.4883    
   X4.8474       Y5.4806    
   X4.8274       Y5.4779    
   X4.8073       Y5.4806    
   X4.7887       Y5.4883    
   X4.7726       Y5.5006    
   X4.7603       Y5.5167    
   X4.7526       Y5.5353    
   X4.7499       Y5.5554    
(Pass: 4)
   Z0.1250    
   X4.7526       Y5.5754    
   X4.7603       Y5.5941    
   X4.7726       Y5.6102    
   X4.7887       Y5.6225    
   X4.8073       Y5.6302    
   X4.8274       Y5.6328    
   X4.8474       Y5.6302    
   X4.8661       Y5.6225    
   X4.8822       Y5.6102    
   X4.8945       Y5.5941    
   X4.9022       Y5.5754    
   X4.9048       Y5.5554    
   X4.9022       Y5.5353    
   X4.8945       Y5.5167    
   X4.8822       Y5.5006    
   X4.8661       Y5.4883    
   X4.8474       Y5.4806    
   X4.8274       Y5.4779    
   X4.8073       Y5.4806    
   X4.7887       Y5.4883    
   X4.7726       Y5.5006    
   X4.7603       Y5.5167    
   X4.7526       Y5.5353    
   X4.7499       Y5.5554    
(Pass: 5)
   Z0.0938    
   X4.7526       Y5.5754    
   X4.7603       Y5.5941    
   X4.7726       Y5.6102    
   X4.7887       Y5.6225    
   X4.8073       Y5.6302    
   X4.8274       Y5.6328    
   X4.8474       Y5.6302    
   X4.8661       Y5.6225    
   X4.8822       Y5.6102    
   X4.8945       Y5.5941    
   X4.9022       Y5.5754    
   X4.9048       Y5.5554    
   X4.9022       Y5.5353    
   X4.8945       Y5.5167    
   X4.8822       Y5.5006    
   X4.8661       Y5.4883    
   X4.8474       Y5.4806    
   X4.8274       Y5.4779    
   X4.8073       Y5.4806    
   X4.7887       Y5.4883    
   X4.7726       Y5.5006    
   X4.7603       Y5.5167    
   X4.7526       Y5.5353    
   X4.7499       Y5.5554    
(Pass: 6)
   Z0.0625    
   X4.7526       Y5.5754    
   X4.7603       Y5.5941    
   X4.7726       Y5.6102    
   X4.7887       Y5.6225    
   X4.8073       Y5.6302    
   X4.8274       Y5.6328    
   X4.8474       Y5.6302    
   X4.8661       Y5.6225    
   X4.8822       Y5.6102    
   X4.8945       Y5.5941    
   X4.9022       Y5.5754    
   X4.9048       Y5.5554    
   X4.9022       Y5.5353    
   X4.8945       Y5.5167    
   X4.8822       Y5.5006    
   X4.8661       Y5.4883    
   X4.8474       Y5.4806    
   X4.8274       Y5.4779    
   X4.8073       Y5.4806    
   X4.7887       Y5.4883    
   X4.7726       Y5.5006    
   X4.7603       Y5.5167    
   X4.7526       Y5.5353    
   X4.7499       Y5.5554    
(Pass: 7)
   Z0.0312    
   X4.7526       Y5.5754    
   X4.7603       Y5.5941    
   X4.7726       Y5.6102    
   X4.7887       Y5.6225    
   X4.8073       Y5.6302    
   X4.8274       Y5.6328    
   X4.8474       Y5.6302    
   X4.8661       Y5.6225    
   X4.8822       Y5.6102    
   X4.8945       Y5.5941    
   X4.9022       Y5.5754    
   X4.9048       Y5.5554    
   X4.9022       Y5.5353    
   X4.8945       Y5.5167    
   X4.8822       Y5.5006    
   X4.8661       Y5.4883    
   X4.8474       Y5.4806    
   X4.8274       Y5.4779    
   X4.8073       Y5.4806    
   X4.7887       Y5.4883    
   X4.7726       Y5.5006    
   X4.7603       Y5.5167    
   X4.7526       Y5.5353    
   X4.7499       Y5.5554    
(Pass: 8)
   Z0.0000    
   X4.7526       Y5.5754    
   X4.7603       Y5.5941    
   X4.7726       Y5.6102    
   X4.7887       Y5.6225    
   X4.8073       Y5.6302    
   X4.8274       Y5.6328    
   X4.8474       Y5.6302    
   X4.8661       Y5.6225    
   X4.8822       Y5.6102    
   X4.8945       Y5.5941    
   X4.9022       Y5.5754    
   X4.9048       Y5.5554    
   X4.9022       Y5.5353    
   X4.8945       Y5.5167    
   X4.8822       Y5.5006    
   X4.8661       Y5.4883    
   X4.8474       Y5.4806    
   X4.8274       Y5.4779    
   X4.8073       Y5.4806    
   X4.7887       Y5.4883    
   X4.7726       Y5.5006    
   X4.7603       Y5.5167    
   X4.7526       Y5.5353    
   X4.7499       Y5.5554    
G0   Z0.3750    
(Pass: 1)
   X5.4822       Y4.8973    
G1   Z0.2188     F60  
   Y6.2282    
   X2.7787    
   X2.5287    
   X0.2963    
   Y4.8973    
   X2.5406    
   X2.7906    
   X5.4822    
(Pass: 2)
   Z0.1875    
   Y6.2282    
   X2.7787    
   X2.5287    
   X0.2963    
   Y4.8973    
   X2.5406    
   X2.7906    
   X5.4822    
(Pass: 3)
   Z0.1562    
   Y6.2282    
   X2.7787    
   X2.5287    
   X0.2963    
   Y4.8973    
   X2.5406    
   X2.7906    
   X5.4822    
(Pass: 4)
   Z0.1250    
   Y6.2282    
   X2.7787    
   X2.5287    
   X0.2963    
   Y4.8973    
   X2.5406    
   X2.7906    
   X5.4822    
(Pass: 5)
   Z0.0938    
   Y6.2282    
   X2.7787    
   Z0.1250    
   X2.5287    
   Z0.0938    
   X0.2963    
   Y4.8973    
   X2.5406    
   Z0.1250    
   X2.7906    
   Z0.0938    
   X5.4822    
(Pass: 6)
   Z0.0625    
   Y6.2282    
   X2.7787    
   Z0.1250    
   X2.5287    
   Z0.0625    
   X0.2963    
   Y4.8973    
   X2.5406    
   Z0.1250    
   X2.7906    
   Z0.0625    
   X5.4822    
(Pass: 7)
   Z0.0312    
   Y6.2282    
   X2.7787    
   Z0.1250    
   X2.5287    
   Z0.0312    
   X0.2963    
   Y4.8973    
   X2.5406    
   Z0.1250    
   X2.7906    
   Z0.0312    
   X5.4822    
(Pass: 8)
   Z0.0000    
   Y6.2282    
   X2.7787    
   Z0.1250    
   X2.5287    
   Z0.0000    
   X0.2963    
   Y4.8973    
   X2.5406    
   Z0.1250    
   X2.7906    
   Z0.0000    
   X5.4822    
G0   Z0.3750    
G0 X0 Y0 (home)
M05
M30
%
