%
(Generated by SketchUcam {1.2a})
(File: Plate_printouts_side.skp)
(Bit diameter: 1/8")
(Feed rate: 80"/min)
(Plunge Feed rate: 60"/min)
(Material Thickness: 1/4")
(Material length: 15" X width: 25")
(Overhead Gantry: true)
(Retract feed rate NOT limited to plunge feed rate)
(Multipass enabled, Depth = 1/64")
(Optimization is ON)
(Z ZERO IS TABLETOP)
(www.PhlatBoyz.com)
G90 G20 G49 
M3 S15000
G0   Z0.3750    
(Pass: 1)
   X0.9531       Y0.8892    
G1   Z0.2344     F60  
   X0.9408       Y0.9052     F80  
   X0.9331       Y0.9239    
   X0.9304       Y0.9439    
   X0.9331       Y0.9640    
   X0.9408       Y0.9826    
   X0.9531       Y0.9987    
   X0.9692       Y1.0110    
   X0.9878       Y1.0187    
   X1.0079       Y1.0214    
   X1.0279       Y1.0187    
   X1.0466       Y1.0110    
   X1.0627       Y0.9987    
   X1.0750       Y0.9826    
   X1.0827       Y0.9640    
   X1.0853       Y0.9439    
   X1.0827       Y0.9239    
   X1.0750       Y0.9052    
   X1.0627       Y0.8892    
   X1.0466       Y0.8768    
   X1.0279       Y0.8691    
   X1.0079       Y0.8665    
   X0.9878       Y0.8691    
   X0.9692       Y0.8768    
   X0.9531       Y0.8892    
(Pass: 2)
   Z0.2188     F60  
   X0.9408       Y0.9052     F80  
   X0.9331       Y0.9239    
   X0.9304       Y0.9439    
   X0.9331       Y0.9640    
   X0.9408       Y0.9826    
   X0.9531       Y0.9987    
   X0.9692       Y1.0110    
   X0.9878       Y1.0187    
   X1.0079       Y1.0214    
   X1.0279       Y1.0187    
   X1.0466       Y1.0110    
   X1.0627       Y0.9987    
   X1.0750       Y0.9826    
   X1.0827       Y0.9640    
   X1.0853       Y0.9439    
   X1.0827       Y0.9239    
   X1.0750       Y0.9052    
   X1.0627       Y0.8892    
   X1.0466       Y0.8768    
   X1.0279       Y0.8691    
   X1.0079       Y0.8665    
   X0.9878       Y0.8691    
   X0.9692       Y0.8768    
   X0.9531       Y0.8892    
(Pass: 3)
   Z0.2031     F60  
   X0.9408       Y0.9052     F80  
   X0.9331       Y0.9239    
   X0.9304       Y0.9439    
   X0.9331       Y0.9640    
   X0.9408       Y0.9826    
   X0.9531       Y0.9987    
   X0.9692       Y1.0110    
   X0.9878       Y1.0187    
   X1.0079       Y1.0214    
   X1.0279       Y1.0187    
   X1.0466       Y1.0110    
   X1.0627       Y0.9987    
   X1.0750       Y0.9826    
   X1.0827       Y0.9640    
   X1.0853       Y0.9439    
   X1.0827       Y0.9239    
   X1.0750       Y0.9052    
   X1.0627       Y0.8892    
   X1.0466       Y0.8768    
   X1.0279       Y0.8691    
   X1.0079       Y0.8665    
   X0.9878       Y0.8691    
   X0.9692       Y0.8768    
   X0.9531       Y0.8892    
(Pass: 4)
   Z0.1875     F60  
   X0.9408       Y0.9052     F80  
   X0.9331       Y0.9239    
   X0.9304       Y0.9439    
   X0.9331       Y0.9640    
   X0.9408       Y0.9826    
   X0.9531       Y0.9987    
   X0.9692       Y1.0110    
   X0.9878       Y1.0187    
   X1.0079       Y1.0214    
   X1.0279       Y1.0187    
   X1.0466       Y1.0110    
   X1.0627       Y0.9987    
   X1.0750       Y0.9826    
   X1.0827       Y0.9640    
   X1.0853       Y0.9439    
   X1.0827       Y0.9239    
   X1.0750       Y0.9052    
   X1.0627       Y0.8892    
   X1.0466       Y0.8768    
   X1.0279       Y0.8691    
   X1.0079       Y0.8665    
   X0.9878       Y0.8691    
   X0.9692       Y0.8768    
   X0.9531       Y0.8892    
(Pass: 5)
   Z0.1719     F60  
   X0.9408       Y0.9052     F80  
   X0.9331       Y0.9239    
   X0.9304       Y0.9439    
   X0.9331       Y0.9640    
   X0.9408       Y0.9826    
   X0.9531       Y0.9987    
   X0.9692       Y1.0110    
   X0.9878       Y1.0187    
   X1.0079       Y1.0214    
   X1.0279       Y1.0187    
   X1.0466       Y1.0110    
   X1.0627       Y0.9987    
   X1.0750       Y0.9826    
   X1.0827       Y0.9640    
   X1.0853       Y0.9439    
   X1.0827       Y0.9239    
   X1.0750       Y0.9052    
   X1.0627       Y0.8892    
   X1.0466       Y0.8768    
   X1.0279       Y0.8691    
   X1.0079       Y0.8665    
   X0.9878       Y0.8691    
   X0.9692       Y0.8768    
   X0.9531       Y0.8892    
(Pass: 6)
   Z0.1562     F60  
   X0.9408       Y0.9052     F80  
   X0.9331       Y0.9239    
   X0.9304       Y0.9439    
   X0.9331       Y0.9640    
   X0.9408       Y0.9826    
   X0.9531       Y0.9987    
   X0.9692       Y1.0110    
   X0.9878       Y1.0187    
   X1.0079       Y1.0214    
   X1.0279       Y1.0187    
   X1.0466       Y1.0110    
   X1.0627       Y0.9987    
   X1.0750       Y0.9826    
   X1.0827       Y0.9640    
   X1.0853       Y0.9439    
   X1.0827       Y0.9239    
   X1.0750       Y0.9052    
   X1.0627       Y0.8892    
   X1.0466       Y0.8768    
   X1.0279       Y0.8691    
   X1.0079       Y0.8665    
   X0.9878       Y0.8691    
   X0.9692       Y0.8768    
   X0.9531       Y0.8892    
(Pass: 7)
   Z0.1406     F60  
   X0.9408       Y0.9052     F80  
   X0.9331       Y0.9239    
   X0.9304       Y0.9439    
   X0.9331       Y0.9640    
   X0.9408       Y0.9826    
   X0.9531       Y0.9987    
   X0.9692       Y1.0110    
   X0.9878       Y1.0187    
   X1.0079       Y1.0214    
   X1.0279       Y1.0187    
   X1.0466       Y1.0110    
   X1.0627       Y0.9987    
   X1.0750       Y0.9826    
   X1.0827       Y0.9640    
   X1.0853       Y0.9439    
   X1.0827       Y0.9239    
   X1.0750       Y0.9052    
   X1.0627       Y0.8892    
   X1.0466       Y0.8768    
   X1.0279       Y0.8691    
   X1.0079       Y0.8665    
   X0.9878       Y0.8691    
   X0.9692       Y0.8768    
   X0.9531       Y0.8892    
(Pass: 8)
   Z0.1250     F60  
   X0.9408       Y0.9052     F80  
   X0.9331       Y0.9239    
   X0.9304       Y0.9439    
   X0.9331       Y0.9640    
   X0.9408       Y0.9826    
   X0.9531       Y0.9987    
   X0.9692       Y1.0110    
   X0.9878       Y1.0187    
   X1.0079       Y1.0214    
   X1.0279       Y1.0187    
   X1.0466       Y1.0110    
   X1.0627       Y0.9987    
   X1.0750       Y0.9826    
   X1.0827       Y0.9640    
   X1.0853       Y0.9439    
   X1.0827       Y0.9239    
   X1.0750       Y0.9052    
   X1.0627       Y0.8892    
   X1.0466       Y0.8768    
   X1.0279       Y0.8691    
   X1.0079       Y0.8665    
   X0.9878       Y0.8691    
   X0.9692       Y0.8768    
   X0.9531       Y0.8892    
(Pass: 9)
   Z0.1094     F60  
   X0.9408       Y0.9052     F80  
   X0.9331       Y0.9239    
   X0.9304       Y0.9439    
   X0.9331       Y0.9640    
   X0.9408       Y0.9826    
   X0.9531       Y0.9987    
   X0.9692       Y1.0110    
   X0.9878       Y1.0187    
   X1.0079       Y1.0214    
   X1.0279       Y1.0187    
   X1.0466       Y1.0110    
   X1.0627       Y0.9987    
   X1.0750       Y0.9826    
   X1.0827       Y0.9640    
   X1.0853       Y0.9439    
   X1.0827       Y0.9239    
   X1.0750       Y0.9052    
   X1.0627       Y0.8892    
   X1.0466       Y0.8768    
   X1.0279       Y0.8691    
   X1.0079       Y0.8665    
   X0.9878       Y0.8691    
   X0.9692       Y0.8768    
   X0.9531       Y0.8892    
(Pass: 10)
   Z0.0938     F60  
   X0.9408       Y0.9052     F80  
   X0.9331       Y0.9239    
   X0.9304       Y0.9439    
   X0.9331       Y0.9640    
   X0.9408       Y0.9826    
   X0.9531       Y0.9987    
   X0.9692       Y1.0110    
   X0.9878       Y1.0187    
   X1.0079       Y1.0214    
   X1.0279       Y1.0187    
   X1.0466       Y1.0110    
   X1.0627       Y0.9987    
   X1.0750       Y0.9826    
   X1.0827       Y0.9640    
   X1.0853       Y0.9439    
   X1.0827       Y0.9239    
   X1.0750       Y0.9052    
   X1.0627       Y0.8892    
   X1.0466       Y0.8768    
   X1.0279       Y0.8691    
   X1.0079       Y0.8665    
   X0.9878       Y0.8691    
   X0.9692       Y0.8768    
   X0.9531       Y0.8892    
(Pass: 11)
   Z0.0781     F60  
   X0.9408       Y0.9052     F80  
   X0.9331       Y0.9239    
   X0.9304       Y0.9439    
   X0.9331       Y0.9640    
   X0.9408       Y0.9826    
   X0.9531       Y0.9987    
   X0.9692       Y1.0110    
   X0.9878       Y1.0187    
   X1.0079       Y1.0214    
   X1.0279       Y1.0187    
   X1.0466       Y1.0110    
   X1.0627       Y0.9987    
   X1.0750       Y0.9826    
   X1.0827       Y0.9640    
   X1.0853       Y0.9439    
   X1.0827       Y0.9239    
   X1.0750       Y0.9052    
   X1.0627       Y0.8892    
   X1.0466       Y0.8768    
   X1.0279       Y0.8691    
   X1.0079       Y0.8665    
   X0.9878       Y0.8691    
   X0.9692       Y0.8768    
   X0.9531       Y0.8892    
(Pass: 12)
   Z0.0625     F60  
   X0.9408       Y0.9052     F80  
   X0.9331       Y0.9239    
   X0.9304       Y0.9439    
   X0.9331       Y0.9640    
   X0.9408       Y0.9826    
   X0.9531       Y0.9987    
   X0.9692       Y1.0110    
   X0.9878       Y1.0187    
   X1.0079       Y1.0214    
   X1.0279       Y1.0187    
   X1.0466       Y1.0110    
   X1.0627       Y0.9987    
   X1.0750       Y0.9826    
   X1.0827       Y0.9640    
   X1.0853       Y0.9439    
   X1.0827       Y0.9239    
   X1.0750       Y0.9052    
   X1.0627       Y0.8892    
   X1.0466       Y0.8768    
   X1.0279       Y0.8691    
   X1.0079       Y0.8665    
   X0.9878       Y0.8691    
   X0.9692       Y0.8768    
   X0.9531       Y0.8892    
(Pass: 13)
   Z0.0469     F60  
   X0.9408       Y0.9052     F80  
   X0.9331       Y0.9239    
   X0.9304       Y0.9439    
   X0.9331       Y0.9640    
   X0.9408       Y0.9826    
   X0.9531       Y0.9987    
   X0.9692       Y1.0110    
   X0.9878       Y1.0187    
   X1.0079       Y1.0214    
   X1.0279       Y1.0187    
   X1.0466       Y1.0110    
   X1.0627       Y0.9987    
   X1.0750       Y0.9826    
   X1.0827       Y0.9640    
   X1.0853       Y0.9439    
   X1.0827       Y0.9239    
   X1.0750       Y0.9052    
   X1.0627       Y0.8892    
   X1.0466       Y0.8768    
   X1.0279       Y0.8691    
   X1.0079       Y0.8665    
   X0.9878       Y0.8691    
   X0.9692       Y0.8768    
   X0.9531       Y0.8892    
(Pass: 14)
   Z0.0312     F60  
   X0.9408       Y0.9052     F80  
   X0.9331       Y0.9239    
   X0.9304       Y0.9439    
   X0.9331       Y0.9640    
   X0.9408       Y0.9826    
   X0.9531       Y0.9987    
   X0.9692       Y1.0110    
   X0.9878       Y1.0187    
   X1.0079       Y1.0214    
   X1.0279       Y1.0187    
   X1.0466       Y1.0110    
   X1.0627       Y0.9987    
   X1.0750       Y0.9826    
   X1.0827       Y0.9640    
   X1.0853       Y0.9439    
   X1.0827       Y0.9239    
   X1.0750       Y0.9052    
   X1.0627       Y0.8892    
   X1.0466       Y0.8768    
   X1.0279       Y0.8691    
   X1.0079       Y0.8665    
   X0.9878       Y0.8691    
   X0.9692       Y0.8768    
   X0.9531       Y0.8892    
(Pass: 15)
   Z0.0156     F60  
   X0.9408       Y0.9052     F80  
   X0.9331       Y0.9239    
   X0.9304       Y0.9439    
   X0.9331       Y0.9640    
   X0.9408       Y0.9826    
   X0.9531       Y0.9987    
   X0.9692       Y1.0110    
   X0.9878       Y1.0187    
   X1.0079       Y1.0214    
   X1.0279       Y1.0187    
   X1.0466       Y1.0110    
   X1.0627       Y0.9987    
   X1.0750       Y0.9826    
   X1.0827       Y0.9640    
   X1.0853       Y0.9439    
   X1.0827       Y0.9239    
   X1.0750       Y0.9052    
   X1.0627       Y0.8892    
   X1.0466       Y0.8768    
   X1.0279       Y0.8691    
   X1.0079       Y0.8665    
   X0.9878       Y0.8691    
   X0.9692       Y0.8768    
   X0.9531       Y0.8892    
(Pass: 16)
   Z0.0000     F60  
   X0.9408       Y0.9052     F80  
   X0.9331       Y0.9239    
   X0.9304       Y0.9439    
   X0.9331       Y0.9640    
   X0.9408       Y0.9826    
   X0.9531       Y0.9987    
   X0.9692       Y1.0110    
   X0.9878       Y1.0187    
   X1.0079       Y1.0214    
   X1.0279       Y1.0187    
   X1.0466       Y1.0110    
   X1.0627       Y0.9987    
   X1.0750       Y0.9826    
   X1.0827       Y0.9640    
   X1.0853       Y0.9439    
   X1.0827       Y0.9239    
   X1.0750       Y0.9052    
   X1.0627       Y0.8892    
   X1.0466       Y0.8768    
   X1.0279       Y0.8691    
   X1.0079       Y0.8665    
   X0.9878       Y0.8691    
   X0.9692       Y0.8768    
   X0.9531       Y0.8892    
G0   Z0.3750    
(Pass: 1)
   X1.7178       Y0.9439    
G1   Z0.2344     F60  
   X1.7205       Y0.9640     F80  
   X1.7282       Y0.9826    
   X1.7405       Y0.9987    
   X1.7566       Y1.0110    
   X1.7752       Y1.0187    
   X1.7953       Y1.0214    
   X1.8153       Y1.0187    
   X1.8340       Y1.0110    
   X1.8501       Y0.9987    
   X1.8624       Y0.9826    
   X1.8701       Y0.9640    
   X1.8727       Y0.9439    
   X1.8701       Y0.9239    
   X1.8624       Y0.9052    
   X1.8501       Y0.8892    
   X1.8340       Y0.8768    
   X1.8153       Y0.8691    
   X1.7953       Y0.8665    
   X1.7752       Y0.8691    
   X1.7566       Y0.8768    
   X1.7405       Y0.8892    
   X1.7282       Y0.9052    
   X1.7205       Y0.9239    
   X1.7178       Y0.9439    
(Pass: 2)
   Z0.2188     F60  
   X1.7205       Y0.9640     F80  
   X1.7282       Y0.9826    
   X1.7405       Y0.9987    
   X1.7566       Y1.0110    
   X1.7752       Y1.0187    
   X1.7953       Y1.0214    
   X1.8153       Y1.0187    
   X1.8340       Y1.0110    
   X1.8501       Y0.9987    
   X1.8624       Y0.9826    
   X1.8701       Y0.9640    
   X1.8727       Y0.9439    
   X1.8701       Y0.9239    
   X1.8624       Y0.9052    
   X1.8501       Y0.8892    
   X1.8340       Y0.8768    
   X1.8153       Y0.8691    
   X1.7953       Y0.8665    
   X1.7752       Y0.8691    
   X1.7566       Y0.8768    
   X1.7405       Y0.8892    
   X1.7282       Y0.9052    
   X1.7205       Y0.9239    
   X1.7178       Y0.9439    
(Pass: 3)
   Z0.2031     F60  
   X1.7205       Y0.9640     F80  
   X1.7282       Y0.9826    
   X1.7405       Y0.9987    
   X1.7566       Y1.0110    
   X1.7752       Y1.0187    
   X1.7953       Y1.0214    
   X1.8153       Y1.0187    
   X1.8340       Y1.0110    
   X1.8501       Y0.9987    
   X1.8624       Y0.9826    
   X1.8701       Y0.9640    
   X1.8727       Y0.9439    
   X1.8701       Y0.9239    
   X1.8624       Y0.9052    
   X1.8501       Y0.8892    
   X1.8340       Y0.8768    
   X1.8153       Y0.8691    
   X1.7953       Y0.8665    
   X1.7752       Y0.8691    
   X1.7566       Y0.8768    
   X1.7405       Y0.8892    
   X1.7282       Y0.9052    
   X1.7205       Y0.9239    
   X1.7178       Y0.9439    
(Pass: 4)
   Z0.1875     F60  
   X1.7205       Y0.9640     F80  
   X1.7282       Y0.9826    
   X1.7405       Y0.9987    
   X1.7566       Y1.0110    
   X1.7752       Y1.0187    
   X1.7953       Y1.0214    
   X1.8153       Y1.0187    
   X1.8340       Y1.0110    
   X1.8501       Y0.9987    
   X1.8624       Y0.9826    
   X1.8701       Y0.9640    
   X1.8727       Y0.9439    
   X1.8701       Y0.9239    
   X1.8624       Y0.9052    
   X1.8501       Y0.8892    
   X1.8340       Y0.8768    
   X1.8153       Y0.8691    
   X1.7953       Y0.8665    
   X1.7752       Y0.8691    
   X1.7566       Y0.8768    
   X1.7405       Y0.8892    
   X1.7282       Y0.9052    
   X1.7205       Y0.9239    
   X1.7178       Y0.9439    
(Pass: 5)
   Z0.1719     F60  
   X1.7205       Y0.9640     F80  
   X1.7282       Y0.9826    
   X1.7405       Y0.9987    
   X1.7566       Y1.0110    
   X1.7752       Y1.0187    
   X1.7953       Y1.0214    
   X1.8153       Y1.0187    
   X1.8340       Y1.0110    
   X1.8501       Y0.9987    
   X1.8624       Y0.9826    
   X1.8701       Y0.9640    
   X1.8727       Y0.9439    
   X1.8701       Y0.9239    
   X1.8624       Y0.9052    
   X1.8501       Y0.8892    
   X1.8340       Y0.8768    
   X1.8153       Y0.8691    
   X1.7953       Y0.8665    
   X1.7752       Y0.8691    
   X1.7566       Y0.8768    
   X1.7405       Y0.8892    
   X1.7282       Y0.9052    
   X1.7205       Y0.9239    
   X1.7178       Y0.9439    
(Pass: 6)
   Z0.1562     F60  
   X1.7205       Y0.9640     F80  
   X1.7282       Y0.9826    
   X1.7405       Y0.9987    
   X1.7566       Y1.0110    
   X1.7752       Y1.0187    
   X1.7953       Y1.0214    
   X1.8153       Y1.0187    
   X1.8340       Y1.0110    
   X1.8501       Y0.9987    
   X1.8624       Y0.9826    
   X1.8701       Y0.9640    
   X1.8727       Y0.9439    
   X1.8701       Y0.9239    
   X1.8624       Y0.9052    
   X1.8501       Y0.8892    
   X1.8340       Y0.8768    
   X1.8153       Y0.8691    
   X1.7953       Y0.8665    
   X1.7752       Y0.8691    
   X1.7566       Y0.8768    
   X1.7405       Y0.8892    
   X1.7282       Y0.9052    
   X1.7205       Y0.9239    
   X1.7178       Y0.9439    
(Pass: 7)
   Z0.1406     F60  
   X1.7205       Y0.9640     F80  
   X1.7282       Y0.9826    
   X1.7405       Y0.9987    
   X1.7566       Y1.0110    
   X1.7752       Y1.0187    
   X1.7953       Y1.0214    
   X1.8153       Y1.0187    
   X1.8340       Y1.0110    
   X1.8501       Y0.9987    
   X1.8624       Y0.9826    
   X1.8701       Y0.9640    
   X1.8727       Y0.9439    
   X1.8701       Y0.9239    
   X1.8624       Y0.9052    
   X1.8501       Y0.8892    
   X1.8340       Y0.8768    
   X1.8153       Y0.8691    
   X1.7953       Y0.8665    
   X1.7752       Y0.8691    
   X1.7566       Y0.8768    
   X1.7405       Y0.8892    
   X1.7282       Y0.9052    
   X1.7205       Y0.9239    
   X1.7178       Y0.9439    
(Pass: 8)
   Z0.1250     F60  
   X1.7205       Y0.9640     F80  
   X1.7282       Y0.9826    
   X1.7405       Y0.9987    
   X1.7566       Y1.0110    
   X1.7752       Y1.0187    
   X1.7953       Y1.0214    
   X1.8153       Y1.0187    
   X1.8340       Y1.0110    
   X1.8501       Y0.9987    
   X1.8624       Y0.9826    
   X1.8701       Y0.9640    
   X1.8727       Y0.9439    
   X1.8701       Y0.9239    
   X1.8624       Y0.9052    
   X1.8501       Y0.8892    
   X1.8340       Y0.8768    
   X1.8153       Y0.8691    
   X1.7953       Y0.8665    
   X1.7752       Y0.8691    
   X1.7566       Y0.8768    
   X1.7405       Y0.8892    
   X1.7282       Y0.9052    
   X1.7205       Y0.9239    
   X1.7178       Y0.9439    
(Pass: 9)
   Z0.1094     F60  
   X1.7205       Y0.9640     F80  
   X1.7282       Y0.9826    
   X1.7405       Y0.9987    
   X1.7566       Y1.0110    
   X1.7752       Y1.0187    
   X1.7953       Y1.0214    
   X1.8153       Y1.0187    
   X1.8340       Y1.0110    
   X1.8501       Y0.9987    
   X1.8624       Y0.9826    
   X1.8701       Y0.9640    
   X1.8727       Y0.9439    
   X1.8701       Y0.9239    
   X1.8624       Y0.9052    
   X1.8501       Y0.8892    
   X1.8340       Y0.8768    
   X1.8153       Y0.8691    
   X1.7953       Y0.8665    
   X1.7752       Y0.8691    
   X1.7566       Y0.8768    
   X1.7405       Y0.8892    
   X1.7282       Y0.9052    
   X1.7205       Y0.9239    
   X1.7178       Y0.9439    
(Pass: 10)
   Z0.0938     F60  
   X1.7205       Y0.9640     F80  
   X1.7282       Y0.9826    
   X1.7405       Y0.9987    
   X1.7566       Y1.0110    
   X1.7752       Y1.0187    
   X1.7953       Y1.0214    
   X1.8153       Y1.0187    
   X1.8340       Y1.0110    
   X1.8501       Y0.9987    
   X1.8624       Y0.9826    
   X1.8701       Y0.9640    
   X1.8727       Y0.9439    
   X1.8701       Y0.9239    
   X1.8624       Y0.9052    
   X1.8501       Y0.8892    
   X1.8340       Y0.8768    
   X1.8153       Y0.8691    
   X1.7953       Y0.8665    
   X1.7752       Y0.8691    
   X1.7566       Y0.8768    
   X1.7405       Y0.8892    
   X1.7282       Y0.9052    
   X1.7205       Y0.9239    
   X1.7178       Y0.9439    
(Pass: 11)
   Z0.0781     F60  
   X1.7205       Y0.9640     F80  
   X1.7282       Y0.9826    
   X1.7405       Y0.9987    
   X1.7566       Y1.0110    
   X1.7752       Y1.0187    
   X1.7953       Y1.0214    
   X1.8153       Y1.0187    
   X1.8340       Y1.0110    
   X1.8501       Y0.9987    
   X1.8624       Y0.9826    
   X1.8701       Y0.9640    
   X1.8727       Y0.9439    
   X1.8701       Y0.9239    
   X1.8624       Y0.9052    
   X1.8501       Y0.8892    
   X1.8340       Y0.8768    
   X1.8153       Y0.8691    
   X1.7953       Y0.8665    
   X1.7752       Y0.8691    
   X1.7566       Y0.8768    
   X1.7405       Y0.8892    
   X1.7282       Y0.9052    
   X1.7205       Y0.9239    
   X1.7178       Y0.9439    
(Pass: 12)
   Z0.0625     F60  
   X1.7205       Y0.9640     F80  
   X1.7282       Y0.9826    
   X1.7405       Y0.9987    
   X1.7566       Y1.0110    
   X1.7752       Y1.0187    
   X1.7953       Y1.0214    
   X1.8153       Y1.0187    
   X1.8340       Y1.0110    
   X1.8501       Y0.9987    
   X1.8624       Y0.9826    
   X1.8701       Y0.9640    
   X1.8727       Y0.9439    
   X1.8701       Y0.9239    
   X1.8624       Y0.9052    
   X1.8501       Y0.8892    
   X1.8340       Y0.8768    
   X1.8153       Y0.8691    
   X1.7953       Y0.8665    
   X1.7752       Y0.8691    
   X1.7566       Y0.8768    
   X1.7405       Y0.8892    
   X1.7282       Y0.9052    
   X1.7205       Y0.9239    
   X1.7178       Y0.9439    
(Pass: 13)
   Z0.0469     F60  
   X1.7205       Y0.9640     F80  
   X1.7282       Y0.9826    
   X1.7405       Y0.9987    
   X1.7566       Y1.0110    
   X1.7752       Y1.0187    
   X1.7953       Y1.0214    
   X1.8153       Y1.0187    
   X1.8340       Y1.0110    
   X1.8501       Y0.9987    
   X1.8624       Y0.9826    
   X1.8701       Y0.9640    
   X1.8727       Y0.9439    
   X1.8701       Y0.9239    
   X1.8624       Y0.9052    
   X1.8501       Y0.8892    
   X1.8340       Y0.8768    
   X1.8153       Y0.8691    
   X1.7953       Y0.8665    
   X1.7752       Y0.8691    
   X1.7566       Y0.8768    
   X1.7405       Y0.8892    
   X1.7282       Y0.9052    
   X1.7205       Y0.9239    
   X1.7178       Y0.9439    
(Pass: 14)
   Z0.0312     F60  
   X1.7205       Y0.9640     F80  
   X1.7282       Y0.9826    
   X1.7405       Y0.9987    
   X1.7566       Y1.0110    
   X1.7752       Y1.0187    
   X1.7953       Y1.0214    
   X1.8153       Y1.0187    
   X1.8340       Y1.0110    
   X1.8501       Y0.9987    
   X1.8624       Y0.9826    
   X1.8701       Y0.9640    
   X1.8727       Y0.9439    
   X1.8701       Y0.9239    
   X1.8624       Y0.9052    
   X1.8501       Y0.8892    
   X1.8340       Y0.8768    
   X1.8153       Y0.8691    
   X1.7953       Y0.8665    
   X1.7752       Y0.8691    
   X1.7566       Y0.8768    
   X1.7405       Y0.8892    
   X1.7282       Y0.9052    
   X1.7205       Y0.9239    
   X1.7178       Y0.9439    
(Pass: 15)
   Z0.0156     F60  
   X1.7205       Y0.9640     F80  
   X1.7282       Y0.9826    
   X1.7405       Y0.9987    
   X1.7566       Y1.0110    
   X1.7752       Y1.0187    
   X1.7953       Y1.0214    
   X1.8153       Y1.0187    
   X1.8340       Y1.0110    
   X1.8501       Y0.9987    
   X1.8624       Y0.9826    
   X1.8701       Y0.9640    
   X1.8727       Y0.9439    
   X1.8701       Y0.9239    
   X1.8624       Y0.9052    
   X1.8501       Y0.8892    
   X1.8340       Y0.8768    
   X1.8153       Y0.8691    
   X1.7953       Y0.8665    
   X1.7752       Y0.8691    
   X1.7566       Y0.8768    
   X1.7405       Y0.8892    
   X1.7282       Y0.9052    
   X1.7205       Y0.9239    
   X1.7178       Y0.9439    
(Pass: 16)
   Z0.0000     F60  
   X1.7205       Y0.9640     F80  
   X1.7282       Y0.9826    
   X1.7405       Y0.9987    
   X1.7566       Y1.0110    
   X1.7752       Y1.0187    
   X1.7953       Y1.0214    
   X1.8153       Y1.0187    
   X1.8340       Y1.0110    
   X1.8501       Y0.9987    
   X1.8624       Y0.9826    
   X1.8701       Y0.9640    
   X1.8727       Y0.9439    
   X1.8701       Y0.9239    
   X1.8624       Y0.9052    
   X1.8501       Y0.8892    
   X1.8340       Y0.8768    
   X1.8153       Y0.8691    
   X1.7953       Y0.8665    
   X1.7752       Y0.8691    
   X1.7566       Y0.8768    
   X1.7405       Y0.8892    
   X1.7282       Y0.9052    
   X1.7205       Y0.9239    
   X1.7178       Y0.9439    
G0   Z0.3750    
(Pass: 1)
   X1.7953       Y3.8318    
G1   Z0.2344     F60  
   X1.7752       Y3.8345     F80  
   X1.7566       Y3.8422    
   X1.7405       Y3.8545    
   X1.7282       Y3.8706    
   X1.7205       Y3.8892    
   X1.7178       Y3.9093    
   X1.7205       Y3.9293    
   X1.7282       Y3.9480    
   X1.7405       Y3.9640    
   X1.7566       Y3.9764    
   X1.7752       Y3.9841    
   X1.7953       Y3.9867    
   X1.8153       Y3.9841    
   X1.8340       Y3.9764    
   X1.8501       Y3.9640    
   X1.8624       Y3.9480    
   X1.8701       Y3.9293    
   X1.8727       Y3.9093    
   X1.8701       Y3.8892    
   X1.8624       Y3.8706    
   X1.8501       Y3.8545    
   X1.8340       Y3.8422    
   X1.8153       Y3.8345    
   X1.7953       Y3.8318    
(Pass: 2)
   Z0.2188     F60  
   X1.7752       Y3.8345     F80  
   X1.7566       Y3.8422    
   X1.7405       Y3.8545    
   X1.7282       Y3.8706    
   X1.7205       Y3.8892    
   X1.7178       Y3.9093    
   X1.7205       Y3.9293    
   X1.7282       Y3.9480    
   X1.7405       Y3.9640    
   X1.7566       Y3.9764    
   X1.7752       Y3.9841    
   X1.7953       Y3.9867    
   X1.8153       Y3.9841    
   X1.8340       Y3.9764    
   X1.8501       Y3.9640    
   X1.8624       Y3.9480    
   X1.8701       Y3.9293    
   X1.8727       Y3.9093    
   X1.8701       Y3.8892    
   X1.8624       Y3.8706    
   X1.8501       Y3.8545    
   X1.8340       Y3.8422    
   X1.8153       Y3.8345    
   X1.7953       Y3.8318    
(Pass: 3)
   Z0.2031     F60  
   X1.7752       Y3.8345     F80  
   X1.7566       Y3.8422    
   X1.7405       Y3.8545    
   X1.7282       Y3.8706    
   X1.7205       Y3.8892    
   X1.7178       Y3.9093    
   X1.7205       Y3.9293    
   X1.7282       Y3.9480    
   X1.7405       Y3.9640    
   X1.7566       Y3.9764    
   X1.7752       Y3.9841    
   X1.7953       Y3.9867    
   X1.8153       Y3.9841    
   X1.8340       Y3.9764    
   X1.8501       Y3.9640    
   X1.8624       Y3.9480    
   X1.8701       Y3.9293    
   X1.8727       Y3.9093    
   X1.8701       Y3.8892    
   X1.8624       Y3.8706    
   X1.8501       Y3.8545    
   X1.8340       Y3.8422    
   X1.8153       Y3.8345    
   X1.7953       Y3.8318    
(Pass: 4)
   Z0.1875     F60  
   X1.7752       Y3.8345     F80  
   X1.7566       Y3.8422    
   X1.7405       Y3.8545    
   X1.7282       Y3.8706    
   X1.7205       Y3.8892    
   X1.7178       Y3.9093    
   X1.7205       Y3.9293    
   X1.7282       Y3.9480    
   X1.7405       Y3.9640    
   X1.7566       Y3.9764    
   X1.7752       Y3.9841    
   X1.7953       Y3.9867    
   X1.8153       Y3.9841    
   X1.8340       Y3.9764    
   X1.8501       Y3.9640    
   X1.8624       Y3.9480    
   X1.8701       Y3.9293    
   X1.8727       Y3.9093    
   X1.8701       Y3.8892    
   X1.8624       Y3.8706    
   X1.8501       Y3.8545    
   X1.8340       Y3.8422    
   X1.8153       Y3.8345    
   X1.7953       Y3.8318    
(Pass: 5)
   Z0.1719     F60  
   X1.7752       Y3.8345     F80  
   X1.7566       Y3.8422    
   X1.7405       Y3.8545    
   X1.7282       Y3.8706    
   X1.7205       Y3.8892    
   X1.7178       Y3.9093    
   X1.7205       Y3.9293    
   X1.7282       Y3.9480    
   X1.7405       Y3.9640    
   X1.7566       Y3.9764    
   X1.7752       Y3.9841    
   X1.7953       Y3.9867    
   X1.8153       Y3.9841    
   X1.8340       Y3.9764    
   X1.8501       Y3.9640    
   X1.8624       Y3.9480    
   X1.8701       Y3.9293    
   X1.8727       Y3.9093    
   X1.8701       Y3.8892    
   X1.8624       Y3.8706    
   X1.8501       Y3.8545    
   X1.8340       Y3.8422    
   X1.8153       Y3.8345    
   X1.7953       Y3.8318    
(Pass: 6)
   Z0.1562     F60  
   X1.7752       Y3.8345     F80  
   X1.7566       Y3.8422    
   X1.7405       Y3.8545    
   X1.7282       Y3.8706    
   X1.7205       Y3.8892    
   X1.7178       Y3.9093    
   X1.7205       Y3.9293    
   X1.7282       Y3.9480    
   X1.7405       Y3.9640    
   X1.7566       Y3.9764    
   X1.7752       Y3.9841    
   X1.7953       Y3.9867    
   X1.8153       Y3.9841    
   X1.8340       Y3.9764    
   X1.8501       Y3.9640    
   X1.8624       Y3.9480    
   X1.8701       Y3.9293    
   X1.8727       Y3.9093    
   X1.8701       Y3.8892    
   X1.8624       Y3.8706    
   X1.8501       Y3.8545    
   X1.8340       Y3.8422    
   X1.8153       Y3.8345    
   X1.7953       Y3.8318    
(Pass: 7)
   Z0.1406     F60  
   X1.7752       Y3.8345     F80  
   X1.7566       Y3.8422    
   X1.7405       Y3.8545    
   X1.7282       Y3.8706    
   X1.7205       Y3.8892    
   X1.7178       Y3.9093    
   X1.7205       Y3.9293    
   X1.7282       Y3.9480    
   X1.7405       Y3.9640    
   X1.7566       Y3.9764    
   X1.7752       Y3.9841    
   X1.7953       Y3.9867    
   X1.8153       Y3.9841    
   X1.8340       Y3.9764    
   X1.8501       Y3.9640    
   X1.8624       Y3.9480    
   X1.8701       Y3.9293    
   X1.8727       Y3.9093    
   X1.8701       Y3.8892    
   X1.8624       Y3.8706    
   X1.8501       Y3.8545    
   X1.8340       Y3.8422    
   X1.8153       Y3.8345    
   X1.7953       Y3.8318    
(Pass: 8)
   Z0.1250     F60  
   X1.7752       Y3.8345     F80  
   X1.7566       Y3.8422    
   X1.7405       Y3.8545    
   X1.7282       Y3.8706    
   X1.7205       Y3.8892    
   X1.7178       Y3.9093    
   X1.7205       Y3.9293    
   X1.7282       Y3.9480    
   X1.7405       Y3.9640    
   X1.7566       Y3.9764    
   X1.7752       Y3.9841    
   X1.7953       Y3.9867    
   X1.8153       Y3.9841    
   X1.8340       Y3.9764    
   X1.8501       Y3.9640    
   X1.8624       Y3.9480    
   X1.8701       Y3.9293    
   X1.8727       Y3.9093    
   X1.8701       Y3.8892    
   X1.8624       Y3.8706    
   X1.8501       Y3.8545    
   X1.8340       Y3.8422    
   X1.8153       Y3.8345    
   X1.7953       Y3.8318    
(Pass: 9)
   Z0.1094     F60  
   X1.7752       Y3.8345     F80  
   X1.7566       Y3.8422    
   X1.7405       Y3.8545    
   X1.7282       Y3.8706    
   X1.7205       Y3.8892    
   X1.7178       Y3.9093    
   X1.7205       Y3.9293    
   X1.7282       Y3.9480    
   X1.7405       Y3.9640    
   X1.7566       Y3.9764    
   X1.7752       Y3.9841    
   X1.7953       Y3.9867    
   X1.8153       Y3.9841    
   X1.8340       Y3.9764    
   X1.8501       Y3.9640    
   X1.8624       Y3.9480    
   X1.8701       Y3.9293    
   X1.8727       Y3.9093    
   X1.8701       Y3.8892    
   X1.8624       Y3.8706    
   X1.8501       Y3.8545    
   X1.8340       Y3.8422    
   X1.8153       Y3.8345    
   X1.7953       Y3.8318    
(Pass: 10)
   Z0.0938     F60  
   X1.7752       Y3.8345     F80  
   X1.7566       Y3.8422    
   X1.7405       Y3.8545    
   X1.7282       Y3.8706    
   X1.7205       Y3.8892    
   X1.7178       Y3.9093    
   X1.7205       Y3.9293    
   X1.7282       Y3.9480    
   X1.7405       Y3.9640    
   X1.7566       Y3.9764    
   X1.7752       Y3.9841    
   X1.7953       Y3.9867    
   X1.8153       Y3.9841    
   X1.8340       Y3.9764    
   X1.8501       Y3.9640    
   X1.8624       Y3.9480    
   X1.8701       Y3.9293    
   X1.8727       Y3.9093    
   X1.8701       Y3.8892    
   X1.8624       Y3.8706    
   X1.8501       Y3.8545    
   X1.8340       Y3.8422    
   X1.8153       Y3.8345    
   X1.7953       Y3.8318    
(Pass: 11)
   Z0.0781     F60  
   X1.7752       Y3.8345     F80  
   X1.7566       Y3.8422    
   X1.7405       Y3.8545    
   X1.7282       Y3.8706    
   X1.7205       Y3.8892    
   X1.7178       Y3.9093    
   X1.7205       Y3.9293    
   X1.7282       Y3.9480    
   X1.7405       Y3.9640    
   X1.7566       Y3.9764    
   X1.7752       Y3.9841    
   X1.7953       Y3.9867    
   X1.8153       Y3.9841    
   X1.8340       Y3.9764    
   X1.8501       Y3.9640    
   X1.8624       Y3.9480    
   X1.8701       Y3.9293    
   X1.8727       Y3.9093    
   X1.8701       Y3.8892    
   X1.8624       Y3.8706    
   X1.8501       Y3.8545    
   X1.8340       Y3.8422    
   X1.8153       Y3.8345    
   X1.7953       Y3.8318    
(Pass: 12)
   Z0.0625     F60  
   X1.7752       Y3.8345     F80  
   X1.7566       Y3.8422    
   X1.7405       Y3.8545    
   X1.7282       Y3.8706    
   X1.7205       Y3.8892    
   X1.7178       Y3.9093    
   X1.7205       Y3.9293    
   X1.7282       Y3.9480    
   X1.7405       Y3.9640    
   X1.7566       Y3.9764    
   X1.7752       Y3.9841    
   X1.7953       Y3.9867    
   X1.8153       Y3.9841    
   X1.8340       Y3.9764    
   X1.8501       Y3.9640    
   X1.8624       Y3.9480    
   X1.8701       Y3.9293    
   X1.8727       Y3.9093    
   X1.8701       Y3.8892    
   X1.8624       Y3.8706    
   X1.8501       Y3.8545    
   X1.8340       Y3.8422    
   X1.8153       Y3.8345    
   X1.7953       Y3.8318    
(Pass: 13)
   Z0.0469     F60  
   X1.7752       Y3.8345     F80  
   X1.7566       Y3.8422    
   X1.7405       Y3.8545    
   X1.7282       Y3.8706    
   X1.7205       Y3.8892    
   X1.7178       Y3.9093    
   X1.7205       Y3.9293    
   X1.7282       Y3.9480    
   X1.7405       Y3.9640    
   X1.7566       Y3.9764    
   X1.7752       Y3.9841    
   X1.7953       Y3.9867    
   X1.8153       Y3.9841    
   X1.8340       Y3.9764    
   X1.8501       Y3.9640    
   X1.8624       Y3.9480    
   X1.8701       Y3.9293    
   X1.8727       Y3.9093    
   X1.8701       Y3.8892    
   X1.8624       Y3.8706    
   X1.8501       Y3.8545    
   X1.8340       Y3.8422    
   X1.8153       Y3.8345    
   X1.7953       Y3.8318    
(Pass: 14)
   Z0.0312     F60  
   X1.7752       Y3.8345     F80  
   X1.7566       Y3.8422    
   X1.7405       Y3.8545    
   X1.7282       Y3.8706    
   X1.7205       Y3.8892    
   X1.7178       Y3.9093    
   X1.7205       Y3.9293    
   X1.7282       Y3.9480    
   X1.7405       Y3.9640    
   X1.7566       Y3.9764    
   X1.7752       Y3.9841    
   X1.7953       Y3.9867    
   X1.8153       Y3.9841    
   X1.8340       Y3.9764    
   X1.8501       Y3.9640    
   X1.8624       Y3.9480    
   X1.8701       Y3.9293    
   X1.8727       Y3.9093    
   X1.8701       Y3.8892    
   X1.8624       Y3.8706    
   X1.8501       Y3.8545    
   X1.8340       Y3.8422    
   X1.8153       Y3.8345    
   X1.7953       Y3.8318    
(Pass: 15)
   Z0.0156     F60  
   X1.7752       Y3.8345     F80  
   X1.7566       Y3.8422    
   X1.7405       Y3.8545    
   X1.7282       Y3.8706    
   X1.7205       Y3.8892    
   X1.7178       Y3.9093    
   X1.7205       Y3.9293    
   X1.7282       Y3.9480    
   X1.7405       Y3.9640    
   X1.7566       Y3.9764    
   X1.7752       Y3.9841    
   X1.7953       Y3.9867    
   X1.8153       Y3.9841    
   X1.8340       Y3.9764    
   X1.8501       Y3.9640    
   X1.8624       Y3.9480    
   X1.8701       Y3.9293    
   X1.8727       Y3.9093    
   X1.8701       Y3.8892    
   X1.8624       Y3.8706    
   X1.8501       Y3.8545    
   X1.8340       Y3.8422    
   X1.8153       Y3.8345    
   X1.7953       Y3.8318    
(Pass: 16)
   Z0.0000     F60  
   X1.7752       Y3.8345     F80  
   X1.7566       Y3.8422    
   X1.7405       Y3.8545    
   X1.7282       Y3.8706    
   X1.7205       Y3.8892    
   X1.7178       Y3.9093    
   X1.7205       Y3.9293    
   X1.7282       Y3.9480    
   X1.7405       Y3.9640    
   X1.7566       Y3.9764    
   X1.7752       Y3.9841    
   X1.7953       Y3.9867    
   X1.8153       Y3.9841    
   X1.8340       Y3.9764    
   X1.8501       Y3.9640    
   X1.8624       Y3.9480    
   X1.8701       Y3.9293    
   X1.8727       Y3.9093    
   X1.8701       Y3.8892    
   X1.8624       Y3.8706    
   X1.8501       Y3.8545    
   X1.8340       Y3.8422    
   X1.8153       Y3.8345    
   X1.7953       Y3.8318    
G0   Z0.3750    
(Pass: 1)
   X1.0853       Y3.9093    
G1   Z0.2344     F60  
   X1.0827       Y3.8892     F80  
   X1.0750       Y3.8706    
   X1.0627       Y3.8545    
   X1.0466       Y3.8422    
   X1.0279       Y3.8345    
   X1.0079       Y3.8318    
   X0.9878       Y3.8345    
   X0.9692       Y3.8422    
   X0.9531       Y3.8545    
   X0.9408       Y3.8706    
   X0.9331       Y3.8892    
   X0.9304       Y3.9093    
   X0.9331       Y3.9293    
   X0.9408       Y3.9480    
   X0.9531       Y3.9640    
   X0.9692       Y3.9764    
   X0.9878       Y3.9841    
   X1.0079       Y3.9867    
   X1.0279       Y3.9841    
   X1.0466       Y3.9764    
   X1.0627       Y3.9640    
   X1.0750       Y3.9480    
   X1.0827       Y3.9293    
   X1.0853       Y3.9093    
(Pass: 2)
   Z0.2188     F60  
   X1.0827       Y3.8892     F80  
   X1.0750       Y3.8706    
   X1.0627       Y3.8545    
   X1.0466       Y3.8422    
   X1.0279       Y3.8345    
   X1.0079       Y3.8318    
   X0.9878       Y3.8345    
   X0.9692       Y3.8422    
   X0.9531       Y3.8545    
   X0.9408       Y3.8706    
   X0.9331       Y3.8892    
   X0.9304       Y3.9093    
   X0.9331       Y3.9293    
   X0.9408       Y3.9480    
   X0.9531       Y3.9640    
   X0.9692       Y3.9764    
   X0.9878       Y3.9841    
   X1.0079       Y3.9867    
   X1.0279       Y3.9841    
   X1.0466       Y3.9764    
   X1.0627       Y3.9640    
   X1.0750       Y3.9480    
   X1.0827       Y3.9293    
   X1.0853       Y3.9093    
(Pass: 3)
   Z0.2031     F60  
   X1.0827       Y3.8892     F80  
   X1.0750       Y3.8706    
   X1.0627       Y3.8545    
   X1.0466       Y3.8422    
   X1.0279       Y3.8345    
   X1.0079       Y3.8318    
   X0.9878       Y3.8345    
   X0.9692       Y3.8422    
   X0.9531       Y3.8545    
   X0.9408       Y3.8706    
   X0.9331       Y3.8892    
   X0.9304       Y3.9093    
   X0.9331       Y3.9293    
   X0.9408       Y3.9480    
   X0.9531       Y3.9640    
   X0.9692       Y3.9764    
   X0.9878       Y3.9841    
   X1.0079       Y3.9867    
   X1.0279       Y3.9841    
   X1.0466       Y3.9764    
   X1.0627       Y3.9640    
   X1.0750       Y3.9480    
   X1.0827       Y3.9293    
   X1.0853       Y3.9093    
(Pass: 4)
   Z0.1875     F60  
   X1.0827       Y3.8892     F80  
   X1.0750       Y3.8706    
   X1.0627       Y3.8545    
   X1.0466       Y3.8422    
   X1.0279       Y3.8345    
   X1.0079       Y3.8318    
   X0.9878       Y3.8345    
   X0.9692       Y3.8422    
   X0.9531       Y3.8545    
   X0.9408       Y3.8706    
   X0.9331       Y3.8892    
   X0.9304       Y3.9093    
   X0.9331       Y3.9293    
   X0.9408       Y3.9480    
   X0.9531       Y3.9640    
   X0.9692       Y3.9764    
   X0.9878       Y3.9841    
   X1.0079       Y3.9867    
   X1.0279       Y3.9841    
   X1.0466       Y3.9764    
   X1.0627       Y3.9640    
   X1.0750       Y3.9480    
   X1.0827       Y3.9293    
   X1.0853       Y3.9093    
(Pass: 5)
   Z0.1719     F60  
   X1.0827       Y3.8892     F80  
   X1.0750       Y3.8706    
   X1.0627       Y3.8545    
   X1.0466       Y3.8422    
   X1.0279       Y3.8345    
   X1.0079       Y3.8318    
   X0.9878       Y3.8345    
   X0.9692       Y3.8422    
   X0.9531       Y3.8545    
   X0.9408       Y3.8706    
   X0.9331       Y3.8892    
   X0.9304       Y3.9093    
   X0.9331       Y3.9293    
   X0.9408       Y3.9480    
   X0.9531       Y3.9640    
   X0.9692       Y3.9764    
   X0.9878       Y3.9841    
   X1.0079       Y3.9867    
   X1.0279       Y3.9841    
   X1.0466       Y3.9764    
   X1.0627       Y3.9640    
   X1.0750       Y3.9480    
   X1.0827       Y3.9293    
   X1.0853       Y3.9093    
(Pass: 6)
   Z0.1562     F60  
   X1.0827       Y3.8892     F80  
   X1.0750       Y3.8706    
   X1.0627       Y3.8545    
   X1.0466       Y3.8422    
   X1.0279       Y3.8345    
   X1.0079       Y3.8318    
   X0.9878       Y3.8345    
   X0.9692       Y3.8422    
   X0.9531       Y3.8545    
   X0.9408       Y3.8706    
   X0.9331       Y3.8892    
   X0.9304       Y3.9093    
   X0.9331       Y3.9293    
   X0.9408       Y3.9480    
   X0.9531       Y3.9640    
   X0.9692       Y3.9764    
   X0.9878       Y3.9841    
   X1.0079       Y3.9867    
   X1.0279       Y3.9841    
   X1.0466       Y3.9764    
   X1.0627       Y3.9640    
   X1.0750       Y3.9480    
   X1.0827       Y3.9293    
   X1.0853       Y3.9093    
(Pass: 7)
   Z0.1406     F60  
   X1.0827       Y3.8892     F80  
   X1.0750       Y3.8706    
   X1.0627       Y3.8545    
   X1.0466       Y3.8422    
   X1.0279       Y3.8345    
   X1.0079       Y3.8318    
   X0.9878       Y3.8345    
   X0.9692       Y3.8422    
   X0.9531       Y3.8545    
   X0.9408       Y3.8706    
   X0.9331       Y3.8892    
   X0.9304       Y3.9093    
   X0.9331       Y3.9293    
   X0.9408       Y3.9480    
   X0.9531       Y3.9640    
   X0.9692       Y3.9764    
   X0.9878       Y3.9841    
   X1.0079       Y3.9867    
   X1.0279       Y3.9841    
   X1.0466       Y3.9764    
   X1.0627       Y3.9640    
   X1.0750       Y3.9480    
   X1.0827       Y3.9293    
   X1.0853       Y3.9093    
(Pass: 8)
   Z0.1250     F60  
   X1.0827       Y3.8892     F80  
   X1.0750       Y3.8706    
   X1.0627       Y3.8545    
   X1.0466       Y3.8422    
   X1.0279       Y3.8345    
   X1.0079       Y3.8318    
   X0.9878       Y3.8345    
   X0.9692       Y3.8422    
   X0.9531       Y3.8545    
   X0.9408       Y3.8706    
   X0.9331       Y3.8892    
   X0.9304       Y3.9093    
   X0.9331       Y3.9293    
   X0.9408       Y3.9480    
   X0.9531       Y3.9640    
   X0.9692       Y3.9764    
   X0.9878       Y3.9841    
   X1.0079       Y3.9867    
   X1.0279       Y3.9841    
   X1.0466       Y3.9764    
   X1.0627       Y3.9640    
   X1.0750       Y3.9480    
   X1.0827       Y3.9293    
   X1.0853       Y3.9093    
(Pass: 9)
   Z0.1094     F60  
   X1.0827       Y3.8892     F80  
   X1.0750       Y3.8706    
   X1.0627       Y3.8545    
   X1.0466       Y3.8422    
   X1.0279       Y3.8345    
   X1.0079       Y3.8318    
   X0.9878       Y3.8345    
   X0.9692       Y3.8422    
   X0.9531       Y3.8545    
   X0.9408       Y3.8706    
   X0.9331       Y3.8892    
   X0.9304       Y3.9093    
   X0.9331       Y3.9293    
   X0.9408       Y3.9480    
   X0.9531       Y3.9640    
   X0.9692       Y3.9764    
   X0.9878       Y3.9841    
   X1.0079       Y3.9867    
   X1.0279       Y3.9841    
   X1.0466       Y3.9764    
   X1.0627       Y3.9640    
   X1.0750       Y3.9480    
   X1.0827       Y3.9293    
   X1.0853       Y3.9093    
(Pass: 10)
   Z0.0938     F60  
   X1.0827       Y3.8892     F80  
   X1.0750       Y3.8706    
   X1.0627       Y3.8545    
   X1.0466       Y3.8422    
   X1.0279       Y3.8345    
   X1.0079       Y3.8318    
   X0.9878       Y3.8345    
   X0.9692       Y3.8422    
   X0.9531       Y3.8545    
   X0.9408       Y3.8706    
   X0.9331       Y3.8892    
   X0.9304       Y3.9093    
   X0.9331       Y3.9293    
   X0.9408       Y3.9480    
   X0.9531       Y3.9640    
   X0.9692       Y3.9764    
   X0.9878       Y3.9841    
   X1.0079       Y3.9867    
   X1.0279       Y3.9841    
   X1.0466       Y3.9764    
   X1.0627       Y3.9640    
   X1.0750       Y3.9480    
   X1.0827       Y3.9293    
   X1.0853       Y3.9093    
(Pass: 11)
   Z0.0781     F60  
   X1.0827       Y3.8892     F80  
   X1.0750       Y3.8706    
   X1.0627       Y3.8545    
   X1.0466       Y3.8422    
   X1.0279       Y3.8345    
   X1.0079       Y3.8318    
   X0.9878       Y3.8345    
   X0.9692       Y3.8422    
   X0.9531       Y3.8545    
   X0.9408       Y3.8706    
   X0.9331       Y3.8892    
   X0.9304       Y3.9093    
   X0.9331       Y3.9293    
   X0.9408       Y3.9480    
   X0.9531       Y3.9640    
   X0.9692       Y3.9764    
   X0.9878       Y3.9841    
   X1.0079       Y3.9867    
   X1.0279       Y3.9841    
   X1.0466       Y3.9764    
   X1.0627       Y3.9640    
   X1.0750       Y3.9480    
   X1.0827       Y3.9293    
   X1.0853       Y3.9093    
(Pass: 12)
   Z0.0625     F60  
   X1.0827       Y3.8892     F80  
   X1.0750       Y3.8706    
   X1.0627       Y3.8545    
   X1.0466       Y3.8422    
   X1.0279       Y3.8345    
   X1.0079       Y3.8318    
   X0.9878       Y3.8345    
   X0.9692       Y3.8422    
   X0.9531       Y3.8545    
   X0.9408       Y3.8706    
   X0.9331       Y3.8892    
   X0.9304       Y3.9093    
   X0.9331       Y3.9293    
   X0.9408       Y3.9480    
   X0.9531       Y3.9640    
   X0.9692       Y3.9764    
   X0.9878       Y3.9841    
   X1.0079       Y3.9867    
   X1.0279       Y3.9841    
   X1.0466       Y3.9764    
   X1.0627       Y3.9640    
   X1.0750       Y3.9480    
   X1.0827       Y3.9293    
   X1.0853       Y3.9093    
(Pass: 13)
   Z0.0469     F60  
   X1.0827       Y3.8892     F80  
   X1.0750       Y3.8706    
   X1.0627       Y3.8545    
   X1.0466       Y3.8422    
   X1.0279       Y3.8345    
   X1.0079       Y3.8318    
   X0.9878       Y3.8345    
   X0.9692       Y3.8422    
   X0.9531       Y3.8545    
   X0.9408       Y3.8706    
   X0.9331       Y3.8892    
   X0.9304       Y3.9093    
   X0.9331       Y3.9293    
   X0.9408       Y3.9480    
   X0.9531       Y3.9640    
   X0.9692       Y3.9764    
   X0.9878       Y3.9841    
   X1.0079       Y3.9867    
   X1.0279       Y3.9841    
   X1.0466       Y3.9764    
   X1.0627       Y3.9640    
   X1.0750       Y3.9480    
   X1.0827       Y3.9293    
   X1.0853       Y3.9093    
(Pass: 14)
   Z0.0312     F60  
   X1.0827       Y3.8892     F80  
   X1.0750       Y3.8706    
   X1.0627       Y3.8545    
   X1.0466       Y3.8422    
   X1.0279       Y3.8345    
   X1.0079       Y3.8318    
   X0.9878       Y3.8345    
   X0.9692       Y3.8422    
   X0.9531       Y3.8545    
   X0.9408       Y3.8706    
   X0.9331       Y3.8892    
   X0.9304       Y3.9093    
   X0.9331       Y3.9293    
   X0.9408       Y3.9480    
   X0.9531       Y3.9640    
   X0.9692       Y3.9764    
   X0.9878       Y3.9841    
   X1.0079       Y3.9867    
   X1.0279       Y3.9841    
   X1.0466       Y3.9764    
   X1.0627       Y3.9640    
   X1.0750       Y3.9480    
   X1.0827       Y3.9293    
   X1.0853       Y3.9093    
(Pass: 15)
   Z0.0156     F60  
   X1.0827       Y3.8892     F80  
   X1.0750       Y3.8706    
   X1.0627       Y3.8545    
   X1.0466       Y3.8422    
   X1.0279       Y3.8345    
   X1.0079       Y3.8318    
   X0.9878       Y3.8345    
   X0.9692       Y3.8422    
   X0.9531       Y3.8545    
   X0.9408       Y3.8706    
   X0.9331       Y3.8892    
   X0.9304       Y3.9093    
   X0.9331       Y3.9293    
   X0.9408       Y3.9480    
   X0.9531       Y3.9640    
   X0.9692       Y3.9764    
   X0.9878       Y3.9841    
   X1.0079       Y3.9867    
   X1.0279       Y3.9841    
   X1.0466       Y3.9764    
   X1.0627       Y3.9640    
   X1.0750       Y3.9480    
   X1.0827       Y3.9293    
   X1.0853       Y3.9093    
(Pass: 16)
   Z0.0000     F60  
   X1.0827       Y3.8892     F80  
   X1.0750       Y3.8706    
   X1.0627       Y3.8545    
   X1.0466       Y3.8422    
   X1.0279       Y3.8345    
   X1.0079       Y3.8318    
   X0.9878       Y3.8345    
   X0.9692       Y3.8422    
   X0.9531       Y3.8545    
   X0.9408       Y3.8706    
   X0.9331       Y3.8892    
   X0.9304       Y3.9093    
   X0.9331       Y3.9293    
   X0.9408       Y3.9480    
   X0.9531       Y3.9640    
   X0.9692       Y3.9764    
   X0.9878       Y3.9841    
   X1.0079       Y3.9867    
   X1.0279       Y3.9841    
   X1.0466       Y3.9764    
   X1.0627       Y3.9640    
   X1.0750       Y3.9480    
   X1.0827       Y3.9293    
   X1.0853       Y3.9093    
G0   Z0.3750    
(Pass: 1)
   X1.0079       Y6.7972    
G1   Z0.2344     F60  
   X0.9878       Y6.7998     F80  
   X0.9692       Y6.8076    
   X0.9531       Y6.8199    
   X0.9408       Y6.8359    
   X0.9331       Y6.8546    
   X0.9304       Y6.8746    
   X0.9331       Y6.8947    
   X0.9408       Y6.9134    
   X0.9531       Y6.9294    
   X0.9692       Y6.9417    
   X0.9878       Y6.9494    
   X1.0079       Y6.9521    
   X1.0279       Y6.9494    
   X1.0466       Y6.9417    
   X1.0627       Y6.9294    
   X1.0750       Y6.9134    
   X1.0827       Y6.8947    
   X1.0853       Y6.8746    
   X1.0827       Y6.8546    
   X1.0750       Y6.8359    
   X1.0627       Y6.8199    
   X1.0466       Y6.8076    
   X1.0279       Y6.7998    
   X1.0079       Y6.7972    
(Pass: 2)
   Z0.2188     F60  
   X0.9878       Y6.7998     F80  
   X0.9692       Y6.8076    
   X0.9531       Y6.8199    
   X0.9408       Y6.8359    
   X0.9331       Y6.8546    
   X0.9304       Y6.8746    
   X0.9331       Y6.8947    
   X0.9408       Y6.9134    
   X0.9531       Y6.9294    
   X0.9692       Y6.9417    
   X0.9878       Y6.9494    
   X1.0079       Y6.9521    
   X1.0279       Y6.9494    
   X1.0466       Y6.9417    
   X1.0627       Y6.9294    
   X1.0750       Y6.9134    
   X1.0827       Y6.8947    
   X1.0853       Y6.8746    
   X1.0827       Y6.8546    
   X1.0750       Y6.8359    
   X1.0627       Y6.8199    
   X1.0466       Y6.8076    
   X1.0279       Y6.7998    
   X1.0079       Y6.7972    
(Pass: 3)
   Z0.2031     F60  
   X0.9878       Y6.7998     F80  
   X0.9692       Y6.8076    
   X0.9531       Y6.8199    
   X0.9408       Y6.8359    
   X0.9331       Y6.8546    
   X0.9304       Y6.8746    
   X0.9331       Y6.8947    
   X0.9408       Y6.9134    
   X0.9531       Y6.9294    
   X0.9692       Y6.9417    
   X0.9878       Y6.9494    
   X1.0079       Y6.9521    
   X1.0279       Y6.9494    
   X1.0466       Y6.9417    
   X1.0627       Y6.9294    
   X1.0750       Y6.9134    
   X1.0827       Y6.8947    
   X1.0853       Y6.8746    
   X1.0827       Y6.8546    
   X1.0750       Y6.8359    
   X1.0627       Y6.8199    
   X1.0466       Y6.8076    
   X1.0279       Y6.7998    
   X1.0079       Y6.7972    
(Pass: 4)
   Z0.1875     F60  
   X0.9878       Y6.7998     F80  
   X0.9692       Y6.8076    
   X0.9531       Y6.8199    
   X0.9408       Y6.8359    
   X0.9331       Y6.8546    
   X0.9304       Y6.8746    
   X0.9331       Y6.8947    
   X0.9408       Y6.9134    
   X0.9531       Y6.9294    
   X0.9692       Y6.9417    
   X0.9878       Y6.9494    
   X1.0079       Y6.9521    
   X1.0279       Y6.9494    
   X1.0466       Y6.9417    
   X1.0627       Y6.9294    
   X1.0750       Y6.9134    
   X1.0827       Y6.8947    
   X1.0853       Y6.8746    
   X1.0827       Y6.8546    
   X1.0750       Y6.8359    
   X1.0627       Y6.8199    
   X1.0466       Y6.8076    
   X1.0279       Y6.7998    
   X1.0079       Y6.7972    
(Pass: 5)
   Z0.1719     F60  
   X0.9878       Y6.7998     F80  
   X0.9692       Y6.8076    
   X0.9531       Y6.8199    
   X0.9408       Y6.8359    
   X0.9331       Y6.8546    
   X0.9304       Y6.8746    
   X0.9331       Y6.8947    
   X0.9408       Y6.9134    
   X0.9531       Y6.9294    
   X0.9692       Y6.9417    
   X0.9878       Y6.9494    
   X1.0079       Y6.9521    
   X1.0279       Y6.9494    
   X1.0466       Y6.9417    
   X1.0627       Y6.9294    
   X1.0750       Y6.9134    
   X1.0827       Y6.8947    
   X1.0853       Y6.8746    
   X1.0827       Y6.8546    
   X1.0750       Y6.8359    
   X1.0627       Y6.8199    
   X1.0466       Y6.8076    
   X1.0279       Y6.7998    
   X1.0079       Y6.7972    
(Pass: 6)
   Z0.1562     F60  
   X0.9878       Y6.7998     F80  
   X0.9692       Y6.8076    
   X0.9531       Y6.8199    
   X0.9408       Y6.8359    
   X0.9331       Y6.8546    
   X0.9304       Y6.8746    
   X0.9331       Y6.8947    
   X0.9408       Y6.9134    
   X0.9531       Y6.9294    
   X0.9692       Y6.9417    
   X0.9878       Y6.9494    
   X1.0079       Y6.9521    
   X1.0279       Y6.9494    
   X1.0466       Y6.9417    
   X1.0627       Y6.9294    
   X1.0750       Y6.9134    
   X1.0827       Y6.8947    
   X1.0853       Y6.8746    
   X1.0827       Y6.8546    
   X1.0750       Y6.8359    
   X1.0627       Y6.8199    
   X1.0466       Y6.8076    
   X1.0279       Y6.7998    
   X1.0079       Y6.7972    
(Pass: 7)
   Z0.1406     F60  
   X0.9878       Y6.7998     F80  
   X0.9692       Y6.8076    
   X0.9531       Y6.8199    
   X0.9408       Y6.8359    
   X0.9331       Y6.8546    
   X0.9304       Y6.8746    
   X0.9331       Y6.8947    
   X0.9408       Y6.9134    
   X0.9531       Y6.9294    
   X0.9692       Y6.9417    
   X0.9878       Y6.9494    
   X1.0079       Y6.9521    
   X1.0279       Y6.9494    
   X1.0466       Y6.9417    
   X1.0627       Y6.9294    
   X1.0750       Y6.9134    
   X1.0827       Y6.8947    
   X1.0853       Y6.8746    
   X1.0827       Y6.8546    
   X1.0750       Y6.8359    
   X1.0627       Y6.8199    
   X1.0466       Y6.8076    
   X1.0279       Y6.7998    
   X1.0079       Y6.7972    
(Pass: 8)
   Z0.1250     F60  
   X0.9878       Y6.7998     F80  
   X0.9692       Y6.8076    
   X0.9531       Y6.8199    
   X0.9408       Y6.8359    
   X0.9331       Y6.8546    
   X0.9304       Y6.8746    
   X0.9331       Y6.8947    
   X0.9408       Y6.9134    
   X0.9531       Y6.9294    
   X0.9692       Y6.9417    
   X0.9878       Y6.9494    
   X1.0079       Y6.9521    
   X1.0279       Y6.9494    
   X1.0466       Y6.9417    
   X1.0627       Y6.9294    
   X1.0750       Y6.9134    
   X1.0827       Y6.8947    
   X1.0853       Y6.8746    
   X1.0827       Y6.8546    
   X1.0750       Y6.8359    
   X1.0627       Y6.8199    
   X1.0466       Y6.8076    
   X1.0279       Y6.7998    
   X1.0079       Y6.7972    
(Pass: 9)
   Z0.1094     F60  
   X0.9878       Y6.7998     F80  
   X0.9692       Y6.8076    
   X0.9531       Y6.8199    
   X0.9408       Y6.8359    
   X0.9331       Y6.8546    
   X0.9304       Y6.8746    
   X0.9331       Y6.8947    
   X0.9408       Y6.9134    
   X0.9531       Y6.9294    
   X0.9692       Y6.9417    
   X0.9878       Y6.9494    
   X1.0079       Y6.9521    
   X1.0279       Y6.9494    
   X1.0466       Y6.9417    
   X1.0627       Y6.9294    
   X1.0750       Y6.9134    
   X1.0827       Y6.8947    
   X1.0853       Y6.8746    
   X1.0827       Y6.8546    
   X1.0750       Y6.8359    
   X1.0627       Y6.8199    
   X1.0466       Y6.8076    
   X1.0279       Y6.7998    
   X1.0079       Y6.7972    
(Pass: 10)
   Z0.0938     F60  
   X0.9878       Y6.7998     F80  
   X0.9692       Y6.8076    
   X0.9531       Y6.8199    
   X0.9408       Y6.8359    
   X0.9331       Y6.8546    
   X0.9304       Y6.8746    
   X0.9331       Y6.8947    
   X0.9408       Y6.9134    
   X0.9531       Y6.9294    
   X0.9692       Y6.9417    
   X0.9878       Y6.9494    
   X1.0079       Y6.9521    
   X1.0279       Y6.9494    
   X1.0466       Y6.9417    
   X1.0627       Y6.9294    
   X1.0750       Y6.9134    
   X1.0827       Y6.8947    
   X1.0853       Y6.8746    
   X1.0827       Y6.8546    
   X1.0750       Y6.8359    
   X1.0627       Y6.8199    
   X1.0466       Y6.8076    
   X1.0279       Y6.7998    
   X1.0079       Y6.7972    
(Pass: 11)
   Z0.0781     F60  
   X0.9878       Y6.7998     F80  
   X0.9692       Y6.8076    
   X0.9531       Y6.8199    
   X0.9408       Y6.8359    
   X0.9331       Y6.8546    
   X0.9304       Y6.8746    
   X0.9331       Y6.8947    
   X0.9408       Y6.9134    
   X0.9531       Y6.9294    
   X0.9692       Y6.9417    
   X0.9878       Y6.9494    
   X1.0079       Y6.9521    
   X1.0279       Y6.9494    
   X1.0466       Y6.9417    
   X1.0627       Y6.9294    
   X1.0750       Y6.9134    
   X1.0827       Y6.8947    
   X1.0853       Y6.8746    
   X1.0827       Y6.8546    
   X1.0750       Y6.8359    
   X1.0627       Y6.8199    
   X1.0466       Y6.8076    
   X1.0279       Y6.7998    
   X1.0079       Y6.7972    
(Pass: 12)
   Z0.0625     F60  
   X0.9878       Y6.7998     F80  
   X0.9692       Y6.8076    
   X0.9531       Y6.8199    
   X0.9408       Y6.8359    
   X0.9331       Y6.8546    
   X0.9304       Y6.8746    
   X0.9331       Y6.8947    
   X0.9408       Y6.9134    
   X0.9531       Y6.9294    
   X0.9692       Y6.9417    
   X0.9878       Y6.9494    
   X1.0079       Y6.9521    
   X1.0279       Y6.9494    
   X1.0466       Y6.9417    
   X1.0627       Y6.9294    
   X1.0750       Y6.9134    
   X1.0827       Y6.8947    
   X1.0853       Y6.8746    
   X1.0827       Y6.8546    
   X1.0750       Y6.8359    
   X1.0627       Y6.8199    
   X1.0466       Y6.8076    
   X1.0279       Y6.7998    
   X1.0079       Y6.7972    
(Pass: 13)
   Z0.0469     F60  
   X0.9878       Y6.7998     F80  
   X0.9692       Y6.8076    
   X0.9531       Y6.8199    
   X0.9408       Y6.8359    
   X0.9331       Y6.8546    
   X0.9304       Y6.8746    
   X0.9331       Y6.8947    
   X0.9408       Y6.9134    
   X0.9531       Y6.9294    
   X0.9692       Y6.9417    
   X0.9878       Y6.9494    
   X1.0079       Y6.9521    
   X1.0279       Y6.9494    
   X1.0466       Y6.9417    
   X1.0627       Y6.9294    
   X1.0750       Y6.9134    
   X1.0827       Y6.8947    
   X1.0853       Y6.8746    
   X1.0827       Y6.8546    
   X1.0750       Y6.8359    
   X1.0627       Y6.8199    
   X1.0466       Y6.8076    
   X1.0279       Y6.7998    
   X1.0079       Y6.7972    
(Pass: 14)
   Z0.0312     F60  
   X0.9878       Y6.7998     F80  
   X0.9692       Y6.8076    
   X0.9531       Y6.8199    
   X0.9408       Y6.8359    
   X0.9331       Y6.8546    
   X0.9304       Y6.8746    
   X0.9331       Y6.8947    
   X0.9408       Y6.9134    
   X0.9531       Y6.9294    
   X0.9692       Y6.9417    
   X0.9878       Y6.9494    
   X1.0079       Y6.9521    
   X1.0279       Y6.9494    
   X1.0466       Y6.9417    
   X1.0627       Y6.9294    
   X1.0750       Y6.9134    
   X1.0827       Y6.8947    
   X1.0853       Y6.8746    
   X1.0827       Y6.8546    
   X1.0750       Y6.8359    
   X1.0627       Y6.8199    
   X1.0466       Y6.8076    
   X1.0279       Y6.7998    
   X1.0079       Y6.7972    
(Pass: 15)
   Z0.0156     F60  
   X0.9878       Y6.7998     F80  
   X0.9692       Y6.8076    
   X0.9531       Y6.8199    
   X0.9408       Y6.8359    
   X0.9331       Y6.8546    
   X0.9304       Y6.8746    
   X0.9331       Y6.8947    
   X0.9408       Y6.9134    
   X0.9531       Y6.9294    
   X0.9692       Y6.9417    
   X0.9878       Y6.9494    
   X1.0079       Y6.9521    
   X1.0279       Y6.9494    
   X1.0466       Y6.9417    
   X1.0627       Y6.9294    
   X1.0750       Y6.9134    
   X1.0827       Y6.8947    
   X1.0853       Y6.8746    
   X1.0827       Y6.8546    
   X1.0750       Y6.8359    
   X1.0627       Y6.8199    
   X1.0466       Y6.8076    
   X1.0279       Y6.7998    
   X1.0079       Y6.7972    
(Pass: 16)
   Z0.0000     F60  
   X0.9878       Y6.7998     F80  
   X0.9692       Y6.8076    
   X0.9531       Y6.8199    
   X0.9408       Y6.8359    
   X0.9331       Y6.8546    
   X0.9304       Y6.8746    
   X0.9331       Y6.8947    
   X0.9408       Y6.9134    
   X0.9531       Y6.9294    
   X0.9692       Y6.9417    
   X0.9878       Y6.9494    
   X1.0079       Y6.9521    
   X1.0279       Y6.9494    
   X1.0466       Y6.9417    
   X1.0627       Y6.9294    
   X1.0750       Y6.9134    
   X1.0827       Y6.8947    
   X1.0853       Y6.8746    
   X1.0827       Y6.8546    
   X1.0750       Y6.8359    
   X1.0627       Y6.8199    
   X1.0466       Y6.8076    
   X1.0279       Y6.7998    
   X1.0079       Y6.7972    
G0   Z0.3750    
(Pass: 1)
   X1.7205       Y6.8546    
G1   Z0.2344     F60  
   X1.7178       Y6.8746     F80  
   X1.7205       Y6.8947    
   X1.7282       Y6.9134    
   X1.7405       Y6.9294    
   X1.7566       Y6.9417    
   X1.7752       Y6.9494    
   X1.7953       Y6.9521    
   X1.8153       Y6.9494    
   X1.8340       Y6.9417    
   X1.8501       Y6.9294    
   X1.8624       Y6.9134    
   X1.8701       Y6.8947    
   X1.8727       Y6.8746    
   X1.8701       Y6.8546    
   X1.8624       Y6.8359    
   X1.8501       Y6.8199    
   X1.8340       Y6.8076    
   X1.8153       Y6.7998    
   X1.7953       Y6.7972    
   X1.7752       Y6.7998    
   X1.7566       Y6.8076    
   X1.7405       Y6.8199    
   X1.7282       Y6.8359    
   X1.7205       Y6.8546    
(Pass: 2)
   Z0.2188     F60  
   X1.7178       Y6.8746     F80  
   X1.7205       Y6.8947    
   X1.7282       Y6.9134    
   X1.7405       Y6.9294    
   X1.7566       Y6.9417    
   X1.7752       Y6.9494    
   X1.7953       Y6.9521    
   X1.8153       Y6.9494    
   X1.8340       Y6.9417    
   X1.8501       Y6.9294    
   X1.8624       Y6.9134    
   X1.8701       Y6.8947    
   X1.8727       Y6.8746    
   X1.8701       Y6.8546    
   X1.8624       Y6.8359    
   X1.8501       Y6.8199    
   X1.8340       Y6.8076    
   X1.8153       Y6.7998    
   X1.7953       Y6.7972    
   X1.7752       Y6.7998    
   X1.7566       Y6.8076    
   X1.7405       Y6.8199    
   X1.7282       Y6.8359    
   X1.7205       Y6.8546    
(Pass: 3)
   Z0.2031     F60  
   X1.7178       Y6.8746     F80  
   X1.7205       Y6.8947    
   X1.7282       Y6.9134    
   X1.7405       Y6.9294    
   X1.7566       Y6.9417    
   X1.7752       Y6.9494    
   X1.7953       Y6.9521    
   X1.8153       Y6.9494    
   X1.8340       Y6.9417    
   X1.8501       Y6.9294    
   X1.8624       Y6.9134    
   X1.8701       Y6.8947    
   X1.8727       Y6.8746    
   X1.8701       Y6.8546    
   X1.8624       Y6.8359    
   X1.8501       Y6.8199    
   X1.8340       Y6.8076    
   X1.8153       Y6.7998    
   X1.7953       Y6.7972    
   X1.7752       Y6.7998    
   X1.7566       Y6.8076    
   X1.7405       Y6.8199    
   X1.7282       Y6.8359    
   X1.7205       Y6.8546    
(Pass: 4)
   Z0.1875     F60  
   X1.7178       Y6.8746     F80  
   X1.7205       Y6.8947    
   X1.7282       Y6.9134    
   X1.7405       Y6.9294    
   X1.7566       Y6.9417    
   X1.7752       Y6.9494    
   X1.7953       Y6.9521    
   X1.8153       Y6.9494    
   X1.8340       Y6.9417    
   X1.8501       Y6.9294    
   X1.8624       Y6.9134    
   X1.8701       Y6.8947    
   X1.8727       Y6.8746    
   X1.8701       Y6.8546    
   X1.8624       Y6.8359    
   X1.8501       Y6.8199    
   X1.8340       Y6.8076    
   X1.8153       Y6.7998    
   X1.7953       Y6.7972    
   X1.7752       Y6.7998    
   X1.7566       Y6.8076    
   X1.7405       Y6.8199    
   X1.7282       Y6.8359    
   X1.7205       Y6.8546    
(Pass: 5)
   Z0.1719     F60  
   X1.7178       Y6.8746     F80  
   X1.7205       Y6.8947    
   X1.7282       Y6.9134    
   X1.7405       Y6.9294    
   X1.7566       Y6.9417    
   X1.7752       Y6.9494    
   X1.7953       Y6.9521    
   X1.8153       Y6.9494    
   X1.8340       Y6.9417    
   X1.8501       Y6.9294    
   X1.8624       Y6.9134    
   X1.8701       Y6.8947    
   X1.8727       Y6.8746    
   X1.8701       Y6.8546    
   X1.8624       Y6.8359    
   X1.8501       Y6.8199    
   X1.8340       Y6.8076    
   X1.8153       Y6.7998    
   X1.7953       Y6.7972    
   X1.7752       Y6.7998    
   X1.7566       Y6.8076    
   X1.7405       Y6.8199    
   X1.7282       Y6.8359    
   X1.7205       Y6.8546    
(Pass: 6)
   Z0.1562     F60  
   X1.7178       Y6.8746     F80  
   X1.7205       Y6.8947    
   X1.7282       Y6.9134    
   X1.7405       Y6.9294    
   X1.7566       Y6.9417    
   X1.7752       Y6.9494    
   X1.7953       Y6.9521    
   X1.8153       Y6.9494    
   X1.8340       Y6.9417    
   X1.8501       Y6.9294    
   X1.8624       Y6.9134    
   X1.8701       Y6.8947    
   X1.8727       Y6.8746    
   X1.8701       Y6.8546    
   X1.8624       Y6.8359    
   X1.8501       Y6.8199    
   X1.8340       Y6.8076    
   X1.8153       Y6.7998    
   X1.7953       Y6.7972    
   X1.7752       Y6.7998    
   X1.7566       Y6.8076    
   X1.7405       Y6.8199    
   X1.7282       Y6.8359    
   X1.7205       Y6.8546    
(Pass: 7)
   Z0.1406     F60  
   X1.7178       Y6.8746     F80  
   X1.7205       Y6.8947    
   X1.7282       Y6.9134    
   X1.7405       Y6.9294    
   X1.7566       Y6.9417    
   X1.7752       Y6.9494    
   X1.7953       Y6.9521    
   X1.8153       Y6.9494    
   X1.8340       Y6.9417    
   X1.8501       Y6.9294    
   X1.8624       Y6.9134    
   X1.8701       Y6.8947    
   X1.8727       Y6.8746    
   X1.8701       Y6.8546    
   X1.8624       Y6.8359    
   X1.8501       Y6.8199    
   X1.8340       Y6.8076    
   X1.8153       Y6.7998    
   X1.7953       Y6.7972    
   X1.7752       Y6.7998    
   X1.7566       Y6.8076    
   X1.7405       Y6.8199    
   X1.7282       Y6.8359    
   X1.7205       Y6.8546    
(Pass: 8)
   Z0.1250     F60  
   X1.7178       Y6.8746     F80  
   X1.7205       Y6.8947    
   X1.7282       Y6.9134    
   X1.7405       Y6.9294    
   X1.7566       Y6.9417    
   X1.7752       Y6.9494    
   X1.7953       Y6.9521    
   X1.8153       Y6.9494    
   X1.8340       Y6.9417    
   X1.8501       Y6.9294    
   X1.8624       Y6.9134    
   X1.8701       Y6.8947    
   X1.8727       Y6.8746    
   X1.8701       Y6.8546    
   X1.8624       Y6.8359    
   X1.8501       Y6.8199    
   X1.8340       Y6.8076    
   X1.8153       Y6.7998    
   X1.7953       Y6.7972    
   X1.7752       Y6.7998    
   X1.7566       Y6.8076    
   X1.7405       Y6.8199    
   X1.7282       Y6.8359    
   X1.7205       Y6.8546    
(Pass: 9)
   Z0.1094     F60  
   X1.7178       Y6.8746     F80  
   X1.7205       Y6.8947    
   X1.7282       Y6.9134    
   X1.7405       Y6.9294    
   X1.7566       Y6.9417    
   X1.7752       Y6.9494    
   X1.7953       Y6.9521    
   X1.8153       Y6.9494    
   X1.8340       Y6.9417    
   X1.8501       Y6.9294    
   X1.8624       Y6.9134    
   X1.8701       Y6.8947    
   X1.8727       Y6.8746    
   X1.8701       Y6.8546    
   X1.8624       Y6.8359    
   X1.8501       Y6.8199    
   X1.8340       Y6.8076    
   X1.8153       Y6.7998    
   X1.7953       Y6.7972    
   X1.7752       Y6.7998    
   X1.7566       Y6.8076    
   X1.7405       Y6.8199    
   X1.7282       Y6.8359    
   X1.7205       Y6.8546    
(Pass: 10)
   Z0.0938     F60  
   X1.7178       Y6.8746     F80  
   X1.7205       Y6.8947    
   X1.7282       Y6.9134    
   X1.7405       Y6.9294    
   X1.7566       Y6.9417    
   X1.7752       Y6.9494    
   X1.7953       Y6.9521    
   X1.8153       Y6.9494    
   X1.8340       Y6.9417    
   X1.8501       Y6.9294    
   X1.8624       Y6.9134    
   X1.8701       Y6.8947    
   X1.8727       Y6.8746    
   X1.8701       Y6.8546    
   X1.8624       Y6.8359    
   X1.8501       Y6.8199    
   X1.8340       Y6.8076    
   X1.8153       Y6.7998    
   X1.7953       Y6.7972    
   X1.7752       Y6.7998    
   X1.7566       Y6.8076    
   X1.7405       Y6.8199    
   X1.7282       Y6.8359    
   X1.7205       Y6.8546    
(Pass: 11)
   Z0.0781     F60  
   X1.7178       Y6.8746     F80  
   X1.7205       Y6.8947    
   X1.7282       Y6.9134    
   X1.7405       Y6.9294    
   X1.7566       Y6.9417    
   X1.7752       Y6.9494    
   X1.7953       Y6.9521    
   X1.8153       Y6.9494    
   X1.8340       Y6.9417    
   X1.8501       Y6.9294    
   X1.8624       Y6.9134    
   X1.8701       Y6.8947    
   X1.8727       Y6.8746    
   X1.8701       Y6.8546    
   X1.8624       Y6.8359    
   X1.8501       Y6.8199    
   X1.8340       Y6.8076    
   X1.8153       Y6.7998    
   X1.7953       Y6.7972    
   X1.7752       Y6.7998    
   X1.7566       Y6.8076    
   X1.7405       Y6.8199    
   X1.7282       Y6.8359    
   X1.7205       Y6.8546    
(Pass: 12)
   Z0.0625     F60  
   X1.7178       Y6.8746     F80  
   X1.7205       Y6.8947    
   X1.7282       Y6.9134    
   X1.7405       Y6.9294    
   X1.7566       Y6.9417    
   X1.7752       Y6.9494    
   X1.7953       Y6.9521    
   X1.8153       Y6.9494    
   X1.8340       Y6.9417    
   X1.8501       Y6.9294    
   X1.8624       Y6.9134    
   X1.8701       Y6.8947    
   X1.8727       Y6.8746    
   X1.8701       Y6.8546    
   X1.8624       Y6.8359    
   X1.8501       Y6.8199    
   X1.8340       Y6.8076    
   X1.8153       Y6.7998    
   X1.7953       Y6.7972    
   X1.7752       Y6.7998    
   X1.7566       Y6.8076    
   X1.7405       Y6.8199    
   X1.7282       Y6.8359    
   X1.7205       Y6.8546    
(Pass: 13)
   Z0.0469     F60  
   X1.7178       Y6.8746     F80  
   X1.7205       Y6.8947    
   X1.7282       Y6.9134    
   X1.7405       Y6.9294    
   X1.7566       Y6.9417    
   X1.7752       Y6.9494    
   X1.7953       Y6.9521    
   X1.8153       Y6.9494    
   X1.8340       Y6.9417    
   X1.8501       Y6.9294    
   X1.8624       Y6.9134    
   X1.8701       Y6.8947    
   X1.8727       Y6.8746    
   X1.8701       Y6.8546    
   X1.8624       Y6.8359    
   X1.8501       Y6.8199    
   X1.8340       Y6.8076    
   X1.8153       Y6.7998    
   X1.7953       Y6.7972    
   X1.7752       Y6.7998    
   X1.7566       Y6.8076    
   X1.7405       Y6.8199    
   X1.7282       Y6.8359    
   X1.7205       Y6.8546    
(Pass: 14)
   Z0.0312     F60  
   X1.7178       Y6.8746     F80  
   X1.7205       Y6.8947    
   X1.7282       Y6.9134    
   X1.7405       Y6.9294    
   X1.7566       Y6.9417    
   X1.7752       Y6.9494    
   X1.7953       Y6.9521    
   X1.8153       Y6.9494    
   X1.8340       Y6.9417    
   X1.8501       Y6.9294    
   X1.8624       Y6.9134    
   X1.8701       Y6.8947    
   X1.8727       Y6.8746    
   X1.8701       Y6.8546    
   X1.8624       Y6.8359    
   X1.8501       Y6.8199    
   X1.8340       Y6.8076    
   X1.8153       Y6.7998    
   X1.7953       Y6.7972    
   X1.7752       Y6.7998    
   X1.7566       Y6.8076    
   X1.7405       Y6.8199    
   X1.7282       Y6.8359    
   X1.7205       Y6.8546    
(Pass: 15)
   Z0.0156     F60  
   X1.7178       Y6.8746     F80  
   X1.7205       Y6.8947    
   X1.7282       Y6.9134    
   X1.7405       Y6.9294    
   X1.7566       Y6.9417    
   X1.7752       Y6.9494    
   X1.7953       Y6.9521    
   X1.8153       Y6.9494    
   X1.8340       Y6.9417    
   X1.8501       Y6.9294    
   X1.8624       Y6.9134    
   X1.8701       Y6.8947    
   X1.8727       Y6.8746    
   X1.8701       Y6.8546    
   X1.8624       Y6.8359    
   X1.8501       Y6.8199    
   X1.8340       Y6.8076    
   X1.8153       Y6.7998    
   X1.7953       Y6.7972    
   X1.7752       Y6.7998    
   X1.7566       Y6.8076    
   X1.7405       Y6.8199    
   X1.7282       Y6.8359    
   X1.7205       Y6.8546    
(Pass: 16)
   Z0.0000     F60  
   X1.7178       Y6.8746     F80  
   X1.7205       Y6.8947    
   X1.7282       Y6.9134    
   X1.7405       Y6.9294    
   X1.7566       Y6.9417    
   X1.7752       Y6.9494    
   X1.7953       Y6.9521    
   X1.8153       Y6.9494    
   X1.8340       Y6.9417    
   X1.8501       Y6.9294    
   X1.8624       Y6.9134    
   X1.8701       Y6.8947    
   X1.8727       Y6.8746    
   X1.8701       Y6.8546    
   X1.8624       Y6.8359    
   X1.8501       Y6.8199    
   X1.8340       Y6.8076    
   X1.8153       Y6.7998    
   X1.7953       Y6.7972    
   X1.7752       Y6.7998    
   X1.7566       Y6.8076    
   X1.7405       Y6.8199    
   X1.7282       Y6.8359    
   X1.7205       Y6.8546    
G0   Z0.3750    
(Pass: 1)
   X4.8844       Y6.8746    
G1   Z0.2344     F60  
   X4.8856       Y6.8838     F80  
   X4.8891       Y6.8923    
   X4.8947       Y6.8997    
   X4.9021       Y6.9053    
   X4.9106       Y6.9088    
   X4.9198       Y6.9100    
   X4.9289       Y6.9088    
   X4.9375       Y6.9053    
   X4.9448       Y6.8997    
   X4.9504       Y6.8923    
   X4.9539       Y6.8838    
   X4.9551       Y6.8746    
   X4.9539       Y6.8655    
   X4.9504       Y6.8569    
   X4.9448       Y6.8496    
   X4.9375       Y6.8440    
   X4.9289       Y6.8405    
   X4.9198       Y6.8392    
   X4.9106       Y6.8405    
   X4.9021       Y6.8440    
   X4.8947       Y6.8496    
   X4.8891       Y6.8569    
   X4.8856       Y6.8655    
   X4.8844       Y6.8746    
(Pass: 2)
   Z0.2188     F60  
   X4.8856       Y6.8838     F80  
   X4.8891       Y6.8923    
   X4.8947       Y6.8997    
   X4.9021       Y6.9053    
   X4.9106       Y6.9088    
   X4.9198       Y6.9100    
   X4.9289       Y6.9088    
   X4.9375       Y6.9053    
   X4.9448       Y6.8997    
   X4.9504       Y6.8923    
   X4.9539       Y6.8838    
   X4.9551       Y6.8746    
   X4.9539       Y6.8655    
   X4.9504       Y6.8569    
   X4.9448       Y6.8496    
   X4.9375       Y6.8440    
   X4.9289       Y6.8405    
   X4.9198       Y6.8392    
   X4.9106       Y6.8405    
   X4.9021       Y6.8440    
   X4.8947       Y6.8496    
   X4.8891       Y6.8569    
   X4.8856       Y6.8655    
   X4.8844       Y6.8746    
(Pass: 3)
   Z0.2031     F60  
   X4.8856       Y6.8838     F80  
   X4.8891       Y6.8923    
   X4.8947       Y6.8997    
   X4.9021       Y6.9053    
   X4.9106       Y6.9088    
   X4.9198       Y6.9100    
   X4.9289       Y6.9088    
   X4.9375       Y6.9053    
   X4.9448       Y6.8997    
   X4.9504       Y6.8923    
   X4.9539       Y6.8838    
   X4.9551       Y6.8746    
   X4.9539       Y6.8655    
   X4.9504       Y6.8569    
   X4.9448       Y6.8496    
   X4.9375       Y6.8440    
   X4.9289       Y6.8405    
   X4.9198       Y6.8392    
   X4.9106       Y6.8405    
   X4.9021       Y6.8440    
   X4.8947       Y6.8496    
   X4.8891       Y6.8569    
   X4.8856       Y6.8655    
   X4.8844       Y6.8746    
(Pass: 4)
   Z0.1875     F60  
   X4.8856       Y6.8838     F80  
   X4.8891       Y6.8923    
   X4.8947       Y6.8997    
   X4.9021       Y6.9053    
   X4.9106       Y6.9088    
   X4.9198       Y6.9100    
   X4.9289       Y6.9088    
   X4.9375       Y6.9053    
   X4.9448       Y6.8997    
   X4.9504       Y6.8923    
   X4.9539       Y6.8838    
   X4.9551       Y6.8746    
   X4.9539       Y6.8655    
   X4.9504       Y6.8569    
   X4.9448       Y6.8496    
   X4.9375       Y6.8440    
   X4.9289       Y6.8405    
   X4.9198       Y6.8392    
   X4.9106       Y6.8405    
   X4.9021       Y6.8440    
   X4.8947       Y6.8496    
   X4.8891       Y6.8569    
   X4.8856       Y6.8655    
   X4.8844       Y6.8746    
(Pass: 5)
   Z0.1719     F60  
   X4.8856       Y6.8838     F80  
   X4.8891       Y6.8923    
   X4.8947       Y6.8997    
   X4.9021       Y6.9053    
   X4.9106       Y6.9088    
   X4.9198       Y6.9100    
   X4.9289       Y6.9088    
   X4.9375       Y6.9053    
   X4.9448       Y6.8997    
   X4.9504       Y6.8923    
   X4.9539       Y6.8838    
   X4.9551       Y6.8746    
   X4.9539       Y6.8655    
   X4.9504       Y6.8569    
   X4.9448       Y6.8496    
   X4.9375       Y6.8440    
   X4.9289       Y6.8405    
   X4.9198       Y6.8392    
   X4.9106       Y6.8405    
   X4.9021       Y6.8440    
   X4.8947       Y6.8496    
   X4.8891       Y6.8569    
   X4.8856       Y6.8655    
   X4.8844       Y6.8746    
(Pass: 6)
   Z0.1562     F60  
   X4.8856       Y6.8838     F80  
   X4.8891       Y6.8923    
   X4.8947       Y6.8997    
   X4.9021       Y6.9053    
   X4.9106       Y6.9088    
   X4.9198       Y6.9100    
   X4.9289       Y6.9088    
   X4.9375       Y6.9053    
   X4.9448       Y6.8997    
   X4.9504       Y6.8923    
   X4.9539       Y6.8838    
   X4.9551       Y6.8746    
   X4.9539       Y6.8655    
   X4.9504       Y6.8569    
   X4.9448       Y6.8496    
   X4.9375       Y6.8440    
   X4.9289       Y6.8405    
   X4.9198       Y6.8392    
   X4.9106       Y6.8405    
   X4.9021       Y6.8440    
   X4.8947       Y6.8496    
   X4.8891       Y6.8569    
   X4.8856       Y6.8655    
   X4.8844       Y6.8746    
(Pass: 7)
   Z0.1406     F60  
   X4.8856       Y6.8838     F80  
   X4.8891       Y6.8923    
   X4.8947       Y6.8997    
   X4.9021       Y6.9053    
   X4.9106       Y6.9088    
   X4.9198       Y6.9100    
   X4.9289       Y6.9088    
   X4.9375       Y6.9053    
   X4.9448       Y6.8997    
   X4.9504       Y6.8923    
   X4.9539       Y6.8838    
   X4.9551       Y6.8746    
   X4.9539       Y6.8655    
   X4.9504       Y6.8569    
   X4.9448       Y6.8496    
   X4.9375       Y6.8440    
   X4.9289       Y6.8405    
   X4.9198       Y6.8392    
   X4.9106       Y6.8405    
   X4.9021       Y6.8440    
   X4.8947       Y6.8496    
   X4.8891       Y6.8569    
   X4.8856       Y6.8655    
   X4.8844       Y6.8746    
(Pass: 8)
   Z0.1250     F60  
   X4.8856       Y6.8838     F80  
   X4.8891       Y6.8923    
   X4.8947       Y6.8997    
   X4.9021       Y6.9053    
   X4.9106       Y6.9088    
   X4.9198       Y6.9100    
   X4.9289       Y6.9088    
   X4.9375       Y6.9053    
   X4.9448       Y6.8997    
   X4.9504       Y6.8923    
   X4.9539       Y6.8838    
   X4.9551       Y6.8746    
   X4.9539       Y6.8655    
   X4.9504       Y6.8569    
   X4.9448       Y6.8496    
   X4.9375       Y6.8440    
   X4.9289       Y6.8405    
   X4.9198       Y6.8392    
   X4.9106       Y6.8405    
   X4.9021       Y6.8440    
   X4.8947       Y6.8496    
   X4.8891       Y6.8569    
   X4.8856       Y6.8655    
   X4.8844       Y6.8746    
(Pass: 9)
   Z0.1094     F60  
   X4.8856       Y6.8838     F80  
   X4.8891       Y6.8923    
   X4.8947       Y6.8997    
   X4.9021       Y6.9053    
   X4.9106       Y6.9088    
   X4.9198       Y6.9100    
   X4.9289       Y6.9088    
   X4.9375       Y6.9053    
   X4.9448       Y6.8997    
   X4.9504       Y6.8923    
   X4.9539       Y6.8838    
   X4.9551       Y6.8746    
   X4.9539       Y6.8655    
   X4.9504       Y6.8569    
   X4.9448       Y6.8496    
   X4.9375       Y6.8440    
   X4.9289       Y6.8405    
   X4.9198       Y6.8392    
   X4.9106       Y6.8405    
   X4.9021       Y6.8440    
   X4.8947       Y6.8496    
   X4.8891       Y6.8569    
   X4.8856       Y6.8655    
   X4.8844       Y6.8746    
(Pass: 10)
   Z0.0938     F60  
   X4.8856       Y6.8838     F80  
   X4.8891       Y6.8923    
   X4.8947       Y6.8997    
   X4.9021       Y6.9053    
   X4.9106       Y6.9088    
   X4.9198       Y6.9100    
   X4.9289       Y6.9088    
   X4.9375       Y6.9053    
   X4.9448       Y6.8997    
   X4.9504       Y6.8923    
   X4.9539       Y6.8838    
   X4.9551       Y6.8746    
   X4.9539       Y6.8655    
   X4.9504       Y6.8569    
   X4.9448       Y6.8496    
   X4.9375       Y6.8440    
   X4.9289       Y6.8405    
   X4.9198       Y6.8392    
   X4.9106       Y6.8405    
   X4.9021       Y6.8440    
   X4.8947       Y6.8496    
   X4.8891       Y6.8569    
   X4.8856       Y6.8655    
   X4.8844       Y6.8746    
(Pass: 11)
   Z0.0781     F60  
   X4.8856       Y6.8838     F80  
   X4.8891       Y6.8923    
   X4.8947       Y6.8997    
   X4.9021       Y6.9053    
   X4.9106       Y6.9088    
   X4.9198       Y6.9100    
   X4.9289       Y6.9088    
   X4.9375       Y6.9053    
   X4.9448       Y6.8997    
   X4.9504       Y6.8923    
   X4.9539       Y6.8838    
   X4.9551       Y6.8746    
   X4.9539       Y6.8655    
   X4.9504       Y6.8569    
   X4.9448       Y6.8496    
   X4.9375       Y6.8440    
   X4.9289       Y6.8405    
   X4.9198       Y6.8392    
   X4.9106       Y6.8405    
   X4.9021       Y6.8440    
   X4.8947       Y6.8496    
   X4.8891       Y6.8569    
   X4.8856       Y6.8655    
   X4.8844       Y6.8746    
(Pass: 12)
   Z0.0625     F60  
   X4.8856       Y6.8838     F80  
   X4.8891       Y6.8923    
   X4.8947       Y6.8997    
   X4.9021       Y6.9053    
   X4.9106       Y6.9088    
   X4.9198       Y6.9100    
   X4.9289       Y6.9088    
   X4.9375       Y6.9053    
   X4.9448       Y6.8997    
   X4.9504       Y6.8923    
   X4.9539       Y6.8838    
   X4.9551       Y6.8746    
   X4.9539       Y6.8655    
   X4.9504       Y6.8569    
   X4.9448       Y6.8496    
   X4.9375       Y6.8440    
   X4.9289       Y6.8405    
   X4.9198       Y6.8392    
   X4.9106       Y6.8405    
   X4.9021       Y6.8440    
   X4.8947       Y6.8496    
   X4.8891       Y6.8569    
   X4.8856       Y6.8655    
   X4.8844       Y6.8746    
(Pass: 13)
   Z0.0469     F60  
   X4.8856       Y6.8838     F80  
   X4.8891       Y6.8923    
   X4.8947       Y6.8997    
   X4.9021       Y6.9053    
   X4.9106       Y6.9088    
   X4.9198       Y6.9100    
   X4.9289       Y6.9088    
   X4.9375       Y6.9053    
   X4.9448       Y6.8997    
   X4.9504       Y6.8923    
   X4.9539       Y6.8838    
   X4.9551       Y6.8746    
   X4.9539       Y6.8655    
   X4.9504       Y6.8569    
   X4.9448       Y6.8496    
   X4.9375       Y6.8440    
   X4.9289       Y6.8405    
   X4.9198       Y6.8392    
   X4.9106       Y6.8405    
   X4.9021       Y6.8440    
   X4.8947       Y6.8496    
   X4.8891       Y6.8569    
   X4.8856       Y6.8655    
   X4.8844       Y6.8746    
(Pass: 14)
   Z0.0312     F60  
   X4.8856       Y6.8838     F80  
   X4.8891       Y6.8923    
   X4.8947       Y6.8997    
   X4.9021       Y6.9053    
   X4.9106       Y6.9088    
   X4.9198       Y6.9100    
   X4.9289       Y6.9088    
   X4.9375       Y6.9053    
   X4.9448       Y6.8997    
   X4.9504       Y6.8923    
   X4.9539       Y6.8838    
   X4.9551       Y6.8746    
   X4.9539       Y6.8655    
   X4.9504       Y6.8569    
   X4.9448       Y6.8496    
   X4.9375       Y6.8440    
   X4.9289       Y6.8405    
   X4.9198       Y6.8392    
   X4.9106       Y6.8405    
   X4.9021       Y6.8440    
   X4.8947       Y6.8496    
   X4.8891       Y6.8569    
   X4.8856       Y6.8655    
   X4.8844       Y6.8746    
(Pass: 15)
   Z0.0156     F60  
   X4.8856       Y6.8838     F80  
   X4.8891       Y6.8923    
   X4.8947       Y6.8997    
   X4.9021       Y6.9053    
   X4.9106       Y6.9088    
   X4.9198       Y6.9100    
   X4.9289       Y6.9088    
   X4.9375       Y6.9053    
   X4.9448       Y6.8997    
   X4.9504       Y6.8923    
   X4.9539       Y6.8838    
   X4.9551       Y6.8746    
   X4.9539       Y6.8655    
   X4.9504       Y6.8569    
   X4.9448       Y6.8496    
   X4.9375       Y6.8440    
   X4.9289       Y6.8405    
   X4.9198       Y6.8392    
   X4.9106       Y6.8405    
   X4.9021       Y6.8440    
   X4.8947       Y6.8496    
   X4.8891       Y6.8569    
   X4.8856       Y6.8655    
   X4.8844       Y6.8746    
(Pass: 16)
   Z0.0000     F60  
   X4.8856       Y6.8838     F80  
   X4.8891       Y6.8923    
   X4.8947       Y6.8997    
   X4.9021       Y6.9053    
   X4.9106       Y6.9088    
   X4.9198       Y6.9100    
   X4.9289       Y6.9088    
   X4.9375       Y6.9053    
   X4.9448       Y6.8997    
   X4.9504       Y6.8923    
   X4.9539       Y6.8838    
   X4.9551       Y6.8746    
   X4.9539       Y6.8655    
   X4.9504       Y6.8569    
   X4.9448       Y6.8496    
   X4.9375       Y6.8440    
   X4.9289       Y6.8405    
   X4.9198       Y6.8392    
   X4.9106       Y6.8405    
   X4.9021       Y6.8440    
   X4.8947       Y6.8496    
   X4.8891       Y6.8569    
   X4.8856       Y6.8655    
   X4.8844       Y6.8746    
G0   Z0.3750    
(Pass: 1)
   X5.5249       Y6.1516    
G1   Z0.2344     F60  
   X5.5323       Y6.1572     F80  
   X5.5408       Y6.1608    
   X5.5500       Y6.1620    
   X5.5591       Y6.1608    
   X5.5677       Y6.1572    
   X5.5750       Y6.1516    
   X5.5806       Y6.1443    
   X5.5841       Y6.1358    
   X5.5853       Y6.1266    
   X5.5841       Y6.1174    
   X5.5806       Y6.1089    
   X5.5750       Y6.1016    
   X5.5677       Y6.0960    
   X5.5591       Y6.0924    
   X5.5500       Y6.0912    
   X5.5408       Y6.0924    
   X5.5323       Y6.0960    
   X5.5249       Y6.1016    
   X5.5193       Y6.1089    
   X5.5158       Y6.1174    
   X5.5146       Y6.1266    
   X5.5158       Y6.1358    
   X5.5193       Y6.1443    
   X5.5249       Y6.1516    
(Pass: 2)
   Z0.2188     F60  
   X5.5323       Y6.1572     F80  
   X5.5408       Y6.1608    
   X5.5500       Y6.1620    
   X5.5591       Y6.1608    
   X5.5677       Y6.1572    
   X5.5750       Y6.1516    
   X5.5806       Y6.1443    
   X5.5841       Y6.1358    
   X5.5853       Y6.1266    
   X5.5841       Y6.1174    
   X5.5806       Y6.1089    
   X5.5750       Y6.1016    
   X5.5677       Y6.0960    
   X5.5591       Y6.0924    
   X5.5500       Y6.0912    
   X5.5408       Y6.0924    
   X5.5323       Y6.0960    
   X5.5249       Y6.1016    
   X5.5193       Y6.1089    
   X5.5158       Y6.1174    
   X5.5146       Y6.1266    
   X5.5158       Y6.1358    
   X5.5193       Y6.1443    
   X5.5249       Y6.1516    
(Pass: 3)
   Z0.2031     F60  
   X5.5323       Y6.1572     F80  
   X5.5408       Y6.1608    
   X5.5500       Y6.1620    
   X5.5591       Y6.1608    
   X5.5677       Y6.1572    
   X5.5750       Y6.1516    
   X5.5806       Y6.1443    
   X5.5841       Y6.1358    
   X5.5853       Y6.1266    
   X5.5841       Y6.1174    
   X5.5806       Y6.1089    
   X5.5750       Y6.1016    
   X5.5677       Y6.0960    
   X5.5591       Y6.0924    
   X5.5500       Y6.0912    
   X5.5408       Y6.0924    
   X5.5323       Y6.0960    
   X5.5249       Y6.1016    
   X5.5193       Y6.1089    
   X5.5158       Y6.1174    
   X5.5146       Y6.1266    
   X5.5158       Y6.1358    
   X5.5193       Y6.1443    
   X5.5249       Y6.1516    
(Pass: 4)
   Z0.1875     F60  
   X5.5323       Y6.1572     F80  
   X5.5408       Y6.1608    
   X5.5500       Y6.1620    
   X5.5591       Y6.1608    
   X5.5677       Y6.1572    
   X5.5750       Y6.1516    
   X5.5806       Y6.1443    
   X5.5841       Y6.1358    
   X5.5853       Y6.1266    
   X5.5841       Y6.1174    
   X5.5806       Y6.1089    
   X5.5750       Y6.1016    
   X5.5677       Y6.0960    
   X5.5591       Y6.0924    
   X5.5500       Y6.0912    
   X5.5408       Y6.0924    
   X5.5323       Y6.0960    
   X5.5249       Y6.1016    
   X5.5193       Y6.1089    
   X5.5158       Y6.1174    
   X5.5146       Y6.1266    
   X5.5158       Y6.1358    
   X5.5193       Y6.1443    
   X5.5249       Y6.1516    
(Pass: 5)
   Z0.1719     F60  
   X5.5323       Y6.1572     F80  
   X5.5408       Y6.1608    
   X5.5500       Y6.1620    
   X5.5591       Y6.1608    
   X5.5677       Y6.1572    
   X5.5750       Y6.1516    
   X5.5806       Y6.1443    
   X5.5841       Y6.1358    
   X5.5853       Y6.1266    
   X5.5841       Y6.1174    
   X5.5806       Y6.1089    
   X5.5750       Y6.1016    
   X5.5677       Y6.0960    
   X5.5591       Y6.0924    
   X5.5500       Y6.0912    
   X5.5408       Y6.0924    
   X5.5323       Y6.0960    
   X5.5249       Y6.1016    
   X5.5193       Y6.1089    
   X5.5158       Y6.1174    
   X5.5146       Y6.1266    
   X5.5158       Y6.1358    
   X5.5193       Y6.1443    
   X5.5249       Y6.1516    
(Pass: 6)
   Z0.1562     F60  
   X5.5323       Y6.1572     F80  
   X5.5408       Y6.1608    
   X5.5500       Y6.1620    
   X5.5591       Y6.1608    
   X5.5677       Y6.1572    
   X5.5750       Y6.1516    
   X5.5806       Y6.1443    
   X5.5841       Y6.1358    
   X5.5853       Y6.1266    
   X5.5841       Y6.1174    
   X5.5806       Y6.1089    
   X5.5750       Y6.1016    
   X5.5677       Y6.0960    
   X5.5591       Y6.0924    
   X5.5500       Y6.0912    
   X5.5408       Y6.0924    
   X5.5323       Y6.0960    
   X5.5249       Y6.1016    
   X5.5193       Y6.1089    
   X5.5158       Y6.1174    
   X5.5146       Y6.1266    
   X5.5158       Y6.1358    
   X5.5193       Y6.1443    
   X5.5249       Y6.1516    
(Pass: 7)
   Z0.1406     F60  
   X5.5323       Y6.1572     F80  
   X5.5408       Y6.1608    
   X5.5500       Y6.1620    
   X5.5591       Y6.1608    
   X5.5677       Y6.1572    
   X5.5750       Y6.1516    
   X5.5806       Y6.1443    
   X5.5841       Y6.1358    
   X5.5853       Y6.1266    
   X5.5841       Y6.1174    
   X5.5806       Y6.1089    
   X5.5750       Y6.1016    
   X5.5677       Y6.0960    
   X5.5591       Y6.0924    
   X5.5500       Y6.0912    
   X5.5408       Y6.0924    
   X5.5323       Y6.0960    
   X5.5249       Y6.1016    
   X5.5193       Y6.1089    
   X5.5158       Y6.1174    
   X5.5146       Y6.1266    
   X5.5158       Y6.1358    
   X5.5193       Y6.1443    
   X5.5249       Y6.1516    
(Pass: 8)
   Z0.1250     F60  
   X5.5323       Y6.1572     F80  
   X5.5408       Y6.1608    
   X5.5500       Y6.1620    
   X5.5591       Y6.1608    
   X5.5677       Y6.1572    
   X5.5750       Y6.1516    
   X5.5806       Y6.1443    
   X5.5841       Y6.1358    
   X5.5853       Y6.1266    
   X5.5841       Y6.1174    
   X5.5806       Y6.1089    
   X5.5750       Y6.1016    
   X5.5677       Y6.0960    
   X5.5591       Y6.0924    
   X5.5500       Y6.0912    
   X5.5408       Y6.0924    
   X5.5323       Y6.0960    
   X5.5249       Y6.1016    
   X5.5193       Y6.1089    
   X5.5158       Y6.1174    
   X5.5146       Y6.1266    
   X5.5158       Y6.1358    
   X5.5193       Y6.1443    
   X5.5249       Y6.1516    
(Pass: 9)
   Z0.1094     F60  
   X5.5323       Y6.1572     F80  
   X5.5408       Y6.1608    
   X5.5500       Y6.1620    
   X5.5591       Y6.1608    
   X5.5677       Y6.1572    
   X5.5750       Y6.1516    
   X5.5806       Y6.1443    
   X5.5841       Y6.1358    
   X5.5853       Y6.1266    
   X5.5841       Y6.1174    
   X5.5806       Y6.1089    
   X5.5750       Y6.1016    
   X5.5677       Y6.0960    
   X5.5591       Y6.0924    
   X5.5500       Y6.0912    
   X5.5408       Y6.0924    
   X5.5323       Y6.0960    
   X5.5249       Y6.1016    
   X5.5193       Y6.1089    
   X5.5158       Y6.1174    
   X5.5146       Y6.1266    
   X5.5158       Y6.1358    
   X5.5193       Y6.1443    
   X5.5249       Y6.1516    
(Pass: 10)
   Z0.0938     F60  
   X5.5323       Y6.1572     F80  
   X5.5408       Y6.1608    
   X5.5500       Y6.1620    
   X5.5591       Y6.1608    
   X5.5677       Y6.1572    
   X5.5750       Y6.1516    
   X5.5806       Y6.1443    
   X5.5841       Y6.1358    
   X5.5853       Y6.1266    
   X5.5841       Y6.1174    
   X5.5806       Y6.1089    
   X5.5750       Y6.1016    
   X5.5677       Y6.0960    
   X5.5591       Y6.0924    
   X5.5500       Y6.0912    
   X5.5408       Y6.0924    
   X5.5323       Y6.0960    
   X5.5249       Y6.1016    
   X5.5193       Y6.1089    
   X5.5158       Y6.1174    
   X5.5146       Y6.1266    
   X5.5158       Y6.1358    
   X5.5193       Y6.1443    
   X5.5249       Y6.1516    
(Pass: 11)
   Z0.0781     F60  
   X5.5323       Y6.1572     F80  
   X5.5408       Y6.1608    
   X5.5500       Y6.1620    
   X5.5591       Y6.1608    
   X5.5677       Y6.1572    
   X5.5750       Y6.1516    
   X5.5806       Y6.1443    
   X5.5841       Y6.1358    
   X5.5853       Y6.1266    
   X5.5841       Y6.1174    
   X5.5806       Y6.1089    
   X5.5750       Y6.1016    
   X5.5677       Y6.0960    
   X5.5591       Y6.0924    
   X5.5500       Y6.0912    
   X5.5408       Y6.0924    
   X5.5323       Y6.0960    
   X5.5249       Y6.1016    
   X5.5193       Y6.1089    
   X5.5158       Y6.1174    
   X5.5146       Y6.1266    
   X5.5158       Y6.1358    
   X5.5193       Y6.1443    
   X5.5249       Y6.1516    
(Pass: 12)
   Z0.0625     F60  
   X5.5323       Y6.1572     F80  
   X5.5408       Y6.1608    
   X5.5500       Y6.1620    
   X5.5591       Y6.1608    
   X5.5677       Y6.1572    
   X5.5750       Y6.1516    
   X5.5806       Y6.1443    
   X5.5841       Y6.1358    
   X5.5853       Y6.1266    
   X5.5841       Y6.1174    
   X5.5806       Y6.1089    
   X5.5750       Y6.1016    
   X5.5677       Y6.0960    
   X5.5591       Y6.0924    
   X5.5500       Y6.0912    
   X5.5408       Y6.0924    
   X5.5323       Y6.0960    
   X5.5249       Y6.1016    
   X5.5193       Y6.1089    
   X5.5158       Y6.1174    
   X5.5146       Y6.1266    
   X5.5158       Y6.1358    
   X5.5193       Y6.1443    
   X5.5249       Y6.1516    
(Pass: 13)
   Z0.0469     F60  
   X5.5323       Y6.1572     F80  
   X5.5408       Y6.1608    
   X5.5500       Y6.1620    
   X5.5591       Y6.1608    
   X5.5677       Y6.1572    
   X5.5750       Y6.1516    
   X5.5806       Y6.1443    
   X5.5841       Y6.1358    
   X5.5853       Y6.1266    
   X5.5841       Y6.1174    
   X5.5806       Y6.1089    
   X5.5750       Y6.1016    
   X5.5677       Y6.0960    
   X5.5591       Y6.0924    
   X5.5500       Y6.0912    
   X5.5408       Y6.0924    
   X5.5323       Y6.0960    
   X5.5249       Y6.1016    
   X5.5193       Y6.1089    
   X5.5158       Y6.1174    
   X5.5146       Y6.1266    
   X5.5158       Y6.1358    
   X5.5193       Y6.1443    
   X5.5249       Y6.1516    
(Pass: 14)
   Z0.0312     F60  
   X5.5323       Y6.1572     F80  
   X5.5408       Y6.1608    
   X5.5500       Y6.1620    
   X5.5591       Y6.1608    
   X5.5677       Y6.1572    
   X5.5750       Y6.1516    
   X5.5806       Y6.1443    
   X5.5841       Y6.1358    
   X5.5853       Y6.1266    
   X5.5841       Y6.1174    
   X5.5806       Y6.1089    
   X5.5750       Y6.1016    
   X5.5677       Y6.0960    
   X5.5591       Y6.0924    
   X5.5500       Y6.0912    
   X5.5408       Y6.0924    
   X5.5323       Y6.0960    
   X5.5249       Y6.1016    
   X5.5193       Y6.1089    
   X5.5158       Y6.1174    
   X5.5146       Y6.1266    
   X5.5158       Y6.1358    
   X5.5193       Y6.1443    
   X5.5249       Y6.1516    
(Pass: 15)
   Z0.0156     F60  
   X5.5323       Y6.1572     F80  
   X5.5408       Y6.1608    
   X5.5500       Y6.1620    
   X5.5591       Y6.1608    
   X5.5677       Y6.1572    
   X5.5750       Y6.1516    
   X5.5806       Y6.1443    
   X5.5841       Y6.1358    
   X5.5853       Y6.1266    
   X5.5841       Y6.1174    
   X5.5806       Y6.1089    
   X5.5750       Y6.1016    
   X5.5677       Y6.0960    
   X5.5591       Y6.0924    
   X5.5500       Y6.0912    
   X5.5408       Y6.0924    
   X5.5323       Y6.0960    
   X5.5249       Y6.1016    
   X5.5193       Y6.1089    
   X5.5158       Y6.1174    
   X5.5146       Y6.1266    
   X5.5158       Y6.1358    
   X5.5193       Y6.1443    
   X5.5249       Y6.1516    
(Pass: 16)
   Z0.0000     F60  
   X5.5323       Y6.1572     F80  
   X5.5408       Y6.1608    
   X5.5500       Y6.1620    
   X5.5591       Y6.1608    
   X5.5677       Y6.1572    
   X5.5750       Y6.1516    
   X5.5806       Y6.1443    
   X5.5841       Y6.1358    
   X5.5853       Y6.1266    
   X5.5841       Y6.1174    
   X5.5806       Y6.1089    
   X5.5750       Y6.1016    
   X5.5677       Y6.0960    
   X5.5591       Y6.0924    
   X5.5500       Y6.0912    
   X5.5408       Y6.0924    
   X5.5323       Y6.0960    
   X5.5249       Y6.1016    
   X5.5193       Y6.1089    
   X5.5158       Y6.1174    
   X5.5146       Y6.1266    
   X5.5158       Y6.1358    
   X5.5193       Y6.1443    
   X5.5249       Y6.1516    
G0   Z0.3750    
(Pass: 1)
   X6.1830       Y5.9629    
G1   Z0.2344     F60  
   X6.1865       Y5.9714     F80  
   X6.1922       Y5.9788    
   X6.1995       Y5.9844    
   X6.2080       Y5.9879    
   X6.2172       Y5.9891    
   X6.2263       Y5.9879    
   X6.2349       Y5.9844    
   X6.2422       Y5.9788    
   X6.2478       Y5.9714    
   X6.2514       Y5.9629    
   X6.2526       Y5.9537    
   X6.2514       Y5.9446    
   X6.2478       Y5.9361    
   X6.2422       Y5.9287    
   X6.2349       Y5.9231    
   X6.2263       Y5.9196    
   X6.2172       Y5.9184    
   X6.2080       Y5.9196    
   X6.1995       Y5.9231    
   X6.1922       Y5.9287    
   X6.1865       Y5.9361    
   X6.1830       Y5.9446    
   X6.1818       Y5.9537    
   X6.1830       Y5.9629    
(Pass: 2)
   Z0.2188     F60  
   X6.1865       Y5.9714     F80  
   X6.1922       Y5.9788    
   X6.1995       Y5.9844    
   X6.2080       Y5.9879    
   X6.2172       Y5.9891    
   X6.2263       Y5.9879    
   X6.2349       Y5.9844    
   X6.2422       Y5.9788    
   X6.2478       Y5.9714    
   X6.2514       Y5.9629    
   X6.2526       Y5.9537    
   X6.2514       Y5.9446    
   X6.2478       Y5.9361    
   X6.2422       Y5.9287    
   X6.2349       Y5.9231    
   X6.2263       Y5.9196    
   X6.2172       Y5.9184    
   X6.2080       Y5.9196    
   X6.1995       Y5.9231    
   X6.1922       Y5.9287    
   X6.1865       Y5.9361    
   X6.1830       Y5.9446    
   X6.1818       Y5.9537    
   X6.1830       Y5.9629    
(Pass: 3)
   Z0.2031     F60  
   X6.1865       Y5.9714     F80  
   X6.1922       Y5.9788    
   X6.1995       Y5.9844    
   X6.2080       Y5.9879    
   X6.2172       Y5.9891    
   X6.2263       Y5.9879    
   X6.2349       Y5.9844    
   X6.2422       Y5.9788    
   X6.2478       Y5.9714    
   X6.2514       Y5.9629    
   X6.2526       Y5.9537    
   X6.2514       Y5.9446    
   X6.2478       Y5.9361    
   X6.2422       Y5.9287    
   X6.2349       Y5.9231    
   X6.2263       Y5.9196    
   X6.2172       Y5.9184    
   X6.2080       Y5.9196    
   X6.1995       Y5.9231    
   X6.1922       Y5.9287    
   X6.1865       Y5.9361    
   X6.1830       Y5.9446    
   X6.1818       Y5.9537    
   X6.1830       Y5.9629    
(Pass: 4)
   Z0.1875     F60  
   X6.1865       Y5.9714     F80  
   X6.1922       Y5.9788    
   X6.1995       Y5.9844    
   X6.2080       Y5.9879    
   X6.2172       Y5.9891    
   X6.2263       Y5.9879    
   X6.2349       Y5.9844    
   X6.2422       Y5.9788    
   X6.2478       Y5.9714    
   X6.2514       Y5.9629    
   X6.2526       Y5.9537    
   X6.2514       Y5.9446    
   X6.2478       Y5.9361    
   X6.2422       Y5.9287    
   X6.2349       Y5.9231    
   X6.2263       Y5.9196    
   X6.2172       Y5.9184    
   X6.2080       Y5.9196    
   X6.1995       Y5.9231    
   X6.1922       Y5.9287    
   X6.1865       Y5.9361    
   X6.1830       Y5.9446    
   X6.1818       Y5.9537    
   X6.1830       Y5.9629    
(Pass: 5)
   Z0.1719     F60  
   X6.1865       Y5.9714     F80  
   X6.1922       Y5.9788    
   X6.1995       Y5.9844    
   X6.2080       Y5.9879    
   X6.2172       Y5.9891    
   X6.2263       Y5.9879    
   X6.2349       Y5.9844    
   X6.2422       Y5.9788    
   X6.2478       Y5.9714    
   X6.2514       Y5.9629    
   X6.2526       Y5.9537    
   X6.2514       Y5.9446    
   X6.2478       Y5.9361    
   X6.2422       Y5.9287    
   X6.2349       Y5.9231    
   X6.2263       Y5.9196    
   X6.2172       Y5.9184    
   X6.2080       Y5.9196    
   X6.1995       Y5.9231    
   X6.1922       Y5.9287    
   X6.1865       Y5.9361    
   X6.1830       Y5.9446    
   X6.1818       Y5.9537    
   X6.1830       Y5.9629    
(Pass: 6)
   Z0.1562     F60  
   X6.1865       Y5.9714     F80  
   X6.1922       Y5.9788    
   X6.1995       Y5.9844    
   X6.2080       Y5.9879    
   X6.2172       Y5.9891    
   X6.2263       Y5.9879    
   X6.2349       Y5.9844    
   X6.2422       Y5.9788    
   X6.2478       Y5.9714    
   X6.2514       Y5.9629    
   X6.2526       Y5.9537    
   X6.2514       Y5.9446    
   X6.2478       Y5.9361    
   X6.2422       Y5.9287    
   X6.2349       Y5.9231    
   X6.2263       Y5.9196    
   X6.2172       Y5.9184    
   X6.2080       Y5.9196    
   X6.1995       Y5.9231    
   X6.1922       Y5.9287    
   X6.1865       Y5.9361    
   X6.1830       Y5.9446    
   X6.1818       Y5.9537    
   X6.1830       Y5.9629    
(Pass: 7)
   Z0.1406     F60  
   X6.1865       Y5.9714     F80  
   X6.1922       Y5.9788    
   X6.1995       Y5.9844    
   X6.2080       Y5.9879    
   X6.2172       Y5.9891    
   X6.2263       Y5.9879    
   X6.2349       Y5.9844    
   X6.2422       Y5.9788    
   X6.2478       Y5.9714    
   X6.2514       Y5.9629    
   X6.2526       Y5.9537    
   X6.2514       Y5.9446    
   X6.2478       Y5.9361    
   X6.2422       Y5.9287    
   X6.2349       Y5.9231    
   X6.2263       Y5.9196    
   X6.2172       Y5.9184    
   X6.2080       Y5.9196    
   X6.1995       Y5.9231    
   X6.1922       Y5.9287    
   X6.1865       Y5.9361    
   X6.1830       Y5.9446    
   X6.1818       Y5.9537    
   X6.1830       Y5.9629    
(Pass: 8)
   Z0.1250     F60  
   X6.1865       Y5.9714     F80  
   X6.1922       Y5.9788    
   X6.1995       Y5.9844    
   X6.2080       Y5.9879    
