%
(Generated by SketchUcam {1.2a})
(File: Plate_printouts_side.skp)
(Bit diameter: 1/8")
(Feed rate: 80"/min)
(Plunge Feed rate: 60"/min)
(Material Thickness: 1/4")
(Material length: 12" X width: 12")
(Overhead Gantry: true)
(Retract feed rate NOT limited to plunge feed rate)
(Multipass enabled, Depth = 1/64")
(Optimization is ON)
(Z ZERO IS TABLETOP)
(www.PhlatBoyz.com)
G90 G20 G49 
M3 S15000
G0   Z0.3750  

(Pass: 15)
   Z0.0156     F60  
   X0.1544     F80  
   X0.1309       Y7.1492    
   X0.1059       Y7.1442    
   X0.0818       Y7.1360    
   X0.0589       Y7.1247    
   X0.0377       Y7.1106    
   X0.0185       Y7.0937    
   X0.0017       Y7.0746    
(move x= -0.012493 LT min of 0.0)
   X0.0000       Y7.0533    
(move x= -0.023776 LT min of 0.0)
   Y7.0305    
(move x= -0.031976 LT min of 0.0)
   Y7.0063    
(move x= -0.036953 LT min of 0.0)
   Y6.9813    
(move x= -0.038488 LT min of 0.0)
   Y6.9579    
(move x= -0.038488 LT min of 0.0)
   Y0.1304    
(move x= -0.036953 LT min of 0.0)
   Y0.1070    
(move x= -0.031976 LT min of 0.0)
   Y0.0819    
(move x= -0.023776 LT min of 0.0)
   Y0.0578    
(move x= -0.012493 LT min of 0.0)
   Y0.0349    
   X0.0017       Y0.0137    
(move y= -0.005482 LT min of 0.0)
   X0.0185       Y0.0000    
(move y= -0.022303 LT min of 0.0)
   X0.0377    
(move y= -0.036476 LT min of 0.0)
   X0.0589    
(move y= -0.047759 LT min of 0.0)
   X0.0818    
(move y= -0.055959 LT min of 0.0)
   X0.1059    
(move y= -0.060936 LT min of 0.0)
   X0.1309    
(move y= -0.062470 LT min of 0.0)
   X0.1544    
(move y= -0.062530 LT min of 0.0)
   X7.8144    
(move y= -0.058873 LT min of 0.0)
   X7.8702    
(move y= -0.047564 LT min of 0.0)
   X7.9271    
(move y= -0.028931 LT min of 0.0)
   X7.9820    
(move y= -0.003292 LT min of 0.0)
   X8.0340    
   X8.0822       Y0.0289    
   X8.1257       Y0.0671    
   X8.1640       Y0.1107    
   X8.1962       Y0.1589    
   X8.2218       Y0.2109    
   X8.2404       Y0.2658    
   X8.2517       Y0.3227    
   X8.2554       Y0.3785    
   Y1.2331    
   Y1.3581    
   Y1.6368    
   Z0.1250    
   Y1.8868    
   Z0.0156     F60  
   Y3.1915     F80  
   Z0.1250    
   Y3.4415    
   Z0.0156     F60  
   Y3.5740     F80  
   Y3.6990    
   Y4.2867    
   X8.2535       Y4.3309    
   X8.2477       Y4.3761    
   X8.2381       Y4.4207    
   X8.2247       Y4.4642    
   X8.2077       Y4.5065    
   X8.1871       Y4.5472    
   X8.1632       Y4.5860    
   X8.1360       Y4.6226    
   X8.1058       Y4.6567    
   X8.0729       Y4.6882    
   X8.0374       Y4.7168    
   X8.0006       Y4.7415    
   X7.0839       Y5.3021    
   X6.9773       Y5.3674    
   X6.9584       Y5.3789    
   Z0.1250    
   X6.7451       Y5.5094    
   Z0.0156     F60  
   X6.0606       Y5.9280     F80  
   X5.9540       Y5.9932    
   X5.6803       Y6.1606    
   Z0.1250    
   X5.4670       Y6.2911    
   Z0.0156     F60  
   X5.1933       Y6.4585     F80  
   X5.0867       Y6.5237    
   X4.6607       Y6.7842    
   Z0.1250    
   X4.4474       Y6.9147    
   Z0.0156     F60  
   X4.3974       Y6.9453     F80  
   X4.2908       Y7.0105    
   X4.2552       Y7.0322    
   X4.1600       Y7.0688    
   X4.1125       Y7.0844    
   X4.0651       Y7.0982    
   X4.0172       Y7.1105    
   X3.9689       Y7.1211    
   X3.9203       Y7.1302    
   X3.8714       Y7.1375    
   X3.8223       Y7.1433    
   X3.7725       Y7.1475    
   X3.6753       Y7.1507    
   X2.9936    
   X2.8686    
   X2.8439    
   Z0.1250    
   X2.5939    
   Z0.0156     F60  
   X1.2871     F80  
   Z0.1250    
   X1.0371    
   Z0.0156     F60  
   X0.9893     F80  
   X0.8643    
(Pass: 16)
   Z0.0000     F60  
   X0.1544     F80  
   X0.1309       Y7.1492    
   X0.1059       Y7.1442    
   X0.0818       Y7.1360    
   X0.0589       Y7.1247    
   X0.0377       Y7.1106    
   X0.0185       Y7.0937    
   X0.0017       Y7.0746    
(move x= -0.012493 LT min of 0.0)
   X0.0000       Y7.0533    
(move x= -0.023776 LT min of 0.0)
   Y7.0305    
(move x= -0.031976 LT min of 0.0)
   Y7.0063    
(move x= -0.036953 LT min of 0.0)
   Y6.9813    
(move x= -0.038488 LT min of 0.0)
   Y6.9579    
(move x= -0.038488 LT min of 0.0)
   Y0.1304    
(move x= -0.036953 LT min of 0.0)
   Y0.1070    
(move x= -0.031976 LT min of 0.0)
   Y0.0819    
(move x= -0.023776 LT min of 0.0)
   Y0.0578    
(move x= -0.012493 LT min of 0.0)
   Y0.0349    
   X0.0017       Y0.0137    
(move y= -0.005482 LT min of 0.0)
   X0.0185       Y0.0000    
(move y= -0.022303 LT min of 0.0)
   X0.0377    
(move y= -0.036476 LT min of 0.0)
   X0.0589    
(move y= -0.047759 LT min of 0.0)
   X0.0818    
(move y= -0.055959 LT min of 0.0)
   X0.1059    
(move y= -0.060936 LT min of 0.0)
   X0.1309    
(move y= -0.062470 LT min of 0.0)
   X0.1544    
(move y= -0.062530 LT min of 0.0)
   X7.8144    
(move y= -0.058873 LT min of 0.0)
   X7.8702    
(move y= -0.047564 LT min of 0.0)
   X7.9271    
(move y= -0.028931 LT min of 0.0)
   X7.9820    
(move y= -0.003292 LT min of 0.0)
   X8.0340    
   X8.0822       Y0.0289    
   X8.1257       Y0.0671    
   X8.1640       Y0.1107    
   X8.1962       Y0.1589    
   X8.2218       Y0.2109    
   X8.2404       Y0.2658    
   X8.2517       Y0.3227    
   X8.2554       Y0.3785    
   Y1.2331    
   Y1.3581    
   Y1.6368    
   Z0.1250    
   Y1.8868    
   Z0.0000     F60  
   Y3.1915     F80  
   Z0.1250    
   Y3.4415    
   Z0.0000     F60  
   Y3.5740     F80  
   Y3.6990    
   Y4.2867    
   X8.2535       Y4.3309    
   X8.2477       Y4.3761    
   X8.2381       Y4.4207    
   X8.2247       Y4.4642    
   X8.2077       Y4.5065    
   X8.1871       Y4.5472    
   X8.1632       Y4.5860    
   X8.1360       Y4.6226    
   X8.1058       Y4.6567    
   X8.0729       Y4.6882    
   X8.0374       Y4.7168    
   X8.0006       Y4.7415    
   X7.0839       Y5.3021    
   X6.9773       Y5.3674    
   X6.9584       Y5.3789    
   Z0.1250    
   X6.7451       Y5.5094    
   Z0.0000     F60  
   X6.0606       Y5.9280     F80  
   X5.9540       Y5.9932    
   X5.6803       Y6.1606    
   Z0.1250    
   X5.4670       Y6.2911    
   Z0.0000     F60  
   X5.1933       Y6.4585     F80  
   X5.0867       Y6.5237    
   X4.6607       Y6.7842    
   Z0.1250    
   X4.4474       Y6.9147    
   Z0.0000     F60  
   X4.3974       Y6.9453     F80  
   X4.2908       Y7.0105    
   X4.2552       Y7.0322    
   X4.1600       Y7.0688    
   X4.1125       Y7.0844    
   X4.0651       Y7.0982    
   X4.0172       Y7.1105    
   X3.9689       Y7.1211    
   X3.9203       Y7.1302    
   X3.8714       Y7.1375    
   X3.8223       Y7.1433    
   X3.7725       Y7.1475    
   X3.6753       Y7.1507    
   X2.9936    
   X2.8686    
   X2.8439    
   Z0.1250    
   X2.5939    
   Z0.0000     F60  
   X1.2871     F80  
   Z0.1250    
   X1.0371    
   Z0.0000     F60  
   X0.9893     F80  
   X0.8643    
G0   Z0.3750    

  
(Pass: 15)
(move x= 12.062500 GT max of 12.0)

   Z0.0156     F60  
(move x= 12.060966 GT max of 12.0)
   Y11.8930    F80  
(move x= 12.055989 GT max of 12.0)
   Y11.9181   
(move x= 12.047789 GT max of 12.0)
   Y11.9422   
(move x= 12.036505 GT max of 12.0)
   Y11.9651   
(move x= 12.022332 GT max of 12.0)
   Y11.9863   
(move x= 12.005512 GT max of 12.0)
(move y= 12.005488 GT max of 12.0)
   Y12.0000   
(move y= 12.022309 GT max of 12.0)
   X11.9863   
(move y= 12.036482 GT max of 12.0)
   X11.9651   
(move y= 12.047765 GT max of 12.0)
   X11.9422   
(move y= 12.055965 GT max of 12.0)
   X11.9181   
(move y= 12.060942 GT max of 12.0)
   X11.8931   
(move y= 12.062476 GT max of 12.0)
   X11.8697   
(move y= 12.062536 GT max of 12.0)
   X4.2096    
(move y= 12.058879 GT max of 12.0)
   X4.1538    
(move y= 12.047570 GT max of 12.0)
   X4.0969    
(move y= 12.028937 GT max of 12.0)
   X4.0420    
(move y= 12.003298 GT max of 12.0)
   X3.9901    
   X3.9419       Y11.9711   
   X3.8983       Y11.9329   
   X3.8601       Y11.8893   
   X3.8278       Y11.8411   
   X3.8022       Y11.7891   
   X3.7836       Y11.7342   
   X3.7723       Y11.6773   
   X3.7686       Y11.6215   
   Y10.9744   
   Z0.1250    
   Y10.8494   
   Y10.7244   
   Z0.0156     F60  
   Y8.9180     F80  
   Z0.1250    
   Y8.7930    
   Y8.6680    
   Z0.0156     F60  
   Y7.7133     F80  
   X3.7705       Y7.6691    
   X3.7763       Y7.6239    
   X3.7859       Y7.5794    
   X3.7993       Y7.5358    
   X3.8163       Y7.4935    
   X3.8369       Y7.4528    
   X3.8608       Y7.4140    
   X3.8880       Y7.3774    
   X3.9182       Y7.3433    
   X3.9511       Y7.3118    
   X3.9867       Y7.2832    
   X4.0234       Y7.2585    
   X4.2591       Y7.1144    
   X4.3657       Y7.0491    
   X4.4745       Y6.9826    
   Z0.1250    
   X4.6878       Y6.8522    
   Z0.0156     F60  
   X5.1018       Y6.5990     F80  
   X5.2084       Y6.5338    
   X5.3948       Y6.4198    
   X5.4828       Y6.3659    
   Z0.1250    
   X5.6961       Y6.2355    
   Z0.0156     F60  
   X5.9785       Y6.0628     F80  
   X6.0851       Y5.9976    
   X6.7519       Y5.5897    
   Z0.1250    
   X6.9652       Y5.4593    
   Z0.0156     F60  
   X7.0002       Y5.4378     F80  
   X7.1069       Y5.3726    
   X7.7688       Y4.9678    
   X7.8640       Y4.9312    
   X7.9115       Y4.9156    
   X7.9589       Y4.9018    
   X8.0068       Y4.8895    
   X8.0551       Y4.8789    
   X8.1037       Y4.8699    
   X8.1526       Y4.8625    
   X8.2017       Y4.8567    
   X8.2515       Y4.8525    
   X8.3487       Y4.8493    
   X8.8181    
   Z0.1250    
   X9.0681    
   Z0.0156     F60  
   X9.5375     F80  
   X9.6625    
   X10.7036   
   X10.8286   
   X10.8688   
   Z0.1250    
   X11.1188   
   Z0.0156     F60  
   X11.8697    F80  
   X11.8931      Y4.8508    
   X11.9181      Y4.8558    
   X11.9422      Y4.8640    
   X11.9651      Y4.8753    
   X11.9863      Y4.8895    
(move x= 12.005512 GT max of 12.0)
   X12.0000      Y4.9063    
(move x= 12.022332 GT max of 12.0)
   Y4.9255    
(move x= 12.036505 GT max of 12.0)
   Y4.9467    
(move x= 12.047789 GT max of 12.0)
   Y4.9695    
(move x= 12.055989 GT max of 12.0)
   Y4.9937    
(move x= 12.060966 GT max of 12.0)
   Y5.0187    
(move x= 12.062500 GT max of 12.0)
   Y5.0421    
(move x= 12.062500 GT max of 12.0)
   Y11.8696   
(Pass: 16)
(move x= 12.062500 GT max of 12.0)

   Z0.0000     F60  
(move x= 12.060966 GT max of 12.0)
   Y11.8930    F80  
(move x= 12.055989 GT max of 12.0)
   Y11.9181   
(move x= 12.047789 GT max of 12.0)
   Y11.9422   
(move x= 12.036505 GT max of 12.0)
   Y11.9651   
(move x= 12.022332 GT max of 12.0)
   Y11.9863   
(move x= 12.005512 GT max of 12.0)
(move y= 12.005488 GT max of 12.0)
   Y12.0000   
(move y= 12.022309 GT max of 12.0)
   X11.9863   
(move y= 12.036482 GT max of 12.0)
   X11.9651   
(move y= 12.047765 GT max of 12.0)
   X11.9422   
(move y= 12.055965 GT max of 12.0)
   X11.9181   
(move y= 12.060942 GT max of 12.0)
   X11.8931   
(move y= 12.062476 GT max of 12.0)
   X11.8697   
(move y= 12.062536 GT max of 12.0)
   X4.2096    
(move y= 12.058879 GT max of 12.0)
   X4.1538    
(move y= 12.047570 GT max of 12.0)
   X4.0969    
(move y= 12.028937 GT max of 12.0)
   X4.0420    
(move y= 12.003298 GT max of 12.0)
   X3.9901    
   X3.9419       Y11.9711   
   X3.8983       Y11.9329   
   X3.8601       Y11.8893   
   X3.8278       Y11.8411   
   X3.8022       Y11.7891   
   X3.7836       Y11.7342   
   X3.7723       Y11.6773   
   X3.7686       Y11.6215   
   Y10.9744   
   Z0.1250    
   Y10.8494   
   Y10.7244   
   Z0.0000     F60  
   Y8.9180     F80  
   Z0.1250    
   Y8.7930    
   Y8.6680    
   Z0.0000     F60  
   Y7.7133     F80  
   X3.7705       Y7.6691    
   X3.7763       Y7.6239    
   X3.7859       Y7.5794    
   X3.7993       Y7.5358    
   X3.8163       Y7.4935    
   X3.8369       Y7.4528    
   X3.8608       Y7.4140    
   X3.8880       Y7.3774    
   X3.9182       Y7.3433    
   X3.9511       Y7.3118    
   X3.9867       Y7.2832    
   X4.0234       Y7.2585    
   X4.2591       Y7.1144    
   X4.3657       Y7.0491    
   X4.4745       Y6.9826    
   Z0.1250    
   X4.6878       Y6.8522    
   Z0.0000     F60  
   X5.1018       Y6.5990     F80  
   X5.2084       Y6.5338    
   X5.3948       Y6.4198    
   X5.4828       Y6.3659    
   Z0.1250    
   X5.6961       Y6.2355    
   Z0.0000     F60  
   X5.9785       Y6.0628     F80  
   X6.0851       Y5.9976    
   X6.7519       Y5.5897    
   Z0.1250    
   X6.9652       Y5.4593    
   Z0.0000     F60  
   X7.0002       Y5.4378     F80  
   X7.1069       Y5.3726    
   X7.7688       Y4.9678    
   X7.8640       Y4.9312    
   X7.9115       Y4.9156    
   X7.9589       Y4.9018    
   X8.0068       Y4.8895    
   X8.0551       Y4.8789    
   X8.1037       Y4.8699    
   X8.1526       Y4.8625    
   X8.2017       Y4.8567    
   X8.2515       Y4.8525    
   X8.3487       Y4.8493    
   X8.8181    
   Z0.1250    
   X9.0681    
   Z0.0000     F60  
   X9.5375     F80  
   X9.6625    
   X10.7036   
   X10.8286   
   X10.8688   
   Z0.1250    
   X11.1188   
   Z0.0000     F60  
   X11.8697    F80  
   X11.8931      Y4.8508    
   X11.9181      Y4.8558    
   X11.9422      Y4.8640    
   X11.9651      Y4.8753    
   X11.9863      Y4.8895    
(move x= 12.005512 GT max of 12.0)
   X12.0000      Y4.9063    
(move x= 12.022332 GT max of 12.0)
   Y4.9255    
(move x= 12.036505 GT max of 12.0)
   Y4.9467    
(move x= 12.047789 GT max of 12.0)
   Y4.9695    
(move x= 12.055989 GT max of 12.0)
   Y4.9937    
(move x= 12.060966 GT max of 12.0)
   Y5.0187    
(move x= 12.062500 GT max of 12.0)
   Y5.0421    
(move x= 12.062500 GT max of 12.0)
   Y11.8696   
G0   Z0.3750    
G0 X0 Y0 (home)
M05
M30
%