%
(Generated by SketchUcam {1.2a})
(File: YZ_plate.skp)
(Bit diameter: 1/8")
(Feed rate: 60"/min)
(Material Thickness: 1/4")
(Material length: 12" X width: 18")
(Overhead Gantry: true)
(Retract feed rate NOT limited to plunge feed rate)
(Multipass enabled, Depth = 1/32")
(Optimization is ON)
(Z ZERO IS TABLETOP)
(www.PhlatBoyz.com)
G90 G20 G49 
M3 S15000
G0   Z0.3750    
(Pass: 1)
   X0.8821       Y0.8969    
G1   Z0.2188     F60  
   X0.8697       Y0.9129    
   X0.8620       Y0.9316    
   X0.8594       Y0.9516    
   X0.8620       Y0.9717    
   X0.8697       Y0.9904    
   X0.8821       Y1.0064    
   X0.8981       Y1.0187    
   X0.9168       Y1.0265    
   X0.9368       Y1.0291    
   X0.9569       Y1.0265    
   X0.9755       Y1.0187    
   X0.9916       Y1.0064    
   X1.0039       Y0.9904    
   X1.0116       Y0.9717    
   X1.0143       Y0.9516    
   X1.0116       Y0.9316    
   X1.0039       Y0.9129    
   X0.9916       Y0.8969    
   X0.9755       Y0.8846    
   X0.9569       Y0.8768    
   X0.9368       Y0.8742    
   X0.9168       Y0.8768    
   X0.8981       Y0.8846    
   X0.8821       Y0.8969    
(Pass: 2)
   Z0.1875    
   X0.8697       Y0.9129    
   X0.8620       Y0.9316    
   X0.8594       Y0.9516    
   X0.8620       Y0.9717    
   X0.8697       Y0.9904    
   X0.8821       Y1.0064    
   X0.8981       Y1.0187    
   X0.9168       Y1.0265    
   X0.9368       Y1.0291    
   X0.9569       Y1.0265    
   X0.9755       Y1.0187    
   X0.9916       Y1.0064    
   X1.0039       Y0.9904    
   X1.0116       Y0.9717    
   X1.0143       Y0.9516    
   X1.0116       Y0.9316    
   X1.0039       Y0.9129    
   X0.9916       Y0.8969    
   X0.9755       Y0.8846    
   X0.9569       Y0.8768    
   X0.9368       Y0.8742    
   X0.9168       Y0.8768    
   X0.8981       Y0.8846    
   X0.8821       Y0.8969    
(Pass: 3)
   Z0.1562    
   X0.8697       Y0.9129    
   X0.8620       Y0.9316    
   X0.8594       Y0.9516    
   X0.8620       Y0.9717    
   X0.8697       Y0.9904    
   X0.8821       Y1.0064    
   X0.8981       Y1.0187    
   X0.9168       Y1.0265    
   X0.9368       Y1.0291    
   X0.9569       Y1.0265    
   X0.9755       Y1.0187    
   X0.9916       Y1.0064    
   X1.0039       Y0.9904    
   X1.0116       Y0.9717    
   X1.0143       Y0.9516    
   X1.0116       Y0.9316    
   X1.0039       Y0.9129    
   X0.9916       Y0.8969    
   X0.9755       Y0.8846    
   X0.9569       Y0.8768    
   X0.9368       Y0.8742    
   X0.9168       Y0.8768    
   X0.8981       Y0.8846    
   X0.8821       Y0.8969    
(Pass: 4)
   Z0.1250    
   X0.8697       Y0.9129    
   X0.8620       Y0.9316    
   X0.8594       Y0.9516    
   X0.8620       Y0.9717    
   X0.8697       Y0.9904    
   X0.8821       Y1.0064    
   X0.8981       Y1.0187    
   X0.9168       Y1.0265    
   X0.9368       Y1.0291    
   X0.9569       Y1.0265    
   X0.9755       Y1.0187    
   X0.9916       Y1.0064    
   X1.0039       Y0.9904    
   X1.0116       Y0.9717    
   X1.0143       Y0.9516    
   X1.0116       Y0.9316    
   X1.0039       Y0.9129    
   X0.9916       Y0.8969    
   X0.9755       Y0.8846    
   X0.9569       Y0.8768    
   X0.9368       Y0.8742    
   X0.9168       Y0.8768    
   X0.8981       Y0.8846    
   X0.8821       Y0.8969    
(Pass: 5)
   Z0.0938    
   X0.8697       Y0.9129    
   X0.8620       Y0.9316    
   X0.8594       Y0.9516    
   X0.8620       Y0.9717    
   X0.8697       Y0.9904    
   X0.8821       Y1.0064    
   X0.8981       Y1.0187    
   X0.9168       Y1.0265    
   X0.9368       Y1.0291    
   X0.9569       Y1.0265    
   X0.9755       Y1.0187    
   X0.9916       Y1.0064    
   X1.0039       Y0.9904    
   X1.0116       Y0.9717    
   X1.0143       Y0.9516    
   X1.0116       Y0.9316    
   X1.0039       Y0.9129    
   X0.9916       Y0.8969    
   X0.9755       Y0.8846    
   X0.9569       Y0.8768    
   X0.9368       Y0.8742    
   X0.9168       Y0.8768    
   X0.8981       Y0.8846    
   X0.8821       Y0.8969    
(Pass: 6)
   Z0.0625    
   X0.8697       Y0.9129    
   X0.8620       Y0.9316    
   X0.8594       Y0.9516    
   X0.8620       Y0.9717    
   X0.8697       Y0.9904    
   X0.8821       Y1.0064    
   X0.8981       Y1.0187    
   X0.9168       Y1.0265    
   X0.9368       Y1.0291    
   X0.9569       Y1.0265    
   X0.9755       Y1.0187    
   X0.9916       Y1.0064    
   X1.0039       Y0.9904    
   X1.0116       Y0.9717    
   X1.0143       Y0.9516    
   X1.0116       Y0.9316    
   X1.0039       Y0.9129    
   X0.9916       Y0.8969    
   X0.9755       Y0.8846    
   X0.9569       Y0.8768    
   X0.9368       Y0.8742    
   X0.9168       Y0.8768    
   X0.8981       Y0.8846    
   X0.8821       Y0.8969    
(Pass: 7)
   Z0.0312    
   X0.8697       Y0.9129    
   X0.8620       Y0.9316    
   X0.8594       Y0.9516    
   X0.8620       Y0.9717    
   X0.8697       Y0.9904    
   X0.8821       Y1.0064    
   X0.8981       Y1.0187    
   X0.9168       Y1.0265    
   X0.9368       Y1.0291    
   X0.9569       Y1.0265    
   X0.9755       Y1.0187    
   X0.9916       Y1.0064    
   X1.0039       Y0.9904    
   X1.0116       Y0.9717    
   X1.0143       Y0.9516    
   X1.0116       Y0.9316    
   X1.0039       Y0.9129    
   X0.9916       Y0.8969    
   X0.9755       Y0.8846    
   X0.9569       Y0.8768    
   X0.9368       Y0.8742    
   X0.9168       Y0.8768    
   X0.8981       Y0.8846    
   X0.8821       Y0.8969    
(Pass: 8)
   Z0.0000    
   X0.8697       Y0.9129    
   X0.8620       Y0.9316    
   X0.8594       Y0.9516    
   X0.8620       Y0.9717    
   X0.8697       Y0.9904    
   X0.8821       Y1.0064    
   X0.8981       Y1.0187    
   X0.9168       Y1.0265    
   X0.9368       Y1.0291    
   X0.9569       Y1.0265    
   X0.9755       Y1.0187    
   X0.9916       Y1.0064    
   X1.0039       Y0.9904    
   X1.0116       Y0.9717    
   X1.0143       Y0.9516    
   X1.0116       Y0.9316    
   X1.0039       Y0.9129    
   X0.9916       Y0.8969    
   X0.9755       Y0.8846    
   X0.9569       Y0.8768    
   X0.9368       Y0.8742    
   X0.9168       Y0.8768    
   X0.8981       Y0.8846    
   X0.8821       Y0.8969    
G0   Z0.3750    
(Pass: 1)
   X1.5698       Y0.8922    
G1   Z0.2188     F60  
   X1.5710       Y0.9013    
   X1.5745       Y0.9099    
   X1.5801       Y0.9172    
   X1.5874       Y0.9228    
   X1.5960       Y0.9264    
   X1.6051       Y0.9276    
   X1.6143       Y0.9264    
   X1.6228       Y0.9228    
   X1.6302       Y0.9172    
   X1.6358       Y0.9099    
   X1.6393       Y0.9013    
   X1.6405       Y0.8922    
   X1.6393       Y0.8830    
   X1.6358       Y0.8745    
   X1.6302       Y0.8672    
   X1.6228       Y0.8615    
   X1.6143       Y0.8580    
   X1.6051       Y0.8568    
   X1.5960       Y0.8580    
   X1.5874       Y0.8615    
   X1.5801       Y0.8672    
   X1.5745       Y0.8745    
   X1.5710       Y0.8830    
   X1.5698       Y0.8922    
(Pass: 2)
   Z0.1875    
   X1.5710       Y0.9013    
   X1.5745       Y0.9099    
   X1.5801       Y0.9172    
   X1.5874       Y0.9228    
   X1.5960       Y0.9264    
   X1.6051       Y0.9276    
   X1.6143       Y0.9264    
   X1.6228       Y0.9228    
   X1.6302       Y0.9172    
   X1.6358       Y0.9099    
   X1.6393       Y0.9013    
   X1.6405       Y0.8922    
   X1.6393       Y0.8830    
   X1.6358       Y0.8745    
   X1.6302       Y0.8672    
   X1.6228       Y0.8615    
   X1.6143       Y0.8580    
   X1.6051       Y0.8568    
   X1.5960       Y0.8580    
   X1.5874       Y0.8615    
   X1.5801       Y0.8672    
   X1.5745       Y0.8745    
   X1.5710       Y0.8830    
   X1.5698       Y0.8922    
(Pass: 3)
   Z0.1562    
   X1.5710       Y0.9013    
   X1.5745       Y0.9099    
   X1.5801       Y0.9172    
   X1.5874       Y0.9228    
   X1.5960       Y0.9264    
   X1.6051       Y0.9276    
   X1.6143       Y0.9264    
   X1.6228       Y0.9228    
   X1.6302       Y0.9172    
   X1.6358       Y0.9099    
   X1.6393       Y0.9013    
   X1.6405       Y0.8922    
   X1.6393       Y0.8830    
   X1.6358       Y0.8745    
   X1.6302       Y0.8672    
   X1.6228       Y0.8615    
   X1.6143       Y0.8580    
   X1.6051       Y0.8568    
   X1.5960       Y0.8580    
   X1.5874       Y0.8615    
   X1.5801       Y0.8672    
   X1.5745       Y0.8745    
   X1.5710       Y0.8830    
   X1.5698       Y0.8922    
(Pass: 4)
   Z0.1250    
   X1.5710       Y0.9013    
   X1.5745       Y0.9099    
   X1.5801       Y0.9172    
   X1.5874       Y0.9228    
   X1.5960       Y0.9264    
   X1.6051       Y0.9276    
   X1.6143       Y0.9264    
   X1.6228       Y0.9228    
   X1.6302       Y0.9172    
   X1.6358       Y0.9099    
   X1.6393       Y0.9013    
   X1.6405       Y0.8922    
   X1.6393       Y0.8830    
   X1.6358       Y0.8745    
   X1.6302       Y0.8672    
   X1.6228       Y0.8615    
   X1.6143       Y0.8580    
   X1.6051       Y0.8568    
   X1.5960       Y0.8580    
   X1.5874       Y0.8615    
   X1.5801       Y0.8672    
   X1.5745       Y0.8745    
   X1.5710       Y0.8830    
   X1.5698       Y0.8922    
(Pass: 5)
   Z0.0938    
   X1.5710       Y0.9013    
   X1.5745       Y0.9099    
   X1.5801       Y0.9172    
   X1.5874       Y0.9228    
   X1.5960       Y0.9264    
   X1.6051       Y0.9276    
   X1.6143       Y0.9264    
   X1.6228       Y0.9228    
   X1.6302       Y0.9172    
   X1.6358       Y0.9099    
   X1.6393       Y0.9013    
   X1.6405       Y0.8922    
   X1.6393       Y0.8830    
   X1.6358       Y0.8745    
   X1.6302       Y0.8672    
   X1.6228       Y0.8615    
   X1.6143       Y0.8580    
   X1.6051       Y0.8568    
   X1.5960       Y0.8580    
   X1.5874       Y0.8615    
   X1.5801       Y0.8672    
   X1.5745       Y0.8745    
   X1.5710       Y0.8830    
   X1.5698       Y0.8922    
(Pass: 6)
   Z0.0625    
   X1.5710       Y0.9013    
   X1.5745       Y0.9099    
   X1.5801       Y0.9172    
   X1.5874       Y0.9228    
   X1.5960       Y0.9264    
   X1.6051       Y0.9276    
   X1.6143       Y0.9264    
   X1.6228       Y0.9228    
   X1.6302       Y0.9172    
   X1.6358       Y0.9099    
   X1.6393       Y0.9013    
   X1.6405       Y0.8922    
   X1.6393       Y0.8830    
   X1.6358       Y0.8745    
   X1.6302       Y0.8672    
   X1.6228       Y0.8615    
   X1.6143       Y0.8580    
   X1.6051       Y0.8568    
   X1.5960       Y0.8580    
   X1.5874       Y0.8615    
   X1.5801       Y0.8672    
   X1.5745       Y0.8745    
   X1.5710       Y0.8830    
   X1.5698       Y0.8922    
(Pass: 7)
   Z0.0312    
   X1.5710       Y0.9013    
   X1.5745       Y0.9099    
   X1.5801       Y0.9172    
   X1.5874       Y0.9228    
   X1.5960       Y0.9264    
   X1.6051       Y0.9276    
   X1.6143       Y0.9264    
   X1.6228       Y0.9228    
   X1.6302       Y0.9172    
   X1.6358       Y0.9099    
   X1.6393       Y0.9013    
   X1.6405       Y0.8922    
   X1.6393       Y0.8830    
   X1.6358       Y0.8745    
   X1.6302       Y0.8672    
   X1.6228       Y0.8615    
   X1.6143       Y0.8580    
   X1.6051       Y0.8568    
   X1.5960       Y0.8580    
   X1.5874       Y0.8615    
   X1.5801       Y0.8672    
   X1.5745       Y0.8745    
   X1.5710       Y0.8830    
   X1.5698       Y0.8922    
(Pass: 8)
   Z0.0000    
   X1.5710       Y0.9013    
   X1.5745       Y0.9099    
   X1.5801       Y0.9172    
   X1.5874       Y0.9228    
   X1.5960       Y0.9264    
   X1.6051       Y0.9276    
   X1.6143       Y0.9264    
   X1.6228       Y0.9228    
   X1.6302       Y0.9172    
   X1.6358       Y0.9099    
   X1.6393       Y0.9013    
   X1.6405       Y0.8922    
   X1.6393       Y0.8830    
   X1.6358       Y0.8745    
   X1.6302       Y0.8672    
   X1.6228       Y0.8615    
   X1.6143       Y0.8580    
   X1.6051       Y0.8568    
   X1.5960       Y0.8580    
   X1.5874       Y0.8615    
   X1.5801       Y0.8672    
   X1.5745       Y0.8745    
   X1.5710       Y0.8830    
   X1.5698       Y0.8922    
G0   Z0.3750    
(Pass: 1)
   X1.6056       Y1.2538    
G1   Z0.2188     F60  
G17 G2   X1.59736      Y1.25494      R0.03257   
   X1.58963      Y1.25814      R0.03257   
   X1.58300      Y1.26323      R0.03257   
   X1.57791      Y1.26986      R0.03257   
   X1.57471      Y1.27759      R0.03257   
   X1.57362      Y1.28588      R0.03257   
   X1.57471      Y1.29417      R0.03257   
   X1.57791      Y1.30190      R0.03257   
   X1.58300      Y1.30853      R0.03257   
   X1.58963      Y1.31362      R0.03257   
   X1.59736      Y1.31682      R0.03257   
   X1.60565      Y1.31791      R0.03257   
   X1.61394      Y1.31682      R0.03257   
   X1.62167      Y1.31362      R0.03257   
   X1.62830      Y1.30853      R0.03257   
   X1.63339      Y1.30190      R0.03257   
   X1.63659      Y1.29417      R0.03257   
   X1.63768      Y1.28588      R0.03257   
   X1.63659      Y1.27759      R0.03257   
   X1.63339      Y1.26986      R0.03257   
   X1.62830      Y1.26323      R0.03257   
   X1.62167      Y1.25814      R0.03257   
   X1.61394      Y1.25494      R0.03257   
   X1.60565      Y1.25385      R0.03257   
(Pass: 2)
G1   Z0.1875    
G17 G2   X1.59736      Y1.25494      R0.03257   
   X1.58963      Y1.25814      R0.03257   
   X1.58300      Y1.26323      R0.03257   
   X1.57791      Y1.26986      R0.03257   
   X1.57471      Y1.27759      R0.03257   
   X1.57362      Y1.28588      R0.03257   
   X1.57471      Y1.29417      R0.03257   
   X1.57791      Y1.30190      R0.03257   
   X1.58300      Y1.30853      R0.03257   
   X1.58963      Y1.31362      R0.03257   
   X1.59736      Y1.31682      R0.03257   
   X1.60565      Y1.31791      R0.03257   
   X1.61394      Y1.31682      R0.03257   
   X1.62167      Y1.31362      R0.03257   
   X1.62830      Y1.30853      R0.03257   
   X1.63339      Y1.30190      R0.03257   
   X1.63659      Y1.29417      R0.03257   
   X1.63768      Y1.28588      R0.03257   
   X1.63659      Y1.27759      R0.03257   
   X1.63339      Y1.26986      R0.03257   
   X1.62830      Y1.26323      R0.03257   
   X1.62167      Y1.25814      R0.03257   
   X1.61394      Y1.25494      R0.03257   
   X1.60565      Y1.25385      R0.03257   
(Pass: 3)
G1   Z0.1562    
G17 G2   X1.59736      Y1.25494      R0.03257   
   X1.58963      Y1.25814      R0.03257   
   X1.58300      Y1.26323      R0.03257   
   X1.57791      Y1.26986      R0.03257   
   X1.57471      Y1.27759      R0.03257   
   X1.57362      Y1.28588      R0.03257   
   X1.57471      Y1.29417      R0.03257   
   X1.57791      Y1.30190      R0.03257   
   X1.58300      Y1.30853      R0.03257   
   X1.58963      Y1.31362      R0.03257   
   X1.59736      Y1.31682      R0.03257   
   X1.60565      Y1.31791      R0.03257   
   X1.61394      Y1.31682      R0.03257   
   X1.62167      Y1.31362      R0.03257   
   X1.62830      Y1.30853      R0.03257   
   X1.63339      Y1.30190      R0.03257   
   X1.63659      Y1.29417      R0.03257   
   X1.63768      Y1.28588      R0.03257   
   X1.63659      Y1.27759      R0.03257   
   X1.63339      Y1.26986      R0.03257   
   X1.62830      Y1.26323      R0.03257   
   X1.62167      Y1.25814      R0.03257   
   X1.61394      Y1.25494      R0.03257   
   X1.60565      Y1.25385      R0.03257   
(Pass: 4)
G1   Z0.1250    
G17 G2   X1.59736      Y1.25494      R0.03257   
   X1.58963      Y1.25814      R0.03257   
   X1.58300      Y1.26323      R0.03257   
   X1.57791      Y1.26986      R0.03257   
   X1.57471      Y1.27759      R0.03257   
   X1.57362      Y1.28588      R0.03257   
   X1.57471      Y1.29417      R0.03257   
   X1.57791      Y1.30190      R0.03257   
   X1.58300      Y1.30853      R0.03257   
   X1.58963      Y1.31362      R0.03257   
   X1.59736      Y1.31682      R0.03257   
   X1.60565      Y1.31791      R0.03257   
   X1.61394      Y1.31682      R0.03257   
   X1.62167      Y1.31362      R0.03257   
   X1.62830      Y1.30853      R0.03257   
   X1.63339      Y1.30190      R0.03257   
   X1.63659      Y1.29417      R0.03257   
   X1.63768      Y1.28588      R0.03257   
   X1.63659      Y1.27759      R0.03257   
   X1.63339      Y1.26986      R0.03257   
   X1.62830      Y1.26323      R0.03257   
   X1.62167      Y1.25814      R0.03257   
   X1.61394      Y1.25494      R0.03257   
   X1.60565      Y1.25385      R0.03257   
(Pass: 5)
G1   Z0.0938    
G17 G2   X1.59736      Y1.25494      R0.03257   
   X1.58963      Y1.25814      R0.03257   
   X1.58300      Y1.26323      R0.03257   
   X1.57791      Y1.26986      R0.03257   
   X1.57471      Y1.27759      R0.03257   
   X1.57362      Y1.28588      R0.03257   
   X1.57471      Y1.29417      R0.03257   
   X1.57791      Y1.30190      R0.03257   
   X1.58300      Y1.30853      R0.03257   
   X1.58963      Y1.31362      R0.03257   
   X1.59736      Y1.31682      R0.03257   
   X1.60565      Y1.31791      R0.03257   
   X1.61394      Y1.31682      R0.03257   
   X1.62167      Y1.31362      R0.03257   
   X1.62830      Y1.30853      R0.03257   
   X1.63339      Y1.30190      R0.03257   
   X1.63659      Y1.29417      R0.03257   
   X1.63768      Y1.28588      R0.03257   
   X1.63659      Y1.27759      R0.03257   
   X1.63339      Y1.26986      R0.03257   
   X1.62830      Y1.26323      R0.03257   
   X1.62167      Y1.25814      R0.03257   
   X1.61394      Y1.25494      R0.03257   
   X1.60565      Y1.25385      R0.03257   
(Pass: 6)
G1   Z0.0625    
G17 G2   X1.59736      Y1.25494      R0.03257   
   X1.58963      Y1.25814      R0.03257   
   X1.58300      Y1.26323      R0.03257   
   X1.57791      Y1.26986      R0.03257   
   X1.57471      Y1.27759      R0.03257   
   X1.57362      Y1.28588      R0.03257   
   X1.57471      Y1.29417      R0.03257   
   X1.57791      Y1.30190      R0.03257   
   X1.58300      Y1.30853      R0.03257   
   X1.58963      Y1.31362      R0.03257   
   X1.59736      Y1.31682      R0.03257   
   X1.60565      Y1.31791      R0.03257   
   X1.61394      Y1.31682      R0.03257   
   X1.62167      Y1.31362      R0.03257   
   X1.62830      Y1.30853      R0.03257   
   X1.63339      Y1.30190      R0.03257   
   X1.63659      Y1.29417      R0.03257   
   X1.63768      Y1.28588      R0.03257   
   X1.63659      Y1.27759      R0.03257   
   X1.63339      Y1.26986      R0.03257   
   X1.62830      Y1.26323      R0.03257   
   X1.62167      Y1.25814      R0.03257   
   X1.61394      Y1.25494      R0.03257   
   X1.60565      Y1.25385      R0.03257   
(Pass: 7)
G1   Z0.0312    
G17 G2   X1.59736      Y1.25494      R0.03257   
   X1.58963      Y1.25814      R0.03257   
   X1.58300      Y1.26323      R0.03257   
   X1.57791      Y1.26986      R0.03257   
   X1.57471      Y1.27759      R0.03257   
   X1.57362      Y1.28588      R0.03257   
   X1.57471      Y1.29417      R0.03257   
   X1.57791      Y1.30190      R0.03257   
   X1.58300      Y1.30853      R0.03257   
   X1.58963      Y1.31362      R0.03257   
   X1.59736      Y1.31682      R0.03257   
   X1.60565      Y1.31791      R0.03257   
   X1.61394      Y1.31682      R0.03257   
   X1.62167      Y1.31362      R0.03257   
   X1.62830      Y1.30853      R0.03257   
   X1.63339      Y1.30190      R0.03257   
   X1.63659      Y1.29417      R0.03257   
   X1.63768      Y1.28588      R0.03257   
   X1.63659      Y1.27759      R0.03257   
   X1.63339      Y1.26986      R0.03257   
   X1.62830      Y1.26323      R0.03257   
   X1.62167      Y1.25814      R0.03257   
   X1.61394      Y1.25494      R0.03257   
   X1.60565      Y1.25385      R0.03257   
(Pass: 8)
G1   Z0.0000    
G17 G2   X1.59736      Y1.25494      R0.03257   
   X1.58963      Y1.25814      R0.03257   
   X1.58300      Y1.26323      R0.03257   
   X1.57791      Y1.26986      R0.03257   
   X1.57471      Y1.27759      R0.03257   
   X1.57362      Y1.28588      R0.03257   
   X1.57471      Y1.29417      R0.03257   
   X1.57791      Y1.30190      R0.03257   
   X1.58300      Y1.30853      R0.03257   
   X1.58963      Y1.31362      R0.03257   
   X1.59736      Y1.31682      R0.03257   
   X1.60565      Y1.31791      R0.03257   
   X1.61394      Y1.31682      R0.03257   
   X1.62167      Y1.31362      R0.03257   
   X1.62830      Y1.30853      R0.03257   
   X1.63339      Y1.30190      R0.03257   
   X1.63659      Y1.29417      R0.03257   
   X1.63768      Y1.28588      R0.03257   
   X1.63659      Y1.27759      R0.03257   
   X1.63339      Y1.26986      R0.03257   
   X1.62830      Y1.26323      R0.03257   
   X1.62167      Y1.25814      R0.03257   
   X1.61394      Y1.25494      R0.03257   
   X1.60565      Y1.25385      R0.03257   
G0   Z0.3750    
(Pass: 1)
   Y2.0503    
G1   Z0.2188     F60  
   X1.5960       Y2.0515    
   X1.5874       Y2.0551    
   X1.5801       Y2.0607    
   X1.5745       Y2.0680    
   X1.5710       Y2.0765    
   X1.5698       Y2.0857    
   X1.5710       Y2.0949    
   X1.5745       Y2.1034    
   X1.5801       Y2.1107    
   X1.5874       Y2.1163    
   X1.5960       Y2.1199    
   X1.6051       Y2.1211    
   X1.6143       Y2.1199    
   X1.6228       Y2.1163    
   X1.6302       Y2.1107    
   X1.6358       Y2.1034    
   X1.6393       Y2.0949    
   X1.6405       Y2.0857    
   X1.6393       Y2.0765    
   X1.6358       Y2.0680    
   X1.6302       Y2.0607    
   X1.6228       Y2.0551    
   X1.6143       Y2.0515    
   X1.6051       Y2.0503    
(Pass: 2)
   Z0.1875    
   X1.5960       Y2.0515    
   X1.5874       Y2.0551    
   X1.5801       Y2.0607    
   X1.5745       Y2.0680    
   X1.5710       Y2.0765    
   X1.5698       Y2.0857    
   X1.5710       Y2.0949    
   X1.5745       Y2.1034    
   X1.5801       Y2.1107    
   X1.5874       Y2.1163    
   X1.5960       Y2.1199    
   X1.6051       Y2.1211    
   X1.6143       Y2.1199    
   X1.6228       Y2.1163    
   X1.6302       Y2.1107    
   X1.6358       Y2.1034    
   X1.6393       Y2.0949    
   X1.6405       Y2.0857    
   X1.6393       Y2.0765    
   X1.6358       Y2.0680    
   X1.6302       Y2.0607    
   X1.6228       Y2.0551    
   X1.6143       Y2.0515    
   X1.6051       Y2.0503    
(Pass: 3)
   Z0.1562    
   X1.5960       Y2.0515    
   X1.5874       Y2.0551    
   X1.5801       Y2.0607    
   X1.5745       Y2.0680    
   X1.5710       Y2.0765    
   X1.5698       Y2.0857    
   X1.5710       Y2.0949    
   X1.5745       Y2.1034    
   X1.5801       Y2.1107    
   X1.5874       Y2.1163    
   X1.5960       Y2.1199    
   X1.6051       Y2.1211    
   X1.6143       Y2.1199    
   X1.6228       Y2.1163    
   X1.6302       Y2.1107    
   X1.6358       Y2.1034    
   X1.6393       Y2.0949    
   X1.6405       Y2.0857    
   X1.6393       Y2.0765    
   X1.6358       Y2.0680    
   X1.6302       Y2.0607    
   X1.6228       Y2.0551    
   X1.6143       Y2.0515    
   X1.6051       Y2.0503    
(Pass: 4)
   Z0.1250    
   X1.5960       Y2.0515    
   X1.5874       Y2.0551    
   X1.5801       Y2.0607    
   X1.5745       Y2.0680    
   X1.5710       Y2.0765    
   X1.5698       Y2.0857    
   X1.5710       Y2.0949    
   X1.5745       Y2.1034    
   X1.5801       Y2.1107    
   X1.5874       Y2.1163    
   X1.5960       Y2.1199    
   X1.6051       Y2.1211    
   X1.6143       Y2.1199    
   X1.6228       Y2.1163    
   X1.6302       Y2.1107    
   X1.6358       Y2.1034    
   X1.6393       Y2.0949    
   X1.6405       Y2.0857    
   X1.6393       Y2.0765    
   X1.6358       Y2.0680    
   X1.6302       Y2.0607    
   X1.6228       Y2.0551    
   X1.6143       Y2.0515    
   X1.6051       Y2.0503    
(Pass: 5)
   Z0.0938    
   X1.5960       Y2.0515    
   X1.5874       Y2.0551    
   X1.5801       Y2.0607    
   X1.5745       Y2.0680    
   X1.5710       Y2.0765    
   X1.5698       Y2.0857    
   X1.5710       Y2.0949    
   X1.5745       Y2.1034    
   X1.5801       Y2.1107    
   X1.5874       Y2.1163    
   X1.5960       Y2.1199    
   X1.6051       Y2.1211    
   X1.6143       Y2.1199    
   X1.6228       Y2.1163    
   X1.6302       Y2.1107    
   X1.6358       Y2.1034    
   X1.6393       Y2.0949    
   X1.6405       Y2.0857    
   X1.6393       Y2.0765    
   X1.6358       Y2.0680    
   X1.6302       Y2.0607    
   X1.6228       Y2.0551    
   X1.6143       Y2.0515    
   X1.6051       Y2.0503    
(Pass: 6)
   Z0.0625    
   X1.5960       Y2.0515    
   X1.5874       Y2.0551    
   X1.5801       Y2.0607    
   X1.5745       Y2.0680    
   X1.5710       Y2.0765    
   X1.5698       Y2.0857    
   X1.5710       Y2.0949    
   X1.5745       Y2.1034    
   X1.5801       Y2.1107    
   X1.5874       Y2.1163    
   X1.5960       Y2.1199    
   X1.6051       Y2.1211    
   X1.6143       Y2.1199    
   X1.6228       Y2.1163    
   X1.6302       Y2.1107    
   X1.6358       Y2.1034    
   X1.6393       Y2.0949    
   X1.6405       Y2.0857    
   X1.6393       Y2.0765    
   X1.6358       Y2.0680    
   X1.6302       Y2.0607    
   X1.6228       Y2.0551    
   X1.6143       Y2.0515    
   X1.6051       Y2.0503    
(Pass: 7)
   Z0.0312    
   X1.5960       Y2.0515    
   X1.5874       Y2.0551    
   X1.5801       Y2.0607    
   X1.5745       Y2.0680    
   X1.5710       Y2.0765    
   X1.5698       Y2.0857    
   X1.5710       Y2.0949    
   X1.5745       Y2.1034    
   X1.5801       Y2.1107    
   X1.5874       Y2.1163    
   X1.5960       Y2.1199    
   X1.6051       Y2.1211    
   X1.6143       Y2.1199    
   X1.6228       Y2.1163    
   X1.6302       Y2.1107    
   X1.6358       Y2.1034    
   X1.6393       Y2.0949    
   X1.6405       Y2.0857    
   X1.6393       Y2.0765    
   X1.6358       Y2.0680    
   X1.6302       Y2.0607    
   X1.6228       Y2.0551    
   X1.6143       Y2.0515    
   X1.6051       Y2.0503    
(Pass: 8)
   Z0.0000    
   X1.5960       Y2.0515    
   X1.5874       Y2.0551    
   X1.5801       Y2.0607    
   X1.5745       Y2.0680    
   X1.5710       Y2.0765    
   X1.5698       Y2.0857    
   X1.5710       Y2.0949    
   X1.5745       Y2.1034    
   X1.5801       Y2.1107    
   X1.5874       Y2.1163    
   X1.5960       Y2.1199    
   X1.6051       Y2.1211    
   X1.6143       Y2.1199    
   X1.6228       Y2.1163    
   X1.6302       Y2.1107    
   X1.6358       Y2.1034    
   X1.6393       Y2.0949    
   X1.6405       Y2.0857    
   X1.6393       Y2.0765    
   X1.6358       Y2.0680    
   X1.6302       Y2.0607    
   X1.6228       Y2.0551    
   X1.6143       Y2.0515    
   X1.6051       Y2.0503    
G0   Z0.3750    
(Pass: 1)
   Y2.8505    
G1   Z0.2188     F60  
   X1.5965       Y2.8517    
   X1.5880       Y2.8552    
   X1.5806       Y2.8609    
   X1.5750       Y2.8682    
   X1.5715       Y2.8767    
   X1.5703       Y2.8859    
   X1.5715       Y2.8950    
   X1.5750       Y2.9036    
   X1.5806       Y2.9109    
   X1.5880       Y2.9165    
   X1.5965       Y2.9201    
   X1.6056       Y2.9213    
   X1.6148       Y2.9201    
   X1.6233       Y2.9165    
   X1.6307       Y2.9109    
   X1.6363       Y2.9036    
   X1.6398       Y2.8950    
   X1.6410       Y2.8859    
   X1.6398       Y2.8767    
   X1.6363       Y2.8682    
   X1.6307       Y2.8609    
   X1.6233       Y2.8552    
   X1.6148       Y2.8517    
   X1.6056       Y2.8505    
(Pass: 2)
   Z0.1875    
   X1.5965       Y2.8517    
   X1.5880       Y2.8552    
   X1.5806       Y2.8609    
   X1.5750       Y2.8682    
   X1.5715       Y2.8767    
   X1.5703       Y2.8859    
   X1.5715       Y2.8950    
   X1.5750       Y2.9036    
   X1.5806       Y2.9109    
   X1.5880       Y2.9165    
   X1.5965       Y2.9201    
   X1.6056       Y2.9213    
   X1.6148       Y2.9201    
   X1.6233       Y2.9165    
   X1.6307       Y2.9109    
   X1.6363       Y2.9036    
   X1.6398       Y2.8950    
   X1.6410       Y2.8859    
   X1.6398       Y2.8767    
   X1.6363       Y2.8682    
   X1.6307       Y2.8609    
   X1.6233       Y2.8552    
   X1.6148       Y2.8517    
   X1.6056       Y2.8505    
(Pass: 3)
   Z0.1562    
   X1.5965       Y2.8517    
   X1.5880       Y2.8552    
   X1.5806       Y2.8609    
   X1.5750       Y2.8682    
   X1.5715       Y2.8767    
   X1.5703       Y2.8859    
   X1.5715       Y2.8950    
   X1.5750       Y2.9036    
   X1.5806       Y2.9109    
   X1.5880       Y2.9165    
   X1.5965       Y2.9201    
   X1.6056       Y2.9213    
   X1.6148       Y2.9201    
   X1.6233       Y2.9165    
   X1.6307       Y2.9109    
   X1.6363       Y2.9036    
   X1.6398       Y2.8950    
   X1.6410       Y2.8859    
   X1.6398       Y2.8767    
   X1.6363       Y2.8682    
   X1.6307       Y2.8609    
   X1.6233       Y2.8552    
   X1.6148       Y2.8517    
   X1.6056       Y2.8505    
(Pass: 4)
   Z0.1250    
   X1.5965       Y2.8517    
   X1.5880       Y2.8552    
   X1.5806       Y2.8609    
   X1.5750       Y2.8682    
   X1.5715       Y2.8767    
   X1.5703       Y2.8859    
   X1.5715       Y2.8950    
   X1.5750       Y2.9036    
   X1.5806       Y2.9109    
   X1.5880       Y2.9165    
   X1.5965       Y2.9201    
   X1.6056       Y2.9213    
   X1.6148       Y2.9201    
   X1.6233       Y2.9165    
   X1.6307       Y2.9109    
   X1.6363       Y2.9036    
   X1.6398       Y2.8950    
   X1.6410       Y2.8859    
   X1.6398       Y2.8767    
   X1.6363       Y2.8682    
   X1.6307       Y2.8609    
   X1.6233       Y2.8552    
   X1.6148       Y2.8517    
   X1.6056       Y2.8505    
(Pass: 5)
   Z0.0938    
   X1.5965       Y2.8517    
   X1.5880       Y2.8552    
   X1.5806       Y2.8609    
   X1.5750       Y2.8682    
   X1.5715       Y2.8767    
   X1.5703       Y2.8859    
   X1.5715       Y2.8950    
   X1.5750       Y2.9036    
   X1.5806       Y2.9109    
   X1.5880       Y2.9165    
   X1.5965       Y2.9201    
   X1.6056       Y2.9213    
   X1.6148       Y2.9201    
   X1.6233       Y2.9165    
   X1.6307       Y2.9109    
   X1.6363       Y2.9036    
   X1.6398       Y2.8950    
   X1.6410       Y2.8859    
   X1.6398       Y2.8767    
   X1.6363       Y2.8682    
   X1.6307       Y2.8609    
   X1.6233       Y2.8552    
   X1.6148       Y2.8517    
   X1.6056       Y2.8505    
(Pass: 6)
   Z0.0625    
   X1.5965       Y2.8517    
   X1.5880       Y2.8552    
   X1.5806       Y2.8609    
   X1.5750       Y2.8682    
   X1.5715       Y2.8767    
   X1.5703       Y2.8859    
   X1.5715       Y2.8950    
   X1.5750       Y2.9036    
   X1.5806       Y2.9109    
   X1.5880       Y2.9165    
   X1.5965       Y2.9201    
   X1.6056       Y2.9213    
   X1.6148       Y2.9201    
   X1.6233       Y2.9165    
   X1.6307       Y2.9109    
   X1.6363       Y2.9036    
   X1.6398       Y2.8950    
   X1.6410       Y2.8859    
   X1.6398       Y2.8767    
   X1.6363       Y2.8682    
   X1.6307       Y2.8609    
   X1.6233       Y2.8552    
   X1.6148       Y2.8517    
   X1.6056       Y2.8505    
(Pass: 7)
   Z0.0312    
   X1.5965       Y2.8517    
   X1.5880       Y2.8552    
   X1.5806       Y2.8609    
   X1.5750       Y2.8682    
   X1.5715       Y2.8767    
   X1.5703       Y2.8859    
   X1.5715       Y2.8950    
   X1.5750       Y2.9036    
   X1.5806       Y2.9109    
   X1.5880       Y2.9165    
   X1.5965       Y2.9201    
   X1.6056       Y2.9213    
   X1.6148       Y2.9201    
   X1.6233       Y2.9165    
   X1.6307       Y2.9109    
   X1.6363       Y2.9036    
   X1.6398       Y2.8950    
   X1.6410       Y2.8859    
   X1.6398       Y2.8767    
   X1.6363       Y2.8682    
   X1.6307       Y2.8609    
   X1.6233       Y2.8552    
   X1.6148       Y2.8517    
   X1.6056       Y2.8505    
(Pass: 8)
   Z0.0000    
   X1.5965       Y2.8517    
   X1.5880       Y2.8552    
   X1.5806       Y2.8609    
   X1.5750       Y2.8682    
   X1.5715       Y2.8767    
   X1.5703       Y2.8859    
   X1.5715       Y2.8950    
   X1.5750       Y2.9036    
   X1.5806       Y2.9109    
   X1.5880       Y2.9165    
   X1.5965       Y2.9201    
   X1.6056       Y2.9213    
   X1.6148       Y2.9201    
   X1.6233       Y2.9165    
   X1.6307       Y2.9109    
   X1.6363       Y2.9036    
   X1.6398       Y2.8950    
   X1.6410       Y2.8859    
   X1.6398       Y2.8767    
   X1.6363       Y2.8682    
   X1.6307       Y2.8609    
   X1.6233       Y2.8552    
   X1.6148       Y2.8517    
   X1.6056       Y2.8505    
G0   Z0.3750    
(Pass: 1)
   Y3.2442    
G1   Z0.2188     F60  
   X1.5960       Y3.2454    
   X1.5874       Y3.2489    
   X1.5801       Y3.2546    
   X1.5745       Y3.2619    
   X1.5710       Y3.2704    
   X1.5698       Y3.2796    
   X1.5710       Y3.2887    
   X1.5745       Y3.2973    
   X1.5801       Y3.3046    
   X1.5874       Y3.3102    
   X1.5960       Y3.3138    
   X1.6051       Y3.3150    
   X1.6143       Y3.3138    
   X1.6228       Y3.3102    
   X1.6302       Y3.3046    
   X1.6358       Y3.2973    
   X1.6393       Y3.2887    
   X1.6405       Y3.2796    
   X1.6393       Y3.2704    
   X1.6358       Y3.2619    
   X1.6302       Y3.2546    
   X1.6228       Y3.2489    
   X1.6143       Y3.2454    
   X1.6051       Y3.2442    
(Pass: 2)
   Z0.1875    
   X1.5960       Y3.2454    
   X1.5874       Y3.2489    
   X1.5801       Y3.2546    
   X1.5745       Y3.2619    
   X1.5710       Y3.2704    
   X1.5698       Y3.2796    
   X1.5710       Y3.2887    
   X1.5745       Y3.2973    
   X1.5801       Y3.3046    
   X1.5874       Y3.3102    
   X1.5960       Y3.3138    
   X1.6051       Y3.3150    
   X1.6143       Y3.3138    
   X1.6228       Y3.3102    
   X1.6302       Y3.3046    
   X1.6358       Y3.2973    
   X1.6393       Y3.2887    
   X1.6405       Y3.2796    
   X1.6393       Y3.2704    
   X1.6358       Y3.2619    
   X1.6302       Y3.2546    
   X1.6228       Y3.2489    
   X1.6143       Y3.2454    
   X1.6051       Y3.2442    
(Pass: 3)
   Z0.1562    
   X1.5960       Y3.2454    
   X1.5874       Y3.2489    
   X1.5801       Y3.2546    
   X1.5745       Y3.2619    
   X1.5710       Y3.2704    
   X1.5698       Y3.2796    
   X1.5710       Y3.2887    
   X1.5745       Y3.2973    
   X1.5801       Y3.3046    
   X1.5874       Y3.3102    
   X1.5960       Y3.3138    
   X1.6051       Y3.3150    
   X1.6143       Y3.3138    
   X1.6228       Y3.3102    
   X1.6302       Y3.3046    
   X1.6358       Y3.2973    
   X1.6393       Y3.2887    
   X1.6405       Y3.2796    
   X1.6393       Y3.2704    
   X1.6358       Y3.2619    
   X1.6302       Y3.2546    
   X1.6228       Y3.2489    
   X1.6143       Y3.2454    
   X1.6051       Y3.2442    
(Pass: 4)
   Z0.1250    
   X1.5960       Y3.2454    
   X1.5874       Y3.2489    
   X1.5801       Y3.2546    
   X1.5745       Y3.2619    
   X1.5710       Y3.2704    
   X1.5698       Y3.2796    
   X1.5710       Y3.2887    
   X1.5745       Y3.2973    
   X1.5801       Y3.3046    
   X1.5874       Y3.3102    
   X1.5960       Y3.3138    
   X1.6051       Y3.3150    
   X1.6143       Y3.3138    
   X1.6228       Y3.3102    
   X1.6302       Y3.3046    
   X1.6358       Y3.2973    
   X1.6393       Y3.2887    
   X1.6405       Y3.2796    
   X1.6393       Y3.2704    
   X1.6358       Y3.2619    
   X1.6302       Y3.2546    
   X1.6228       Y3.2489    
   X1.6143       Y3.2454    
   X1.6051       Y3.2442    
(Pass: 5)
   Z0.0938    
   X1.5960       Y3.2454    
   X1.5874       Y3.2489    
   X1.5801       Y3.2546    
   X1.5745       Y3.2619    
   X1.5710       Y3.2704    
   X1.5698       Y3.2796    
   X1.5710       Y3.2887    
   X1.5745       Y3.2973    
   X1.5801       Y3.3046    
   X1.5874       Y3.3102    
   X1.5960       Y3.3138    
   X1.6051       Y3.3150    
   X1.6143       Y3.3138    
   X1.6228       Y3.3102    
   X1.6302       Y3.3046    
   X1.6358       Y3.2973    
   X1.6393       Y3.2887    
   X1.6405       Y3.2796    
   X1.6393       Y3.2704    
   X1.6358       Y3.2619    
   X1.6302       Y3.2546    
   X1.6228       Y3.2489    
   X1.6143       Y3.2454    
   X1.6051       Y3.2442    
(Pass: 6)
   Z0.0625    
   X1.5960       Y3.2454    
   X1.5874       Y3.2489    
   X1.5801       Y3.2546    
   X1.5745       Y3.2619    
   X1.5710       Y3.2704    
   X1.5698       Y3.2796    
   X1.5710       Y3.2887    
   X1.5745       Y3.2973    
   X1.5801       Y3.3046    
   X1.5874       Y3.3102    
   X1.5960       Y3.3138    
   X1.6051       Y3.3150    
   X1.6143       Y3.3138    
   X1.6228       Y3.3102    
   X1.6302       Y3.3046    
   X1.6358       Y3.2973    
   X1.6393       Y3.2887    
   X1.6405       Y3.2796    
   X1.6393       Y3.2704    
   X1.6358       Y3.2619    
   X1.6302       Y3.2546    
   X1.6228       Y3.2489    
   X1.6143       Y3.2454    
   X1.6051       Y3.2442    
(Pass: 7)
   Z0.0312    
   X1.5960       Y3.2454    
   X1.5874       Y3.2489    
   X1.5801       Y3.2546    
   X1.5745       Y3.2619    
   X1.5710       Y3.2704    
   X1.5698       Y3.2796    
   X1.5710       Y3.2887    
   X1.5745       Y3.2973    
   X1.5801       Y3.3046    
   X1.5874       Y3.3102    
   X1.5960       Y3.3138    
   X1.6051       Y3.3150    
   X1.6143       Y3.3138    
   X1.6228       Y3.3102    
   X1.6302       Y3.3046    
   X1.6358       Y3.2973    
   X1.6393       Y3.2887    
   X1.6405       Y3.2796    
   X1.6393       Y3.2704    
   X1.6358       Y3.2619    
   X1.6302       Y3.2546    
   X1.6228       Y3.2489    
   X1.6143       Y3.2454    
   X1.6051       Y3.2442    
(Pass: 8)
   Z0.0000    
   X1.5960       Y3.2454    
   X1.5874       Y3.2489    
   X1.5801       Y3.2546    
   X1.5745       Y3.2619    
   X1.5710       Y3.2704    
   X1.5698       Y3.2796    
   X1.5710       Y3.2887    
   X1.5745       Y3.2973    
   X1.5801       Y3.3046    
   X1.5874       Y3.3102    
   X1.5960       Y3.3138    
   X1.6051       Y3.3150    
   X1.6143       Y3.3138    
   X1.6228       Y3.3102    
   X1.6302       Y3.3046    
   X1.6358       Y3.2973    
   X1.6393       Y3.2887    
   X1.6405       Y3.2796    
   X1.6393       Y3.2704    
   X1.6358       Y3.2619    
   X1.6302       Y3.2546    
   X1.6228       Y3.2489    
   X1.6143       Y3.2454    
   X1.6051       Y3.2442    
G0   Z0.3750    
(Pass: 1)
   X1.9107       Y4.0226    
G1   Z0.2188     F60  
   X1.9021       Y4.0261    
   X1.8948       Y4.0317    
   X1.8892       Y4.0391    
   X1.8856       Y4.0476    
   X1.8844       Y4.0568    
   X1.8856       Y4.0659    
   X1.8892       Y4.0745    
   X1.8948       Y4.0818    
   X1.9021       Y4.0874    
   X1.9107       Y4.0909    
   X1.9198       Y4.0921    
   X1.9290       Y4.0909    
   X1.9375       Y4.0874    
   X1.9449       Y4.0818    
   X1.9505       Y4.0745    
   X1.9540       Y4.0659    
   X1.9552       Y4.0568    
   X1.9540       Y4.0476    
   X1.9505       Y4.0391    
   X1.9449       Y4.0317    
   X1.9375       Y4.0261    
   X1.9290       Y4.0226    
   X1.9198       Y4.0214    
   X1.9107       Y4.0226    
(Pass: 2)
   Z0.1875    
   X1.9021       Y4.0261    
   X1.8948       Y4.0317    
   X1.8892       Y4.0391    
   X1.8856       Y4.0476    
   X1.8844       Y4.0568    
   X1.8856       Y4.0659    
   X1.8892       Y4.0745    
   X1.8948       Y4.0818    
   X1.9021       Y4.0874    
   X1.9107       Y4.0909    
   X1.9198       Y4.0921    
   X1.9290       Y4.0909    
   X1.9375       Y4.0874    
   X1.9449       Y4.0818    
   X1.9505       Y4.0745    
   X1.9540       Y4.0659    
   X1.9552       Y4.0568    
   X1.9540       Y4.0476    
   X1.9505       Y4.0391    
   X1.9449       Y4.0317    
   X1.9375       Y4.0261    
   X1.9290       Y4.0226    
   X1.9198       Y4.0214    
   X1.9107       Y4.0226    
(Pass: 3)
   Z0.1562    
   X1.9021       Y4.0261    
   X1.8948       Y4.0317    
   X1.8892       Y4.0391    
   X1.8856       Y4.0476    
   X1.8844       Y4.0568    
   X1.8856       Y4.0659    
   X1.8892       Y4.0745    
   X1.8948       Y4.0818    
   X1.9021       Y4.0874    
   X1.9107       Y4.0909    
   X1.9198       Y4.0921    
   X1.9290       Y4.0909    
   X1.9375       Y4.0874    
   X1.9449       Y4.0818    
   X1.9505       Y4.0745    
   X1.9540       Y4.0659    
   X1.9552       Y4.0568    
   X1.9540       Y4.0476    
   X1.9505       Y4.0391    
   X1.9449       Y4.0317    
   X1.9375       Y4.0261    
   X1.9290       Y4.0226    
   X1.9198       Y4.0214    
   X1.9107       Y4.0226    
(Pass: 4)
   Z0.1250    
   X1.9021       Y4.0261    
   X1.8948       Y4.0317    
   X1.8892       Y4.0391    
   X1.8856       Y4.0476    
   X1.8844       Y4.0568    
   X1.8856       Y4.0659    
   X1.8892       Y4.0745    
   X1.8948       Y4.0818    
   X1.9021       Y4.0874    
   X1.9107       Y4.0909    
   X1.9198       Y4.0921    
   X1.9290       Y4.0909    
   X1.9375       Y4.0874    
   X1.9449       Y4.0818    
   X1.9505       Y4.0745    
   X1.9540       Y4.0659    
   X1.9552       Y4.0568    
   X1.9540       Y4.0476    
   X1.9505       Y4.0391    
   X1.9449       Y4.0317    
   X1.9375       Y4.0261    
   X1.9290       Y4.0226    
   X1.9198       Y4.0214    
   X1.9107       Y4.0226    
(Pass: 5)
   Z0.0938    
   X1.9021       Y4.0261    
   X1.8948       Y4.0317    
   X1.8892       Y4.0391    
   X1.8856       Y4.0476    
   X1.8844       Y4.0568    
   X1.8856       Y4.0659    
   X1.8892       Y4.0745    
   X1.8948       Y4.0818    
   X1.9021       Y4.0874    
   X1.9107       Y4.0909    
   X1.9198       Y4.0921    
   X1.9290       Y4.0909    
   X1.9375       Y4.0874    
   X1.9449       Y4.0818    
   X1.9505       Y4.0745    
   X1.9540       Y4.0659    
   X1.9552       Y4.0568    
   X1.9540       Y4.0476    
   X1.9505       Y4.0391    
   X1.9449       Y4.0317    
   X1.9375       Y4.0261    
   X1.9290       Y4.0226    
   X1.9198       Y4.0214    
   X1.9107       Y4.0226    
(Pass: 6)
   Z0.0625    
   X1.9021       Y4.0261    
   X1.8948       Y4.0317    
   X1.8892       Y4.0391    
   X1.8856       Y4.0476    
   X1.8844       Y4.0568    
   X1.8856       Y4.0659    
   X1.8892       Y4.0745    
   X1.8948       Y4.0818    
   X1.9021       Y4.0874    
   X1.9107       Y4.0909    
   X1.9198       Y4.0921    
   X1.9290       Y4.0909    
   X1.9375       Y4.0874    
   X1.9449       Y4.0818    
   X1.9505       Y4.0745    
   X1.9540       Y4.0659    
   X1.9552       Y4.0568    
   X1.9540       Y4.0476    
   X1.9505       Y4.0391    
   X1.9449       Y4.0317    
   X1.9375       Y4.0261    
   X1.9290       Y4.0226    
   X1.9198       Y4.0214    
   X1.9107       Y4.0226    
(Pass: 7)
   Z0.0312    
   X1.9021       Y4.0261    
   X1.8948       Y4.0317    
   X1.8892       Y4.0391    
   X1.8856       Y4.0476    
   X1.8844       Y4.0568    
   X1.8856       Y4.0659    
   X1.8892       Y4.0745    
   X1.8948       Y4.0818    
   X1.9021       Y4.0874    
   X1.9107       Y4.0909    
   X1.9198       Y4.0921    
   X1.9290       Y4.0909    
   X1.9375       Y4.0874    
   X1.9449       Y4.0818    
   X1.9505       Y4.0745    
   X1.9540       Y4.0659    
   X1.9552       Y4.0568    
   X1.9540       Y4.0476    
   X1.9505       Y4.0391    
   X1.9449       Y4.0317    
   X1.9375       Y4.0261    
   X1.9290       Y4.0226    
   X1.9198       Y4.0214    
   X1.9107       Y4.0226    
(Pass: 8)
   Z0.0000    
   X1.9021       Y4.0261    
   X1.8948       Y4.0317    
   X1.8892       Y4.0391    
   X1.8856       Y4.0476    
   X1.8844       Y4.0568    
   X1.8856       Y4.0659    
   X1.8892       Y4.0745    
   X1.8948       Y4.0818    
   X1.9021       Y4.0874    
   X1.9107       Y4.0909    
   X1.9198       Y4.0921    
   X1.9290       Y4.0909    
   X1.9375       Y4.0874    
   X1.9449       Y4.0818    
   X1.9505       Y4.0745    
   X1.9540       Y4.0659    
   X1.9552       Y4.0568    
   X1.9540       Y4.0476    
   X1.9505       Y4.0391    
   X1.9449       Y4.0317    
   X1.9375       Y4.0261    
   X1.9290       Y4.0226    
   X1.9198       Y4.0214    
   X1.9107       Y4.0226    
G0   Z0.3750    
(Pass: 1)
   X0.9698       Y4.0613    
G1   Z0.2188     F60  
   Y4.0522    
   X0.9675       Y4.0435    
   X0.9630       Y4.0357    
   X0.9566       Y4.0294    
   X0.9488       Y4.0248    
   X0.9401       Y4.0225    
   X0.9311    
   X0.9224       Y4.0248    
   X0.9145       Y4.0294    
   X0.9082       Y4.0357    
   X0.9037       Y4.0435    
   X0.9013       Y4.0522    
   Y4.0613    
   X0.9037       Y4.0700    
   X0.9082       Y4.0778    
   X0.9145       Y4.0842    
   X0.9224       Y4.0887    
   X0.9311       Y4.0910    
   X0.9401    
   X0.9488       Y4.0887    
   X0.9566       Y4.0842    
   X0.9630       Y4.0778    
   X0.9675       Y4.0700    
   X0.9698       Y4.0613    
(Pass: 2)
   Z0.1875    
   Y4.0522    
   X0.9675       Y4.0435    
   X0.9630       Y4.0357    
   X0.9566       Y4.0294    
   X0.9488       Y4.0248    
   X0.9401       Y4.0225    
   X0.9311    
   X0.9224       Y4.0248    
   X0.9145       Y4.0294    
   X0.9082       Y4.0357    
   X0.9037       Y4.0435    
   X0.9013       Y4.0522    
   Y4.0613    
   X0.9037       Y4.0700    
   X0.9082       Y4.0778    
   X0.9145       Y4.0842    
   X0.9224       Y4.0887    
   X0.9311       Y4.0910    
   X0.9401    
   X0.9488       Y4.0887    
   X0.9566       Y4.0842    
   X0.9630       Y4.0778    
   X0.9675       Y4.0700    
   X0.9698       Y4.0613    
(Pass: 3)
   Z0.1562    
   Y4.0522    
   X0.9675       Y4.0435    
   X0.9630       Y4.0357    
   X0.9566       Y4.0294    
   X0.9488       Y4.0248    
   X0.9401       Y4.0225    
   X0.9311    
   X0.9224       Y4.0248    
   X0.9145       Y4.0294    
   X0.9082       Y4.0357    
   X0.9037       Y4.0435    
   X0.9013       Y4.0522    
   Y4.0613    
   X0.9037       Y4.0700    
   X0.9082       Y4.0778    
   X0.9145       Y4.0842    
   X0.9224       Y4.0887    
   X0.9311       Y4.0910    
   X0.9401    
   X0.9488       Y4.0887    
   X0.9566       Y4.0842    
   X0.9630       Y4.0778    
   X0.9675       Y4.0700    
   X0.9698       Y4.0613    
(Pass: 4)
   Z0.1250    
   Y4.0522    
   X0.9675       Y4.0435    
   X0.9630       Y4.0357    
   X0.9566       Y4.0294    
   X0.9488       Y4.0248    
   X0.9401       Y4.0225    
   X0.9311    
   X0.9224       Y4.0248    
   X0.9145       Y4.0294    
   X0.9082       Y4.0357    
   X0.9037       Y4.0435    
   X0.9013       Y4.0522    
   Y4.0613    
   X0.9037       Y4.0700    
   X0.9082       Y4.0778    
   X0.9145       Y4.0842    
   X0.9224       Y4.0887    
   X0.9311       Y4.0910    
   X0.9401    
   X0.9488       Y4.0887    
   X0.9566       Y4.0842    
   X0.9630       Y4.0778    
   X0.9675       Y4.0700    
   X0.9698       Y4.0613    
(Pass: 5)
   Z0.0938    
   Y4.0522    
   X0.9675       Y4.0435    
   X0.9630       Y4.0357    
   X0.9566       Y4.0294    
   X0.9488       Y4.0248    
   X0.9401       Y4.0225    
   X0.9311    
   X0.9224       Y4.0248    
   X0.9145       Y4.0294    
   X0.9082       Y4.0357    
   X0.9037       Y4.0435    
   X0.9013       Y4.0522    
   Y4.0613    
   X0.9037       Y4.0700    
   X0.9082       Y4.0778    
   X0.9145       Y4.0842    
   X0.9224       Y4.0887    
   X0.9311       Y4.0910    
   X0.9401    
   X0.9488       Y4.0887    
   X0.9566       Y4.0842    
   X0.9630       Y4.0778    
   X0.9675       Y4.0700    
   X0.9698       Y4.0613    
(Pass: 6)
   Z0.0625    
   Y4.0522    
   X0.9675       Y4.0435    
   X0.9630       Y4.0357    
   X0.9566       Y4.0294    
   X0.9488       Y4.0248    
   X0.9401       Y4.0225    
   X0.9311    
   X0.9224       Y4.0248    
   X0.9145       Y4.0294    
   X0.9082       Y4.0357    
   X0.9037       Y4.0435    
   X0.9013       Y4.0522    
   Y4.0613    
   X0.9037       Y4.0700    
   X0.9082       Y4.0778    
   X0.9145       Y4.0842    
   X0.9224       Y4.0887    
   X0.9311       Y4.0910    
   X0.9401    
   X0.9488       Y4.0887    
   X0.9566       Y4.0842    
   X0.9630       Y4.0778    
   X0.9675       Y4.0700    
   X0.9698       Y4.0613    
(Pass: 7)
   Z0.0312    
   Y4.0522    
   X0.9675       Y4.0435    
   X0.9630       Y4.0357    
   X0.9566       Y4.0294    
   X0.9488       Y4.0248    
   X0.9401       Y4.0225    
   X0.9311    
   X0.9224       Y4.0248    
   X0.9145       Y4.0294    
   X0.9082       Y4.0357    
   X0.9037       Y4.0435    
   X0.9013       Y4.0522    
   Y4.0613    
   X0.9037       Y4.0700    
   X0.9082       Y4.0778    
   X0.9145       Y4.0842    
   X0.9224       Y4.0887    
   X0.9311       Y4.0910    
   X0.9401    
   X0.9488       Y4.0887    
   X0.9566       Y4.0842    
   X0.9630       Y4.0778    
   X0.9675       Y4.0700    
   X0.9698       Y4.0613    
(Pass: 8)
   Z0.0000    
   Y4.0522    
   X0.9675       Y4.0435    
   X0.9630       Y4.0357    
   X0.9566       Y4.0294    
   X0.9488       Y4.0248    
   X0.9401       Y4.0225    
   X0.9311    
   X0.9224       Y4.0248    
   X0.9145       Y4.0294    
   X0.9082       Y4.0357    
   X0.9037       Y4.0435    
   X0.9013       Y4.0522    
   Y4.0613    
   X0.9037       Y4.0700    
   X0.9082       Y4.0778    
   X0.9145       Y4.0842    
   X0.9224       Y4.0887    
   X0.9311       Y4.0910    
   X0.9401    
   X0.9488       Y4.0887    
   X0.9566       Y4.0842    
   X0.9630       Y4.0778    
   X0.9675       Y4.0700    
   X0.9698       Y4.0613    
G0   Z0.3750    
(Pass: 1)
   X2.7564       Y2.5082    
G1   Z0.2188     F60  
G17 G2   X2.76144      Y2.51483      R0.03257   
   X2.76808      Y2.51992      R0.03257   
   X2.77580      Y2.52312      R0.03257   
   X2.78409      Y2.52421      R0.03257   
   X2.79238      Y2.52312      R0.03257   
   X2.80011      Y2.51992      R0.03257   
   X2.80674      Y2.51483      R0.03257   
   X2.81183      Y2.50820      R0.03257   
   X2.81503      Y2.50047      R0.03257   
   X2.81612      Y2.49218      R0.03257   
   X2.81503      Y2.48389      R0.03257   
   X2.81183      Y2.47616      R0.03257   
   X2.80674      Y2.46953      R0.03257   
   X2.80011      Y2.46444      R0.03257   
   X2.79238      Y2.46124      R0.03257   
   X2.78409      Y2.46015      R0.03257   
   X2.77580      Y2.46124      R0.03257   
   X2.76808      Y2.46444      R0.03257   
   X2.76144      Y2.46953      R0.03257   
   X2.75635      Y2.47616      R0.03257   
   X2.75315      Y2.48389      R0.03257   
   X2.75206      Y2.49218      R0.03257   
   X2.75315      Y2.50047      R0.03257   
   X2.75635      Y2.50820      R0.03257   
(Pass: 2)
G1   Z0.1875    
G17 G2   X2.76144      Y2.51483      R0.03257   
   X2.76808      Y2.51992      R0.03257   
   X2.77580      Y2.52312      R0.03257   
   X2.78409      Y2.52421      R0.03257   
   X2.79238      Y2.52312      R0.03257   
   X2.80011      Y2.51992      R0.03257   
   X2.80674      Y2.51483      R0.03257   
   X2.81183      Y2.50820      R0.03257   
   X2.81503      Y2.50047      R0.03257   
   X2.81612      Y2.49218      R0.03257   
   X2.81503      Y2.48389      R0.03257   
   X2.81183      Y2.47616      R0.03257   
   X2.80674      Y2.46953      R0.03257   
   X2.80011      Y2.46444      R0.03257   
   X2.79238      Y2.46124      R0.03257   
   X2.78409      Y2.46015      R0.03257   
   X2.77580      Y2.46124      R0.03257   
   X2.76808      Y2.46444      R0.03257   
   X2.76144      Y2.46953      R0.03257   
   X2.75635      Y2.47616      R0.03257   
   X2.75315      Y2.48389      R0.03257   
   X2.75206      Y2.49218      R0.03257   
   X2.75315      Y2.50047      R0.03257   
   X2.75635      Y2.50820      R0.03257   
(Pass: 3)
G1   Z0.1562    
G17 G2   X2.76144      Y2.51483      R0.03257   
   X2.76808      Y2.51992      R0.03257   
   X2.77580      Y2.52312      R0.03257   
   X2.78409      Y2.52421      R0.03257   
   X2.79238      Y2.52312      R0.03257   
   X2.80011      Y2.51992      R0.03257   
   X2.80674      Y2.51483      R0.03257   
   X2.81183      Y2.50820      R0.03257   
   X2.81503      Y2.50047      R0.03257   
   X2.81612      Y2.49218      R0.03257   
   X2.81503      Y2.48389      R0.03257   
   X2.81183      Y2.47616      R0.03257   
   X2.80674      Y2.46953      R0.03257   
   X2.80011      Y2.46444      R0.03257   
   X2.79238      Y2.46124      R0.03257   
   X2.78409      Y2.46015      R0.03257   
   X2.77580      Y2.46124      R0.03257   
   X2.76808      Y2.46444      R0.03257   
   X2.76144      Y2.46953      R0.03257   
   X2.75635      Y2.47616      R0.03257   
   X2.75315      Y2.48389      R0.03257   
   X2.75206      Y2.49218      R0.03257   
   X2.75315      Y2.50047      R0.03257   
   X2.75635      Y2.50820      R0.03257   
(Pass: 4)
G1   Z0.1250    
G17 G2   X2.76144      Y2.51483      R0.03257   
   X2.76808      Y2.51992      R0.03257   
   X2.77580      Y2.52312      R0.03257   
   X2.78409      Y2.52421      R0.03257   
   X2.79238      Y2.52312      R0.03257   
   X2.80011      Y2.51992      R0.03257   
   X2.80674      Y2.51483      R0.03257   
   X2.81183      Y2.50820      R0.03257   
   X2.81503      Y2.50047      R0.03257   
   X2.81612      Y2.49218      R0.03257   
   X2.81503      Y2.48389      R0.03257   
   X2.81183      Y2.47616      R0.03257   
   X2.80674      Y2.46953      R0.03257   
   X2.80011      Y2.46444      R0.03257   
   X2.79238      Y2.46124      R0.03257   
   X2.78409      Y2.46015      R0.03257   
   X2.77580      Y2.46124      R0.03257   
   X2.76808      Y2.46444      R0.03257   
   X2.76144      Y2.46953      R0.03257   
   X2.75635      Y2.47616      R0.03257   
   X2.75315      Y2.48389      R0.03257   
   X2.75206      Y2.49218      R0.03257   
   X2.75315      Y2.50047      R0.03257   
   X2.75635      Y2.50820      R0.03257   
(Pass: 5)
G1   Z0.0938    
G17 G2   X2.76144      Y2.51483      R0.03257   
   X2.76808      Y2.51992      R0.03257   
   X2.77580      Y2.52312      R0.03257   
   X2.78409      Y2.52421      R0.03257   
   X2.79238      Y2.52312      R0.03257   
   X2.80011      Y2.51992      R0.03257   
   X2.80674      Y2.51483      R0.03257   
   X2.81183      Y2.50820      R0.03257   
   X2.81503      Y2.50047      R0.03257   
   X2.81612      Y2.49218      R0.03257   
   X2.81503      Y2.48389      R0.03257   
   X2.81183      Y2.47616      R0.03257   
   X2.80674      Y2.46953      R0.03257   
   X2.80011      Y2.46444      R0.03257   
   X2.79238      Y2.46124      R0.03257   
   X2.78409      Y2.46015      R0.03257   
   X2.77580      Y2.46124      R0.03257   
   X2.76808      Y2.46444      R0.03257   
   X2.76144      Y2.46953      R0.03257   
   X2.75635      Y2.47616      R0.03257   
   X2.75315      Y2.48389      R0.03257   
   X2.75206      Y2.49218      R0.03257   
   X2.75315      Y2.50047      R0.03257   
   X2.75635      Y2.50820      R0.03257   
(Pass: 6)
G1   Z0.0625    
G17 G2   X2.76144      Y2.51483      R0.03257   
   X2.76808      Y2.51992      R0.03257   
   X2.77580      Y2.52312      R0.03257   
   X2.78409      Y2.52421      R0.03257   
   X2.79238      Y2.52312      R0.03257   
   X2.80011      Y2.51992      R0.03257   
   X2.80674      Y2.51483      R0.03257   
   X2.81183      Y2.50820      R0.03257   
   X2.81503      Y2.50047      R0.03257   
   X2.81612      Y2.49218      R0.03257   
   X2.81503      Y2.48389      R0.03257   
   X2.81183      Y2.47616      R0.03257   
   X2.80674      Y2.46953      R0.03257   
   X2.80011      Y2.46444      R0.03257   
   X2.79238      Y2.46124      R0.03257   
   X2.78409      Y2.46015      R0.03257   
   X2.77580      Y2.46124      R0.03257   
   X2.76808      Y2.46444      R0.03257   
   X2.76144      Y2.46953      R0.03257   
   X2.75635      Y2.47616      R0.03257   
   X2.75315      Y2.48389      R0.03257   
   X2.75206      Y2.49218      R0.03257   
   X2.75315      Y2.50047      R0.03257   
   X2.75635      Y2.50820      R0.03257   
(Pass: 7)
G1   Z0.0312    
G17 G2   X2.76144      Y2.51483      R0.03257   
   X2.76808      Y2.51992      R0.03257   
   X2.77580      Y2.52312      R0.03257   
   X2.78409      Y2.52421      R0.03257   
   X2.79238      Y2.52312      R0.03257   
   X2.80011      Y2.51992      R0.03257   
   X2.80674      Y2.51483      R0.03257   
   X2.81183      Y2.50820      R0.03257   
   X2.81503      Y2.50047      R0.03257   
   X2.81612      Y2.49218      R0.03257   
   X2.81503      Y2.48389      R0.03257   
   X2.81183      Y2.47616      R0.03257   
   X2.80674      Y2.46953      R0.03257   
   X2.80011      Y2.46444      R0.03257   
   X2.79238      Y2.46124      R0.03257   
   X2.78409      Y2.46015      R0.03257   
   X2.77580      Y2.46124      R0.03257   
   X2.76808      Y2.46444      R0.03257   
   X2.76144      Y2.46953      R0.03257   
   X2.75635      Y2.47616      R0.03257   
   X2.75315      Y2.48389      R0.03257   
   X2.75206      Y2.49218      R0.03257   
   X2.75315      Y2.50047      R0.03257   
   X2.75635      Y2.50820      R0.03257   
(Pass: 8)
G1   Z0.0000    
G17 G2   X2.76144      Y2.51483      R0.03257   
   X2.76808      Y2.51992      R0.03257   
   X2.77580      Y2.52312      R0.03257   
   X2.78409      Y2.52421      R0.03257   
   X2.79238      Y2.52312      R0.03257   
   X2.80011      Y2.51992      R0.03257   
   X2.80674      Y2.51483      R0.03257   
   X2.81183      Y2.50820      R0.03257   
   X2.81503      Y2.50047      R0.03257   
   X2.81612      Y2.49218      R0.03257   
   X2.81503      Y2.48389      R0.03257   
   X2.81183      Y2.47616      R0.03257   
   X2.80674      Y2.46953      R0.03257   
   X2.80011      Y2.46444      R0.03257   
   X2.79238      Y2.46124      R0.03257   
   X2.78409      Y2.46015      R0.03257   
   X2.77580      Y2.46124      R0.03257   
   X2.76808      Y2.46444      R0.03257   
   X2.76144      Y2.46953      R0.03257   
   X2.75635      Y2.47616      R0.03257   
   X2.75315      Y2.48389      R0.03257   
   X2.75206      Y2.49218      R0.03257   
   X2.75315      Y2.50047      R0.03257   
   X2.75635      Y2.50820      R0.03257   
G0   Z0.3750    
(Pass: 1)
   X3.5361       Y2.4922    
G1   Z0.2188     F60  
   X3.5373       Y2.5013    
   X3.5408       Y2.5099    
   X3.5465       Y2.5172    
   X3.5538       Y2.5228    
   X3.5623       Y2.5264    
   X3.5715       Y2.5276    
   X3.5807       Y2.5264    
   X3.5892       Y2.5228    
   X3.5965       Y2.5172    
   X3.6021       Y2.5099    
   X3.6057       Y2.5013    
   X3.6069       Y2.4922    
   X3.6057       Y2.4830    
   X3.6021       Y2.4745    
   X3.5965       Y2.4672    
   X3.5892       Y2.4615    
   X3.5807       Y2.4580    
   X3.5715       Y2.4568    
   X3.5623       Y2.4580    
   X3.5538       Y2.4615    
   X3.5465       Y2.4672    
   X3.5408       Y2.4745    
   X3.5373       Y2.4830    
   X3.5361       Y2.4922    
(Pass: 2)
   Z0.1875    
   X3.5373       Y2.5013    
   X3.5408       Y2.5099    
   X3.5465       Y2.5172    
   X3.5538       Y2.5228    
   X3.5623       Y2.5264    
   X3.5715       Y2.5276    
   X3.5807       Y2.5264    
   X3.5892       Y2.5228    
   X3.5965       Y2.5172    
   X3.6021       Y2.5099    
   X3.6057       Y2.5013    
   X3.6069       Y2.4922    
   X3.6057       Y2.4830    
   X3.6021       Y2.4745    
   X3.5965       Y2.4672    
   X3.5892       Y2.4615    
   X3.5807       Y2.4580    
   X3.5715       Y2.4568    
   X3.5623       Y2.4580    
   X3.5538       Y2.4615    
   X3.5465       Y2.4672    
   X3.5408       Y2.4745    
   X3.5373       Y2.4830    
   X3.5361       Y2.4922    
(Pass: 3)
   Z0.1562    
   X3.5373       Y2.5013    
   X3.5408       Y2.5099    
   X3.5465       Y2.5172    
   X3.5538       Y2.5228    
   X3.5623       Y2.5264    
   X3.5715       Y2.5276    
   X3.5807       Y2.5264    
   X3.5892       Y2.5228    
   X3.5965       Y2.5172    
   X3.6021       Y2.5099    
   X3.6057       Y2.5013    
   X3.6069       Y2.4922    
   X3.6057       Y2.4830    
   X3.6021       Y2.4745    
   X3.5965       Y2.4672    
   X3.5892       Y2.4615    
   X3.5807       Y2.4580    
   X3.5715       Y2.4568    
   X3.5623       Y2.4580    
   X3.5538       Y2.4615    
   X3.5465       Y2.4672    
   X3.5408       Y2.4745    
   X3.5373       Y2.4830    
   X3.5361       Y2.4922    
(Pass: 4)
   Z0.1250    
   X3.5373       Y2.5013    
   X3.5408       Y2.5099    
   X3.5465       Y2.5172    
   X3.5538       Y2.5228    
   X3.5623       Y2.5264    
   X3.5715       Y2.5276    
   X3.5807       Y2.5264    
   X3.5892       Y2.5228    
   X3.5965       Y2.5172    
   X3.6021       Y2.5099    
   X3.6057       Y2.5013    
   X3.6069       Y2.4922    
   X3.6057       Y2.4830    
   X3.6021       Y2.4745    
   X3.5965       Y2.4672    
   X3.5892       Y2.4615    
   X3.5807       Y2.4580    
   X3.5715       Y2.4568    
   X3.5623       Y2.4580    
   X3.5538       Y2.4615    
   X3.5465       Y2.4672    
   X3.5408       Y2.4745    
   X3.5373       Y2.4830    
   X3.5361       Y2.4922    
(Pass: 5)
   Z0.0938    
   X3.5373       Y2.5013    
   X3.5408       Y2.5099    
   X3.5465       Y2.5172    
   X3.5538       Y2.5228    
   X3.5623       Y2.5264    
   X3.5715       Y2.5276    
   X3.5807       Y2.5264    
   X3.5892       Y2.5228    
   X3.5965       Y2.5172    
   X3.6021       Y2.5099    
   X3.6057       Y2.5013    
   X3.6069       Y2.4922    
   X3.6057       Y2.4830    
   X3.6021       Y2.4745    
   X3.5965       Y2.4672    
   X3.5892       Y2.4615    
   X3.5807       Y2.4580    
   X3.5715       Y2.4568    
   X3.5623       Y2.4580    
   X3.5538       Y2.4615    
   X3.5465       Y2.4672    
   X3.5408       Y2.4745    
   X3.5373       Y2.4830    
   X3.5361       Y2.4922    
(Pass: 6)
   Z0.0625    
   X3.5373       Y2.5013    
   X3.5408       Y2.5099    
   X3.5465       Y2.5172    
   X3.5538       Y2.5228    
   X3.5623       Y2.5264    
   X3.5715       Y2.5276    
   X3.5807       Y2.5264    
   X3.5892       Y2.5228    
   X3.5965       Y2.5172    
   X3.6021       Y2.5099    
   X3.6057       Y2.5013    
   X3.6069       Y2.4922    
   X3.6057       Y2.4830    
   X3.6021       Y2.4745    
   X3.5965       Y2.4672    
   X3.5892       Y2.4615    
   X3.5807       Y2.4580    
   X3.5715       Y2.4568    
   X3.5623       Y2.4580    
   X3.5538       Y2.4615    
   X3.5465       Y2.4672    
   X3.5408       Y2.4745    
   X3.5373       Y2.4830    
   X3.5361       Y2.4922    
(Pass: 7)
   Z0.0312    
   X3.5373       Y2.5013    
   X3.5408       Y2.5099    
   X3.5465       Y2.5172    
   X3.5538       Y2.5228    
   X3.5623       Y2.5264    
   X3.5715       Y2.5276    
   X3.5807       Y2.5264    
   X3.5892       Y2.5228    
   X3.5965       Y2.5172    
   X3.6021       Y2.5099    
   X3.6057       Y2.5013    
   X3.6069       Y2.4922    
   X3.6057       Y2.4830    
   X3.6021       Y2.4745    
   X3.5965       Y2.4672    
   X3.5892       Y2.4615    
   X3.5807       Y2.4580    
   X3.5715       Y2.4568    
   X3.5623       Y2.4580    
   X3.5538       Y2.4615    
   X3.5465       Y2.4672    
   X3.5408       Y2.4745    
   X3.5373       Y2.4830    
   X3.5361       Y2.4922    
(Pass: 8)
   Z0.0000    
   X3.5373       Y2.5013    
   X3.5408       Y2.5099    
   X3.5465       Y2.5172    
   X3.5538       Y2.5228    
   X3.5623       Y2.5264    
   X3.5715       Y2.5276    
   X3.5807       Y2.5264    
   X3.5892       Y2.5228    
   X3.5965       Y2.5172    
   X3.6021       Y2.5099    
   X3.6057       Y2.5013    
   X3.6069       Y2.4922    
   X3.6057       Y2.4830    
   X3.6021       Y2.4745    
   X3.5965       Y2.4672    
   X3.5892       Y2.4615    
   X3.5807       Y2.4580    
   X3.5715       Y2.4568    
   X3.5623       Y2.4580    
   X3.5538       Y2.4615    
   X3.5465       Y2.4672    
   X3.5408       Y2.4745    
   X3.5373       Y2.4830    
   X3.5361       Y2.4922    
G0   Z0.3750    
(Pass: 1)
   X4.6650       Y2.1057    
G1   Z0.2188     F60  
   X4.6727       Y2.1244    
   X4.6850       Y2.1405    
   X4.7011       Y2.1528    
   X4.7198       Y2.1605    
   X4.7398       Y2.1632    
   X4.7598       Y2.1605    
   X4.7785       Y2.1528    
   X4.7946       Y2.1405    
   X4.8069       Y2.1244    
   X4.8146       Y2.1057    
   X4.8173       Y2.0857    
   X4.8146       Y2.0657    
   X4.8069       Y2.0470    
   X4.7946       Y2.0309    
   X4.7785       Y2.0186    
   X4.7598       Y2.0109    
   X4.7398       Y2.0082    
   X4.7198       Y2.0109    
   X4.7011       Y2.0186    
   X4.6850       Y2.0309    
   X4.6727       Y2.0470    
   X4.6650       Y2.0657    
   X4.6623       Y2.0857    
   X4.6650       Y2.1057    
(Pass: 2)
   Z0.1875    
   X4.6727       Y2.1244    
   X4.6850       Y2.1405    
   X4.7011       Y2.1528    
   X4.7198       Y2.1605    
   X4.7398       Y2.1632    
   X4.7598       Y2.1605    
   X4.7785       Y2.1528    
   X4.7946       Y2.1405    
   X4.8069       Y2.1244    
   X4.8146       Y2.1057    
   X4.8173       Y2.0857    
   X4.8146       Y2.0657    
   X4.8069       Y2.0470    
   X4.7946       Y2.0309    
   X4.7785       Y2.0186    
   X4.7598       Y2.0109    
   X4.7398       Y2.0082    
   X4.7198       Y2.0109    
   X4.7011       Y2.0186    
   X4.6850       Y2.0309    
   X4.6727       Y2.0470    
   X4.6650       Y2.0657    
   X4.6623       Y2.0857    
   X4.6650       Y2.1057    
(Pass: 3)
   Z0.1562    
   X4.6727       Y2.1244    
   X4.6850       Y2.1405    
   X4.7011       Y2.1528    
   X4.7198       Y2.1605    
   X4.7398       Y2.1632    
   X4.7598       Y2.1605    
   X4.7785       Y2.1528    
   X4.7946       Y2.1405    
   X4.8069       Y2.1244    
   X4.8146       Y2.1057    
   X4.8173       Y2.0857    
   X4.8146       Y2.0657    
   X4.8069       Y2.0470    
   X4.7946       Y2.0309    
   X4.7785       Y2.0186    
   X4.7598       Y2.0109    
   X4.7398       Y2.0082    
   X4.7198       Y2.0109    
   X4.7011       Y2.0186    
   X4.6850       Y2.0309    
   X4.6727       Y2.0470    
   X4.6650       Y2.0657    
   X4.6623       Y2.0857    
   X4.6650       Y2.1057    
(Pass: 4)
   Z0.1250    
   X4.6727       Y2.1244    
   X4.6850       Y2.1405    
   X4.7011       Y2.1528    
   X4.7198       Y2.1605    
   X4.7398       Y2.1632    
   X4.7598       Y2.1605    
   X4.7785       Y2.1528    
   X4.7946       Y2.1405    
   X4.8069       Y2.1244    
   X4.8146       Y2.1057    
   X4.8173       Y2.0857    
   X4.8146       Y2.0657    
   X4.8069       Y2.0470    
   X4.7946       Y2.0309    
   X4.7785       Y2.0186    
   X4.7598       Y2.0109    
   X4.7398       Y2.0082    
   X4.7198       Y2.0109    
   X4.7011       Y2.0186    
   X4.6850       Y2.0309    
   X4.6727       Y2.0470    
   X4.6650       Y2.0657    
   X4.6623       Y2.0857    
   X4.6650       Y2.1057    
(Pass: 5)
   Z0.0938    
   X4.6727       Y2.1244    
   X4.6850       Y2.1405    
   X4.7011       Y2.1528    
   X4.7198       Y2.1605    
   X4.7398       Y2.1632    
   X4.7598       Y2.1605    
   X4.7785       Y2.1528    
   X4.7946       Y2.1405    
   X4.8069       Y2.1244    
   X4.8146       Y2.1057    
   X4.8173       Y2.0857    
   X4.8146       Y2.0657    
   X4.8069       Y2.0470    
   X4.7946       Y2.0309    
   X4.7785       Y2.0186    
   X4.7598       Y2.0109    
   X4.7398       Y2.0082    
   X4.7198       Y2.0109    
   X4.7011       Y2.0186    
   X4.6850       Y2.0309    
   X4.6727       Y2.0470    
   X4.6650       Y2.0657    
   X4.6623       Y2.0857    
   X4.6650       Y2.1057    
(Pass: 6)
   Z0.0625    
   X4.6727       Y2.1244    
   X4.6850       Y2.1405    
   X4.7011       Y2.1528    
   X4.7198       Y2.1605    
   X4.7398       Y2.1632    
   X4.7598       Y2.1605    
   X4.7785       Y2.1528    
   X4.7946       Y2.1405    
   X4.8069       Y2.1244    
   X4.8146       Y2.1057    
   X4.8173       Y2.0857    
   X4.8146       Y2.0657    
   X4.8069       Y2.0470    
   X4.7946       Y2.0309    
   X4.7785       Y2.0186    
   X4.7598       Y2.0109    
   X4.7398       Y2.0082    
   X4.7198       Y2.0109    
   X4.7011       Y2.0186    
   X4.6850       Y2.0309    
   X4.6727       Y2.0470    
   X4.6650       Y2.0657    
   X4.6623       Y2.0857    
   X4.6650       Y2.1057    
(Pass: 7)
   Z0.0312    
   X4.6727       Y2.1244    
   X4.6850       Y2.1405    
   X4.7011       Y2.1528    
   X4.7198       Y2.1605    
   X4.7398       Y2.1632    
   X4.7598       Y2.1605    
   X4.7785       Y2.1528    
   X4.7946       Y2.1405    
   X4.8069       Y2.1244    
   X4.8146       Y2.1057    
   X4.8173       Y2.0857    
   X4.8146       Y2.0657    
   X4.8069       Y2.0470    
   X4.7946       Y2.0309    
   X4.7785       Y2.0186    
   X4.7598       Y2.0109    
   X4.7398       Y2.0082    
   X4.7198       Y2.0109    
   X4.7011       Y2.0186    
   X4.6850       Y2.0309    
   X4.6727       Y2.0470    
   X4.6650       Y2.0657    
   X4.6623       Y2.0857    
   X4.6650       Y2.1057    
(Pass: 8)
   Z0.0000    
   X4.6727       Y2.1244    
   X4.6850       Y2.1405    
   X4.7011       Y2.1528    
   X4.7198       Y2.1605    
   X4.7398       Y2.1632    
   X4.7598       Y2.1605    
   X4.7785       Y2.1528    
   X4.7946       Y2.1405    
   X4.8069       Y2.1244    
   X4.8146       Y2.1057    
   X4.8173       Y2.0857    
   X4.8146       Y2.0657    
   X4.8069       Y2.0470    
   X4.7946       Y2.0309    
   X4.7785       Y2.0186    
   X4.7598       Y2.0109    
   X4.7398       Y2.0082    
   X4.7198       Y2.0109    
   X4.7011       Y2.0186    
   X4.6850       Y2.0309    
   X4.6727       Y2.0470    
   X4.6650       Y2.0657    
   X4.6623       Y2.0857    
   X4.6650       Y2.1057    
G0   Z0.3750    
(Pass: 1)
   X4.7306       Y1.3201    
G1   Z0.2188     F60  
   X4.7398       Y1.3213    
   X4.7490       Y1.3201    
   X4.7575       Y1.3165    
   X4.7648       Y1.3109    
   X4.7704       Y1.3036    
   X4.7740       Y1.2950    
   X4.7752       Y1.2859    
   X4.7740       Y1.2767    
   X4.7704       Y1.2682    
   X4.7648       Y1.2609    
   X4.7575       Y1.2552    
   X4.7490       Y1.2517    
   X4.7398       Y1.2505    
   X4.7306       Y1.2517    
   X4.7221       Y1.2552    
   X4.7148       Y1.2609    
   X4.7092       Y1.2682    
   X4.7056       Y1.2767    
   X4.7044       Y1.2859    
   X4.7056       Y1.2950    
   X4.7092       Y1.3036    
   X4.7148       Y1.3109    
   X4.7221       Y1.3165    
   X4.7306       Y1.3201    
(Pass: 2)
   Z0.1875    
   X4.7398       Y1.3213    
   X4.7490       Y1.3201    
   X4.7575       Y1.3165    
   X4.7648       Y1.3109    
   X4.7704       Y1.3036    
   X4.7740       Y1.2950    
   X4.7752       Y1.2859    
   X4.7740       Y1.2767    
   X4.7704       Y1.2682    
   X4.7648       Y1.2609    
   X4.7575       Y1.2552    
   X4.7490       Y1.2517    
   X4.7398       Y1.2505    
   X4.7306       Y1.2517    
   X4.7221       Y1.2552    
   X4.7148       Y1.2609    
   X4.7092       Y1.2682    
   X4.7056       Y1.2767    
   X4.7044       Y1.2859    
   X4.7056       Y1.2950    
   X4.7092       Y1.3036    
   X4.7148       Y1.3109    
   X4.7221       Y1.3165    
   X4.7306       Y1.3201    
(Pass: 3)
   Z0.1562    
   X4.7398       Y1.3213    
   X4.7490       Y1.3201    
   X4.7575       Y1.3165    
   X4.7648       Y1.3109    
   X4.7704       Y1.3036    
   X4.7740       Y1.2950    
   X4.7752       Y1.2859    
   X4.7740       Y1.2767    
   X4.7704       Y1.2682    
   X4.7648       Y1.2609    
   X4.7575       Y1.2552    
   X4.7490       Y1.2517    
   X4.7398       Y1.2505    
   X4.7306       Y1.2517    
   X4.7221       Y1.2552    
   X4.7148       Y1.2609    
   X4.7092       Y1.2682    
   X4.7056       Y1.2767    
   X4.7044       Y1.2859    
   X4.7056       Y1.2950    
   X4.7092       Y1.3036    
   X4.7148       Y1.3109    
   X4.7221       Y1.3165    
   X4.7306       Y1.3201    
(Pass: 4)
   Z0.1250    
   X4.7398       Y1.3213    
   X4.7490       Y1.3201    
   X4.7575       Y1.3165    
   X4.7648       Y1.3109    
   X4.7704       Y1.3036    
   X4.7740       Y1.2950    
   X4.7752       Y1.2859    
   X4.7740       Y1.2767    
   X4.7704       Y1.2682    
   X4.7648       Y1.2609    
   X4.7575       Y1.2552    
   X4.7490       Y1.2517    
   X4.7398       Y1.2505    
   X4.7306       Y1.2517    
   X4.7221       Y1.2552    
   X4.7148       Y1.2609    
   X4.7092       Y1.2682    
   X4.7056       Y1.2767    
   X4.7044       Y1.2859    
   X4.7056       Y1.2950    
   X4.7092       Y1.3036    
   X4.7148       Y1.3109    
   X4.7221       Y1.3165    
   X4.7306       Y1.3201    
(Pass: 5)
   Z0.0938    
   X4.7398       Y1.3213    
   X4.7490       Y1.3201    
   X4.7575       Y1.3165    
   X4.7648       Y1.3109    
   X4.7704       Y1.3036    
   X4.7740       Y1.2950    
   X4.7752       Y1.2859    
   X4.7740       Y1.2767    
   X4.7704       Y1.2682    
   X4.7648       Y1.2609    
   X4.7575       Y1.2552    
   X4.7490       Y1.2517    
   X4.7398       Y1.2505    
   X4.7306       Y1.2517    
   X4.7221       Y1.2552    
   X4.7148       Y1.2609    
   X4.7092       Y1.2682    
   X4.7056       Y1.2767    
   X4.7044       Y1.2859    
   X4.7056       Y1.2950    
   X4.7092       Y1.3036    
   X4.7148       Y1.3109    
   X4.7221       Y1.3165    
   X4.7306       Y1.3201    
(Pass: 6)
   Z0.0625    
   X4.7398       Y1.3213    
   X4.7490       Y1.3201    
   X4.7575       Y1.3165    
   X4.7648       Y1.3109    
   X4.7704       Y1.3036    
   X4.7740       Y1.2950    
   X4.7752       Y1.2859    
   X4.7740       Y1.2767    
   X4.7704       Y1.2682    
   X4.7648       Y1.2609    
   X4.7575       Y1.2552    
   X4.7490       Y1.2517    
   X4.7398       Y1.2505    
   X4.7306       Y1.2517    
   X4.7221       Y1.2552    
   X4.7148       Y1.2609    
   X4.7092       Y1.2682    
   X4.7056       Y1.2767    
   X4.7044       Y1.2859    
   X4.7056       Y1.2950    
   X4.7092       Y1.3036    
   X4.7148       Y1.3109    
   X4.7221       Y1.3165    
   X4.7306       Y1.3201    
(Pass: 7)
   Z0.0312    
   X4.7398       Y1.3213    
   X4.7490       Y1.3201    
   X4.7575       Y1.3165    
   X4.7648       Y1.3109    
   X4.7704       Y1.3036    
   X4.7740       Y1.2950    
   X4.7752       Y1.2859    
   X4.7740       Y1.2767    
   X4.7704       Y1.2682    
   X4.7648       Y1.2609    
   X4.7575       Y1.2552    
   X4.7490       Y1.2517    
   X4.7398       Y1.2505    
   X4.7306       Y1.2517    
   X4.7221       Y1.2552    
   X4.7148       Y1.2609    
   X4.7092       Y1.2682    
   X4.7056       Y1.2767    
   X4.7044       Y1.2859    
   X4.7056       Y1.2950    
   X4.7092       Y1.3036    
   X4.7148       Y1.3109    
   X4.7221       Y1.3165    
   X4.7306       Y1.3201    
(Pass: 8)
   Z0.0000    
   X4.7398       Y1.3213    
   X4.7490       Y1.3201    
   X4.7575       Y1.3165    
   X4.7648       Y1.3109    
   X4.7704       Y1.3036    
   X4.7740       Y1.2950    
   X4.7752       Y1.2859    
   X4.7740       Y1.2767    
   X4.7704       Y1.2682    
   X4.7648       Y1.2609    
   X4.7575       Y1.2552    
   X4.7490       Y1.2517    
   X4.7398       Y1.2505    
   X4.7306       Y1.2517    
   X4.7221       Y1.2552    
   X4.7148       Y1.2609    
   X4.7092       Y1.2682    
   X4.7056       Y1.2767    
   X4.7044       Y1.2859    
   X4.7056       Y1.2950    
   X4.7092       Y1.3036    
   X4.7148       Y1.3109    
   X4.7221       Y1.3165    
   X4.7306       Y1.3201    
G0   Z0.3750    
(Pass: 1)
   X4.7398       Y0.9696    
G1   Z0.2188     F60  
   X4.7598       Y0.9670    
   X4.7785       Y0.9593    
   X4.7946       Y0.9469    
   X4.8069       Y0.9309    
   X4.8146       Y0.9122    
   X4.8173       Y0.8922    
   X4.8146       Y0.8721    
   X4.8069       Y0.8535    
   X4.7946       Y0.8374    
   X4.7785       Y0.8251    
   X4.7598       Y0.8174    
   X4.7398       Y0.8147    
   X4.7198       Y0.8174    
   X4.7011       Y0.8251    
   X4.6850       Y0.8374    
   X4.6727       Y0.8535    
   X4.6650       Y0.8721    
   X4.6623       Y0.8922    
   X4.6650       Y0.9122    
   X4.6727       Y0.9309    
   X4.6850       Y0.9469    
   X4.7011       Y0.9593    
   X4.7198       Y0.9670    
   X4.7398       Y0.9696    
(Pass: 2)
   Z0.1875    
   X4.7598       Y0.9670    
   X4.7785       Y0.9593    
   X4.7946       Y0.9469    
   X4.8069       Y0.9309    
   X4.8146       Y0.9122    
   X4.8173       Y0.8922    
   X4.8146       Y0.8721    
   X4.8069       Y0.8535    
   X4.7946       Y0.8374    
   X4.7785       Y0.8251    
   X4.7598       Y0.8174    
   X4.7398       Y0.8147    
   X4.7198       Y0.8174    
   X4.7011       Y0.8251    
   X4.6850       Y0.8374    
   X4.6727       Y0.8535    
   X4.6650       Y0.8721    
   X4.6623       Y0.8922    
   X4.6650       Y0.9122    
   X4.6727       Y0.9309    
   X4.6850       Y0.9469    
   X4.7011       Y0.9593    
   X4.7198       Y0.9670    
   X4.7398       Y0.9696    
(Pass: 3)
   Z0.1562    
   X4.7598       Y0.9670    
   X4.7785       Y0.9593    
   X4.7946       Y0.9469    
   X4.8069       Y0.9309    
   X4.8146       Y0.9122    
   X4.8173       Y0.8922    
   X4.8146       Y0.8721    
   X4.8069       Y0.8535    
   X4.7946       Y0.8374    
   X4.7785       Y0.8251    
   X4.7598       Y0.8174    
   X4.7398       Y0.8147    
   X4.7198       Y0.8174    
   X4.7011       Y0.8251    
   X4.6850       Y0.8374    
   X4.6727       Y0.8535    
   X4.6650       Y0.8721    
   X4.6623       Y0.8922    
   X4.6650       Y0.9122    
   X4.6727       Y0.9309    
   X4.6850       Y0.9469    
   X4.7011       Y0.9593    
   X4.7198       Y0.9670    
   X4.7398       Y0.9696    
(Pass: 4)
   Z0.1250    
   X4.7598       Y0.9670    
   X4.7785       Y0.9593    
   X4.7946       Y0.9469    
   X4.8069       Y0.9309    
   X4.8146       Y0.9122    
   X4.8173       Y0.8922    
   X4.8146       Y0.8721    
   X4.8069       Y0.8535    
   X4.7946       Y0.8374    
   X4.7785       Y0.8251    
   X4.7598       Y0.8174    
   X4.7398       Y0.8147    
   X4.7198       Y0.8174    
   X4.7011       Y0.8251    
   X4.6850       Y0.8374    
   X4.6727       Y0.8535    
   X4.6650       Y0.8721    
   X4.6623       Y0.8922    
   X4.6650       Y0.9122    
   X4.6727       Y0.9309    
   X4.6850       Y0.9469    
   X4.7011       Y0.9593    
   X4.7198       Y0.9670    
   X4.7398       Y0.9696    
(Pass: 5)
   Z0.0938    
   X4.7598       Y0.9670    
   X4.7785       Y0.9593    
   X4.7946       Y0.9469    
   X4.8069       Y0.9309    
   X4.8146       Y0.9122    
   X4.8173       Y0.8922    
   X4.8146       Y0.8721    
   X4.8069       Y0.8535    
   X4.7946       Y0.8374    
   X4.7785       Y0.8251    
   X4.7598       Y0.8174    
   X4.7398       Y0.8147    
   X4.7198       Y0.8174    
   X4.7011       Y0.8251    
   X4.6850       Y0.8374    
   X4.6727       Y0.8535    
   X4.6650       Y0.8721    
   X4.6623       Y0.8922    
   X4.6650       Y0.9122    
   X4.6727       Y0.9309    
   X4.6850       Y0.9469    
   X4.7011       Y0.9593    
   X4.7198       Y0.9670    
   X4.7398       Y0.9696    
(Pass: 6)
   Z0.0625    
   X4.7598       Y0.9670    
   X4.7785       Y0.9593    
   X4.7946       Y0.9469    
   X4.8069       Y0.9309    
   X4.8146       Y0.9122    
   X4.8173       Y0.8922    
   X4.8146       Y0.8721    
   X4.8069       Y0.8535    
   X4.7946       Y0.8374    
   X4.7785       Y0.8251    
   X4.7598       Y0.8174    
   X4.7398       Y0.8147    
   X4.7198       Y0.8174    
   X4.7011       Y0.8251    
   X4.6850       Y0.8374    
   X4.6727       Y0.8535    
   X4.6650       Y0.8721    
   X4.6623       Y0.8922    
   X4.6650       Y0.9122    
   X4.6727       Y0.9309    
   X4.6850       Y0.9469    
   X4.7011       Y0.9593    
   X4.7198       Y0.9670    
   X4.7398       Y0.9696    
(Pass: 7)
   Z0.0312    
   X4.7598       Y0.9670    
   X4.7785       Y0.9593    
   X4.7946       Y0.9469    
   X4.8069       Y0.9309    
   X4.8146       Y0.9122    
   X4.8173       Y0.8922    
   X4.8146       Y0.8721    
   X4.8069       Y0.8535    
   X4.7946       Y0.8374    
   X4.7785       Y0.8251    
   X4.7598       Y0.8174    
   X4.7398       Y0.8147    
   X4.7198       Y0.8174    
   X4.7011       Y0.8251    
   X4.6850       Y0.8374    
   X4.6727       Y0.8535    
   X4.6650       Y0.8721    
   X4.6623       Y0.8922    
   X4.6650       Y0.9122    
   X4.6727       Y0.9309    
   X4.6850       Y0.9469    
   X4.7011       Y0.9593    
   X4.7198       Y0.9670    
   X4.7398       Y0.9696    
(Pass: 8)
   Z0.0000    
   X4.7598       Y0.9670    
   X4.7785       Y0.9593    
   X4.7946       Y0.9469    
   X4.8069       Y0.9309    
   X4.8146       Y0.9122    
   X4.8173       Y0.8922    
   X4.8146       Y0.8721    
   X4.8069       Y0.8535    
   X4.7946       Y0.8374    
   X4.7785       Y0.8251    
   X4.7598       Y0.8174    
   X4.7398       Y0.8147    
   X4.7198       Y0.8174    
   X4.7011       Y0.8251    
   X4.6850       Y0.8374    
   X4.6727       Y0.8535    
   X4.6650       Y0.8721    
   X4.6623       Y0.8922    
   X4.6650       Y0.9122    
   X4.6727       Y0.9309    
   X4.6850       Y0.9469    
   X4.7011       Y0.9593    
   X4.7198       Y0.9670    
   X4.7398       Y0.9696    
G0   Z0.3750    
(Pass: 1)
   X5.3390       Y0.9516    
G1   Z0.2188     F60  
   X5.3417       Y0.9717    
   X5.3494       Y0.9904    
   X5.3617       Y1.0064    
   X5.3777       Y1.0187    
   X5.3964       Y1.0265    
   X5.4165       Y1.0291    
   X5.4365       Y1.0265    
   X5.4552       Y1.0187    
   X5.4712       Y1.0064    
   X5.4835       Y0.9904    
   X5.4913       Y0.9717    
   X5.4939       Y0.9516    
   X5.4913       Y0.9316    
   X5.4835       Y0.9129    
   X5.4712       Y0.8969    
   X5.4552       Y0.8846    
   X5.4365       Y0.8768    
   X5.4165       Y0.8742    
   X5.3964       Y0.8768    
   X5.3777       Y0.8846    
   X5.3617       Y0.8969    
   X5.3494       Y0.9129    
   X5.3417       Y0.9316    
   X5.3390       Y0.9516    
(Pass: 2)
   Z0.1875    
   X5.3417       Y0.9717    
   X5.3494       Y0.9904    
   X5.3617       Y1.0064    
   X5.3777       Y1.0187    
   X5.3964       Y1.0265    
   X5.4165       Y1.0291    
   X5.4365       Y1.0265    
   X5.4552       Y1.0187    
   X5.4712       Y1.0064    
   X5.4835       Y0.9904    
   X5.4913       Y0.9717    
   X5.4939       Y0.9516    
   X5.4913       Y0.9316    
   X5.4835       Y0.9129    
   X5.4712       Y0.8969    
   X5.4552       Y0.8846    
   X5.4365       Y0.8768    
   X5.4165       Y0.8742    
   X5.3964       Y0.8768    
   X5.3777       Y0.8846    
   X5.3617       Y0.8969    
   X5.3494       Y0.9129    
   X5.3417       Y0.9316    
   X5.3390       Y0.9516    
(Pass: 3)
   Z0.1562    
   X5.3417       Y0.9717    
   X5.3494       Y0.9904    
   X5.3617       Y1.0064    
   X5.3777       Y1.0187    
   X5.3964       Y1.0265    
   X5.4165       Y1.0291    
   X5.4365       Y1.0265    
   X5.4552       Y1.0187    
   X5.4712       Y1.0064    
   X5.4835       Y0.9904    
   X5.4913       Y0.9717    
   X5.4939       Y0.9516    
   X5.4913       Y0.9316    
   X5.4835       Y0.9129    
   X5.4712       Y0.8969    
   X5.4552       Y0.8846    
   X5.4365       Y0.8768    
   X5.4165       Y0.8742    
   X5.3964       Y0.8768    
   X5.3777       Y0.8846    
   X5.3617       Y0.8969    
   X5.3494       Y0.9129    
   X5.3417       Y0.9316    
   X5.3390       Y0.9516    
(Pass: 4)
   Z0.1250    
   X5.3417       Y0.9717    
   X5.3494       Y0.9904    
   X5.3617       Y1.0064    
   X5.3777       Y1.0187    
   X5.3964       Y1.0265    
   X5.4165       Y1.0291    
   X5.4365       Y1.0265    
   X5.4552       Y1.0187    
   X5.4712       Y1.0064    
   X5.4835       Y0.9904    
   X5.4913       Y0.9717    
   X5.4939       Y0.9516    
   X5.4913       Y0.9316    
   X5.4835       Y0.9129    
   X5.4712       Y0.8969    
   X5.4552       Y0.8846    
   X5.4365       Y0.8768    
   X5.4165       Y0.8742    
   X5.3964       Y0.8768    
   X5.3777       Y0.8846    
   X5.3617       Y0.8969    
   X5.3494       Y0.9129    
   X5.3417       Y0.9316    
   X5.3390       Y0.9516    
(Pass: 5)
   Z0.0938    
   X5.3417       Y0.9717    
   X5.3494       Y0.9904    
   X5.3617       Y1.0064    
   X5.3777       Y1.0187    
   X5.3964       Y1.0265    
   X5.4165       Y1.0291    
   X5.4365       Y1.0265    
   X5.4552       Y1.0187    
   X5.4712       Y1.0064    
   X5.4835       Y0.9904    
   X5.4913       Y0.9717    
   X5.4939       Y0.9516    
   X5.4913       Y0.9316    
   X5.4835       Y0.9129    
   X5.4712       Y0.8969    
   X5.4552       Y0.8846    
   X5.4365       Y0.8768    
   X5.4165       Y0.8742    
   X5.3964       Y0.8768    
   X5.3777       Y0.8846    
   X5.3617       Y0.8969    
   X5.3494       Y0.9129    
   X5.3417       Y0.9316    
   X5.3390       Y0.9516    
(Pass: 6)
   Z0.0625    
   X5.3417       Y0.9717    
   X5.3494       Y0.9904    
   X5.3617       Y1.0064    
   X5.3777       Y1.0187    
   X5.3964       Y1.0265    
   X5.4165       Y1.0291    
   X5.4365       Y1.0265    
   X5.4552       Y1.0187    
   X5.4712       Y1.0064    
   X5.4835       Y0.9904    
   X5.4913       Y0.9717    
   X5.4939       Y0.9516    
   X5.4913       Y0.9316    
   X5.4835       Y0.9129    
   X5.4712       Y0.8969    
   X5.4552       Y0.8846    
   X5.4365       Y0.8768    
   X5.4165       Y0.8742    
   X5.3964       Y0.8768    
   X5.3777       Y0.8846    
   X5.3617       Y0.8969    
   X5.3494       Y0.9129    
   X5.3417       Y0.9316    
   X5.3390       Y0.9516    
(Pass: 7)
   Z0.0312    
   X5.3417       Y0.9717    
   X5.3494       Y0.9904    
   X5.3617       Y1.0064    
   X5.3777       Y1.0187    
   X5.3964       Y1.0265    
   X5.4165       Y1.0291    
   X5.4365       Y1.0265    
   X5.4552       Y1.0187    
   X5.4712       Y1.0064    
   X5.4835       Y0.9904    
   X5.4913       Y0.9717    
   X5.4939       Y0.9516    
   X5.4913       Y0.9316    
   X5.4835       Y0.9129    
   X5.4712       Y0.8969    
   X5.4552       Y0.8846    
   X5.4365       Y0.8768    
   X5.4165       Y0.8742    
   X5.3964       Y0.8768    
   X5.3777       Y0.8846    
   X5.3617       Y0.8969    
   X5.3494       Y0.9129    
   X5.3417       Y0.9316    
   X5.3390       Y0.9516    
(Pass: 8)
   Z0.0000    
   X5.3417       Y0.9717    
   X5.3494       Y0.9904    
   X5.3617       Y1.0064    
   X5.3777       Y1.0187    
   X5.3964       Y1.0265    
   X5.4165       Y1.0291    
   X5.4365       Y1.0265    
   X5.4552       Y1.0187    
   X5.4712       Y1.0064    
   X5.4835       Y0.9904    
   X5.4913       Y0.9717    
   X5.4939       Y0.9516    
   X5.4913       Y0.9316    
   X5.4835       Y0.9129    
   X5.4712       Y0.8969    
   X5.4552       Y0.8846    
   X5.4365       Y0.8768    
   X5.4165       Y0.8742    
   X5.3964       Y0.8768    
   X5.3777       Y0.8846    
   X5.3617       Y0.8969    
   X5.3494       Y0.9129    
   X5.3417       Y0.9316    
   X5.3390       Y0.9516    
G0   Z0.3750    
(Pass: 1)
   X4.7558       Y2.8581    
G1   Z0.2188     F60  
G17 G2   X4.74809      Y2.85494      R0.03257   
   X4.73980      Y2.85385      R0.03257   
   X4.73151      Y2.85494      R0.03257   
   X4.72379      Y2.85814      R0.03257   
   X4.71715      Y2.86323      R0.03257   
   X4.71206      Y2.86986      R0.03257   
   X4.70886      Y2.87759      R0.03257   
   X4.70777      Y2.88588      R0.03257   
   X4.70886      Y2.89417      R0.03257   
   X4.71206      Y2.90190      R0.03257   
   X4.71715      Y2.90853      R0.03257   
   X4.72379      Y2.91362      R0.03257   
   X4.73151      Y2.91682      R0.03257   
   X4.73980      Y2.91791      R0.03257   
   X4.74809      Y2.91682      R0.03257   
   X4.75582      Y2.91362      R0.03257   
   X4.76245      Y2.90853      R0.03257   
   X4.76754      Y2.90190      R0.03257   
   X4.77074      Y2.89417      R0.03257   
   X4.77183      Y2.88588      R0.03257   
   X4.77074      Y2.87759      R0.03257   
   X4.76754      Y2.86986      R0.03257   
   X4.76245      Y2.86323      R0.03257   
   X4.75582      Y2.85814      R0.03257   
(Pass: 2)
G1   Z0.1875    
G17 G2   X4.74809      Y2.85494      R0.03257   
   X4.73980      Y2.85385      R0.03257   
   X4.73151      Y2.85494      R0.03257   
   X4.72379      Y2.85814      R0.03257   
   X4.71715      Y2.86323      R0.03257   
   X4.71206      Y2.86986      R0.03257   
   X4.70886      Y2.87759      R0.03257   
   X4.70777      Y2.88588      R0.03257   
   X4.70886      Y2.89417      R0.03257   
   X4.71206      Y2.90190      R0.03257   
   X4.71715      Y2.90853      R0.03257   
   X4.72379      Y2.91362      R0.03257   
   X4.73151      Y2.91682      R0.03257   
   X4.73980      Y2.91791      R0.03257   
   X4.74809      Y2.91682      R0.03257   
   X4.75582      Y2.91362      R0.03257   
   X4.76245      Y2.90853      R0.03257   
   X4.76754      Y2.90190      R0.03257   
   X4.77074      Y2.89417      R0.03257   
   X4.77183      Y2.88588      R0.03257   
   X4.77074      Y2.87759      R0.03257   
   X4.76754      Y2.86986      R0.03257   
   X4.76245      Y2.86323      R0.03257   
   X4.75582      Y2.85814      R0.03257   
(Pass: 3)
G1   Z0.1562    
G17 G2   X4.74809      Y2.85494      R0.03257   
   X4.73980      Y2.85385      R0.03257   
   X4.73151      Y2.85494      R0.03257   
   X4.72379      Y2.85814      R0.03257   
   X4.71715      Y2.86323      R0.03257   
   X4.71206      Y2.86986      R0.03257   
   X4.70886      Y2.87759      R0.03257   
   X4.70777      Y2.88588      R0.03257   
   X4.70886      Y2.89417      R0.03257   
   X4.71206      Y2.90190      R0.03257   
   X4.71715      Y2.90853      R0.03257   
   X4.72379      Y2.91362      R0.03257   
   X4.73151      Y2.91682      R0.03257   
   X4.73980      Y2.91791      R0.03257   
   X4.74809      Y2.91682      R0.03257   
   X4.75582      Y2.91362      R0.03257   
   X4.76245      Y2.90853      R0.03257   
   X4.76754      Y2.90190      R0.03257   
   X4.77074      Y2.89417      R0.03257   
   X4.77183      Y2.88588      R0.03257   
   X4.77074      Y2.87759      R0.03257   
   X4.76754      Y2.86986      R0.03257   
   X4.76245      Y2.86323      R0.03257   
   X4.75582      Y2.85814      R0.03257   
(Pass: 4)
G1   Z0.1250    
G17 G2   X4.74809      Y2.85494      R0.03257   
   X4.73980      Y2.85385      R0.03257   
   X4.73151      Y2.85494      R0.03257   
   X4.72379      Y2.85814      R0.03257   
   X4.71715      Y2.86323      R0.03257   
   X4.71206      Y2.86986      R0.03257   
   X4.70886      Y2.87759      R0.03257   
   X4.70777      Y2.88588      R0.03257   
   X4.70886      Y2.89417      R0.03257   
   X4.71206      Y2.90190      R0.03257   
   X4.71715      Y2.90853      R0.03257   
   X4.72379      Y2.91362      R0.03257   
   X4.73151      Y2.91682      R0.03257   
   X4.73980      Y2.91791      R0.03257   
   X4.74809      Y2.91682      R0.03257   
   X4.75582      Y2.91362      R0.03257   
   X4.76245      Y2.90853      R0.03257   
   X4.76754      Y2.90190      R0.03257   
   X4.77074      Y2.89417      R0.03257   
   X4.77183      Y2.88588      R0.03257   
   X4.77074      Y2.87759      R0.03257   
   X4.76754      Y2.86986      R0.03257   
   X4.76245      Y2.86323      R0.03257   
   X4.75582      Y2.85814      R0.03257   
(Pass: 5)
G1   Z0.0938    
G17 G2   X4.74809      Y2.85494      R0.03257   
   X4.73980      Y2.85385      R0.03257   
   X4.73151      Y2.85494      R0.03257   
   X4.72379      Y2.85814      R0.03257   
   X4.71715      Y2.86323      R0.03257   
   X4.71206      Y2.86986      R0.03257   
   X4.70886      Y2.87759      R0.03257   
   X4.70777      Y2.88588      R0.03257   
   X4.70886      Y2.89417      R0.03257   
   X4.71206      Y2.90190      R0.03257   
   X4.71715      Y2.90853      R0.03257   
   X4.72379      Y2.91362      R0.03257   
   X4.73151      Y2.91682      R0.03257   
   X4.73980      Y2.91791      R0.03257   
   X4.74809      Y2.91682      R0.03257   
   X4.75582      Y2.91362      R0.03257   
   X4.76245      Y2.90853      R0.03257   
   X4.76754      Y2.90190      R0.03257   
   X4.77074      Y2.89417      R0.03257   
   X4.77183      Y2.88588      R0.03257   
   X4.77074      Y2.87759      R0.03257   
   X4.76754      Y2.86986      R0.03257   
   X4.76245      Y2.86323      R0.03257   
   X4.75582      Y2.85814      R0.03257   
(Pass: 6)
G1   Z0.0625    
G17 G2   X4.74809      Y2.85494      R0.03257   
   X4.73980      Y2.85385      R0.03257   
   X4.73151      Y2.85494      R0.03257   
   X4.72379      Y2.85814      R0.03257   
   X4.71715      Y2.86323      R0.03257   
   X4.71206      Y2.86986      R0.03257   
   X4.70886      Y2.87759      R0.03257   
   X4.70777      Y2.88588      R0.03257   
   X4.70886      Y2.89417      R0.03257   
   X4.71206      Y2.90190      R0.03257   
   X4.71715      Y2.90853      R0.03257   
   X4.72379      Y2.91362      R0.03257   
   X4.73151      Y2.91682      R0.03257   
   X4.73980      Y2.91791      R0.03257   
   X4.74809      Y2.91682      R0.03257   
   X4.75582      Y2.91362      R0.03257   
   X4.76245      Y2.90853      R0.03257   
   X4.76754      Y2.90190      R0.03257   
   X4.77074      Y2.89417      R0.03257   
   X4.77183      Y2.88588      R0.03257   
   X4.77074      Y2.87759      R0.03257   
   X4.76754      Y2.86986      R0.03257   
   X4.76245      Y2.86323      R0.03257   
   X4.75582      Y2.85814      R0.03257   
(Pass: 7)
G1   Z0.0312    
G17 G2   X4.74809      Y2.85494      R0.03257   
   X4.73980      Y2.85385      R0.03257   
   X4.73151      Y2.85494      R0.03257   
   X4.72379      Y2.85814      R0.03257   
   X4.71715      Y2.86323      R0.03257   
   X4.71206      Y2.86986      R0.03257   
   X4.70886      Y2.87759      R0.03257   
   X4.70777      Y2.88588      R0.03257   
   X4.70886      Y2.89417      R0.03257   
   X4.71206      Y2.90190      R0.03257   
   X4.71715      Y2.90853      R0.03257   
   X4.72379      Y2.91362      R0.03257   
   X4.73151      Y2.91682      R0.03257   
   X4.73980      Y2.91791      R0.03257   
   X4.74809      Y2.91682      R0.03257   
   X4.75582      Y2.91362      R0.03257   
   X4.76245      Y2.90853      R0.03257   
   X4.76754      Y2.90190      R0.03257   
   X4.77074      Y2.89417      R0.03257   
   X4.77183      Y2.88588      R0.03257   
   X4.77074      Y2.87759      R0.03257   
   X4.76754      Y2.86986      R0.03257   
   X4.76245      Y2.86323      R0.03257   
   X4.75582      Y2.85814      R0.03257   
(Pass: 8)
G1   Z0.0000    
G17 G2   X4.74809      Y2.85494      R0.03257   
   X4.73980      Y2.85385      R0.03257   
   X4.73151      Y2.85494      R0.03257   
   X4.72379      Y2.85814      R0.03257   
   X4.71715      Y2.86323      R0.03257   
   X4.71206      Y2.86986      R0.03257   
   X4.70886      Y2.87759      R0.03257   
   X4.70777      Y2.88588      R0.03257   
   X4.70886      Y2.89417      R0.03257   
   X4.71206      Y2.90190      R0.03257   
   X4.71715      Y2.90853      R0.03257   
   X4.72379      Y2.91362      R0.03257   
   X4.73151      Y2.91682      R0.03257   
   X4.73980      Y2.91791      R0.03257   
   X4.74809      Y2.91682      R0.03257   
   X4.75582      Y2.91362      R0.03257   
   X4.76245      Y2.90853      R0.03257   
   X4.76754      Y2.90190      R0.03257   
   X4.77074      Y2.89417      R0.03257   
   X4.77183      Y2.88588      R0.03257   
   X4.77074      Y2.87759      R0.03257   
   X4.76754      Y2.86986      R0.03257   
   X4.76245      Y2.86323      R0.03257   
   X4.75582      Y2.85814      R0.03257   
G0   Z0.3750    
(Pass: 1)
   X4.7398       Y3.2021    
G1   Z0.2188     F60  
   X4.7198       Y3.2048    
   X4.7011       Y3.2125    
   X4.6850       Y3.2248    
   X4.6727       Y3.2409    
   X4.6650       Y3.2595    
   X4.6623       Y3.2796    
   X4.6650       Y3.2996    
   X4.6727       Y3.3183    
   X4.6850       Y3.3343    
   X4.7011       Y3.3467    
   X4.7198       Y3.3544    
   X4.7398       Y3.3570    
   X4.7598       Y3.3544    
   X4.7785       Y3.3467    
   X4.7946       Y3.3343    
   X4.8069       Y3.3183    
   X4.8146       Y3.2996    
   X4.8173       Y3.2796    
   X4.8146       Y3.2595    
   X4.8069       Y3.2409    
   X4.7946       Y3.2248    
   X4.7785       Y3.2125    
   X4.7598       Y3.2048    
   X4.7398       Y3.2021    
(Pass: 2)
   Z0.1875    
   X4.7198       Y3.2048    
   X4.7011       Y3.2125    
   X4.6850       Y3.2248    
   X4.6727       Y3.2409    
   X4.6650       Y3.2595    
   X4.6623       Y3.2796    
   X4.6650       Y3.2996    
   X4.6727       Y3.3183    
   X4.6850       Y3.3343    
   X4.7011       Y3.3467    
   X4.7198       Y3.3544    
   X4.7398       Y3.3570    
   X4.7598       Y3.3544    
   X4.7785       Y3.3467    
   X4.7946       Y3.3343    
   X4.8069       Y3.3183    
   X4.8146       Y3.2996    
   X4.8173       Y3.2796    
   X4.8146       Y3.2595    
   X4.8069       Y3.2409    
   X4.7946       Y3.2248    
   X4.7785       Y3.2125    
   X4.7598       Y3.2048    
   X4.7398       Y3.2021    
(Pass: 3)
   Z0.1562    
   X4.7198       Y3.2048    
   X4.7011       Y3.2125    
   X4.6850       Y3.2248    
   X4.6727       Y3.2409    
   X4.6650       Y3.2595    
   X4.6623       Y3.2796    
   X4.6650       Y3.2996    
   X4.6727       Y3.3183    
   X4.6850       Y3.3343    
   X4.7011       Y3.3467    
   X4.7198       Y3.3544    
   X4.7398       Y3.3570    
   X4.7598       Y3.3544    
   X4.7785       Y3.3467    
   X4.7946       Y3.3343    
   X4.8069       Y3.3183    
   X4.8146       Y3.2996    
   X4.8173       Y3.2796    
   X4.8146       Y3.2595    
   X4.8069       Y3.2409    
   X4.7946       Y3.2248    
   X4.7785       Y3.2125    
   X4.7598       Y3.2048    
   X4.7398       Y3.2021    
(Pass: 4)
   Z0.1250    
   X4.7198       Y3.2048    
   X4.7011       Y3.2125    
   X4.6850       Y3.2248    
   X4.6727       Y3.2409    
   X4.6650       Y3.2595    
   X4.6623       Y3.2796    
   X4.6650       Y3.2996    
   X4.6727       Y3.3183    
   X4.6850       Y3.3343    
   X4.7011       Y3.3467    
   X4.7198       Y3.3544    
   X4.7398       Y3.3570    
   X4.7598       Y3.3544    
   X4.7785       Y3.3467    
   X4.7946       Y3.3343    
   X4.8069       Y3.3183    
   X4.8146       Y3.2996    
   X4.8173       Y3.2796    
   X4.8146       Y3.2595    
   X4.8069       Y3.2409    
   X4.7946       Y3.2248    
   X4.7785       Y3.2125    
   X4.7598       Y3.2048    
   X4.7398       Y3.2021    
(Pass: 5)
   Z0.0938    
   X4.7198       Y3.2048    
   X4.7011       Y3.2125    
   X4.6850       Y3.2248    
   X4.6727       Y3.2409    
   X4.6650       Y3.2595    
   X4.6623       Y3.2796    
   X4.6650       Y3.2996    
   X4.6727       Y3.3183    
   X4.6850       Y3.3343    
   X4.7011       Y3.3467    
   X4.7198       Y3.3544    
   X4.7398       Y3.3570    
   X4.7598       Y3.3544    
   X4.7785       Y3.3467    
   X4.7946       Y3.3343    
   X4.8069       Y3.3183    
   X4.8146       Y3.2996    
   X4.8173       Y3.2796    
   X4.8146       Y3.2595    
   X4.8069       Y3.2409    
   X4.7946       Y3.2248    
   X4.7785       Y3.2125    
   X4.7598       Y3.2048    
   X4.7398       Y3.2021    
(Pass: 6)
   Z0.0625    
   X4.7198       Y3.2048    
   X4.7011       Y3.2125    
   X4.6850       Y3.2248    
   X4.6727       Y3.2409    
   X4.6650       Y3.2595    
   X4.6623       Y3.2796    
   X4.6650       Y3.2996    
   X4.6727       Y3.3183    
   X4.6850       Y3.3343    
   X4.7011       Y3.3467    
   X4.7198       Y3.3544    
   X4.7398       Y3.3570    
   X4.7598       Y3.3544    
   X4.7785       Y3.3467    
   X4.7946       Y3.3343    
   X4.8069       Y3.3183    
   X4.8146       Y3.2996    
   X4.8173       Y3.2796    
   X4.8146       Y3.2595    
   X4.8069       Y3.2409    
   X4.7946       Y3.2248    
   X4.7785       Y3.2125    
   X4.7598       Y3.2048    
   X4.7398       Y3.2021    
(Pass: 7)
   Z0.0312    
   X4.7198       Y3.2048    
   X4.7011       Y3.2125    
   X4.6850       Y3.2248    
   X4.6727       Y3.2409    
   X4.6650       Y3.2595    
