%
(Generated by SketchUcam {1.2a})
(File: YZ_plate.skp)
(Bit diameter: 1/8")
(Feed rate: 60"/min)
(Material Thickness: 1/4")
(Material length: 12" X width: 18")
(Overhead Gantry: true)
(Retract feed rate NOT limited to plunge feed rate)
(Multipass enabled, Depth = 1/32")
(Optimization is ON)
(Z ZERO IS TABLETOP)
(www.PhlatBoyz.com)
G90 G20 G49 
M3 S15000
G0   Z0.3750    
(Pass: 1)
   X1.0545       Y0.7950    
G1   Z0.2188     F60  
   X1.0422       Y0.8111    
   X1.0344       Y0.8297    
   X1.0318       Y0.8498    
   X1.0344       Y0.8698    
   X1.0422       Y0.8885    
   X1.0545       Y0.9045    
   X1.0705       Y0.9169    
   X1.0892       Y0.9246    
   X1.1092       Y0.9272    
   X1.1293       Y0.9246    
   X1.1480       Y0.9169    
   X1.1640       Y0.9045    
   X1.1763       Y0.8885    
   X1.1841       Y0.8698    
   X1.1867       Y0.8498    
   X1.1841       Y0.8297    
   X1.1763       Y0.8111    
   X1.1640       Y0.7950    
   X1.1480       Y0.7827    
   X1.1293       Y0.7750    
   X1.1092       Y0.7723    
   X1.0892       Y0.7750    
   X1.0705       Y0.7827    
   X1.0545       Y0.7950    
(Pass: 2)
   Z0.1875    
   X1.0422       Y0.8111    
   X1.0344       Y0.8297    
   X1.0318       Y0.8498    
   X1.0344       Y0.8698    
   X1.0422       Y0.8885    
   X1.0545       Y0.9045    
   X1.0705       Y0.9169    
   X1.0892       Y0.9246    
   X1.1092       Y0.9272    
   X1.1293       Y0.9246    
   X1.1480       Y0.9169    
   X1.1640       Y0.9045    
   X1.1763       Y0.8885    
   X1.1841       Y0.8698    
   X1.1867       Y0.8498    
   X1.1841       Y0.8297    
   X1.1763       Y0.8111    
   X1.1640       Y0.7950    
   X1.1480       Y0.7827    
   X1.1293       Y0.7750    
   X1.1092       Y0.7723    
   X1.0892       Y0.7750    
   X1.0705       Y0.7827    
   X1.0545       Y0.7950    
(Pass: 3)
   Z0.1562    
   X1.0422       Y0.8111    
   X1.0344       Y0.8297    
   X1.0318       Y0.8498    
   X1.0344       Y0.8698    
   X1.0422       Y0.8885    
   X1.0545       Y0.9045    
   X1.0705       Y0.9169    
   X1.0892       Y0.9246    
   X1.1092       Y0.9272    
   X1.1293       Y0.9246    
   X1.1480       Y0.9169    
   X1.1640       Y0.9045    
   X1.1763       Y0.8885    
   X1.1841       Y0.8698    
   X1.1867       Y0.8498    
   X1.1841       Y0.8297    
   X1.1763       Y0.8111    
   X1.1640       Y0.7950    
   X1.1480       Y0.7827    
   X1.1293       Y0.7750    
   X1.1092       Y0.7723    
   X1.0892       Y0.7750    
   X1.0705       Y0.7827    
   X1.0545       Y0.7950    
(Pass: 4)
   Z0.1250    
   X1.0422       Y0.8111    
   X1.0344       Y0.8297    
   X1.0318       Y0.8498    
   X1.0344       Y0.8698    
   X1.0422       Y0.8885    
   X1.0545       Y0.9045    
   X1.0705       Y0.9169    
   X1.0892       Y0.9246    
   X1.1092       Y0.9272    
   X1.1293       Y0.9246    
   X1.1480       Y0.9169    
   X1.1640       Y0.9045    
   X1.1763       Y0.8885    
   X1.1841       Y0.8698    
   X1.1867       Y0.8498    
   X1.1841       Y0.8297    
   X1.1763       Y0.8111    
   X1.1640       Y0.7950    
   X1.1480       Y0.7827    
   X1.1293       Y0.7750    
   X1.1092       Y0.7723    
   X1.0892       Y0.7750    
   X1.0705       Y0.7827    
   X1.0545       Y0.7950    
(Pass: 5)
   Z0.0938    
   X1.0422       Y0.8111    
   X1.0344       Y0.8297    
   X1.0318       Y0.8498    
   X1.0344       Y0.8698    
   X1.0422       Y0.8885    
   X1.0545       Y0.9045    
   X1.0705       Y0.9169    
   X1.0892       Y0.9246    
   X1.1092       Y0.9272    
   X1.1293       Y0.9246    
   X1.1480       Y0.9169    
   X1.1640       Y0.9045    
   X1.1763       Y0.8885    
   X1.1841       Y0.8698    
   X1.1867       Y0.8498    
   X1.1841       Y0.8297    
   X1.1763       Y0.8111    
   X1.1640       Y0.7950    
   X1.1480       Y0.7827    
   X1.1293       Y0.7750    
   X1.1092       Y0.7723    
   X1.0892       Y0.7750    
   X1.0705       Y0.7827    
   X1.0545       Y0.7950    
(Pass: 6)
   Z0.0625    
   X1.0422       Y0.8111    
   X1.0344       Y0.8297    
   X1.0318       Y0.8498    
   X1.0344       Y0.8698    
   X1.0422       Y0.8885    
   X1.0545       Y0.9045    
   X1.0705       Y0.9169    
   X1.0892       Y0.9246    
   X1.1092       Y0.9272    
   X1.1293       Y0.9246    
   X1.1480       Y0.9169    
   X1.1640       Y0.9045    
   X1.1763       Y0.8885    
   X1.1841       Y0.8698    
   X1.1867       Y0.8498    
   X1.1841       Y0.8297    
   X1.1763       Y0.8111    
   X1.1640       Y0.7950    
   X1.1480       Y0.7827    
   X1.1293       Y0.7750    
   X1.1092       Y0.7723    
   X1.0892       Y0.7750    
   X1.0705       Y0.7827    
   X1.0545       Y0.7950    
(Pass: 7)
   Z0.0312    
   X1.0422       Y0.8111    
   X1.0344       Y0.8297    
   X1.0318       Y0.8498    
   X1.0344       Y0.8698    
   X1.0422       Y0.8885    
   X1.0545       Y0.9045    
   X1.0705       Y0.9169    
   X1.0892       Y0.9246    
   X1.1092       Y0.9272    
   X1.1293       Y0.9246    
   X1.1480       Y0.9169    
   X1.1640       Y0.9045    
   X1.1763       Y0.8885    
   X1.1841       Y0.8698    
   X1.1867       Y0.8498    
   X1.1841       Y0.8297    
   X1.1763       Y0.8111    
   X1.1640       Y0.7950    
   X1.1480       Y0.7827    
   X1.1293       Y0.7750    
   X1.1092       Y0.7723    
   X1.0892       Y0.7750    
   X1.0705       Y0.7827    
   X1.0545       Y0.7950    
(Pass: 8)
   Z0.0000    
   X1.0422       Y0.8111    
   X1.0344       Y0.8297    
   X1.0318       Y0.8498    
   X1.0344       Y0.8698    
   X1.0422       Y0.8885    
   X1.0545       Y0.9045    
   X1.0705       Y0.9169    
   X1.0892       Y0.9246    
   X1.1092       Y0.9272    
   X1.1293       Y0.9246    
   X1.1480       Y0.9169    
   X1.1640       Y0.9045    
   X1.1763       Y0.8885    
   X1.1841       Y0.8698    
   X1.1867       Y0.8498    
   X1.1841       Y0.8297    
   X1.1763       Y0.8111    
   X1.1640       Y0.7950    
   X1.1480       Y0.7827    
   X1.1293       Y0.7750    
   X1.1092       Y0.7723    
   X1.0892       Y0.7750    
   X1.0705       Y0.7827    
   X1.0545       Y0.7950    
G0   Z0.3750    
(Pass: 1)
   X2.1192       Y1.5652    
G1   Z0.2188     F60  
   X2.0772       Y1.6281    
   X2.0437       Y1.6959    
   X2.0194       Y1.7674    
   X2.0047       Y1.8416    
   X2.0002       Y1.9109    
   Y2.9149    
   X2.0047       Y2.9842    
   X2.0194       Y3.0583    
   X2.0437       Y3.1299    
   X2.0772       Y3.1977    
   X2.1192       Y3.2605    
   X2.1690       Y3.3174    
   X2.2258       Y3.3672    
   X2.2887       Y3.4092    
   X2.3565       Y3.4426    
   X2.4280       Y3.4669    
   X2.5022       Y3.4817    
   X2.5715       Y3.4862    
   X4.1267    
   X4.1960       Y3.4817    
   X4.2701       Y3.4669    
   X4.3417       Y3.4426    
   X4.4095       Y3.4092    
   X4.4723       Y3.3672    
   X4.5291       Y3.3174    
   X4.5790       Y3.2605    
   X4.6210       Y3.1977    
   X4.6544       Y3.1299    
   X4.6787       Y3.0583    
   X4.6934       Y2.9842    
   X4.6980       Y2.9149    
   Y1.9109    
   X4.6934       Y1.8416    
   X4.6787       Y1.7674    
   X4.6544       Y1.6959    
   X4.6210       Y1.6281    
   X4.5790       Y1.5652    
   X4.5291       Y1.5084    
   X4.4723       Y1.4586    
   X4.4095       Y1.4166    
   X4.3417       Y1.3831    
   X4.2701       Y1.3588    
   X4.1960       Y1.3441    
   X4.1267       Y1.3396    
   X2.5715    
   X2.5022       Y1.3441    
   X2.4280       Y1.3588    
   X2.3565       Y1.3831    
   X2.2887       Y1.4166    
   X2.2258       Y1.4586    
   X2.1690       Y1.5084    
   X2.1192       Y1.5652    
(Pass: 2)
   Z0.1875    
   X2.0772       Y1.6281    
   X2.0437       Y1.6959    
   X2.0194       Y1.7674    
   X2.0047       Y1.8416    
   X2.0002       Y1.9109    
   Y2.9149    
   X2.0047       Y2.9842    
   X2.0194       Y3.0583    
   X2.0437       Y3.1299    
   X2.0772       Y3.1977    
   X2.1192       Y3.2605    
   X2.1690       Y3.3174    
   X2.2258       Y3.3672    
   X2.2887       Y3.4092    
   X2.3565       Y3.4426    
   X2.4280       Y3.4669    
   X2.5022       Y3.4817    
   X2.5715       Y3.4862    
   X4.1267    
   X4.1960       Y3.4817    
   X4.2701       Y3.4669    
   X4.3417       Y3.4426    
   X4.4095       Y3.4092    
   X4.4723       Y3.3672    
   X4.5291       Y3.3174    
   X4.5790       Y3.2605    
   X4.6210       Y3.1977    
   X4.6544       Y3.1299    
   X4.6787       Y3.0583    
   X4.6934       Y2.9842    
   X4.6980       Y2.9149    
   Y1.9109    
   X4.6934       Y1.8416    
   X4.6787       Y1.7674    
   X4.6544       Y1.6959    
   X4.6210       Y1.6281    
   X4.5790       Y1.5652    
   X4.5291       Y1.5084    
   X4.4723       Y1.4586    
   X4.4095       Y1.4166    
   X4.3417       Y1.3831    
   X4.2701       Y1.3588    
   X4.1960       Y1.3441    
   X4.1267       Y1.3396    
   X2.5715    
   X2.5022       Y1.3441    
   X2.4280       Y1.3588    
   X2.3565       Y1.3831    
   X2.2887       Y1.4166    
   X2.2258       Y1.4586    
   X2.1690       Y1.5084    
   X2.1192       Y1.5652    
(Pass: 3)
   Z0.1562    
   X2.0772       Y1.6281    
   X2.0437       Y1.6959    
   X2.0194       Y1.7674    
   X2.0047       Y1.8416    
   X2.0002       Y1.9109    
   Y2.9149    
   X2.0047       Y2.9842    
   X2.0194       Y3.0583    
   X2.0437       Y3.1299    
   X2.0772       Y3.1977    
   X2.1192       Y3.2605    
   X2.1690       Y3.3174    
   X2.2258       Y3.3672    
   X2.2887       Y3.4092    
   X2.3565       Y3.4426    
   X2.4280       Y3.4669    
   X2.5022       Y3.4817    
   X2.5715       Y3.4862    
   X4.1267    
   X4.1960       Y3.4817    
   X4.2701       Y3.4669    
   X4.3417       Y3.4426    
   X4.4095       Y3.4092    
   X4.4723       Y3.3672    
   X4.5291       Y3.3174    
   X4.5790       Y3.2605    
   X4.6210       Y3.1977    
   X4.6544       Y3.1299    
   X4.6787       Y3.0583    
   X4.6934       Y2.9842    
   X4.6980       Y2.9149    
   Y1.9109    
   X4.6934       Y1.8416    
   X4.6787       Y1.7674    
   X4.6544       Y1.6959    
   X4.6210       Y1.6281    
   X4.5790       Y1.5652    
   X4.5291       Y1.5084    
   X4.4723       Y1.4586    
   X4.4095       Y1.4166    
   X4.3417       Y1.3831    
   X4.2701       Y1.3588    
   X4.1960       Y1.3441    
   X4.1267       Y1.3396    
   X2.5715    
   X2.5022       Y1.3441    
   X2.4280       Y1.3588    
   X2.3565       Y1.3831    
   X2.2887       Y1.4166    
   X2.2258       Y1.4586    
   X2.1690       Y1.5084    
   X2.1192       Y1.5652    
(Pass: 4)
   Z0.1250    
   X2.0772       Y1.6281    
   X2.0437       Y1.6959    
   X2.0194       Y1.7674    
   X2.0047       Y1.8416    
   X2.0002       Y1.9109    
   Y2.9149    
   X2.0047       Y2.9842    
   X2.0194       Y3.0583    
   X2.0437       Y3.1299    
   X2.0772       Y3.1977    
   X2.1192       Y3.2605    
   X2.1690       Y3.3174    
   X2.2258       Y3.3672    
   X2.2887       Y3.4092    
   X2.3565       Y3.4426    
   X2.4280       Y3.4669    
   X2.5022       Y3.4817    
   X2.5715       Y3.4862    
   X4.1267    
   X4.1960       Y3.4817    
   X4.2701       Y3.4669    
   X4.3417       Y3.4426    
   X4.4095       Y3.4092    
   X4.4723       Y3.3672    
   X4.5291       Y3.3174    
   X4.5790       Y3.2605    
   X4.6210       Y3.1977    
   X4.6544       Y3.1299    
   X4.6787       Y3.0583    
   X4.6934       Y2.9842    
   X4.6980       Y2.9149    
   Y1.9109    
   X4.6934       Y1.8416    
   X4.6787       Y1.7674    
   X4.6544       Y1.6959    
   X4.6210       Y1.6281    
   X4.5790       Y1.5652    
   X4.5291       Y1.5084    
   X4.4723       Y1.4586    
   X4.4095       Y1.4166    
   X4.3417       Y1.3831    
   X4.2701       Y1.3588    
   X4.1960       Y1.3441    
   X4.1267       Y1.3396    
   X2.5715    
   X2.5022       Y1.3441    
   X2.4280       Y1.3588    
   X2.3565       Y1.3831    
   X2.2887       Y1.4166    
   X2.2258       Y1.4586    
   X2.1690       Y1.5084    
   X2.1192       Y1.5652    
(Pass: 5)
   Z0.0938    
   X2.0772       Y1.6281    
   X2.0437       Y1.6959    
   X2.0194       Y1.7674    
   X2.0047       Y1.8416    
   X2.0002       Y1.9109    
   Y2.9149    
   X2.0047       Y2.9842    
   X2.0194       Y3.0583    
   X2.0437       Y3.1299    
   X2.0772       Y3.1977    
   X2.1192       Y3.2605    
   X2.1690       Y3.3174    
   X2.2258       Y3.3672    
   X2.2887       Y3.4092    
   X2.3565       Y3.4426    
   X2.4280       Y3.4669    
   X2.5022       Y3.4817    
   X2.5715       Y3.4862    
   X4.1267    
   X4.1960       Y3.4817    
   X4.2701       Y3.4669    
   X4.3417       Y3.4426    
   X4.4095       Y3.4092    
   X4.4723       Y3.3672    
   X4.5291       Y3.3174    
   X4.5790       Y3.2605    
   X4.6210       Y3.1977    
   X4.6544       Y3.1299    
   X4.6787       Y3.0583    
   X4.6934       Y2.9842    
   X4.6980       Y2.9149    
   Y1.9109    
   X4.6934       Y1.8416    
   X4.6787       Y1.7674    
   X4.6544       Y1.6959    
   X4.6210       Y1.6281    
   X4.5790       Y1.5652    
   X4.5291       Y1.5084    
   X4.4723       Y1.4586    
   X4.4095       Y1.4166    
   X4.3417       Y1.3831    
   X4.2701       Y1.3588    
   X4.1960       Y1.3441    
   X4.1267       Y1.3396    
   X2.5715    
   X2.5022       Y1.3441    
   X2.4280       Y1.3588    
   X2.3565       Y1.3831    
   X2.2887       Y1.4166    
   X2.2258       Y1.4586    
   X2.1690       Y1.5084    
   X2.1192       Y1.5652    
(Pass: 6)
   Z0.0625    
   X2.0772       Y1.6281    
   X2.0437       Y1.6959    
   X2.0194       Y1.7674    
   X2.0047       Y1.8416    
   X2.0002       Y1.9109    
   Y2.9149    
   X2.0047       Y2.9842    
   X2.0194       Y3.0583    
   X2.0437       Y3.1299    
   X2.0772       Y3.1977    
   X2.1192       Y3.2605    
   X2.1690       Y3.3174    
   X2.2258       Y3.3672    
   X2.2887       Y3.4092    
   X2.3565       Y3.4426    
   X2.4280       Y3.4669    
   X2.5022       Y3.4817    
   X2.5715       Y3.4862    
   X4.1267    
   X4.1960       Y3.4817    
   X4.2701       Y3.4669    
   X4.3417       Y3.4426    
   X4.4095       Y3.4092    
   X4.4723       Y3.3672    
   X4.5291       Y3.3174    
   X4.5790       Y3.2605    
   X4.6210       Y3.1977    
   X4.6544       Y3.1299    
   X4.6787       Y3.0583    
   X4.6934       Y2.9842    
   X4.6980       Y2.9149    
   Y1.9109    
   X4.6934       Y1.8416    
   X4.6787       Y1.7674    
   X4.6544       Y1.6959    
   X4.6210       Y1.6281    
   X4.5790       Y1.5652    
   X4.5291       Y1.5084    
   X4.4723       Y1.4586    
   X4.4095       Y1.4166    
   X4.3417       Y1.3831    
   X4.2701       Y1.3588    
   X4.1960       Y1.3441    
   X4.1267       Y1.3396    
   X2.5715    
   X2.5022       Y1.3441    
   X2.4280       Y1.3588    
   X2.3565       Y1.3831    
   X2.2887       Y1.4166    
   X2.2258       Y1.4586    
   X2.1690       Y1.5084    
   X2.1192       Y1.5652    
(Pass: 7)
   Z0.0312    
   X2.0772       Y1.6281    
   X2.0437       Y1.6959    
   X2.0194       Y1.7674    
   X2.0047       Y1.8416    
   X2.0002       Y1.9109    
   Y2.9149    
   X2.0047       Y2.9842    
   X2.0194       Y3.0583    
   X2.0437       Y3.1299    
   X2.0772       Y3.1977    
   X2.1192       Y3.2605    
   X2.1690       Y3.3174    
   X2.2258       Y3.3672    
   X2.2887       Y3.4092    
   X2.3565       Y3.4426    
   X2.4280       Y3.4669    
   X2.5022       Y3.4817    
   X2.5715       Y3.4862    
   X4.1267    
   X4.1960       Y3.4817    
   X4.2701       Y3.4669    
   X4.3417       Y3.4426    
   X4.4095       Y3.4092    
   X4.4723       Y3.3672    
   X4.5291       Y3.3174    
   X4.5790       Y3.2605    
   X4.6210       Y3.1977    
   X4.6544       Y3.1299    
   X4.6787       Y3.0583    
   X4.6934       Y2.9842    
   X4.6980       Y2.9149    
   Y1.9109    
   X4.6934       Y1.8416    
   X4.6787       Y1.7674    
   X4.6544       Y1.6959    
   X4.6210       Y1.6281    
   X4.5790       Y1.5652    
   X4.5291       Y1.5084    
   X4.4723       Y1.4586    
   X4.4095       Y1.4166    
   X4.3417       Y1.3831    
   X4.2701       Y1.3588    
   X4.1960       Y1.3441    
   X4.1267       Y1.3396    
   X2.5715    
   X2.5022       Y1.3441    
   X2.4280       Y1.3588    
   X2.3565       Y1.3831    
   X2.2887       Y1.4166    
   X2.2258       Y1.4586    
   X2.1690       Y1.5084    
   X2.1192       Y1.5652    
(Pass: 8)
   Z0.0000    
   X2.0772       Y1.6281    
   X2.0437       Y1.6959    
   X2.0194       Y1.7674    
   X2.0047       Y1.8416    
   X2.0002       Y1.9109    
   Y2.9149    
   X2.0047       Y2.9842    
   X2.0194       Y3.0583    
   X2.0437       Y3.1299    
   X2.0772       Y3.1977    
   X2.1192       Y3.2605    
   X2.1690       Y3.3174    
   X2.2258       Y3.3672    
   X2.2887       Y3.4092    
   X2.3565       Y3.4426    
   X2.4280       Y3.4669    
   X2.5022       Y3.4817    
   X2.5715       Y3.4862    
   X4.1267    
   X4.1960       Y3.4817    
   X4.2701       Y3.4669    
   X4.3417       Y3.4426    
   X4.4095       Y3.4092    
   X4.4723       Y3.3672    
   X4.5291       Y3.3174    
   X4.5790       Y3.2605    
   X4.6210       Y3.1977    
   X4.6544       Y3.1299    
   X4.6787       Y3.0583    
   X4.6934       Y2.9842    
   X4.6980       Y2.9149    
   Y1.9109    
   X4.6934       Y1.8416    
   X4.6787       Y1.7674    
   X4.6544       Y1.6959    
   X4.6210       Y1.6281    
   X4.5790       Y1.5652    
   X4.5291       Y1.5084    
   X4.4723       Y1.4586    
   X4.4095       Y1.4166    
   X4.3417       Y1.3831    
   X4.2701       Y1.3588    
   X4.1960       Y1.3441    
   X4.1267       Y1.3396    
   X2.5715    
   X2.5022       Y1.3441    
   X2.4280       Y1.3588    
   X2.3565       Y1.3831    
   X2.2887       Y1.4166    
   X2.2258       Y1.4586    
   X2.1690       Y1.5084    
   X2.1192       Y1.5652    
G0   Z0.3750    
(Pass: 1)
   X1.1273       Y3.9243    
G1   Z0.2188     F60  
   X1.1187       Y3.9207    
   X1.1096       Y3.9195    
   X1.1004       Y3.9207    
   X1.0919       Y3.9243    
   X1.0846       Y3.9299    
   X1.0789       Y3.9372    
   X1.0754       Y3.9457    
   X1.0742       Y3.9549    
   X1.0754       Y3.9641    
   X1.0789       Y3.9726    
   X1.0846       Y3.9799    
   X1.0919       Y3.9855    
   X1.1004       Y3.9891    
   X1.1096       Y3.9903    
   X1.1187       Y3.9891    
   X1.1273       Y3.9855    
   X1.1346       Y3.9799    
   X1.1402       Y3.9726    
   X1.1438       Y3.9641    
   X1.1450       Y3.9549    
   X1.1438       Y3.9457    
   X1.1402       Y3.9372    
   X1.1346       Y3.9299    
   X1.1273       Y3.9243    
(Pass: 2)
   Z0.1875    
   X1.1187       Y3.9207    
   X1.1096       Y3.9195    
   X1.1004       Y3.9207    
   X1.0919       Y3.9243    
   X1.0846       Y3.9299    
   X1.0789       Y3.9372    
   X1.0754       Y3.9457    
   X1.0742       Y3.9549    
   X1.0754       Y3.9641    
   X1.0789       Y3.9726    
   X1.0846       Y3.9799    
   X1.0919       Y3.9855    
   X1.1004       Y3.9891    
   X1.1096       Y3.9903    
   X1.1187       Y3.9891    
   X1.1273       Y3.9855    
   X1.1346       Y3.9799    
   X1.1402       Y3.9726    
   X1.1438       Y3.9641    
   X1.1450       Y3.9549    
   X1.1438       Y3.9457    
   X1.1402       Y3.9372    
   X1.1346       Y3.9299    
   X1.1273       Y3.9243    
(Pass: 3)
   Z0.1562    
   X1.1187       Y3.9207    
   X1.1096       Y3.9195    
   X1.1004       Y3.9207    
   X1.0919       Y3.9243    
   X1.0846       Y3.9299    
   X1.0789       Y3.9372    
   X1.0754       Y3.9457    
   X1.0742       Y3.9549    
   X1.0754       Y3.9641    
   X1.0789       Y3.9726    
   X1.0846       Y3.9799    
   X1.0919       Y3.9855    
   X1.1004       Y3.9891    
   X1.1096       Y3.9903    
   X1.1187       Y3.9891    
   X1.1273       Y3.9855    
   X1.1346       Y3.9799    
   X1.1402       Y3.9726    
   X1.1438       Y3.9641    
   X1.1450       Y3.9549    
   X1.1438       Y3.9457    
   X1.1402       Y3.9372    
   X1.1346       Y3.9299    
   X1.1273       Y3.9243    
(Pass: 4)
   Z0.1250    
   X1.1187       Y3.9207    
   X1.1096       Y3.9195    
   X1.1004       Y3.9207    
   X1.0919       Y3.9243    
   X1.0846       Y3.9299    
   X1.0789       Y3.9372    
   X1.0754       Y3.9457    
   X1.0742       Y3.9549    
   X1.0754       Y3.9641    
   X1.0789       Y3.9726    
   X1.0846       Y3.9799    
   X1.0919       Y3.9855    
   X1.1004       Y3.9891    
   X1.1096       Y3.9903    
   X1.1187       Y3.9891    
   X1.1273       Y3.9855    
   X1.1346       Y3.9799    
   X1.1402       Y3.9726    
   X1.1438       Y3.9641    
   X1.1450       Y3.9549    
   X1.1438       Y3.9457    
   X1.1402       Y3.9372    
   X1.1346       Y3.9299    
   X1.1273       Y3.9243    
(Pass: 5)
   Z0.0938    
   X1.1187       Y3.9207    
   X1.1096       Y3.9195    
   X1.1004       Y3.9207    
   X1.0919       Y3.9243    
   X1.0846       Y3.9299    
   X1.0789       Y3.9372    
   X1.0754       Y3.9457    
   X1.0742       Y3.9549    
   X1.0754       Y3.9641    
   X1.0789       Y3.9726    
   X1.0846       Y3.9799    
   X1.0919       Y3.9855    
   X1.1004       Y3.9891    
   X1.1096       Y3.9903    
   X1.1187       Y3.9891    
   X1.1273       Y3.9855    
   X1.1346       Y3.9799    
   X1.1402       Y3.9726    
   X1.1438       Y3.9641    
   X1.1450       Y3.9549    
   X1.1438       Y3.9457    
   X1.1402       Y3.9372    
   X1.1346       Y3.9299    
   X1.1273       Y3.9243    
(Pass: 6)
   Z0.0625    
   X1.1187       Y3.9207    
   X1.1096       Y3.9195    
   X1.1004       Y3.9207    
   X1.0919       Y3.9243    
   X1.0846       Y3.9299    
   X1.0789       Y3.9372    
   X1.0754       Y3.9457    
   X1.0742       Y3.9549    
   X1.0754       Y3.9641    
   X1.0789       Y3.9726    
   X1.0846       Y3.9799    
   X1.0919       Y3.9855    
   X1.1004       Y3.9891    
   X1.1096       Y3.9903    
   X1.1187       Y3.9891    
   X1.1273       Y3.9855    
   X1.1346       Y3.9799    
   X1.1402       Y3.9726    
   X1.1438       Y3.9641    
   X1.1450       Y3.9549    
   X1.1438       Y3.9457    
   X1.1402       Y3.9372    
   X1.1346       Y3.9299    
   X1.1273       Y3.9243    
(Pass: 7)
   Z0.0312    
   X1.1187       Y3.9207    
   X1.1096       Y3.9195    
   X1.1004       Y3.9207    
   X1.0919       Y3.9243    
   X1.0846       Y3.9299    
   X1.0789       Y3.9372    
   X1.0754       Y3.9457    
   X1.0742       Y3.9549    
   X1.0754       Y3.9641    
   X1.0789       Y3.9726    
   X1.0846       Y3.9799    
   X1.0919       Y3.9855    
   X1.1004       Y3.9891    
   X1.1096       Y3.9903    
   X1.1187       Y3.9891    
   X1.1273       Y3.9855    
   X1.1346       Y3.9799    
   X1.1402       Y3.9726    
   X1.1438       Y3.9641    
   X1.1450       Y3.9549    
   X1.1438       Y3.9457    
   X1.1402       Y3.9372    
   X1.1346       Y3.9299    
   X1.1273       Y3.9243    
(Pass: 8)
   Z0.0000    
   X1.1187       Y3.9207    
   X1.1096       Y3.9195    
   X1.1004       Y3.9207    
   X1.0919       Y3.9243    
   X1.0846       Y3.9299    
   X1.0789       Y3.9372    
   X1.0754       Y3.9457    
   X1.0742       Y3.9549    
   X1.0754       Y3.9641    
   X1.0789       Y3.9726    
   X1.0846       Y3.9799    
   X1.0919       Y3.9855    
   X1.1004       Y3.9891    
   X1.1096       Y3.9903    
   X1.1187       Y3.9891    
   X1.1273       Y3.9855    
   X1.1346       Y3.9799    
   X1.1402       Y3.9726    
   X1.1438       Y3.9641    
   X1.1450       Y3.9549    
   X1.1438       Y3.9457    
   X1.1402       Y3.9372    
   X1.1346       Y3.9299    
   X1.1273       Y3.9243    
G0   Z0.3750    
(Pass: 1)
   X2.3875       Y4.2963    
G1   Z0.2188     F60  
   X2.3838       Y4.3052    
   X2.3820       Y4.3189    
   Y4.6650    
   X2.3838       Y4.6787    
   X2.3875       Y4.6876    
   X2.3933       Y4.6952    
   X2.4010       Y4.7011    
   X2.4099       Y4.7048    
   X2.4195       Y4.7061    
   X2.4290       Y4.7048    
   X2.4379       Y4.7011    
   X2.4456       Y4.6952    
   X2.4515       Y4.6876    
   X2.4552       Y4.6787    
   X2.4570       Y4.6650    
   Y4.3189    
   X2.4552       Y4.3052    
   X2.4515       Y4.2963    
   X2.4456       Y4.2886    
   X2.4379       Y4.2828    
   X2.4290       Y4.2791    
   X2.4195       Y4.2778    
   X2.4099       Y4.2791    
   X2.4010       Y4.2828    
   X2.3933       Y4.2886    
   X2.3875       Y4.2963    
(Pass: 2)
   Z0.1875    
   X2.3838       Y4.3052    
   X2.3820       Y4.3189    
   Y4.6650    
   X2.3838       Y4.6787    
   X2.3875       Y4.6876    
   X2.3933       Y4.6952    
   X2.4010       Y4.7011    
   X2.4099       Y4.7048    
   X2.4195       Y4.7061    
   X2.4290       Y4.7048    
   X2.4379       Y4.7011    
   X2.4456       Y4.6952    
   X2.4515       Y4.6876    
   X2.4552       Y4.6787    
   X2.4570       Y4.6650    
   Y4.3189    
   X2.4552       Y4.3052    
   X2.4515       Y4.2963    
   X2.4456       Y4.2886    
   X2.4379       Y4.2828    
   X2.4290       Y4.2791    
   X2.4195       Y4.2778    
   X2.4099       Y4.2791    
   X2.4010       Y4.2828    
   X2.3933       Y4.2886    
   X2.3875       Y4.2963    
(Pass: 3)
   Z0.1562    
   X2.3838       Y4.3052    
   X2.3820       Y4.3189    
   Y4.6650    
   X2.3838       Y4.6787    
   X2.3875       Y4.6876    
   X2.3933       Y4.6952    
   X2.4010       Y4.7011    
   X2.4099       Y4.7048    
   X2.4195       Y4.7061    
   X2.4290       Y4.7048    
   X2.4379       Y4.7011    
   X2.4456       Y4.6952    
   X2.4515       Y4.6876    
   X2.4552       Y4.6787    
   X2.4570       Y4.6650    
   Y4.3189    
   X2.4552       Y4.3052    
   X2.4515       Y4.2963    
   X2.4456       Y4.2886    
   X2.4379       Y4.2828    
   X2.4290       Y4.2791    
   X2.4195       Y4.2778    
   X2.4099       Y4.2791    
   X2.4010       Y4.2828    
   X2.3933       Y4.2886    
   X2.3875       Y4.2963    
(Pass: 4)
   Z0.1250    
   X2.3838       Y4.3052    
   X2.3820       Y4.3189    
   Y4.6650    
   X2.3838       Y4.6787    
   X2.3875       Y4.6876    
   X2.3933       Y4.6952    
   X2.4010       Y4.7011    
   X2.4099       Y4.7048    
   X2.4195       Y4.7061    
   X2.4290       Y4.7048    
   X2.4379       Y4.7011    
   X2.4456       Y4.6952    
   X2.4515       Y4.6876    
   X2.4552       Y4.6787    
   X2.4570       Y4.6650    
   Y4.3189    
   X2.4552       Y4.3052    
   X2.4515       Y4.2963    
   X2.4456       Y4.2886    
   X2.4379       Y4.2828    
   X2.4290       Y4.2791    
   X2.4195       Y4.2778    
   X2.4099       Y4.2791    
   X2.4010       Y4.2828    
   X2.3933       Y4.2886    
   X2.3875       Y4.2963    
(Pass: 5)
   Z0.0938    
   X2.3838       Y4.3052    
   X2.3820       Y4.3189    
   Y4.6650    
   X2.3838       Y4.6787    
   X2.3875       Y4.6876    
   X2.3933       Y4.6952    
   X2.4010       Y4.7011    
   X2.4099       Y4.7048    
   X2.4195       Y4.7061    
   X2.4290       Y4.7048    
   X2.4379       Y4.7011    
   X2.4456       Y4.6952    
   X2.4515       Y4.6876    
   X2.4552       Y4.6787    
   X2.4570       Y4.6650    
   Y4.3189    
   X2.4552       Y4.3052    
   X2.4515       Y4.2963    
   X2.4456       Y4.2886    
   X2.4379       Y4.2828    
   X2.4290       Y4.2791    
   X2.4195       Y4.2778    
   X2.4099       Y4.2791    
   X2.4010       Y4.2828    
   X2.3933       Y4.2886    
   X2.3875       Y4.2963    
(Pass: 6)
   Z0.0625    
   X2.3838       Y4.3052    
   X2.3820       Y4.3189    
   Y4.6650    
   X2.3838       Y4.6787    
   X2.3875       Y4.6876    
   X2.3933       Y4.6952    
   X2.4010       Y4.7011    
   X2.4099       Y4.7048    
   X2.4195       Y4.7061    
   X2.4290       Y4.7048    
   X2.4379       Y4.7011    
   X2.4456       Y4.6952    
   X2.4515       Y4.6876    
   X2.4552       Y4.6787    
   X2.4570       Y4.6650    
   Y4.3189    
   X2.4552       Y4.3052    
   X2.4515       Y4.2963    
   X2.4456       Y4.2886    
   X2.4379       Y4.2828    
   X2.4290       Y4.2791    
   X2.4195       Y4.2778    
   X2.4099       Y4.2791    
   X2.4010       Y4.2828    
   X2.3933       Y4.2886    
   X2.3875       Y4.2963    
(Pass: 7)
   Z0.0312    
   X2.3838       Y4.3052    
   X2.3820       Y4.3189    
   Y4.6650    
   X2.3838       Y4.6787    
   X2.3875       Y4.6876    
   X2.3933       Y4.6952    
   X2.4010       Y4.7011    
   X2.4099       Y4.7048    
   X2.4195       Y4.7061    
   X2.4290       Y4.7048    
   X2.4379       Y4.7011    
   X2.4456       Y4.6952    
   X2.4515       Y4.6876    
   X2.4552       Y4.6787    
   X2.4570       Y4.6650    
   Y4.3189    
   X2.4552       Y4.3052    
   X2.4515       Y4.2963    
   X2.4456       Y4.2886    
   X2.4379       Y4.2828    
   X2.4290       Y4.2791    
   X2.4195       Y4.2778    
   X2.4099       Y4.2791    
   X2.4010       Y4.2828    
   X2.3933       Y4.2886    
   X2.3875       Y4.2963    
(Pass: 8)
   Z0.0000    
   X2.3838       Y4.3052    
   X2.3820       Y4.3189    
   Y4.6650    
   X2.3838       Y4.6787    
   X2.3875       Y4.6876    
   X2.3933       Y4.6952    
   X2.4010       Y4.7011    
   X2.4099       Y4.7048    
   X2.4195       Y4.7061    
   X2.4290       Y4.7048    
   X2.4379       Y4.7011    
   X2.4456       Y4.6952    
   X2.4515       Y4.6876    
   X2.4552       Y4.6787    
   X2.4570       Y4.6650    
   Y4.3189    
   X2.4552       Y4.3052    
   X2.4515       Y4.2963    
   X2.4456       Y4.2886    
   X2.4379       Y4.2828    
   X2.4290       Y4.2791    
   X2.4195       Y4.2778    
   X2.4099       Y4.2791    
   X2.4010       Y4.2828    
   X2.3933       Y4.2886    
   X2.3875       Y4.2963    
G0   Z0.3750    
(Pass: 1)
   X3.0464       Y4.9214    
G1   Z0.2188     F60  
   X2.9783       Y5.0102    
   X2.9354       Y5.1137    
   X2.9202       Y5.2289    
   Y5.6144    
   X2.9354       Y5.7295    
   X2.9783       Y5.8330    
   X3.0464       Y5.9219    
   X3.1353       Y5.9901    
   X3.2388       Y6.0329    
   X3.3499       Y6.0476    
   X3.4609       Y6.0329    
   X3.5644       Y5.9901    
   X3.6533       Y5.9219    
   X3.7215       Y5.8330    
   X3.7643       Y5.7295    
   X3.7795       Y5.6144    
   Y5.2289    
   X3.7643       Y5.1137    
   X3.7215       Y5.0102    
   X3.6533       Y4.9214    
   X3.5644       Y4.8532    
   X3.4609       Y4.8103    
   X3.3499       Y4.7957    
   X3.2388       Y4.8103    
   X3.1353       Y4.8532    
   X3.0464       Y4.9214    
(Pass: 2)
   Z0.1875    
   X2.9783       Y5.0102    
   X2.9354       Y5.1137    
   X2.9202       Y5.2289    
   Y5.6144    
   X2.9354       Y5.7295    
   X2.9783       Y5.8330    
   X3.0464       Y5.9219    
   X3.1353       Y5.9901    
   X3.2388       Y6.0329    
   X3.3499       Y6.0476    
   X3.4609       Y6.0329    
   X3.5644       Y5.9901    
   X3.6533       Y5.9219    
   X3.7215       Y5.8330    
   X3.7643       Y5.7295    
   X3.7795       Y5.6144    
   Y5.2289    
   X3.7643       Y5.1137    
   X3.7215       Y5.0102    
   X3.6533       Y4.9214    
   X3.5644       Y4.8532    
   X3.4609       Y4.8103    
   X3.3499       Y4.7957    
   X3.2388       Y4.8103    
   X3.1353       Y4.8532    
   X3.0464       Y4.9214    
(Pass: 3)
   Z0.1562    
   X2.9783       Y5.0102    
   X2.9354       Y5.1137    
   X2.9202       Y5.2289    
   Y5.6144    
   X2.9354       Y5.7295    
   X2.9783       Y5.8330    
   X3.0464       Y5.9219    
   X3.1353       Y5.9901    
   X3.2388       Y6.0329    
   X3.3499       Y6.0476    
   X3.4609       Y6.0329    
   X3.5644       Y5.9901    
   X3.6533       Y5.9219    
   X3.7215       Y5.8330    
   X3.7643       Y5.7295    
   X3.7795       Y5.6144    
   Y5.2289    
   X3.7643       Y5.1137    
   X3.7215       Y5.0102    
   X3.6533       Y4.9214    
   X3.5644       Y4.8532    
   X3.4609       Y4.8103    
   X3.3499       Y4.7957    
   X3.2388       Y4.8103    
   X3.1353       Y4.8532    
   X3.0464       Y4.9214    
(Pass: 4)
   Z0.1250    
   X2.9783       Y5.0102    
   X2.9354       Y5.1137    
   X2.9202       Y5.2289    
   Y5.6144    
   X2.9354       Y5.7295    
   X2.9783       Y5.8330    
   X3.0464       Y5.9219    
   X3.1353       Y5.9901    
   X3.2388       Y6.0329    
   X3.3499       Y6.0476    
   X3.4609       Y6.0329    
   X3.5644       Y5.9901    
   X3.6533       Y5.9219    
   X3.7215       Y5.8330    
   X3.7643       Y5.7295    
   X3.7795       Y5.6144    
   Y5.2289    
   X3.7643       Y5.1137    
   X3.7215       Y5.0102    
   X3.6533       Y4.9214    
   X3.5644       Y4.8532    
   X3.4609       Y4.8103    
   X3.3499       Y4.7957    
   X3.2388       Y4.8103    
   X3.1353       Y4.8532    
   X3.0464       Y4.9214    
(Pass: 5)
   Z0.0938    
   X2.9783       Y5.0102    
   X2.9354       Y5.1137    
   X2.9202       Y5.2289    
   Y5.6144    
   X2.9354       Y5.7295    
   X2.9783       Y5.8330    
   X3.0464       Y5.9219    
   X3.1353       Y5.9901    
   X3.2388       Y6.0329    
   X3.3499       Y6.0476    
   X3.4609       Y6.0329    
   X3.5644       Y5.9901    
   X3.6533       Y5.9219    
   X3.7215       Y5.8330    
   X3.7643       Y5.7295    
   X3.7795       Y5.6144    
   Y5.2289    
   X3.7643       Y5.1137    
   X3.7215       Y5.0102    
   X3.6533       Y4.9214    
   X3.5644       Y4.8532    
   X3.4609       Y4.8103    
   X3.3499       Y4.7957    
   X3.2388       Y4.8103    
   X3.1353       Y4.8532    
   X3.0464       Y4.9214    
(Pass: 6)
   Z0.0625    
   X2.9783       Y5.0102    
   X2.9354       Y5.1137    
   X2.9202       Y5.2289    
   Y5.6144    
   X2.9354       Y5.7295    
   X2.9783       Y5.8330    
   X3.0464       Y5.9219    
   X3.1353       Y5.9901    
   X3.2388       Y6.0329    
   X3.3499       Y6.0476    
   X3.4609       Y6.0329    
   X3.5644       Y5.9901    
   X3.6533       Y5.9219    
   X3.7215       Y5.8330    
   X3.7643       Y5.7295    
   X3.7795       Y5.6144    
   Y5.2289    
   X3.7643       Y5.1137    
   X3.7215       Y5.0102    
   X3.6533       Y4.9214    
   X3.5644       Y4.8532    
   X3.4609       Y4.8103    
   X3.3499       Y4.7957    
   X3.2388       Y4.8103    
   X3.1353       Y4.8532    
   X3.0464       Y4.9214    
(Pass: 7)
   Z0.0312    
   X2.9783       Y5.0102    
   X2.9354       Y5.1137    
   X2.9202       Y5.2289    
   Y5.6144    
   X2.9354       Y5.7295    
   X2.9783       Y5.8330    
   X3.0464       Y5.9219    
   X3.1353       Y5.9901    
   X3.2388       Y6.0329    
   X3.3499       Y6.0476    
   X3.4609       Y6.0329    
   X3.5644       Y5.9901    
   X3.6533       Y5.9219    
   X3.7215       Y5.8330    
   X3.7643       Y5.7295    
   X3.7795       Y5.6144    
   Y5.2289    
   X3.7643       Y5.1137    
   X3.7215       Y5.0102    
   X3.6533       Y4.9214    
   X3.5644       Y4.8532    
   X3.4609       Y4.8103    
   X3.3499       Y4.7957    
   X3.2388       Y4.8103    
   X3.1353       Y4.8532    
   X3.0464       Y4.9214    
(Pass: 8)
   Z0.0000    
   X2.9783       Y5.0102    
   X2.9354       Y5.1137    
   X2.9202       Y5.2289    
   Y5.6144    
   X2.9354       Y5.7295    
   X2.9783       Y5.8330    
   X3.0464       Y5.9219    
   X3.1353       Y5.9901    
   X3.2388       Y6.0329    
   X3.3499       Y6.0476    
   X3.4609       Y6.0329    
   X3.5644       Y5.9901    
   X3.6533       Y5.9219    
   X3.7215       Y5.8330    
   X3.7643       Y5.7295    
   X3.7795       Y5.6144    
   Y5.2289    
   X3.7643       Y5.1137    
   X3.7215       Y5.0102    
   X3.6533       Y4.9214    
   X3.5644       Y4.8532    
   X3.4609       Y4.8103    
   X3.3499       Y4.7957    
   X3.2388       Y4.8103    
   X3.1353       Y4.8532    
   X3.0464       Y4.9214    
G0   Z0.3750    
(Pass: 1)
   X4.2438       Y4.6787    
G1   Z0.2188     F60  
   X4.2475       Y4.6876    
   X4.2533       Y4.6952    
   X4.2610       Y4.7011    
   X4.2699       Y4.7048    
   X4.2795       Y4.7061    
   X4.2890       Y4.7048    
   X4.2979       Y4.7011    
   X4.3056       Y4.6952    
   X4.3115       Y4.6876    
   X4.3152       Y4.6787    
   X4.3170       Y4.6650    
   Y4.3189    
   X4.3152       Y4.3052    
   X4.3115       Y4.2963    
   X4.3056       Y4.2886    
   X4.2979       Y4.2828    
   X4.2890       Y4.2791    
   X4.2795       Y4.2778    
   X4.2699       Y4.2791    
   X4.2610       Y4.2828    
   X4.2533       Y4.2886    
   X4.2475       Y4.2963    
   X4.2438       Y4.3052    
   X4.2420       Y4.3189    
   Y4.6650    
   X4.2438       Y4.6787    
(Pass: 2)
   Z0.1875    
   X4.2475       Y4.6876    
   X4.2533       Y4.6952    
   X4.2610       Y4.7011    
   X4.2699       Y4.7048    
   X4.2795       Y4.7061    
   X4.2890       Y4.7048    
   X4.2979       Y4.7011    
   X4.3056       Y4.6952    
   X4.3115       Y4.6876    
   X4.3152       Y4.6787    
   X4.3170       Y4.6650    
   Y4.3189    
   X4.3152       Y4.3052    
   X4.3115       Y4.2963    
   X4.3056       Y4.2886    
   X4.2979       Y4.2828    
   X4.2890       Y4.2791    
   X4.2795       Y4.2778    
   X4.2699       Y4.2791    
   X4.2610       Y4.2828    
   X4.2533       Y4.2886    
   X4.2475       Y4.2963    
   X4.2438       Y4.3052    
   X4.2420       Y4.3189    
   Y4.6650    
   X4.2438       Y4.6787    
(Pass: 3)
   Z0.1562    
   X4.2475       Y4.6876    
   X4.2533       Y4.6952    
   X4.2610       Y4.7011    
   X4.2699       Y4.7048    
   X4.2795       Y4.7061    
   X4.2890       Y4.7048    
   X4.2979       Y4.7011    
   X4.3056       Y4.6952    
   X4.3115       Y4.6876    
   X4.3152       Y4.6787    
   X4.3170       Y4.6650    
   Y4.3189    
   X4.3152       Y4.3052    
   X4.3115       Y4.2963    
   X4.3056       Y4.2886    
   X4.2979       Y4.2828    
   X4.2890       Y4.2791    
   X4.2795       Y4.2778    
   X4.2699       Y4.2791    
   X4.2610       Y4.2828    
   X4.2533       Y4.2886    
   X4.2475       Y4.2963    
   X4.2438       Y4.3052    
   X4.2420       Y4.3189    
   Y4.6650    
   X4.2438       Y4.6787    
(Pass: 4)
   Z0.1250    
   X4.2475       Y4.6876    
   X4.2533       Y4.6952    
   X4.2610       Y4.7011    
   X4.2699       Y4.7048    
   X4.2795       Y4.7061    
   X4.2890       Y4.7048    
   X4.2979       Y4.7011    
   X4.3056       Y4.6952    
   X4.3115       Y4.6876    
   X4.3152       Y4.6787    
   X4.3170       Y4.6650    
   Y4.3189    
   X4.3152       Y4.3052    
   X4.3115       Y4.2963    
   X4.3056       Y4.2886    
   X4.2979       Y4.2828    
   X4.2890       Y4.2791    
   X4.2795       Y4.2778    
   X4.2699       Y4.2791    
   X4.2610       Y4.2828    
   X4.2533       Y4.2886    
   X4.2475       Y4.2963    
   X4.2438       Y4.3052    
   X4.2420       Y4.3189    
   Y4.6650    
   X4.2438       Y4.6787    
(Pass: 5)
   Z0.0938    
   X4.2475       Y4.6876    
   X4.2533       Y4.6952    
   X4.2610       Y4.7011    
   X4.2699       Y4.7048    
   X4.2795       Y4.7061    
   X4.2890       Y4.7048    
   X4.2979       Y4.7011    
   X4.3056       Y4.6952    
   X4.3115       Y4.6876    
   X4.3152       Y4.6787    
   X4.3170       Y4.6650    
   Y4.3189    
   X4.3152       Y4.3052    
   X4.3115       Y4.2963    
   X4.3056       Y4.2886    
   X4.2979       Y4.2828    
   X4.2890       Y4.2791    
   X4.2795       Y4.2778    
   X4.2699       Y4.2791    
   X4.2610       Y4.2828    
   X4.2533       Y4.2886    
   X4.2475       Y4.2963    
   X4.2438       Y4.3052    
   X4.2420       Y4.3189    
   Y4.6650    
   X4.2438       Y4.6787    
(Pass: 6)
   Z0.0625    
   X4.2475       Y4.6876    
   X4.2533       Y4.6952    
   X4.2610       Y4.7011    
   X4.2699       Y4.7048    
   X4.2795       Y4.7061    
   X4.2890       Y4.7048    
   X4.2979       Y4.7011    
   X4.3056       Y4.6952    
   X4.3115       Y4.6876    
   X4.3152       Y4.6787    
   X4.3170       Y4.6650    
   Y4.3189    
   X4.3152       Y4.3052    
   X4.3115       Y4.2963    
   X4.3056       Y4.2886    
   X4.2979       Y4.2828    
   X4.2890       Y4.2791    
   X4.2795       Y4.2778    
   X4.2699       Y4.2791    
   X4.2610       Y4.2828    
   X4.2533       Y4.2886    
   X4.2475       Y4.2963    
   X4.2438       Y4.3052    
   X4.2420       Y4.3189    
   Y4.6650    
   X4.2438       Y4.6787    
(Pass: 7)
   Z0.0312    
   X4.2475       Y4.6876    
   X4.2533       Y4.6952    
   X4.2610       Y4.7011    
   X4.2699       Y4.7048    
   X4.2795       Y4.7061    
   X4.2890       Y4.7048    
   X4.2979       Y4.7011    
   X4.3056       Y4.6952    
   X4.3115       Y4.6876    
   X4.3152       Y4.6787    
   X4.3170       Y4.6650    
   Y4.3189    
   X4.3152       Y4.3052    
   X4.3115       Y4.2963    
   X4.3056       Y4.2886    
   X4.2979       Y4.2828    
   X4.2890       Y4.2791    
   X4.2795       Y4.2778    
   X4.2699       Y4.2791    
   X4.2610       Y4.2828    
   X4.2533       Y4.2886    
   X4.2475       Y4.2963    
   X4.2438       Y4.3052    
   X4.2420       Y4.3189    
   Y4.6650    
   X4.2438       Y4.6787    
(Pass: 8)
   Z0.0000    
   X4.2475       Y4.6876    
   X4.2533       Y4.6952    
   X4.2610       Y4.7011    
   X4.2699       Y4.7048    
   X4.2795       Y4.7061    
   X4.2890       Y4.7048    
   X4.2979       Y4.7011    
   X4.3056       Y4.6952    
   X4.3115       Y4.6876    
   X4.3152       Y4.6787    
   X4.3170       Y4.6650    
   Y4.3189    
   X4.3152       Y4.3052    
   X4.3115       Y4.2963    
   X4.3056       Y4.2886    
   X4.2979       Y4.2828    
   X4.2890       Y4.2791    
   X4.2795       Y4.2778    
   X4.2699       Y4.2791    
   X4.2610       Y4.2828    
   X4.2533       Y4.2886    
   X4.2475       Y4.2963    
   X4.2438       Y4.3052    
   X4.2420       Y4.3189    
   Y4.6650    
   X4.2438       Y4.6787    
G0   Z0.3750    
(Pass: 1)
   X5.5544       Y3.9641    
G1   Z0.2188     F60  
   X5.5579       Y3.9726    
   X5.5635       Y3.9799    
   X5.5709       Y3.9855    
   X5.5794       Y3.9891    
   X5.5886       Y3.9903    
   X5.5977       Y3.9891    
   X5.6063       Y3.9855    
   X5.6136       Y3.9799    
   X5.6192       Y3.9726    
   X5.6227       Y3.9641    
   X5.6239       Y3.9549    
   X5.6227       Y3.9457    
   X5.6192       Y3.9372    
   X5.6136       Y3.9299    
   X5.6063       Y3.9243    
   X5.5977       Y3.9207    
   X5.5886       Y3.9195    
   X5.5794       Y3.9207    
   X5.5709       Y3.9243    
   X5.5635       Y3.9299    
   X5.5579       Y3.9372    
   X5.5544       Y3.9457    
   X5.5532       Y3.9549    
   X5.5544       Y3.9641    
(Pass: 2)
   Z0.1875    
   X5.5579       Y3.9726    
   X5.5635       Y3.9799    
   X5.5709       Y3.9855    
   X5.5794       Y3.9891    
   X5.5886       Y3.9903    
   X5.5977       Y3.9891    
   X5.6063       Y3.9855    
   X5.6136       Y3.9799    
   X5.6192       Y3.9726    
   X5.6227       Y3.9641    
   X5.6239       Y3.9549    
   X5.6227       Y3.9457    
   X5.6192       Y3.9372    
   X5.6136       Y3.9299    
   X5.6063       Y3.9243    
   X5.5977       Y3.9207    
   X5.5886       Y3.9195    
   X5.5794       Y3.9207    
   X5.5709       Y3.9243    
   X5.5635       Y3.9299    
   X5.5579       Y3.9372    
   X5.5544       Y3.9457    
   X5.5532       Y3.9549    
   X5.5544       Y3.9641    
(Pass: 3)
   Z0.1562    
   X5.5579       Y3.9726    
   X5.5635       Y3.9799    
   X5.5709       Y3.9855    
   X5.5794       Y3.9891    
   X5.5886       Y3.9903    
   X5.5977       Y3.9891    
   X5.6063       Y3.9855    
   X5.6136       Y3.9799    
   X5.6192       Y3.9726    
   X5.6227       Y3.9641    
   X5.6239       Y3.9549    
   X5.6227       Y3.9457    
   X5.6192       Y3.9372    
   X5.6136       Y3.9299    
   X5.6063       Y3.9243    
   X5.5977       Y3.9207    
   X5.5886       Y3.9195    
   X5.5794       Y3.9207    
   X5.5709       Y3.9243    
   X5.5635       Y3.9299    
   X5.5579       Y3.9372    
   X5.5544       Y3.9457    
   X5.5532       Y3.9549    
   X5.5544       Y3.9641    
(Pass: 4)
   Z0.1250    
   X5.5579       Y3.9726    
   X5.5635       Y3.9799    
   X5.5709       Y3.9855    
   X5.5794       Y3.9891    
   X5.5886       Y3.9903    
   X5.5977       Y3.9891    
   X5.6063       Y3.9855    
   X5.6136       Y3.9799    
   X5.6192       Y3.9726    
   X5.6227       Y3.9641    
   X5.6239       Y3.9549    
   X5.6227       Y3.9457    
   X5.6192       Y3.9372    
   X5.6136       Y3.9299    
   X5.6063       Y3.9243    
   X5.5977       Y3.9207    
   X5.5886       Y3.9195    
   X5.5794       Y3.9207    
   X5.5709       Y3.9243    
   X5.5635       Y3.9299    
   X5.5579       Y3.9372    
   X5.5544       Y3.9457    
   X5.5532       Y3.9549    
   X5.5544       Y3.9641    
(Pass: 5)
   Z0.0938    
   X5.5579       Y3.9726    
   X5.5635       Y3.9799    
   X5.5709       Y3.9855    
   X5.5794       Y3.9891    
   X5.5886       Y3.9903    
   X5.5977       Y3.9891    
   X5.6063       Y3.9855    
   X5.6136       Y3.9799    
   X5.6192       Y3.9726    
   X5.6227       Y3.9641    
   X5.6239       Y3.9549    
   X5.6227       Y3.9457    
   X5.6192       Y3.9372    
   X5.6136       Y3.9299    
   X5.6063       Y3.9243    
   X5.5977       Y3.9207    
   X5.5886       Y3.9195    
   X5.5794       Y3.9207    
   X5.5709       Y3.9243    
   X5.5635       Y3.9299    
   X5.5579       Y3.9372    
   X5.5544       Y3.9457    
   X5.5532       Y3.9549    
   X5.5544       Y3.9641    
(Pass: 6)
   Z0.0625    
   X5.5579       Y3.9726    
   X5.5635       Y3.9799    
   X5.5709       Y3.9855    
   X5.5794       Y3.9891    
   X5.5886       Y3.9903    
   X5.5977       Y3.9891    
   X5.6063       Y3.9855    
   X5.6136       Y3.9799    
   X5.6192       Y3.9726    
   X5.6227       Y3.9641    
   X5.6239       Y3.9549    
   X5.6227       Y3.9457    
   X5.6192       Y3.9372    
   X5.6136       Y3.9299    
   X5.6063       Y3.9243    
   X5.5977       Y3.9207    
   X5.5886       Y3.9195    
   X5.5794       Y3.9207    
   X5.5709       Y3.9243    
   X5.5635       Y3.9299    
   X5.5579       Y3.9372    
   X5.5544       Y3.9457    
   X5.5532       Y3.9549    
   X5.5544       Y3.9641    
(Pass: 7)
   Z0.0312    
   X5.5579       Y3.9726    
   X5.5635       Y3.9799    
   X5.5709       Y3.9855    
   X5.5794       Y3.9891    
   X5.5886       Y3.9903    
   X5.5977       Y3.9891    
   X5.6063       Y3.9855    
   X5.6136       Y3.9799    
   X5.6192       Y3.9726    
   X5.6227       Y3.9641    
   X5.6239       Y3.9549    
   X5.6227       Y3.9457    
   X5.6192       Y3.9372    
   X5.6136       Y3.9299    
   X5.6063       Y3.9243    
   X5.5977       Y3.9207    
   X5.5886       Y3.9195    
   X5.5794       Y3.9207    
   X5.5709       Y3.9243    
   X5.5635       Y3.9299    
   X5.5579       Y3.9372    
   X5.5544       Y3.9457    
   X5.5532       Y3.9549    
   X5.5544       Y3.9641    
(Pass: 8)
   Z0.0000    
   X5.5579       Y3.9726    
   X5.5635       Y3.9799    
   X5.5709       Y3.9855    
   X5.5794       Y3.9891    
   X5.5886       Y3.9903    
   X5.5977       Y3.9891    
   X5.6063       Y3.9855    
   X5.6136       Y3.9799    
   X5.6192       Y3.9726    
   X5.6227       Y3.9641    
   X5.6239       Y3.9549    
   X5.6227       Y3.9457    
   X5.6192       Y3.9372    
   X5.6136       Y3.9299    
   X5.6063       Y3.9243    
   X5.5977       Y3.9207    
   X5.5886       Y3.9195    
   X5.5794       Y3.9207    
   X5.5709       Y3.9243    
   X5.5635       Y3.9299    
   X5.5579       Y3.9372    
   X5.5544       Y3.9457    
   X5.5532       Y3.9549    
   X5.5544       Y3.9641    
G0   Z0.3750    
(Pass: 1)
   X4.7028       Y5.7112    
G1   Z0.2188     F60  
   X4.6922       Y5.7068    
   X4.6808       Y5.7053    
   X4.6695       Y5.7068    
   X4.6589       Y5.7112    
   X4.6498       Y5.7181    
   X4.6429       Y5.7272    
   X4.6385       Y5.7378    
   X4.6370       Y5.7492    
   X4.6385       Y5.7605    
   X4.6429       Y5.7711    
   X4.6498       Y5.7802    
   X4.6589       Y5.7871    
   X4.6695       Y5.7915    
   X4.6808       Y5.7930    
   X4.6922       Y5.7915    
   X4.7028       Y5.7871    
   X4.7119       Y5.7802    
   X4.7188       Y5.7711    
   X4.7232       Y5.7605    
   X4.7247       Y5.7492    
   X4.7232       Y5.7378    
   X4.7188       Y5.7272    
   X4.7119       Y5.7181    
   X4.7028       Y5.7112    
(Pass: 2)
   Z0.1875    
   X4.6922       Y5.7068    
   X4.6808       Y5.7053    
   X4.6695       Y5.7068    
   X4.6589       Y5.7112    
   X4.6498       Y5.7181    
   X4.6429       Y5.7272    
   X4.6385       Y5.7378    
   X4.6370       Y5.7492    
   X4.6385       Y5.7605    
   X4.6429       Y5.7711    
   X4.6498       Y5.7802    
   X4.6589       Y5.7871    
   X4.6695       Y5.7915    
   X4.6808       Y5.7930    
   X4.6922       Y5.7915    
   X4.7028       Y5.7871    
   X4.7119       Y5.7802    
   X4.7188       Y5.7711    
   X4.7232       Y5.7605    
   X4.7247       Y5.7492    
   X4.7232       Y5.7378    
   X4.7188       Y5.7272    
   X4.7119       Y5.7181    
   X4.7028       Y5.7112    
(Pass: 3)
   Z0.1562    
   X4.6922       Y5.7068    
   X4.6808       Y5.7053    
   X4.6695       Y5.7068    
   X4.6589       Y5.7112    
   X4.6498       Y5.7181    
   X4.6429       Y5.7272    
   X4.6385       Y5.7378    
   X4.6370       Y5.7492    
   X4.6385       Y5.7605    
   X4.6429       Y5.7711    
   X4.6498       Y5.7802    
   X4.6589       Y5.7871    
   X4.6695       Y5.7915    
   X4.6808       Y5.7930    
   X4.6922       Y5.7915    
   X4.7028       Y5.7871    
   X4.7119       Y5.7802    
   X4.7188       Y5.7711    
   X4.7232       Y5.7605    
   X4.7247       Y5.7492    
   X4.7232       Y5.7378    
   X4.7188       Y5.7272    
   X4.7119       Y5.7181    
   X4.7028       Y5.7112    
(Pass: 4)
   Z0.1250    
   X4.6922       Y5.7068    
   X4.6808       Y5.7053    
   X4.6695       Y5.7068    
   X4.6589       Y5.7112    
   X4.6498       Y5.7181    
   X4.6429       Y5.7272    
   X4.6385       Y5.7378    
   X4.6370       Y5.7492    
   X4.6385       Y5.7605    
   X4.6429       Y5.7711    
   X4.6498       Y5.7802    
   X4.6589       Y5.7871    
   X4.6695       Y5.7915    
   X4.6808       Y5.7930    
   X4.6922       Y5.7915    
   X4.7028       Y5.7871    
   X4.7119       Y5.7802    
   X4.7188       Y5.7711    
   X4.7232       Y5.7605    
   X4.7247       Y5.7492    
   X4.7232       Y5.7378    
   X4.7188       Y5.7272    
   X4.7119       Y5.7181    
   X4.7028       Y5.7112    
(Pass: 5)
   Z0.0938    
   X4.6922       Y5.7068    
   X4.6808       Y5.7053    
   X4.6695       Y5.7068    
   X4.6589       Y5.7112    
   X4.6498       Y5.7181    
   X4.6429       Y5.7272    
   X4.6385       Y5.7378    
   X4.6370       Y5.7492    
   X4.6385       Y5.7605    
   X4.6429       Y5.7711    
   X4.6498       Y5.7802    
   X4.6589       Y5.7871    
   X4.6695       Y5.7915    
   X4.6808       Y5.7930    
   X4.6922       Y5.7915    
   X4.7028       Y5.7871    
   X4.7119       Y5.7802    
   X4.7188       Y5.7711    
   X4.7232       Y5.7605    
   X4.7247       Y5.7492    
   X4.7232       Y5.7378    
   X4.7188       Y5.7272    
   X4.7119       Y5.7181    
   X4.7028       Y5.7112    
(Pass: 6)
   Z0.0625    
   X4.6922       Y5.7068    
   X4.6808       Y5.7053    
   X4.6695       Y5.7068    
   X4.6589       Y5.7112    
   X4.6498       Y5.7181    
   X4.6429       Y5.7272    
   X4.6385       Y5.7378    
   X4.6370       Y5.7492    
   X4.6385       Y5.7605    
   X4.6429       Y5.7711    
   X4.6498       Y5.7802    
   X4.6589       Y5.7871    
   X4.6695       Y5.7915    
   X4.6808       Y5.7930    
   X4.6922       Y5.7915    
   X4.7028       Y5.7871    
   X4.7119       Y5.7802    
   X4.7188       Y5.7711    
   X4.7232       Y5.7605    
   X4.7247       Y5.7492    
   X4.7232       Y5.7378    
   X4.7188       Y5.7272    
   X4.7119       Y5.7181    
   X4.7028       Y5.7112    
(Pass: 7)
   Z0.0312    
   X4.6922       Y5.7068    
   X4.6808       Y5.7053    
   X4.6695       Y5.7068    
   X4.6589       Y5.7112    
   X4.6498       Y5.7181    
   X4.6429       Y5.7272    
   X4.6385       Y5.7378    
   X4.6370       Y5.7492    
   X4.6385       Y5.7605    
   X4.6429       Y5.7711    
   X4.6498       Y5.7802    
   X4.6589       Y5.7871    
   X4.6695       Y5.7915    
   X4.6808       Y5.7930    
   X4.6922       Y5.7915    
   X4.7028       Y5.7871    
   X4.7119       Y5.7802    
   X4.7188       Y5.7711    
   X4.7232       Y5.7605    
   X4.7247       Y5.7492    
   X4.7232       Y5.7378    
   X4.7188       Y5.7272    
   X4.7119       Y5.7181    
   X4.7028       Y5.7112    
(Pass: 8)
   Z0.0000    
   X4.6922       Y5.7068    
   X4.6808       Y5.7053    
   X4.6695       Y5.7068    
   X4.6589       Y5.7112    
   X4.6498       Y5.7181    
   X4.6429       Y5.7272    
   X4.6385       Y5.7378    
   X4.6370       Y5.7492    
   X4.6385       Y5.7605    
   X4.6429       Y5.7711    
   X4.6498       Y5.7802    
   X4.6589       Y5.7871    
   X4.6695       Y5.7915    
   X4.6808       Y5.7930    
   X4.6922       Y5.7915    
   X4.7028       Y5.7871    
   X4.7119       Y5.7802    
   X4.7188       Y5.7711    
   X4.7232       Y5.7605    
   X4.7247       Y5.7492    
   X4.7232       Y5.7378    
   X4.7188       Y5.7272    
   X4.7119       Y5.7181    
   X4.7028       Y5.7112    
G0   Z0.3750    
(Pass: 1)
   X4.3056       Y6.1486    
G1   Z0.2188     F60  
   X4.2979       Y6.1428    
   X4.2890       Y6.1391    
   X4.2795       Y6.1378    
   X4.2699       Y6.1391    
   X4.2610       Y6.1428    
   X4.2533       Y6.1486    
   X4.2475       Y6.1563    
   X4.2438       Y6.1652    
   X4.2420       Y6.1789    
   Y6.5250    
   X4.2438       Y6.5387    
   X4.2475       Y6.5476    
   X4.2533       Y6.5552    
   X4.2610       Y6.5611    
   X4.2699       Y6.5648    
   X4.2795       Y6.5661    
   X4.2890       Y6.5648    
   X4.2979       Y6.5611    
   X4.3056       Y6.5552    
   X4.3115       Y6.5476    
   X4.3152       Y6.5387    
   X4.3170       Y6.5250    
   Y6.1789    
   X4.3152       Y6.1652    
   X4.3115       Y6.1563    
   X4.3056       Y6.1486    
(Pass: 2)
   Z0.1875    
   X4.2979       Y6.1428    
   X4.2890       Y6.1391    
   X4.2795       Y6.1378    
   X4.2699       Y6.1391    
   X4.2610       Y6.1428    
   X4.2533       Y6.1486    
   X4.2475       Y6.1563    
   X4.2438       Y6.1652    
   X4.2420       Y6.1789    
   Y6.5250    
   X4.2438       Y6.5387    
   X4.2475       Y6.5476    
   X4.2533       Y6.5552    
   X4.2610       Y6.5611    
   X4.2699       Y6.5648    
   X4.2795       Y6.5661    
   X4.2890       Y6.5648    
   X4.2979       Y6.5611    
   X4.3056       Y6.5552    
   X4.3115       Y6.5476    
   X4.3152       Y6.5387    
   X4.3170       Y6.5250    
   Y6.1789    
   X4.3152       Y6.1652    
   X4.3115       Y6.1563    
   X4.3056       Y6.1486    
(Pass: 3)
   Z0.1562    
   X4.2979       Y6.1428    
   X4.2890       Y6.1391    
   X4.2795       Y6.1378    
   X4.2699       Y6.1391    
   X4.2610       Y6.1428    
   X4.2533       Y6.1486    
   X4.2475       Y6.1563    
   X4.2438       Y6.1652    
   X4.2420       Y6.1789    
   Y6.5250    
   X4.2438       Y6.5387    
   X4.2475       Y6.5476    
   X4.2533       Y6.5552    
   X4.2610       Y6.5611    
   X4.2699       Y6.5648    
   X4.2795       Y6.5661    
   X4.2890       Y6.5648    
   X4.2979       Y6.5611    
   X4.3056       Y6.5552    
   X4.3115       Y6.5476    
   X4.3152       Y6.5387    
   X4.3170       Y6.5250    
   Y6.1789    
   X4.3152       Y6.1652    
   X4.3115       Y6.1563    
   X4.3056       Y6.1486    
(Pass: 4)
   Z0.1250    
   X4.2979       Y6.1428    
   X4.2890       Y6.1391    
   X4.2795       Y6.1378    
   X4.2699       Y6.1391    
   X4.2610       Y6.1428    
   X4.2533       Y6.1486    
   X4.2475       Y6.1563    
   X4.2438       Y6.1652    
   X4.2420       Y6.1789    
   Y6.5250    
   X4.2438       Y6.5387    
   X4.2475       Y6.5476    
   X4.2533       Y6.5552    
   X4.2610       Y6.5611    
   X4.2699       Y6.5648    
   X4.2795       Y6.5661    
   X4.2890       Y6.5648    
   X4.2979       Y6.5611    
   X4.3056       Y6.5552    
   X4.3115       Y6.5476    
   X4.3152       Y6.5387    
   X4.3170       Y6.5250    
   Y6.1789    
   X4.3152       Y6.1652    
   X4.3115       Y6.1563    
   X4.3056       Y6.1486    
(Pass: 5)
   Z0.0938    
   X4.2979       Y6.1428    
   X4.2890       Y6.1391    
   X4.2795       Y6.1378    
   X4.2699       Y6.1391    
   X4.2610       Y6.1428    
   X4.2533       Y6.1486    
   X4.2475       Y6.1563    
   X4.2438       Y6.1652    
   X4.2420       Y6.1789    
   Y6.5250    
   X4.2438       Y6.5387    
   X4.2475       Y6.5476    
   X4.2533       Y6.5552    
   X4.2610       Y6.5611    
   X4.2699       Y6.5648    
   X4.2795       Y6.5661    
   X4.2890       Y6.5648    
   X4.2979       Y6.5611    
   X4.3056       Y6.5552    
   X4.3115       Y6.5476    
   X4.3152       Y6.5387    
   X4.3170       Y6.5250    
   Y6.1789    
   X4.3152       Y6.1652    
   X4.3115       Y6.1563    
   X4.3056       Y6.1486    
(Pass: 6)
   Z0.0625    
   X4.2979       Y6.1428    
   X4.2890       Y6.1391    
   X4.2795       Y6.1378    
   X4.2699       Y6.1391    
   X4.2610       Y6.1428    
   X4.2533       Y6.1486    
   X4.2475       Y6.1563    
   X4.2438       Y6.1652    
   X4.2420       Y6.1789    
   Y6.5250    
   X4.2438       Y6.5387    
   X4.2475       Y6.5476    
   X4.2533       Y6.5552    
   X4.2610       Y6.5611    
   X4.2699       Y6.5648    
   X4.2795       Y6.5661    
   X4.2890       Y6.5648    
   X4.2979       Y6.5611    
   X4.3056       Y6.5552    
   X4.3115       Y6.5476    
   X4.3152       Y6.5387    
   X4.3170       Y6.5250    
   Y6.1789    
   X4.3152       Y6.1652    
   X4.3115       Y6.1563    
   X4.3056       Y6.1486    
(Pass: 7)
   Z0.0312    
   X4.2979       Y6.1428    
   X4.2890       Y6.1391    
   X4.2795       Y6.1378    
   X4.2699       Y6.1391    
   X4.2610       Y6.1428    
   X4.2533       Y6.1486    
   X4.2475       Y6.1563    
   X4.2438       Y6.1652    
   X4.2420       Y6.1789    
   Y6.5250    
   X4.2438       Y6.5387    
   X4.2475       Y6.5476    
   X4.2533       Y6.5552    
   X4.2610       Y6.5611    
   X4.2699       Y6.5648    
   X4.2795       Y6.5661    
   X4.2890       Y6.5648    
   X4.2979       Y6.5611    
   X4.3056       Y6.5552    
   X4.3115       Y6.5476    
   X4.3152       Y6.5387    
   X4.3170       Y6.5250    
   Y6.1789    
   X4.3152       Y6.1652    
   X4.3115       Y6.1563    
   X4.3056       Y6.1486    
(Pass: 8)
   Z0.0000    
   X4.2979       Y6.1428    
   X4.2890       Y6.1391    
   X4.2795       Y6.1378    
   X4.2699       Y6.1391    
   X4.2610       Y6.1428    
   X4.2533       Y6.1486    
   X4.2475       Y6.1563    
   X4.2438       Y6.1652    
   X4.2420       Y6.1789    
   Y6.5250    
   X4.2438       Y6.5387    
   X4.2475       Y6.5476    
   X4.2533       Y6.5552    
   X4.2610       Y6.5611    
   X4.2699       Y6.5648    
   X4.2795       Y6.5661    
   X4.2890       Y6.5648    
   X4.2979       Y6.5611    
   X4.3056       Y6.5552    
   X4.3115       Y6.5476    
   X4.3152       Y6.5387    
   X4.3170       Y6.5250    
   Y6.1789    
   X4.3152       Y6.1652    
   X4.3115       Y6.1563    
   X4.3056       Y6.1486    
G0   Z0.3750    
(Pass: 1)
   X4.0636       Y6.9095    
G1   Z0.2188     F60  
   X4.0522       Y6.9080    
   X4.0408       Y6.9095    
   X4.0303       Y6.9138    
   X4.0212       Y6.9208    
   X4.0142       Y6.9299    
   X4.0098       Y6.9405    
   X4.0083       Y6.9518    
   X4.0098       Y6.9632    
   X4.0142       Y6.9738    
   X4.0212       Y6.9828    
   X4.0303       Y6.9898    
   X4.0408       Y6.9942    
   X4.0522       Y6.9957    
   X4.0636       Y6.9942    
   X4.0741       Y6.9898    
   X4.0832       Y6.9828    
   X4.0902       Y6.9738    
   X4.0946       Y6.9632    
   X4.0961       Y6.9518    
   X4.0946       Y6.9405    
   X4.0902       Y6.9299    
   X4.0832       Y6.9208    
   X4.0741       Y6.9138    
   X4.0636       Y6.9095    
(Pass: 2)
   Z0.1875    
   X4.0522       Y6.9080    
   X4.0408       Y6.9095    
   X4.0303       Y6.9138    
   X4.0212       Y6.9208    
   X4.0142       Y6.9299    
   X4.0098       Y6.9405    
   X4.0083       Y6.9518    
   X4.0098       Y6.9632    
   X4.0142       Y6.9738    
   X4.0212       Y6.9828    
   X4.0303       Y6.9898    
   X4.0408       Y6.9942    
   X4.0522       Y6.9957    
   X4.0636       Y6.9942    
   X4.0741       Y6.9898    
   X4.0832       Y6.9828    
   X4.0902       Y6.9738    
   X4.0946       Y6.9632    
   X4.0961       Y6.9518    
   X4.0946       Y6.9405    
   X4.0902       Y6.9299    
   X4.0832       Y6.9208    
   X4.0741       Y6.9138    
   X4.0636       Y6.9095    
(Pass: 3)
   Z0.1562    
   X4.0522       Y6.9080    
   X4.0408       Y6.9095    
   X4.0303       Y6.9138    
   X4.0212       Y6.9208    
   X4.0142       Y6.9299    
   X4.0098       Y6.9405    
   X4.0083       Y6.9518    
   X4.0098       Y6.9632    
   X4.0142       Y6.9738    
   X4.0212       Y6.9828    
   X4.0303       Y6.9898    
   X4.0408       Y6.9942    
   X4.0522       Y6.9957    
   X4.0636       Y6.9942    
   X4.0741       Y6.9898    
   X4.0832       Y6.9828    
   X4.0902       Y6.9738    
   X4.0946       Y6.9632    
   X4.0961       Y6.9518    
   X4.0946       Y6.9405    
   X4.0902       Y6.9299    
   X4.0832       Y6.9208    
   X4.0741       Y6.9138    
   X4.0636       Y6.9095    
(Pass: 4)
   Z0.1250    
   X4.0522       Y6.9080    
   X4.0408       Y6.9095    
   X4.0303       Y6.9138    
   X4.0212       Y6.9208    
   X4.0142       Y6.9299    
   X4.0098       Y6.9405    
   X4.0083       Y6.9518    
   X4.0098       Y6.9632    
   X4.0142       Y6.9738    
   X4.0212       Y6.9828    
   X4.0303       Y6.9898    
   X4.0408       Y6.9942    
   X4.0522       Y6.9957    
   X4.0636       Y6.9942    
   X4.0741       Y6.9898    
   X4.0832       Y6.9828    
   X4.0902       Y6.9738    
   X4.0946       Y6.9632    
   X4.0961       Y6.9518    
   X4.0946       Y6.9405    
   X4.0902       Y6.9299    
   X4.0832       Y6.9208    
   X4.0741       Y6.9138    
   X4.0636       Y6.9095    
(Pass: 5)
   Z0.0938    
   X4.0522       Y6.9080    
   X4.0408       Y6.9095    
   X4.0303       Y6.9138    
   X4.0212       Y6.9208    
   X4.0142       Y6.9299    
   X4.0098       Y6.9405    
   X4.0083       Y6.9518    
   X4.0098       Y6.9632    
   X4.0142       Y6.9738    
   X4.0212       Y6.9828    
   X4.0303       Y6.9898    
   X4.0408       Y6.9942    
   X4.0522       Y6.9957    
   X4.0636       Y6.9942    
   X4.0741       Y6.9898    
   X4.0832       Y6.9828    
   X4.0902       Y6.9738    
   X4.0946       Y6.9632    
   X4.0961       Y6.9518    
   X4.0946       Y6.9405    
   X4.0902       Y6.9299    
   X4.0832       Y6.9208    
   X4.0741       Y6.9138    
   X4.0636       Y6.9095    
(Pass: 6)
   Z0.0625    
   X4.0522       Y6.9080    
   X4.0408       Y6.9095    
   X4.0303       Y6.9138    
   X4.0212       Y6.9208    
   X4.0142       Y6.9299    
   X4.0098       Y6.9405    
   X4.0083       Y6.9518    
   X4.0098       Y6.9632    
   X4.0142       Y6.9738    
   X4.0212       Y6.9828    
   X4.0303       Y6.9898    
   X4.0408       Y6.9942    
   X4.0522       Y6.9957    
   X4.0636       Y6.9942    
   X4.0741       Y6.9898    
   X4.0832       Y6.9828    
   X4.0902       Y6.9738    
   X4.0946       Y6.9632    
   X4.0961       Y6.9518    
   X4.0946       Y6.9405    
   X4.0902       Y6.9299    
   X4.0832       Y6.9208    
   X4.0741       Y6.9138    
   X4.0636       Y6.9095    
(Pass: 7)
   Z0.0312    
   X4.0522       Y6.9080    
   X4.0408       Y6.9095    
   X4.0303       Y6.9138    
   X4.0212       Y6.9208    
   X4.0142       Y6.9299    
   X4.0098       Y6.9405    
   X4.0083       Y6.9518    
   X4.0098       Y6.9632    
   X4.0142       Y6.9738    
   X4.0212       Y6.9828    
   X4.0303       Y6.9898    
   X4.0408       Y6.9942    
   X4.0522       Y6.9957    
   X4.0636       Y6.9942    
   X4.0741       Y6.9898    
   X4.0832       Y6.9828    
   X4.0902       Y6.9738    
   X4.0946       Y6.9632    
   X4.0961       Y6.9518    
   X4.0946       Y6.9405    
   X4.0902       Y6.9299    
   X4.0832       Y6.9208    
   X4.0741       Y6.9138    
   X4.0636       Y6.9095    
(Pass: 8)
   Z0.0000    
   X4.0522       Y6.9080    
   X4.0408       Y6.9095    
   X4.0303       Y6.9138    
   X4.0212       Y6.9208    
   X4.0142       Y6.9299    
   X4.0098       Y6.9405    
   X4.0083       Y6.9518    
   X4.0098       Y6.9632    
   X4.0142       Y6.9738    
   X4.0212       Y6.9828    
   X4.0303       Y6.9898    
   X4.0408       Y6.9942    
   X4.0522       Y6.9957    
   X4.0636       Y6.9942    
   X4.0741       Y6.9898    
   X4.0832       Y6.9828    
   X4.0902       Y6.9738    
   X4.0946       Y6.9632    
   X4.0961       Y6.9518    
   X4.0946       Y6.9405    
   X4.0902       Y6.9299    
   X4.0832       Y6.9208    
   X4.0741       Y6.9138    
   X4.0636       Y6.9095    
G0   Z0.3750    
(Pass: 1)
   X2.6898       Y6.9518    
G1   Z0.2188     F60  
   X2.6883       Y6.9405    
   X2.6839       Y6.9299    
   X2.6770       Y6.9208    
   X2.6679       Y6.9138    
   X2.6573       Y6.9095    
   X2.6459       Y6.9080    
   X2.6346       Y6.9095    
   X2.6240       Y6.9138    
   X2.6149       Y6.9208    
   X2.6079       Y6.9299    
   X2.6036       Y6.9405    
   X2.6021       Y6.9518    
   X2.6036       Y6.9632    
   X2.6079       Y6.9738    
   X2.6149       Y6.9828    
   X2.6240       Y6.9898    
   X2.6346       Y6.9942    
   X2.6459       Y6.9957    
   X2.6573       Y6.9942    
   X2.6679       Y6.9898    
   X2.6770       Y6.9828    
   X2.6839       Y6.9738    
   X2.6883       Y6.9632    
   X2.6898       Y6.9518    
(Pass: 2)
   Z0.1875    
   X2.6883       Y6.9405    
   X2.6839       Y6.9299    
   X2.6770       Y6.9208    
   X2.6679       Y6.9138    
   X2.6573       Y6.9095    
   X2.6459       Y6.9080    
   X2.6346       Y6.9095    
   X2.6240       Y6.9138    
   X2.6149       Y6.9208    
   X2.6079       Y6.9299    
   X2.6036       Y6.9405    
   X2.6021       Y6.9518    
   X2.6036       Y6.9632    
   X2.6079       Y6.9738    
   X2.6149       Y6.9828    
   X2.6240       Y6.9898    
   X2.6346       Y6.9942    
   X2.6459       Y6.9957    
   X2.6573       Y6.9942    
   X2.6679       Y6.9898    
   X2.6770       Y6.9828    
   X2.6839       Y6.9738    
   X2.6883       Y6.9632    
   X2.6898       Y6.9518    
(Pass: 3)
   Z0.1562    
   X2.6883       Y6.9405    
   X2.6839       Y6.9299    
   X2.6770       Y6.9208    
   X2.6679       Y6.9138    
   X2.6573       Y6.9095    
   X2.6459       Y6.9080    
   X2.6346       Y6.9095    
   X2.6240       Y6.9138    
   X2.6149       Y6.9208    
   X2.6079       Y6.9299    
   X2.6036       Y6.9405    
   X2.6021       Y6.9518    
   X2.6036       Y6.9632    
   X2.6079       Y6.9738    
   X2.6149       Y6.9828    
   X2.6240       Y6.9898    
   X2.6346       Y6.9942    
   X2.6459       Y6.9957    
   X2.6573       Y6.9942    
   X2.6679       Y6.9898    
   X2.6770       Y6.9828    
   X2.6839       Y6.9738    
   X2.6883       Y6.9632    
   X2.6898       Y6.9518    
(Pass: 4)
   Z0.1250    
   X2.6883       Y6.9405    
   X2.6839       Y6.9299    
   X2.6770       Y6.9208    
   X2.6679       Y6.9138    
   X2.6573       Y6.9095    
   X2.6459       Y6.9080    
   X2.6346       Y6.9095    
   X2.6240       Y6.9138    
   X2.6149       Y6.9208    
   X2.6079       Y6.9299    
   X2.6036       Y6.9405    
   X2.6021       Y6.9518    
   X2.6036       Y6.9632    
   X2.6079       Y6.9738    
   X2.6149       Y6.9828    
   X2.6240       Y6.9898    
   X2.6346       Y6.9942    
   X2.6459       Y6.9957    
   X2.6573       Y6.9942    
   X2.6679       Y6.9898    
   X2.6770       Y6.9828    
   X2.6839       Y6.9738    
   X2.6883       Y6.9632    
   X2.6898       Y6.9518    
(Pass: 5)
   Z0.0938    
   X2.6883       Y6.9405    
   X2.6839       Y6.9299    
   X2.6770       Y6.9208    
   X2.6679       Y6.9138    
   X2.6573       Y6.9095    
   X2.6459       Y6.9080    
   X2.6346       Y6.9095    
   X2.6240       Y6.9138    
   X2.6149       Y6.9208    
   X2.6079       Y6.9299    
   X2.6036       Y6.9405    
   X2.6021       Y6.9518    
   X2.6036       Y6.9632    
   X2.6079       Y6.9738    
   X2.6149       Y6.9828    
   X2.6240       Y6.9898    
   X2.6346       Y6.9942    
   X2.6459       Y6.9957    
   X2.6573       Y6.9942    
   X2.6679       Y6.9898    
   X2.6770       Y6.9828    
   X2.6839       Y6.9738    
   X2.6883       Y6.9632    
   X2.6898       Y6.9518    
(Pass: 6)
   Z0.0625    
   X2.6883       Y6.9405    
   X2.6839       Y6.9299    
   X2.6770       Y6.9208    
   X2.6679       Y6.9138    
   X2.6573       Y6.9095    
   X2.6459       Y6.9080    
   X2.6346       Y6.9095    
   X2.6240       Y6.9138    
   X2.6149       Y6.9208    
   X2.6079       Y6.9299    
   X2.6036       Y6.9405    
   X2.6021       Y6.9518    
   X2.6036       Y6.9632    
   X2.6079       Y6.9738    
   X2.6149       Y6.9828    
   X2.6240       Y6.9898    
   X2.6346       Y6.9942    
   X2.6459       Y6.9957    
   X2.6573       Y6.9942    
   X2.6679       Y6.9898    
   X2.6770       Y6.9828    
   X2.6839       Y6.9738    
   X2.6883       Y6.9632    
   X2.6898       Y6.9518    
(Pass: 7)
   Z0.0312    
   X2.6883       Y6.9405    
   X2.6839       Y6.9299    
   X2.6770       Y6.9208    
   X2.6679       Y6.9138    
   X2.6573       Y6.9095    
   X2.6459       Y6.9080    
   X2.6346       Y6.9095    
   X2.6240       Y6.9138    
   X2.6149       Y6.9208    
   X2.6079       Y6.9299    
   X2.6036       Y6.9405    
   X2.6021       Y6.9518    
   X2.6036       Y6.9632    
   X2.6079       Y6.9738    
   X2.6149       Y6.9828    
   X2.6240       Y6.9898    
   X2.6346       Y6.9942    
   X2.6459       Y6.9957    
   X2.6573       Y6.9942    
   X2.6679       Y6.9898    
   X2.6770       Y6.9828    
   X2.6839       Y6.9738    
   X2.6883       Y6.9632    
   X2.6898       Y6.9518    
(Pass: 8)
   Z0.0000    
   X2.6883       Y6.9405    
   X2.6839       Y6.9299    
   X2.6770       Y6.9208    
   X2.6679       Y6.9138    
   X2.6573       Y6.9095    
   X2.6459       Y6.9080    
   X2.6346       Y6.9095    
   X2.6240       Y6.9138    
   X2.6149       Y6.9208    
   X2.6079       Y6.9299    
   X2.6036       Y6.9405    
   X2.6021       Y6.9518    
   X2.6036       Y6.9632    
   X2.6079       Y6.9738    
   X2.6149       Y6.9828    
   X2.6240       Y6.9898    
   X2.6346       Y6.9942    
   X2.6459       Y6.9957    
   X2.6573       Y6.9942    
   X2.6679       Y6.9898    
   X2.6770       Y6.9828    
   X2.6839       Y6.9738    
   X2.6883       Y6.9632    
   X2.6898       Y6.9518    
G0   Z0.3750    
(Pass: 1)
   X2.4379       Y6.5611    
G1   Z0.2188     F60  
   X2.4456       Y6.5552    
   X2.4515       Y6.5476    
   X2.4552       Y6.5387    
   X2.4570       Y6.5250    
   Y6.1789    
   X2.4552       Y6.1652    
   X2.4515       Y6.1563    
   X2.4456       Y6.1486    
   X2.4379       Y6.1428    
   X2.4290       Y6.1391    
   X2.4195       Y6.1378    
   X2.4099       Y6.1391    
   X2.4010       Y6.1428    
   X2.3933       Y6.1486    
   X2.3875       Y6.1563    
   X2.3838       Y6.1652    
   X2.3820       Y6.1789    
   Y6.5250    
   X2.3838       Y6.5387    
   X2.3875       Y6.5476    
   X2.3933       Y6.5552    
   X2.4010       Y6.5611    
   X2.4099       Y6.5648    
   X2.4195       Y6.5661    
   X2.4290       Y6.5648    
   X2.4379       Y6.5611    
(Pass: 2)
   Z0.1875    
   X2.4456       Y6.5552    
   X2.4515       Y6.5476    
   X2.4552       Y6.5387    
   X2.4570       Y6.5250    
   Y6.1789    
   X2.4552       Y6.1652    
   X2.4515       Y6.1563    
   X2.4456       Y6.1486    
   X2.4379       Y6.1428    
   X2.4290       Y6.1391    
   X2.4195       Y6.1378    
   X2.4099       Y6.1391    
   X2.4010       Y6.1428    
   X2.3933       Y6.1486    
   X2.3875       Y6.1563    
   X2.3838       Y6.1652    
   X2.3820       Y6.1789    
   Y6.5250    
   X2.3838       Y6.5387    
   X2.3875       Y6.5476    
   X2.3933       Y6.5552    
   X2.4010       Y6.5611    
   X2.4099       Y6.5648    
   X2.4195       Y6.5661    
   X2.4290       Y6.5648    
   X2.4379       Y6.5611    
(Pass: 3)
   Z0.1562    
   X2.4456       Y6.5552    
   X2.4515       Y6.5476    
   X2.4552       Y6.5387    
   X2.4570       Y6.5250    
   Y6.1789    
   X2.4552       Y6.1652    
   X2.4515       Y6.1563    
   X2.4456       Y6.1486    
   X2.4379       Y6.1428    
   X2.4290       Y6.1391    
   X2.4195       Y6.1378    
   X2.4099       Y6.1391    
   X2.4010       Y6.1428    
   X2.3933       Y6.1486    
   X2.3875       Y6.1563    
   X2.3838       Y6.1652    
   X2.3820       Y6.1789    
   Y6.5250    
   X2.3838       Y6.5387    
   X2.3875       Y6.5476    
   X2.3933       Y6.5552    
   X2.4010       Y6.5611    
   X2.4099       Y6.5648    
   X2.4195       Y6.5661    
   X2.4290       Y6.5648    
   X2.4379       Y6.5611    
(Pass: 4)
   Z0.1250    
   X2.4456       Y6.5552    
   X2.4515       Y6.5476    
   X2.4552       Y6.5387    
   X2.4570       Y6.5250    
   Y6.1789    
   X2.4552       Y6.1652    
   X2.4515       Y6.1563    
   X2.4456       Y6.1486    
   X2.4379       Y6.1428    
   X2.4290       Y6.1391    
   X2.4195       Y6.1378    
   X2.4099       Y6.1391    
   X2.4010       Y6.1428    
   X2.3933       Y6.1486    
   X2.3875       Y6.1563    
   X2.3838       Y6.1652    
   X2.3820       Y6.1789    
   Y6.5250    
   X2.3838       Y6.5387    
   X2.3875       Y6.5476    
   X2.3933       Y6.5552    
   X2.4010       Y6.5611    
   X2.4099       Y6.5648    
   X2.4195       Y6.5661    
   X2.4290       Y6.5648    
   X2.4379       Y6.5611    
(Pass: 5)
   Z0.0938    
   X2.4456       Y6.5552    
   X2.4515       Y6.5476    
   X2.4552       Y6.5387    
   X2.4570       Y6.5250    
   Y6.1789    
   X2.4552       Y6.1652    
   X2.4515       Y6.1563    
   X2.4456       Y6.1486    
   X2.4379       Y6.1428    
   X2.4290       Y6.1391    
   X2.4195       Y6.1378    
   X2.4099       Y6.1391    
   X2.4010       Y6.1428    
   X2.3933       Y6.1486    
   X2.3875       Y6.1563    
   X2.3838       Y6.1652    
   X2.3820       Y6.1789    
   Y6.5250    
   X2.3838       Y6.5387    
   X2.3875       Y6.5476    
   X2.3933       Y6.5552    
   X2.4010       Y6.5611    
   X2.4099       Y6.5648    
   X2.4195       Y6.5661    
   X2.4290       Y6.5648    
   X2.4379       Y6.5611    
(Pass: 6)
   Z0.0625    
   X2.4456       Y6.5552    
   X2.4515       Y6.5476    
   X2.4552       Y6.5387    
   X2.4570       Y6.5250    
   Y6.1789    
   X2.4552       Y6.1652    
   X2.4515       Y6.1563    
   X2.4456       Y6.1486    
   X2.4379       Y6.1428    
   X2.4290       Y6.1391    
   X2.4195       Y6.1378    
   X2.4099       Y6.1391    
   X2.4010       Y6.1428    
   X2.3933       Y6.1486    
   X2.3875       Y6.1563    
   X2.3838       Y6.1652    
   X2.3820       Y6.1789    
   Y6.5250    
   X2.3838       Y6.5387    
   X2.3875       Y6.5476    
   X2.3933       Y6.5552    
   X2.4010       Y6.5611    
   X2.4099       Y6.5648    
   X2.4195       Y6.5661    
   X2.4290       Y6.5648    
   X2.4379       Y6.5611    
(Pass: 7)
   Z0.0312    
   X2.4456       Y6.5552    
   X2.4515       Y6.5476    
   X2.4552       Y6.5387    
   X2.4570       Y6.5250    
   Y6.1789    
   X2.4552       Y6.1652    
   X2.4515       Y6.1563    
   X2.4456       Y6.1486    
   X2.4379       Y6.1428    
   X2.4290       Y6.1391    
   X2.4195       Y6.1378    
   X2.4099       Y6.1391    
   X2.4010       Y6.1428    
   X2.3933       Y6.1486    
   X2.3875       Y6.1563    
   X2.3838       Y6.1652    
   X2.3820       Y6.1789    
   Y6.5250    
   X2.3838       Y6.5387    
   X2.3875       Y6.5476    
   X2.3933       Y6.5552    
   X2.4010       Y6.5611    
   X2.4099       Y6.5648    
   X2.4195       Y6.5661    
   X2.4290       Y6.5648    
   X2.4379       Y6.5611    
(Pass: 8)
   Z0.0000    
   X2.4456       Y6.5552    
   X2.4515       Y6.5476    
   X2.4552       Y6.5387    
   X2.4570       Y6.5250    
   Y6.1789    
   X2.4552       Y6.1652    
   X2.4515       Y6.1563    
   X2.4456       Y6.1486    
   X2.4379       Y6.1428    
   X2.4290       Y6.1391    
   X2.4195       Y6.1378    
   X2.4099       Y6.1391    
   X2.4010       Y6.1428    
   X2.3933       Y6.1486    
   X2.3875       Y6.1563    
   X2.3838       Y6.1652    
   X2.3820       Y6.1789    
   Y6.5250    
   X2.3838       Y6.5387    
   X2.3875       Y6.5476    
   X2.3933       Y6.5552    
   X2.4010       Y6.5611    
   X2.4099       Y6.5648    
   X2.4195       Y6.5661    
   X2.4290       Y6.5648    
   X2.4379       Y6.5611    
G0   Z0.3750    
(Pass: 1)
   X2.0408       Y5.7871    
G1   Z0.2188     F60  
   X2.0499       Y5.7802    
   X2.0569       Y5.7711    
   X2.0612       Y5.7605    
   X2.0627       Y5.7492    
   X2.0612       Y5.7378    
   X2.0569       Y5.7272    
   X2.0499       Y5.7181    
   X2.0408       Y5.7112    
   X2.0302       Y5.7068    
   X2.0189       Y5.7053    
   X2.0075       Y5.7068    
   X1.9969       Y5.7112    
   X1.9878       Y5.7181    
   X1.9809       Y5.7272    
   X1.9765       Y5.7378    
   X1.9750       Y5.7492    
   X1.9765       Y5.7605    
   X1.9809       Y5.7711    
   X1.9878       Y5.7802    
   X1.9969       Y5.7871    
   X2.0075       Y5.7915    
   X2.0189       Y5.7930    
   X2.0302       Y5.7915    
   X2.0408       Y5.7871    
(Pass: 2)
   Z0.1875    
   X2.0499       Y5.7802    
   X2.0569       Y5.7711    
   X2.0612       Y5.7605    
   X2.0627       Y5.7492    
   X2.0612       Y5.7378    
   X2.0569       Y5.7272    
   X2.0499       Y5.7181    
   X2.0408       Y5.7112    
   X2.0302       Y5.7068    
   X2.0189       Y5.7053    
   X2.0075       Y5.7068    
   X1.9969       Y5.7112    
   X1.9878       Y5.7181    
   X1.9809       Y5.7272    
   X1.9765       Y5.7378    
   X1.9750       Y5.7492    
   X1.9765       Y5.7605    
   X1.9809       Y5.7711    
   X1.9878       Y5.7802    
   X1.9969       Y5.7871    
   X2.0075       Y5.7915    
   X2.0189       Y5.7930    
   X2.0302       Y5.7915    
   X2.0408       Y5.7871    
(Pass: 3)
   Z0.1562    
   X2.0499       Y5.7802    
   X2.0569       Y5.7711    
   X2.0612       Y5.7605    
   X2.0627       Y5.7492    
   X2.0612       Y5.7378    
   X2.0569       Y5.7272    
   X2.0499       Y5.7181    
   X2.0408       Y5.7112    
   X2.0302       Y5.7068    
   X2.0189       Y5.7053    
   X2.0075       Y5.7068    
   X1.9969       Y5.7112    
   X1.9878       Y5.7181    
   X1.9809       Y5.7272    
   X1.9765       Y5.7378    
   X1.9750       Y5.7492    
   X1.9765       Y5.7605    
   X1.9809       Y5.7711    
   X1.9878       Y5.7802    
   X1.9969       Y5.7871    
   X2.0075       Y5.7915    
   X2.0189       Y5.7930    
   X2.0302       Y5.7915    
   X2.0408       Y5.7871    
(Pass: 4)
   Z0.1250    
   X2.0499       Y5.7802    
   X2.0569       Y5.7711    
   X2.0612       Y5.7605    
   X2.0627       Y5.7492    
   X2.0612       Y5.7378    
   X2.0569       Y5.7272    
   X2.0499       Y5.7181    
   X2.0408       Y5.7112    
   X2.0302       Y5.7068    
   X2.0189       Y5.7053    
   X2.0075       Y5.7068    
   X1.9969       Y5.7112    
   X1.9878       Y5.7181    
   X1.9809       Y5.7272    
   X1.9765       Y5.7378    
   X1.9750       Y5.7492    
   X1.9765       Y5.7605    
   X1.9809       Y5.7711    
   X1.9878       Y5.7802    
   X1.9969       Y5.7871    
   X2.0075       Y5.7915    
   X2.0189       Y5.7930    
   X2.0302       Y5.7915    
   X2.0408       Y5.7871    
(Pass: 5)
   Z0.0938    
   X2.0499       Y5.7802    
   X2.0569       Y5.7711    
   X2.0612       Y5.7605    
   X2.0627       Y5.7492    
   X2.0612       Y5.7378    
   X2.0569       Y5.7272    
   X2.0499       Y5.7181    
   X2.0408       Y5.7112    
   X2.0302       Y5.7068    
   X2.0189       Y5.7053    
   X2.0075       Y5.7068    
   X1.9969       Y5.7112    
   X1.9878       Y5.7181    
   X1.9809       Y5.7272    
   X1.9765       Y5.7378    
   X1.9750       Y5.7492    
   X1.9765       Y5.7605    
   X1.9809       Y5.7711    
   X1.9878       Y5.7802    
   X1.9969       Y5.7871    
   X2.0075       Y5.7915    
   X2.0189       Y5.7930    
   X2.0302       Y5.7915    
   X2.0408       Y5.7871    
(Pass: 6)
   Z0.0625    
   X2.0499       Y5.7802    
   X2.0569       Y5.7711    
   X2.0612       Y5.7605    
   X2.0627       Y5.7492    
   X2.0612       Y5.7378    
   X2.0569       Y5.7272    
   X2.0499       Y5.7181    
   X2.0408       Y5.7112    
   X2.0302       Y5.7068    
   X2.0189       Y5.7053    
   X2.0075       Y5.7068    
   X1.9969       Y5.7112    
   X1.9878       Y5.7181    
   X1.9809       Y5.7272    
   X1.9765       Y5.7378    
   X1.9750       Y5.7492    
   X1.9765       Y5.7605    
   X1.9809       Y5.7711    
   X1.9878       Y5.7802    
   X1.9969       Y5.7871    
   X2.0075       Y5.7915    
   X2.0189       Y5.7930    
   X2.0302       Y5.7915    
   X2.0408       Y5.7871    
(Pass: 7)
   Z0.0312    
   X2.0499       Y5.7802    
   X2.0569       Y5.7711    
   X2.0612       Y5.7605    
   X2.0627       Y5.7492    
   X2.0612       Y5.7378    
   X2.0569       Y5.7272    
   X2.0499       Y5.7181    
   X2.0408       Y5.7112    
   X2.0302       Y5.7068    
   X2.0189       Y5.7053    
   X2.0075       Y5.7068    
   X1.9969       Y5.7112    
   X1.9878       Y5.7181    
   X1.9809       Y5.7272    
   X1.9765       Y5.7378    
   X1.9750       Y5.7492    
   X1.9765       Y5.7605    
   X1.9809       Y5.7711    
   X1.9878       Y5.7802    
   X1.9969       Y5.7871    
   X2.0075       Y5.7915    
   X2.0189       Y5.7930    
   X2.0302       Y5.7915    
   X2.0408       Y5.7871    
(Pass: 8)
   Z0.0000    
   X2.0499       Y5.7802    
   X2.0569       Y5.7711    
   X2.0612       Y5.7605    
   X2.0627       Y5.7492    
   X2.0612       Y5.7378    
   X2.0569       Y5.7272    
   X2.0499       Y5.7181    
   X2.0408       Y5.7112    
   X2.0302       Y5.7068    
   X2.0189       Y5.7053    
   X2.0075       Y5.7068    
   X1.9969       Y5.7112    
   X1.9878       Y5.7181    
   X1.9809       Y5.7272    
   X1.9765       Y5.7378    
   X1.9750       Y5.7492    
   X1.9765       Y5.7605    
   X1.9809       Y5.7711    
   X1.9878       Y5.7802    
   X1.9969       Y5.7871    
   X2.0075       Y5.7915    
   X2.0189       Y5.7930    
   X2.0302       Y5.7915    
   X2.0408       Y5.7871    
G0   Z0.3750    
(Pass: 1)
   X5.5341       Y0.9045    
G1   Z0.2188     F60  
   X5.5502       Y0.9169    
   X5.5688       Y0.9246    
   X5.5889       Y0.9272    
   X5.6089       Y0.9246    
   X5.6276       Y0.9169    
   X5.6437       Y0.9045    
   X5.6560       Y0.8885    
   X5.6637       Y0.8698    
   X5.6663       Y0.8498    
   X5.6637       Y0.8297    
   X5.6560       Y0.8111    
   X5.6437       Y0.7950    
   X5.6276       Y0.7827    
   X5.6089       Y0.7750    
   X5.5889       Y0.7723    
   X5.5688       Y0.7750    
   X5.5502       Y0.7827    
   X5.5341       Y0.7950    
   X5.5218       Y0.8111    
   X5.5141       Y0.8297    
   X5.5114       Y0.8498    
   X5.5141       Y0.8698    
   X5.5218       Y0.8885    
   X5.5341       Y0.9045    
(Pass: 2)
   Z0.1875    
   X5.5502       Y0.9169    
   X5.5688       Y0.9246    
   X5.5889       Y0.9272    
   X5.6089       Y0.9246    
   X5.6276       Y0.9169    
   X5.6437       Y0.9045    
   X5.6560       Y0.8885    
   X5.6637       Y0.8698    
   X5.6663       Y0.8498    
   X5.6637       Y0.8297    
   X5.6560       Y0.8111    
   X5.6437       Y0.7950    
   X5.6276       Y0.7827    
   X5.6089       Y0.7750    
   X5.5889       Y0.7723    
   X5.5688       Y0.7750    
   X5.5502       Y0.7827    
   X5.5341       Y0.7950    
   X5.5218       Y0.8111    
   X5.5141       Y0.8297    
   X5.5114       Y0.8498    
   X5.5141       Y0.8698    
   X5.5218       Y0.8885    
   X5.5341       Y0.9045    
(Pass: 3)
   Z0.1562    
   X5.5502       Y0.9169    
   X5.5688       Y0.9246    
   X5.5889       Y0.9272    
   X5.6089       Y0.9246    
   X5.6276       Y0.9169    
   X5.6437       Y0.9045    
   X5.6560       Y0.8885    
   X5.6637       Y0.8698    
   X5.6663       Y0.8498    
   X5.6637       Y0.8297    
   X5.6560       Y0.8111    
   X5.6437       Y0.7950    
   X5.6276       Y0.7827    
   X5.6089       Y0.7750    
   X5.5889       Y0.7723    
   X5.5688       Y0.7750    
   X5.5502       Y0.7827    
   X5.5341       Y0.7950    
   X5.5218       Y0.8111    
   X5.5141       Y0.8297    
   X5.5114       Y0.8498    
   X5.5141       Y0.8698    
   X5.5218       Y0.8885    
   X5.5341       Y0.9045    
(Pass: 4)
   Z0.1250    
   X5.5502       Y0.9169    
   X5.5688       Y0.9246    
   X5.5889       Y0.9272    
   X5.6089       Y0.9246    
   X5.6276       Y0.9169    
   X5.6437       Y0.9045    
   X5.6560       Y0.8885    
   X5.6637       Y0.8698    
   X5.6663       Y0.8498    
   X5.6637       Y0.8297    
   X5.6560       Y0.8111    
   X5.6437       Y0.7950    
   X5.6276       Y0.7827    
   X5.6089       Y0.7750    
   X5.5889       Y0.7723    
   X5.5688       Y0.7750    
   X5.5502       Y0.7827    
   X5.5341       Y0.7950    
   X5.5218       Y0.8111    
   X5.5141       Y0.8297    
   X5.5114       Y0.8498    
   X5.5141       Y0.8698    
   X5.5218       Y0.8885    
   X5.5341       Y0.9045    
(Pass: 5)
   Z0.0938    
   X5.5502       Y0.9169    
   X5.5688       Y0.9246    
   X5.5889       Y0.9272    
   X5.6089       Y0.9246    
   X5.6276       Y0.9169    
   X5.6437       Y0.9045    
   X5.6560       Y0.8885    
   X5.6637       Y0.8698    
   X5.6663       Y0.8498    
   X5.6637       Y0.8297    
   X5.6560       Y0.8111    
   X5.6437       Y0.7950    
   X5.6276       Y0.7827    
   X5.6089       Y0.7750    
   X5.5889       Y0.7723    
   X5.5688       Y0.7750    
   X5.5502       Y0.7827    
   X5.5341       Y0.7950    
   X5.5218       Y0.8111    
   X5.5141       Y0.8297    
   X5.5114       Y0.8498    
   X5.5141       Y0.8698    
   X5.5218       Y0.8885    
   X5.5341       Y0.9045    
(Pass: 6)
   Z0.0625    
   X5.5502       Y0.9169    
   X5.5688       Y0.9246    
   X5.5889       Y0.9272    
   X5.6089       Y0.9246    
   X5.6276       Y0.9169    
   X5.6437       Y0.9045    
   X5.6560       Y0.8885    
   X5.6637       Y0.8698    
   X5.6663       Y0.8498    
   X5.6637       Y0.8297    
   X5.6560       Y0.8111    
   X5.6437       Y0.7950    
   X5.6276       Y0.7827    
   X5.6089       Y0.7750    
   X5.5889       Y0.7723    
   X5.5688       Y0.7750    
   X5.5502       Y0.7827    
   X5.5341       Y0.7950    
   X5.5218       Y0.8111    
   X5.5141       Y0.8297    
   X5.5114       Y0.8498    
   X5.5141       Y0.8698    
   X5.5218       Y0.8885    
   X5.5341       Y0.9045    
(Pass: 7)
   Z0.0312    
   X5.5502       Y0.9169    
   X5.5688       Y0.9246    
   X5.5889       Y0.9272    
   X5.6089       Y0.9246    
   X5.6276       Y0.9169    
   X5.6437       Y0.9045    
   X5.6560       Y0.8885    
   X5.6637       Y0.8698    
   X5.6663       Y0.8498    
   X5.6637       Y0.8297    
   X5.6560       Y0.8111    
   X5.6437       Y0.7950    
   X5.6276       Y0.7827    
   X5.6089       Y0.7750    
   X5.5889       Y0.7723    
   X5.5688       Y0.7750    
   X5.5502       Y0.7827    
   X5.5341       Y0.7950    
   X5.5218       Y0.8111    
   X5.5141       Y0.8297    
   X5.5114       Y0.8498    
   X5.5141       Y0.8698    
   X5.5218       Y0.8885    
   X5.5341       Y0.9045    
(Pass: 8)
   Z0.0000    
   X5.5502       Y0.9169    
   X5.5688       Y0.9246    
   X5.5889       Y0.9272    
   X5.6089       Y0.9246    
   X5.6276       Y0.9169    
   X5.6437       Y0.9045    
   X5.6560       Y0.8885    
   X5.6637       Y0.8698    
   X5.6663       Y0.8498    
   X5.6637       Y0.8297    
   X5.6560       Y0.8111    
   X5.6437       Y0.7950    
   X5.6276       Y0.7827    
   X5.6089       Y0.7750    
   X5.5889       Y0.7723    
   X5.5688       Y0.7750    
   X5.5502       Y0.7827    
   X5.5341       Y0.7950    
   X5.5218       Y0.8111    
   X5.5141       Y0.8297    
   X5.5114       Y0.8498    
   X5.5141       Y0.8698    
   X5.5218       Y0.8885    
   X5.5341       Y0.9045    
G0   Z0.3750    
(Pass: 1)
   X6.1683       Y1.1256    
G1   Z0.2188     F60  
   X6.1660       Y1.1533    
   X6.1623       Y1.1800    
   X6.1571       Y1.2064    
   X6.1505       Y1.2325    
   X6.1424       Y1.2582    
   X6.1330       Y1.2834    
   X6.1221       Y1.3081    
   X6.1096       Y1.3329    
   X6.0822       Y1.3773    
   X6.0672       Y1.3976    
   X5.6965       Y1.9296    
   Y2.8962    
   X6.0517       Y3.4063    
   X6.0857       Y3.4608    
   X6.1015       Y3.4909    
   X6.1154       Y3.5212    
   X6.1277       Y3.5521    
   X6.1385       Y3.5836    
   X6.1477       Y3.6156    
   X6.1552       Y3.6480    
   X6.1611       Y3.6807    
   X6.1653       Y3.7138    
   X6.1682       Y3.7523    
   X6.1434       Y3.9225    
   X6.1074       Y4.1698    
   X6.0826       Y4.3400    
   X6.0739       Y4.3792    
   X6.0664       Y4.4010    
   X6.0578       Y4.4210    
   X6.0478       Y4.4404    
   X6.0363       Y4.4590    
   X6.0235       Y4.4767    
   X6.0094       Y4.4933    
   X5.9941       Y4.5089    
   X5.9777       Y4.5233    
   X5.9594       Y4.5372    
   X5.2124       Y4.9811    
   X5.1782       Y5.2054    
   X5.1406       Y5.4526    
   X4.9786       Y6.5177    
   X4.9528       Y6.5783    
   X4.9233       Y6.6318    
   X4.8885       Y6.6821    
   X4.8488       Y6.7286    
   X4.8046       Y6.7708    
   X4.7563       Y6.8084    
   X4.7045       Y6.8408    
   X4.6496       Y6.8678    
   X4.5923       Y6.8891    
   X4.5331       Y6.9045    
   X4.4727       Y6.9138    
   X4.4190       Y6.9165    
   X4.3382       Y7.1802    
   X4.3132       Y7.2176    
   X4.2869       Y7.2476    
   X4.2569       Y7.2740    
   X4.2237       Y7.2961    
   X4.1879       Y7.3138    
   X4.1501       Y7.3266    
   X4.1110       Y7.3344    
   X4.0732       Y7.3369    
   X3.6050    
   X3.4741    
   X3.2241    
   X3.0932    
   X2.6249    
   X2.5872       Y7.3344    
   X2.5480       Y7.3266    
   X2.5102       Y7.3138    
   X2.4744       Y7.2961    
   X2.4412       Y7.2740    
   X2.4112       Y7.2476    
   X2.3849       Y7.2176    
   X2.3599       Y7.1802    
   X2.2791       Y6.9165    
   X2.2255       Y6.9138    
   X2.1650       Y6.9045    
   X2.1058       Y6.8891    
   X2.0485       Y6.8678    
   X1.9937       Y6.8408    
   X1.9418       Y6.8084    
   X1.8935       Y6.7708    
   X1.8493       Y6.7286    
   X1.8096       Y6.6821    
   X1.7748       Y6.6318    
   X1.7453       Y6.5783    
   X1.7244       Y6.5291    
   X1.7194       Y6.5209    
   X1.5539       Y5.4343    
   X1.5163       Y5.1872    
   X1.4849       Y4.9811    
   X0.7379       Y4.5372    
   X0.7196       Y4.5233    
   X0.7032       Y4.5089    
   X0.6879       Y4.4933    
   X0.6738       Y4.4767    
   X0.6610       Y4.4590    
   X0.6495       Y4.4404    
   X0.6395       Y4.4210    
   X0.6309       Y4.4010    
   X0.6234       Y4.3792    
   X0.6147       Y4.3400    
   X0.5905       Y4.1739    
   X0.5544       Y3.9265    
   X0.5302       Y3.7603    
   Y3.7477    
   X0.5328       Y3.7138    
   X0.5370       Y3.6807    
   X0.5429       Y3.6480    
   X0.5504       Y3.6156    
   X0.5596       Y3.5836    
   X0.5704       Y3.5521    
   X0.5827       Y3.5212    
   X0.5967       Y3.4909    
   X0.6124       Y3.4608    
   X0.6464       Y3.4063    
   X1.0019       Y2.8961    
   Y1.9296    
   X0.6315       Y1.3976    
   X0.6165       Y1.3773    
   X0.5892       Y1.3329    
   X0.5766       Y1.3081    
   X0.5658       Y1.2834    
   X0.5563       Y1.2582    
   X0.5483       Y1.2325    
   X0.5416       Y1.2064    
   X0.5365       Y1.1800    
   X0.5328       Y1.1533    
   X0.5305       Y1.1256    
   Y0.4213    
   X0.5314       Y0.3978    
   X0.5364       Y0.3728    
   X0.5446       Y0.3487    
   X0.5559       Y0.3258    
   X0.5700       Y0.3046    
   X0.5869       Y0.2854    
   X0.6060       Y0.2686    
   X0.6273       Y0.2544    
   X0.6501       Y0.2431    
   X0.6743       Y0.2349    
   X0.6993       Y0.2299    
   X0.7227       Y0.2284    
   X1.8665    
   X2.1165    
   X4.6377    
   X4.8877    
   X5.9754    
   X5.9988       Y0.2299    
   X6.0238       Y0.2349    
   X6.0480       Y0.2431    
   X6.0709       Y0.2544    
   X6.0921       Y0.2686    
   X6.1113       Y0.2854    
   X6.1281       Y0.3046    
   X6.1423       Y0.3258    
   X6.1535       Y0.3487    
   X6.1617       Y0.3728    
   X6.1667       Y0.3978    
   X6.1683       Y0.4213    
   Y1.1256    
(Pass: 2)
   Z0.1875    
   X6.1660       Y1.1533    
   X6.1623       Y1.1800    
   X6.1571       Y1.2064    
   X6.1505       Y1.2325    
   X6.1424       Y1.2582    
   X6.1330       Y1.2834    
   X6.1221       Y1.3081    
   X6.1096       Y1.3329    
   X6.0822       Y1.3773    
   X6.0672       Y1.3976    
   X5.6965       Y1.9296    
   Y2.8962    
   X6.0517       Y3.4063    
   X6.0857       Y3.4608    
   X6.1015       Y3.4909    
   X6.1154       Y3.5212    
   X6.1277       Y3.5521    
   X6.1385       Y3.5836    
   X6.1477       Y3.6156    
   X6.1552       Y3.6480    
   X6.1611       Y3.6807    
   X6.1653       Y3.7138    
   X6.1682       Y3.7523    
   X6.1434       Y3.9225    
   X6.1074       Y4.1698    
   X6.0826       Y4.3400    
   X6.0739       Y4.3792    
   X6.0664       Y4.4010    
   X6.0578       Y4.4210    
   X6.0478       Y4.4404    
   X6.0363       Y4.4590    
   X6.0235       Y4.4767    
   X6.0094       Y4.4933    
   X5.9941       Y4.5089    
   X5.9777       Y4.5233    
   X5.9594       Y4.5372    
   X5.2124       Y4.9811    
   X5.1782       Y5.2054    
   X5.1406       Y5.4526    
   X4.9786       Y6.5177    
   X4.9528       Y6.5783    
   X4.9233       Y6.6318    
   X4.8885       Y6.6821    
   X4.8488       Y6.7286    
   X4.8046       Y6.7708    
   X4.7563       Y6.8084    
   X4.7045       Y6.8408    
   X4.6496       Y6.8678    
   X4.5923       Y6.8891    
   X4.5331       Y6.9045    
   X4.4727       Y6.9138    
   X4.4190       Y6.9165    
   X4.3382       Y7.1802    
   X4.3132       Y7.2176    
   X4.2869       Y7.2476    
   X4.2569       Y7.2740    
   X4.2237       Y7.2961    
   X4.1879       Y7.3138    
   X4.1501       Y7.3266    
   X4.1110       Y7.3344    
   X4.0732       Y7.3369    
   X3.6050    
   X3.4741    
   X3.2241    
   X3.0932    
   X2.6249    
   X2.5872       Y7.3344    
   X2.5480       Y7.3266    
   X2.5102       Y7.3138    
   X2.4744       Y7.2961    
   X2.4412       Y7.2740    
   X2.4112       Y7.2476    
   X2.3849       Y7.2176    
   X2.3599       Y7.1802    
   X2.2791       Y6.9165    
   X2.2255       Y6.9138    
   X2.1650       Y6.9045    
   X2.1058       Y6.8891    
   X2.0485       Y6.8678    
   X1.9937       Y6.8408    
   X1.9418       Y6.8084    
   X1.8935       Y6.7708    
   X1.8493       Y6.7286    
   X1.8096       Y6.6821    
   X1.7748       Y6.6318    
   X1.7453       Y6.5783    
   X1.7244       Y6.5291    
   X1.7194       Y6.5209    
   X1.5539       Y5.4343    
   X1.5163       Y5.1872    
   X1.4849       Y4.9811    
   X0.7379       Y4.5372    
   X0.7196       Y4.5233    
   X0.7032       Y4.5089    
   X0.6879       Y4.4933    
   X0.6738       Y4.4767    
   X0.6610       Y4.4590    
   X0.6495       Y4.4404    
   X0.6395       Y4.4210    
   X0.6309       Y4.4010    
   X0.6234       Y4.3792    
   X0.6147       Y4.3400    
   X0.5905       Y4.1739    
   X0.5544       Y3.9265    
   X0.5302       Y3.7603    
   Y3.7477    
   X0.5328       Y3.7138    
   X0.5370       Y3.6807    
   X0.5429       Y3.6480    
   X0.5504       Y3.6156    
   X0.5596       Y3.5836    
   X0.5704       Y3.5521    
   X0.5827       Y3.5212    
   X0.5967       Y3.4909    
   X0.6124       Y3.4608    
   X0.6464       Y3.4063    
   X1.0019       Y2.8961    
   Y1.9296    
   X0.6315       Y1.3976    
   X0.6165       Y1.3773    
   X0.5892       Y1.3329    
   X0.5766       Y1.3081    
   X0.5658       Y1.2834    
   X0.5563       Y1.2582    
   X0.5483       Y1.2325    
   X0.5416       Y1.2064    
   X0.5365       Y1.1800    
   X0.5328       Y1.1533    
   X0.5305       Y1.1256    
   Y0.4213    
   X0.5314       Y0.3978    
   X0.5364       Y0.3728    
   X0.5446       Y0.3487    
   X0.5559       Y0.3258    
   X0.5700       Y0.3046    
   X0.5869       Y0.2854    
   X0.6060       Y0.2686    
   X0.6273       Y0.2544    
   X0.6501       Y0.2431    
   X0.6743       Y0.2349    
   X0.6993       Y0.2299    
   X0.7227       Y0.2284    
   X1.8665    
   X2.1165    
   X4.6377    
   X4.8877    
   X5.9754    
   X5.9988       Y0.2299    
   X6.0238       Y0.2349    
   X6.0480       Y0.2431    
   X6.0709       Y0.2544    
   X6.0921       Y0.2686    
   X6.1113       Y0.2854    
   X6.1281       Y0.3046    
   X6.1423       Y0.3258    
   X6.1535       Y0.3487    
   X6.1617       Y0.3728    
   X6.1667       Y0.3978    
   X6.1683       Y0.4213    
   Y1.1256    
(Pass: 3)
   Z0.1562    
   X6.1660       Y1.1533    
   X6.1623       Y1.1800    
   X6.1571       Y1.2064    
   X6.1505       Y1.2325    
   X6.1424       Y1.2582    
   X6.1330       Y1.2834    
   X6.1221       Y1.3081    
   X6.1096       Y1.3329    
   X6.0822       Y1.3773    
   X6.0672       Y1.3976    
   X5.6965       Y1.9296    
   Y2.8962    
   X6.0517       Y3.4063    
   X6.0857       Y3.4608    
   X6.1015       Y3.4909    
   X6.1154       Y3.5212    
   X6.1277       Y3.5521    
   X6.1385       Y3.5836    
   X6.1477       Y3.6156    
   X6.1552       Y3.6480    
   X6.1611       Y3.6807    
   X6.1653       Y3.7138    
   X6.1682       Y3.7523    
   X6.1434       Y3.9225    
   X6.1074       Y4.1698    
   X6.0826       Y4.3400    
   X6.0739       Y4.3792    
   X6.0664       Y4.4010    
   X6.0578       Y4.4210    
   X6.0478       Y4.4404    
   X6.0363       Y4.4590    
   X6.0235       Y4.4767    
   X6.0094       Y4.4933    
   X5.9941       Y4.5089    
   X5.9777       Y4.5233    
   X5.9594       Y4.5372    
   X5.2124       Y4.9811    
   X5.1782       Y5.2054    
   X5.1406       Y5.4526    
   X4.9786       Y6.5177    
   X4.9528       Y6.5783    
   X4.9233       Y6.6318    
   X4.8885       Y6.6821    
   X4.8488       Y6.7286    
   X4.8046       Y6.7708    
   X4.7563       Y6.8084    
   X4.7045       Y6.8408    
   X4.6496       Y6.8678    
   X4.5923       Y6.8891    
   X4.5331       Y6.9045    
   X4.4727       Y6.9138    
   X4.4190       Y6.9165    
   X4.3382       Y7.1802    
   X4.3132       Y7.2176    
   X4.2869       Y7.2476    
   X4.2569       Y7.2740    
   X4.2237       Y7.2961    
   X4.1879       Y7.3138    
   X4.1501       Y7.3266    
   X4.1110       Y7.3344    
   X4.0732       Y7.3369    
   X3.6050    
   X3.4741    
   X3.2241    
   X3.0932    
   X2.6249    
   X2.5872       Y7.3344    
   X2.5480       Y7.3266    
