( Made using CamBam - http://www.cambam.co.uk )
( Untitled 10/16/2015 7:24:08 PM )
( T0 : 38.1 )
G21 G90 G64 G40
G0 Z3.0
( T0 : 38.1 )
T0 M6
( Pocket1 )
G17
M3 S1000
G0 X163.83 Y163.83
G0 Z1.0
G1 F300.0 Z0.0
G1 F800.0 Y166.17 Z-0.0026
G1 X344.17 Z-0.2
G1 Y163.83 Z-0.2026
G1 X163.83 Z-0.4
G1 F300.0 X156.21
G1 F800.0 Y173.79
G1 X351.79
G1 Y156.21
G1 X156.21
G1 Y163.83
G1 F300.0 X140.97
G1 F800.0 Y189.03
G1 X367.03
G1 Y140.97
G1 X140.97
G1 Y163.83
G1 F300.0 X125.73
G1 F800.0 Y204.27
G1 X382.27
G1 Y125.73
G1 X125.73
G1 Y163.83
G1 F300.0 X110.49
G1 F800.0 Y219.51
G1 X397.51
G1 Y110.49
G1 X110.49
G1 Y163.83
G1 F300.0 X95.25
G1 F800.0 Y234.75
G1 X412.75
G1 Y95.25
G1 X95.25
G1 Y163.83
G1 F300.0 X80.01
G1 F800.0 Y249.99
G1 X427.99
G1 Y80.01
G1 X80.01
G1 Y163.83
G1 F300.0 X64.77
G1 F800.0 Y265.23
G1 X443.23
G1 Y64.77
G1 X64.77
G1 Y163.83
G1 F300.0 X49.53
G1 F800.0 Y280.47
G1 X458.47
G1 Y49.53
G1 X49.53
G1 Y163.83
G1 F300.0 X34.29
G1 F800.0 Y295.71
G1 X473.71
G1 Y34.29
G1 X34.29
G1 Y163.83
G1 F300.0 X19.05
G1 F800.0 Y310.95
G1 X488.95
G1 Y19.05
G1 X19.05
G1 Y163.83
G0 Z3.0
G0 X163.83
G0 Z0.6
G1 F300.0 Z-0.4
G1 F800.0 Y166.17 Z-0.4026
G1 X344.17 Z-0.6
G1 Y163.83 Z-0.6026
G1 X163.83 Z-0.8
G1 F300.0 X156.21
G1 F800.0 Y173.79
G1 X351.79
G1 Y156.21
G1 X156.21
G1 Y163.83
G1 F300.0 X140.97
G1 F800.0 Y189.03
G1 X367.03
G1 Y140.97
G1 X140.97
G1 Y163.83
G1 F300.0 X125.73
G1 F800.0 Y204.27
G1 X382.27
G1 Y125.73
G1 X125.73
G1 Y163.83
G1 F300.0 X110.49
G1 F800.0 Y219.51
G1 X397.51
G1 Y110.49
G1 X110.49
G1 Y163.83
G1 F300.0 X95.25
G1 F800.0 Y234.75
G1 X412.75
G1 Y95.25
G1 X95.25
G1 Y163.83
G1 F300.0 X80.01
G1 F800.0 Y249.99
G1 X427.99
G1 Y80.01
G1 X80.01
G1 Y163.83
G1 F300.0 X64.77
G1 F800.0 Y265.23
G1 X443.23
G1 Y64.77
G1 X64.77
G1 Y163.83
G1 F300.0 X49.53
G1 F800.0 Y280.47
G1 X458.47
G1 Y49.53
G1 X49.53
G1 Y163.83
G1 F300.0 X34.29
G1 F800.0 Y295.71
G1 X473.71
G1 Y34.29
G1 X34.29
G1 Y163.83
G1 F300.0 X19.05
G1 F800.0 Y310.95
G1 X488.95
G1 Y19.05
G1 X19.05
G1 Y163.83
G0 Z3.0
G0 X163.83
G0 Z0.2
G1 F300.0 Z-0.8
G1 F800.0 Y166.17 Z-0.8026
G1 X344.17 Z-1.0
G1 Y163.83 Z-1.0026
G1 X163.83 Z-1.2
G1 F300.0 X156.21
G1 F800.0 Y173.79
G1 X351.79
G1 Y156.21
G1 X156.21
G1 Y163.83
G1 F300.0 X140.97
G1 F800.0 Y189.03
G1 X367.03
G1 Y140.97
G1 X140.97
G1 Y163.83
G1 F300.0 X125.73
G1 F800.0 Y204.27
G1 X382.27
G1 Y125.73
G1 X125.73
G1 Y163.83
G1 F300.0 X110.49
G1 F800.0 Y219.51
G1 X397.51
G1 Y110.49
G1 X110.49
G1 Y163.83
G1 F300.0 X95.25
G1 F800.0 Y234.75
G1 X412.75
G1 Y95.25
G1 X95.25
G1 Y163.83
G1 F300.0 X80.01
G1 F800.0 Y249.99
G1 X427.99
G1 Y80.01
G1 X80.01
G1 Y163.83
G1 F300.0 X64.77
G1 F800.0 Y265.23
G1 X443.23
G1 Y64.77
G1 X64.77
G1 Y163.83
G1 F300.0 X49.53
G1 F800.0 Y280.47
G1 X458.47
G1 Y49.53
G1 X49.53
G1 Y163.83
G1 F300.0 X34.29
G1 F800.0 Y295.71
G1 X473.71
G1 Y34.29
G1 X34.29
G1 Y163.83
G1 F300.0 X19.05
G1 F800.0 Y310.95
G1 X488.95
G1 Y19.05
G1 X19.05
G1 Y163.83
G0 Z3.0
G0 X163.83
G0 Z-0.2
G1 F300.0 Z-1.2
G1 F800.0 Y166.17 Z-1.2025
G1 X344.17 Z-1.3938
G1 Y163.83 Z-1.3962
G1 X163.83 Z-1.5875
G1 Y166.17
G1 X344.17
G1 Y163.83
G1 X163.83
G1 F300.0 X156.21
G1 F800.0 Y173.79
G1 X351.79
G1 Y156.21
G1 X156.21
G1 Y163.83
G1 F300.0 X140.97
G1 F800.0 Y189.03
G1 X367.03
G1 Y140.97
G1 X140.97
G1 Y163.83
G1 F300.0 X125.73
G1 F800.0 Y204.27
G1 X382.27
G1 Y125.73
G1 X125.73
G1 Y163.83
G1 F300.0 X110.49
G1 F800.0 Y219.51
G1 X397.51
G1 Y110.49
G1 X110.49
G1 Y163.83
G1 F300.0 X95.25
G1 F800.0 Y234.75
G1 X412.75
G1 Y95.25
G1 X95.25
G1 Y163.83
G1 F300.0 X80.01
G1 F800.0 Y249.99
G1 X427.99
G1 Y80.01
G1 X80.01
G1 Y163.83
G1 F300.0 X64.77
G1 F800.0 Y265.23
G1 X443.23
G1 Y64.77
G1 X64.77
G1 Y163.83
G1 F300.0 X49.53
G1 F800.0 Y280.47
G1 X458.47
G1 Y49.53
G1 X49.53
G1 Y163.83
G1 F300.0 X34.29
G1 F800.0 Y295.71
G1 X473.71
G1 Y34.29
G1 X34.29
G1 Y163.83
G1 F300.0 X19.05
G1 F800.0 Y310.95
G1 X488.95
G1 Y19.05
G1 X19.05
G1 Y163.83
G0 Z3.0
M5
M30
