( Made using CamBam - http://www.cambam.co.uk )
( Ken-Stool.Cutting-Files 9/7/2015 2:04:00 PM )
( T3 : 3.0 )
G21 G90 G64 G40
G0 Z5.0
( T3 : 3.0 )
T3 M6
( Pocket2 )
G17
M3 S1000
G0 X356.8799 Y269.7773
G0 Z1.0
G1 F300.0 Z-3.0
G1 F800.0 X354.5349 Y273.8388
G2 X356.8799 Y269.7773 I-22.0349 J-15.4296
G1 F300.0 X356.3602 Y269.4773
G1 F800.0 X351.0064 Y278.7504
G2 X359.3692 Y264.2657 I-18.5064 J-20.3412
G1 X356.3602 Y269.4773
G1 F300.0 X355.321 Y268.8773
G1 F800.0 X347.0986 Y283.119
G2 X361.1986 Y258.6971 I-14.5986 J-24.7098
G1 X355.321 Y268.8773
G0 Z5.0
G0 X355.9896 Y245.3002
G0 Z1.0
G1 F300.0 Z-3.0
G2 F800.0 X355.5976 Y244.6212 I-23.4896 J13.1091
G1 Y245.0738
G1 X355.9896 Y245.3002
G1 F300.0 X356.5136 Y245.0078
G2 F800.0 X354.9976 Y242.5944 I-24.0136 J13.4015
G1 Y245.4202
G1 X357.4448 Y246.8331
G2 X356.5136 Y245.0078 I-24.9448 J11.5761
G1 F300.0 X357.5614 Y244.423
G2 F800.0 X353.7721 Y239.143 I-25.0614 J13.9863
G3 X353.7976 Y239.7092 I-6.2721 J0.5662
G1 Y246.1131
G1 X359.3435 Y249.315
G3 X359.8211 Y249.6202 I-3.1488 J5.4539
G2 X357.5614 Y244.423 I-27.3211 J8.7891
G0 Z5.0
G0 X334.8449 Y231.6116
G0 Z1.0
G1 F300.0 Z-3.0
G2 F800.0 X330.1551 I-2.3449 J26.7976
G1 X334.8449
G1 F300.0 X334.8972 Y231.0139
G2 F800.0 X324.1372 Y232.2116 I-2.3972 J27.3953
G1 X340.8628
G2 X334.8972 Y231.0139 I-8.3628 J26.1976
G1 F300.0 X335.0018 Y229.8185
G2 F800.0 X318.4 Y233.4116 I-2.5018 J28.5907
G1 X346.6
G2 X335.0018 Y229.8185 I-14.1 J24.9976
G0 Z5.0
G0 X309.4024 Y244.6212
G0 Z1.0
G1 F300.0 Z-3.0
G2 F800.0 X309.0104 Y245.3002 I23.0976 J13.7881
G1 X309.4024 Y245.0738
G1 Y244.6212
G1 F300.0 X310.0024
G1 F800.0 Y242.5944
G2 X307.5552 Y246.8331 I22.4976 J15.8148
G1 X310.0024 Y245.4202
G1 Y244.6212
G1 F300.0 X311.2024
G1 F800.0 Y239.7092
G3 X311.2279 Y239.143 I6.2976 J0.0
G2 X305.1789 Y249.6202 I21.2721 J19.2662
G3 X305.6565 Y249.315 I3.6264 J5.1487
G1 X311.2024 Y246.1131
G1 Y244.6212
G0 Z5.0
G0 X308.1201 Y269.7773
G0 Z1.0
G1 F300.0 Z-3.0
G2 F800.0 X310.4651 Y273.8388 I24.3799 J-11.368
G1 X308.1201 Y269.7773
G1 F300.0 X308.6398 Y269.4773
G1 F800.0 X305.6308 Y264.2657
G2 X313.9936 Y278.7504 I26.8692 J-5.8564
G1 X308.6398 Y269.4773
G1 F300.0 X309.679 Y268.8773
G1 F800.0 X303.8014 Y258.6971
G2 X317.9014 Y283.119 I28.6986 J-0.2878
G1 X309.679 Y268.8773
G0 Z5.0
G0 X332.108 Y285.3064
G0 Z1.0
G1 F300.0 Z-3.0
G2 F800.0 X332.892 I0.392 J-26.8971
G1 X332.5 Y285.0801
G1 X332.108 Y285.3064
G1 F300.0 X332.0992 Y285.9063
G2 F800.0 X334.9472 Y285.8001 I0.4008 J-27.4971
G1 X332.5 Y284.3872
G1 X330.0528 Y285.8001
G2 X332.0992 Y285.9063 I2.4472 J-27.3909
G1 F300.0 X332.0817 Y287.1062
G2 F800.0 X338.549 Y286.4645 I0.4183 J-28.697
G3 X338.0459 Y286.2035 I2.6457 J-5.7149
G1 X332.5 Y283.0016
G1 X326.9541 Y286.2035
G3 X326.451 Y286.4645 I-3.1488 J-5.4539
G2 X332.0817 Y287.1062 I6.049 J-28.0553
G0 Z5.0
G0 X328.609 Y281.0912
G0 Z1.0
G1 F300.0 Z-3.0
G1 F800.0 X325.1541 Y283.0858
G3 X321.4691 Y282.0984 I-1.3488 J-2.3362
G1 X306.4691 Y256.1177
G3 X307.4565 Y252.4327 I2.3362 J-1.3488
G1 X314.4012 Y248.4232
G2 X314.8024 Y247.7283 I-0.4012 J-0.6949
G1 Y239.7092
G3 X317.5 Y237.0116 I2.6976 J0.0
G1 X347.5
G3 X350.1976 Y239.7092 I0.0 J2.6976
G1 Y247.7283
G2 X350.5988 Y248.4232 I0.8024 J0.0
G1 X357.5435 Y252.4327
G3 X358.5309 Y256.1177 I-1.3488 J2.3362
G1 X343.5309 Y282.0984
G3 X339.8459 Y283.0858 I-2.3362 J-1.3488
G1 X332.9012 Y279.0763
G2 X332.0988 I-0.4012 J0.6949
G1 X328.609 Y281.0912
G1 F300.0 X328.0102 Y280.054
G1 F800.0 X324.5553 Y282.0487
G3 X322.5063 Y281.4996 I-0.75 J-1.299
G1 X307.5063 Y255.5189
G3 X308.0553 Y253.4698 I1.299 J-0.75
G1 X315.0 Y249.4603
G2 X316.0 Y247.7283 I-1.0 J-1.7321
G1 Y239.7092
G3 X317.5 Y238.2092 I1.5 J0.0
G1 X347.5
G3 X349.0 Y239.7092 I0.0 J1.5
G1 Y247.7283
G2 X350.0 Y249.4603 I2.0 J0.0
G1 X356.9447 Y253.4698
G3 X357.4937 Y255.5189 I-0.75 J1.299
G1 X342.4937 Y281.4996
G3 X340.4447 Y282.0487 I-1.299 J-0.75
G1 X333.5 Y278.0391
G2 X331.5 I-1.0 J1.7321
G1 X328.0102 Y280.054
G0 Z5.0
G0 X329.209 Y282.1304
G0 Z1.0
G1 F300.0 Z-3.0
G1 F800.0 X332.5 Y280.2303
G1 X339.2459 Y284.125
G2 X344.5701 Y282.6984 I1.9488 J-3.3754
G1 X359.5701 Y256.7177
G2 X358.1435 Y251.3934 I-3.3754 J-1.9488
G1 X351.3976 Y247.4987
G1 Y239.7092
G2 X347.5 Y235.8116 I-3.8976 J0.0
G1 X317.5
G2 X313.6024 Y239.7092 I0.0 J3.8976
G1 Y247.4987
G1 X306.8565 Y251.3934
G2 X305.4299 Y256.7177 I1.9488 J3.3754
G1 X320.4299 Y282.6984
G2 X325.7541 Y284.125 I3.3754 J-1.9488
G1 X329.209 Y282.1304
G1 F300.0 X329.809 Y283.1696
G1 F800.0 X332.5 Y281.616
G1 X338.6459 Y285.1643
G2 X345.6093 Y283.2984 I2.5488 J-4.4147
G1 X360.6093 Y257.3177
G2 X358.7435 Y250.3542 I-4.4147 J-2.5488
G1 X352.5976 Y246.8059
G1 Y239.7092
G2 X347.5 Y234.6116 I-5.0976 J0.0
G1 X317.5
G2 X312.4024 Y239.7092 I0.0 J5.0976
G1 Y246.8059
G1 X306.2565 Y250.3542
G2 X304.3907 Y257.3177 I2.5488 J4.4147
G1 X319.3907 Y283.2984
G2 X326.3541 Y285.1643 I4.4147 J-2.5488
G1 X329.809 Y283.1696
G0 Z5.0
G0 X329.2694 Y288.1342
G0 Z1.0
G1 F300.0 Z-3.0
G2 F800.0 X362.4 Y258.4092 I3.2306 J-29.725
G2 X317.55 Y232.5151 I-29.9 J0.0
G2 Y284.3034 I14.95 J25.8942
G2 X329.2694 Y288.1342 I14.95 J-25.8942
G1 F300.0 X329.1397 Y289.3272
G2 F800.0 X363.6 Y258.4092 I3.3603 J-30.9179
G2 X316.95 Y231.4759 I-31.1 J0.0
G2 Y285.3426 I15.55 J26.9334
G2 X329.1397 Y289.3272 I15.55 J-26.9334
G1 F300.0 X329.0101 Y290.5202
G2 F800.0 X364.8 Y258.4092 I3.4899 J-32.1109
G2 X316.35 Y230.4366 I-32.3 J0.0
G2 Y286.3819 I16.15 J27.9726
G2 X329.0101 Y290.5202 I16.15 J-27.9726
G1 F300.0 X328.8804 Y291.7131
G2 F800.0 X366.0 Y258.4092 I3.6196 J-33.3039
G2 X315.75 Y229.3974 I-33.5 J0.0
G2 Y287.4211 I16.75 J29.0119
G2 X328.8804 Y291.7131 I16.75 J-29.0119
G0 Z5.0
G0 X332.108 Y285.3064
G0 Z-2.0
G1 F300.0 Z-6.0
G2 F800.0 X332.892 I0.392 J-26.8971
G1 X332.5 Y285.0801
G1 X332.108 Y285.3064
G1 F300.0 X332.0992 Y285.9063
G2 F800.0 X334.9472 Y285.8001 I0.4008 J-27.4971
G1 X332.5 Y284.3872
G1 X330.0528 Y285.8001
G2 X332.0992 Y285.9063 I2.4472 J-27.3909
G1 F300.0 X332.0817 Y287.1062
G2 F800.0 X338.549 Y286.4645 I0.4183 J-28.697
G3 X338.0459 Y286.2035 I2.6457 J-5.7149
G1 X332.5 Y283.0016
G1 X326.9541 Y286.2035
G3 X326.451 Y286.4645 I-3.1488 J-5.4539
G2 X332.0817 Y287.1062 I6.049 J-28.0553
G0 Z5.0
G0 X310.4651 Y273.8388
G0 Z-2.0
G1 F300.0 Z-6.0
G1 F800.0 X308.1201 Y269.7773
G2 X310.4651 Y273.8388 I24.3799 J-11.368
G1 F300.0 X309.9736 Y274.183
G2 F800.0 X313.9936 Y278.7504 I22.5264 J-15.7737
G1 X305.6308 Y264.2657
G2 X309.9736 Y274.183 I26.8692 J-5.8564
G1 F300.0 X308.9906 Y274.8713
G2 F800.0 X317.9014 Y283.119 I23.5094 J-16.462
G1 X303.8014 Y258.6971
G2 X308.9906 Y274.8713 I28.6986 J-0.2878
G0 Z5.0
G0 X309.0104 Y245.3002
G0 Z-2.0
G1 F300.0 Z-6.0
G1 F800.0 X309.4024 Y245.0738
G1 Y244.6212
G2 X309.0104 Y245.3002 I23.0976 J13.7881
G1 F300.0 X308.4864 Y245.0078
G2 F800.0 X307.5552 Y246.8331 I24.0136 J13.4015
G1 X310.0024 Y245.4202
G1 Y242.5944
G2 X308.4864 Y245.0078 I22.4976 J15.8148
G1 F300.0 X307.4386 Y244.423
G2 F800.0 X305.1789 Y249.6202 I25.0614 J13.9863
G3 X305.6565 Y249.315 I3.6264 J5.1487
G1 X311.2024 Y246.1131
G1 Y239.7092
G3 X311.2279 Y239.143 I6.2976 J0.0
G2 X307.4386 Y244.423 I21.2721 J19.2662
G0 Z5.0
G0 X330.1551 Y231.6116
G0 Z-2.0
G1 F300.0 Z-6.0
G1 F800.0 X334.8449
G2 X330.1551 I-2.3449 J26.7976
G1 F300.0 Y232.2116
G1 F800.0 X340.8628
G2 X324.1372 I-8.3628 J26.1976
G1 X330.1551
G1 F300.0 Y233.4116
G1 F800.0 X346.6
G2 X318.4 I-14.1 J24.9976
G1 X330.1551
G0 Z5.0
G0 X355.5976 Y244.6212
G0 Z-2.0
G1 F300.0 Z-6.0
G1 F800.0 Y245.0738
G1 X355.9896 Y245.3002
G2 X355.5976 Y244.6212 I-23.4896 J13.1091
G1 F300.0 X356.1128 Y244.3136
G2 F800.0 X354.9976 Y242.5944 I-23.6128 J14.0956
G1 Y245.4202
G1 X357.4448 Y246.8331
G2 X356.1128 Y244.3136 I-24.9448 J11.5761
G1 F300.0 X357.1432 Y243.6985
G2 F800.0 X353.7721 Y239.143 I-24.6432 J14.7107
G3 X353.7976 Y239.7092 I-6.2721 J0.5662
G1 Y246.1131
G1 X359.3435 Y249.315
G3 X359.8211 Y249.6202 I-3.1488 J5.4539
G2 X357.1432 Y243.6985 I-27.3211 J8.7891
G0 Z5.0
G0 X356.8799 Y269.7773
G0 Z-2.0
G1 F300.0 Z-6.0
G1 F800.0 X354.5349 Y273.8388
G2 X356.8799 Y269.7773 I-22.0349 J-15.4296
G1 F300.0 X356.3602 Y269.4773
G1 F800.0 X351.0064 Y278.7504
G2 X359.3692 Y264.2657 I-18.5064 J-20.3412
G1 X356.3602 Y269.4773
G1 F300.0 X355.321 Y268.8773
G1 F800.0 X347.0986 Y283.119
G2 X361.1986 Y258.6971 I-14.5986 J-24.7098
G1 X355.321 Y268.8773
G0 Z5.0
G0 X352.2033 Y267.0773
G0 Z-2.0
G1 F300.0 Z-6.0
G1 F800.0 X343.5309 Y282.0984
G3 X339.8459 Y283.0858 I-2.3362 J-1.3488
G1 X332.9012 Y279.0763
G2 X332.0988 I-0.4012 J0.6949
G1 X325.1541 Y283.0858
G3 X321.4691 Y282.0984 I-1.3488 J-2.3362
G1 X306.4691 Y256.1177
G3 X307.4565 Y252.4327 I2.3362 J-1.3488
G1 X314.4012 Y248.4232
G2 X314.8024 Y247.7283 I-0.4012 J-0.6949
G1 Y239.7092
G3 X317.5 Y237.0116 I2.6976 J0.0
G1 X347.5
G3 X350.1976 Y239.7092 I0.0 J2.6976
G1 Y247.7283
G2 X350.5988 Y248.4232 I0.8024 J0.0
G1 X357.5435 Y252.4327
G3 X358.5309 Y256.1177 I-1.3488 J2.3362
G1 X352.2033 Y267.0773
G1 F300.0 X351.1662 Y266.4785
G1 F800.0 X342.4937 Y281.4996
G3 X340.4447 Y282.0487 I-1.299 J-0.75
G1 X333.5 Y278.0391
G2 X331.5 I-1.0 J1.7321
G1 X324.5553 Y282.0487
G3 X322.5063 Y281.4996 I-0.75 J-1.299
G1 X307.5063 Y255.5189
G3 X308.0553 Y253.4698 I1.299 J-0.75
G1 X315.0 Y249.4603
G2 X316.0 Y247.7283 I-1.0 J-1.7321
G1 Y239.7092
G3 X317.5 Y238.2092 I1.5 J0.0
G1 X347.5
G3 X349.0 Y239.7092 I0.0 J1.5
G1 Y247.7283
G2 X350.0 Y249.4603 I2.0 J0.0
G1 X356.9447 Y253.4698
G3 X357.4937 Y255.5189 I-0.75 J1.299
G1 X351.1662 Y266.4785
G0 Z5.0
G0 X353.2426 Y267.6773
G0 Z-2.0
G1 F300.0 Z-6.0
G1 F800.0 X359.5701 Y256.7177
G2 X358.1435 Y251.3934 I-3.3754 J-1.9488
G1 X351.3976 Y247.4987
G1 Y239.7092
G2 X347.5 Y235.8116 I-3.8976 J0.0
G1 X317.5
G2 X313.6024 Y239.7092 I0.0 J3.8976
G1 Y247.4987
G1 X306.8565 Y251.3934
G2 X305.4299 Y256.7177 I1.9488 J3.3754
G1 X320.4299 Y282.6984
G2 X325.7541 Y284.125 I3.3754 J-1.9488
G1 X332.5 Y280.2303
G1 X339.2459 Y284.125
G2 X344.5701 Y282.6984 I1.9488 J-3.3754
G1 X353.2426 Y267.6773
G1 F300.0 X354.2818 Y268.2773
G1 F800.0 X360.6093 Y257.3177
G2 X358.7435 Y250.3542 I-4.4147 J-2.5488
G1 X352.5976 Y246.8059
G1 Y239.7092
G2 X347.5 Y234.6116 I-5.0976 J0.0
G1 X317.5
G2 X312.4024 Y239.7092 I0.0 J5.0976
G1 Y246.8059
G1 X306.2565 Y250.3542
G2 X304.3907 Y257.3177 I2.5488 J4.4147
G1 X319.3907 Y283.2984
G2 X326.3541 Y285.1643 I4.4147 J-2.5488
G1 X332.5 Y281.616
G1 X338.6459 Y285.1643
G2 X345.6093 Y283.2984 I2.5488 J-4.4147
G1 X354.2818 Y268.2773
G0 Z5.0
G0 X359.7354 Y270.748
G0 Z-2.0
G1 F300.0 Z-6.0
G2 F800.0 X362.4 Y258.4092 I-27.2354 J-12.3387
G2 X317.55 Y232.5151 I-29.9 J0.0
G2 Y284.3034 I14.95 J25.8942
G2 X359.7354 Y270.748 I14.95 J-25.8942
G1 F300.0 X360.8284 Y271.2432
G2 F800.0 X363.6 Y258.4092 I-28.3284 J-12.8339
G2 X316.95 Y231.4759 I-31.1 J0.0
G2 Y285.3426 I15.55 J26.9334
G2 X360.8284 Y271.2432 I15.55 J-26.9334
G1 F300.0 X361.9215 Y271.7384
G2 F800.0 X364.8 Y258.4092 I-29.4215 J-13.3291
G2 X316.35 Y230.4366 I-32.3 J0.0
G2 Y286.3819 I16.15 J27.9726
G2 X361.9215 Y271.7384 I16.15 J-27.9726
G1 F300.0 X363.0145 Y272.2336
G2 F800.0 X366.0 Y258.4092 I-30.5145 J-13.8243
G2 X315.75 Y229.3974 I-33.5 J0.0
G2 Y287.4211 I16.75 J29.0119
G2 X363.0145 Y272.2336 I16.75 J-29.0119
G0 Z5.0
G0 X356.8799 Y269.7773
G0 Z-5.0
G1 F300.0 Z-9.0
G1 F800.0 X354.5349 Y273.8388
G2 X356.8799 Y269.7773 I-22.0349 J-15.4296
G1 F300.0 X356.3602 Y269.4773
G1 F800.0 X351.0064 Y278.7504
G2 X359.3692 Y264.2657 I-18.5064 J-20.3412
G1 X356.3602 Y269.4773
G1 F300.0 X355.321 Y268.8773
G1 F800.0 X347.0986 Y283.119
G2 X361.1986 Y258.6971 I-14.5986 J-24.7098
G1 X355.321 Y268.8773
G0 Z5.0
G0 X355.9896 Y245.3002
G0 Z-5.0
G1 F300.0 Z-9.0
G2 F800.0 X355.5976 Y244.6212 I-23.4896 J13.1091
G1 Y245.0738
G1 X355.9896 Y245.3002
G1 F300.0 X356.5136 Y245.0078
G2 F800.0 X354.9976 Y242.5944 I-24.0136 J13.4015
G1 Y245.4202
G1 X357.4448 Y246.8331
G2 X356.5136 Y245.0078 I-24.9448 J11.5761
G1 F300.0 X357.5614 Y244.423
G2 F800.0 X353.7721 Y239.143 I-25.0614 J13.9863
G3 X353.7976 Y239.7092 I-6.2721 J0.5662
G1 Y246.1131
G1 X359.3435 Y249.315
G3 X359.8211 Y249.6202 I-3.1488 J5.4539
G2 X357.5614 Y244.423 I-27.3211 J8.7891
G0 Z5.0
G0 X334.8449 Y231.6116
G0 Z-5.0
G1 F300.0 Z-9.0
G2 F800.0 X330.1551 I-2.3449 J26.7976
G1 X334.8449
G1 F300.0 X334.8972 Y231.0139
G2 F800.0 X324.1372 Y232.2116 I-2.3972 J27.3953
G1 X340.8628
G2 X334.8972 Y231.0139 I-8.3628 J26.1976
G1 F300.0 X335.0018 Y229.8185
G2 F800.0 X318.4 Y233.4116 I-2.5018 J28.5907
G1 X346.6
G2 X335.0018 Y229.8185 I-14.1 J24.9976
G0 Z5.0
G0 X309.4024 Y244.6212
G0 Z-5.0
G1 F300.0 Z-9.0
G2 F800.0 X309.0104 Y245.3002 I23.0976 J13.7881
G1 X309.4024 Y245.0738
G1 Y244.6212
G1 F300.0 X310.0024
G1 F800.0 Y242.5944
G2 X307.5552 Y246.8331 I22.4976 J15.8148
G1 X310.0024 Y245.4202
G1 Y244.6212
G1 F300.0 X311.2024
G1 F800.0 Y239.7092
G3 X311.2279 Y239.143 I6.2976 J0.0
G2 X305.1789 Y249.6202 I21.2721 J19.2662
G3 X305.6565 Y249.315 I3.6264 J5.1487
G1 X311.2024 Y246.1131
G1 Y244.6212
G0 Z5.0
G0 X308.1201 Y269.7773
G0 Z-5.0
G1 F300.0 Z-9.0
G2 F800.0 X310.4651 Y273.8388 I24.3799 J-11.368
G1 X308.1201 Y269.7773
G1 F300.0 X308.6398 Y269.4773
G1 F800.0 X305.6308 Y264.2657
G2 X313.9936 Y278.7504 I26.8692 J-5.8564
G1 X308.6398 Y269.4773
G1 F300.0 X309.679 Y268.8773
G1 F800.0 X303.8014 Y258.6971
G2 X317.9014 Y283.119 I28.6986 J-0.2878
G1 X309.679 Y268.8773
G0 Z5.0
G0 X332.108 Y285.3064
G0 Z-5.0
G1 F300.0 Z-9.0
G2 F800.0 X332.892 I0.392 J-26.8971
G1 X332.5 Y285.0801
G1 X332.108 Y285.3064
G1 F300.0 X332.0992 Y285.9063
G2 F800.0 X334.9472 Y285.8001 I0.4008 J-27.4971
G1 X332.5 Y284.3872
G1 X330.0528 Y285.8001
G2 X332.0992 Y285.9063 I2.4472 J-27.3909
G1 F300.0 X332.0817 Y287.1062
G2 F800.0 X338.549 Y286.4645 I0.4183 J-28.697
G3 X338.0459 Y286.2035 I2.6457 J-5.7149
G1 X332.5 Y283.0016
G1 X326.9541 Y286.2035
G3 X326.451 Y286.4645 I-3.1488 J-5.4539
G2 X332.0817 Y287.1062 I6.049 J-28.0553
G0 Z5.0
G0 X328.609 Y281.0912
G0 Z-5.0
G1 F300.0 Z-9.0
G1 F800.0 X325.1541 Y283.0858
G3 X321.4691 Y282.0984 I-1.3488 J-2.3362
G1 X306.4691 Y256.1177
G3 X307.4565 Y252.4327 I2.3362 J-1.3488
G1 X314.4012 Y248.4232
G2 X314.8024 Y247.7283 I-0.4012 J-0.6949
G1 Y239.7092
G3 X317.5 Y237.0116 I2.6976 J0.0
G1 X347.5
G3 X350.1976 Y239.7092 I0.0 J2.6976
G1 Y247.7283
G2 X350.5988 Y248.4232 I0.8024 J0.0
G1 X357.5435 Y252.4327
G3 X358.5309 Y256.1177 I-1.3488 J2.3362
G1 X343.5309 Y282.0984
G3 X339.8459 Y283.0858 I-2.3362 J-1.3488
G1 X332.9012 Y279.0763
G2 X332.0988 I-0.4012 J0.6949
G1 X328.609 Y281.0912
G1 F300.0 X328.0102 Y280.054
G1 F800.0 X324.5553 Y282.0487
G3 X322.5063 Y281.4996 I-0.75 J-1.299
G1 X307.5063 Y255.5189
G3 X308.0553 Y253.4698 I1.299 J-0.75
G1 X315.0 Y249.4603
G2 X316.0 Y247.7283 I-1.0 J-1.7321
G1 Y239.7092
G3 X317.5 Y238.2092 I1.5 J0.0
G1 X347.5
G3 X349.0 Y239.7092 I0.0 J1.5
G1 Y247.7283
G2 X350.0 Y249.4603 I2.0 J0.0
G1 X356.9447 Y253.4698
G3 X357.4937 Y255.5189 I-0.75 J1.299
G1 X342.4937 Y281.4996
G3 X340.4447 Y282.0487 I-1.299 J-0.75
G1 X333.5 Y278.0391
G2 X331.5 I-1.0 J1.7321
G1 X328.0102 Y280.054
G0 Z5.0
G0 X329.209 Y282.1304
G0 Z-5.0
G1 F300.0 Z-9.0
G1 F800.0 X332.5 Y280.2303
G1 X339.2459 Y284.125
G2 X344.5701 Y282.6984 I1.9488 J-3.3754
G1 X359.5701 Y256.7177
G2 X358.1435 Y251.3934 I-3.3754 J-1.9488
G1 X351.3976 Y247.4987
G1 Y239.7092
G2 X347.5 Y235.8116 I-3.8976 J0.0
G1 X317.5
G2 X313.6024 Y239.7092 I0.0 J3.8976
G1 Y247.4987
G1 X306.8565 Y251.3934
G2 X305.4299 Y256.7177 I1.9488 J3.3754
G1 X320.4299 Y282.6984
G2 X325.7541 Y284.125 I3.3754 J-1.9488
G1 X329.209 Y282.1304
G1 F300.0 X329.809 Y283.1696
G1 F800.0 X332.5 Y281.616
G1 X338.6459 Y285.1643
G2 X345.6093 Y283.2984 I2.5488 J-4.4147
G1 X360.6093 Y257.3177
G2 X358.7435 Y250.3542 I-4.4147 J-2.5488
G1 X352.5976 Y246.8059
G1 Y239.7092
G2 X347.5 Y234.6116 I-5.0976 J0.0
G1 X317.5
G2 X312.4024 Y239.7092 I0.0 J5.0976
G1 Y246.8059
G1 X306.2565 Y250.3542
G2 X304.3907 Y257.3177 I2.5488 J4.4147
G1 X319.3907 Y283.2984
G2 X326.3541 Y285.1643 I4.4147 J-2.5488
G1 X329.809 Y283.1696
G0 Z5.0
G0 X329.2694 Y288.1342
G0 Z-5.0
G1 F300.0 Z-9.0
G2 F800.0 X362.4 Y258.4092 I3.2306 J-29.725
G2 X317.55 Y232.5151 I-29.9 J0.0
G2 Y284.3034 I14.95 J25.8942
G2 X329.2694 Y288.1342 I14.95 J-25.8942
G1 F300.0 X329.1397 Y289.3272
G2 F800.0 X363.6 Y258.4092 I3.3603 J-30.9179
G2 X316.95 Y231.4759 I-31.1 J0.0
G2 Y285.3426 I15.55 J26.9334
G2 X329.1397 Y289.3272 I15.55 J-26.9334
G1 F300.0 X329.0101 Y290.5202
G2 F800.0 X364.8 Y258.4092 I3.4899 J-32.1109
G2 X316.35 Y230.4366 I-32.3 J0.0
G2 Y286.3819 I16.15 J27.9726
G2 X329.0101 Y290.5202 I16.15 J-27.9726
G1 F300.0 X328.8804 Y291.7131
G2 F800.0 X366.0 Y258.4092 I3.6196 J-33.3039
G2 X315.75 Y229.3974 I-33.5 J0.0
G2 Y287.4211 I16.75 J29.0119
G2 X328.8804 Y291.7131 I16.75 J-29.0119
G0 Z5.0
G0 X332.108 Y285.3064
G0 Z-8.0
G1 F300.0 Z-12.0
G2 F800.0 X332.892 I0.392 J-26.8971
G1 X332.5 Y285.0801
G1 X332.108 Y285.3064
G1 F300.0 X332.0992 Y285.9063
G2 F800.0 X334.9472 Y285.8001 I0.4008 J-27.4971
G1 X332.5 Y284.3872
G1 X330.0528 Y285.8001
G2 X332.0992 Y285.9063 I2.4472 J-27.3909
G1 F300.0 X332.0817 Y287.1062
G2 F800.0 X338.549 Y286.4645 I0.4183 J-28.697
G3 X338.0459 Y286.2035 I2.6457 J-5.7149
G1 X332.5 Y283.0016
G1 X326.9541 Y286.2035
G3 X326.451 Y286.4645 I-3.1488 J-5.4539
G2 X332.0817 Y287.1062 I6.049 J-28.0553
G0 Z5.0
G0 X310.4651 Y273.8388
G0 Z-8.0
G1 F300.0 Z-12.0
G1 F800.0 X308.1201 Y269.7773
G2 X310.4651 Y273.8388 I24.3799 J-11.368
G1 F300.0 X309.9736 Y274.183
G2 F800.0 X313.9936 Y278.7504 I22.5264 J-15.7737
G1 X305.6308 Y264.2657
G2 X309.9736 Y274.183 I26.8692 J-5.8564
G1 F300.0 X308.9906 Y274.8713
G2 F800.0 X317.9014 Y283.119 I23.5094 J-16.462
G1 X303.8014 Y258.6971
G2 X308.9906 Y274.8713 I28.6986 J-0.2878
G0 Z5.0
G0 X309.0104 Y245.3002
G0 Z-8.0
G1 F300.0 Z-12.0
G1 F800.0 X309.4024 Y245.0738
G1 Y244.6212
G2 X309.0104 Y245.3002 I23.0976 J13.7881
G1 F300.0 X308.4864 Y245.0078
G2 F800.0 X307.5552 Y246.8331 I24.0136 J13.4015
G1 X310.0024 Y245.4202
G1 Y242.5944
G2 X308.4864 Y245.0078 I22.4976 J15.8148
G1 F300.0 X307.4386 Y244.423
G2 F800.0 X305.1789 Y249.6202 I25.0614 J13.9863
G3 X305.6565 Y249.315 I3.6264 J5.1487
G1 X311.2024 Y246.1131
G1 Y239.7092
G3 X311.2279 Y239.143 I6.2976 J0.0
G2 X307.4386 Y244.423 I21.2721 J19.2662
G0 Z5.0
G0 X330.1551 Y231.6116
G0 Z-8.0
G1 F300.0 Z-12.0
G1 F800.0 X334.8449
G2 X330.1551 I-2.3449 J26.7976
G1 F300.0 Y232.2116
G1 F800.0 X340.8628
G2 X324.1372 I-8.3628 J26.1976
G1 X330.1551
G1 F300.0 Y233.4116
G1 F800.0 X346.6
G2 X318.4 I-14.1 J24.9976
G1 X330.1551
G0 Z5.0
G0 X355.5976 Y244.6212
G0 Z-8.0
G1 F300.0 Z-12.0
G1 F800.0 Y245.0738
G1 X355.9896 Y245.3002
G2 X355.5976 Y244.6212 I-23.4896 J13.1091
G1 F300.0 X356.1128 Y244.3136
G2 F800.0 X354.9976 Y242.5944 I-23.6128 J14.0956
G1 Y245.4202
G1 X357.4448 Y246.8331
G2 X356.1128 Y244.3136 I-24.9448 J11.5761
G1 F300.0 X357.1432 Y243.6985
G2 F800.0 X353.7721 Y239.143 I-24.6432 J14.7107
G3 X353.7976 Y239.7092 I-6.2721 J0.5662
G1 Y246.1131
G1 X359.3435 Y249.315
G3 X359.8211 Y249.6202 I-3.1488 J5.4539
G2 X357.1432 Y243.6985 I-27.3211 J8.7891
G0 Z5.0
G0 X356.8799 Y269.7773
G0 Z-8.0
G1 F300.0 Z-12.0
G1 F800.0 X354.5349 Y273.8388
G2 X356.8799 Y269.7773 I-22.0349 J-15.4296
G1 F300.0 X356.3602 Y269.4773
G1 F800.0 X351.0064 Y278.7504
G2 X359.3692 Y264.2657 I-18.5064 J-20.3412
G1 X356.3602 Y269.4773
G1 F300.0 X355.321 Y268.8773
G1 F800.0 X347.0986 Y283.119
G2 X361.1986 Y258.6971 I-14.5986 J-24.7098
G1 X355.321 Y268.8773
G0 Z5.0
G0 X352.2033 Y267.0773
G0 Z-8.0
G1 F300.0 Z-12.0
G1 F800.0 X343.5309 Y282.0984
G3 X339.8459 Y283.0858 I-2.3362 J-1.3488
G1 X332.9012 Y279.0763
G2 X332.0988 I-0.4012 J0.6949
G1 X325.1541 Y283.0858
G3 X321.4691 Y282.0984 I-1.3488 J-2.3362
G1 X306.4691 Y256.1177
G3 X307.4565 Y252.4327 I2.3362 J-1.3488
G1 X314.4012 Y248.4232
G2 X314.8024 Y247.7283 I-0.4012 J-0.6949
G1 Y239.7092
G3 X317.5 Y237.0116 I2.6976 J0.0
G1 X347.5
G3 X350.1976 Y239.7092 I0.0 J2.6976
G1 Y247.7283
G2 X350.5988 Y248.4232 I0.8024 J0.0
G1 X357.5435 Y252.4327
G3 X358.5309 Y256.1177 I-1.3488 J2.3362
G1 X352.2033 Y267.0773
G1 F300.0 X351.1662 Y266.4785
G1 F800.0 X342.4937 Y281.4996
G3 X340.4447 Y282.0487 I-1.299 J-0.75
G1 X333.5 Y278.0391
G2 X331.5 I-1.0 J1.7321
G1 X324.5553 Y282.0487
G3 X322.5063 Y281.4996 I-0.75 J-1.299
G1 X307.5063 Y255.5189
G3 X308.0553 Y253.4698 I1.299 J-0.75
G1 X315.0 Y249.4603
G2 X316.0 Y247.7283 I-1.0 J-1.7321
G1 Y239.7092
G3 X317.5 Y238.2092 I1.5 J0.0
G1 X347.5
G3 X349.0 Y239.7092 I0.0 J1.5
G1 Y247.7283
G2 X350.0 Y249.4603 I2.0 J0.0
G1 X356.9447 Y253.4698
G3 X357.4937 Y255.5189 I-0.75 J1.299
G1 X351.1662 Y266.4785
G0 Z5.0
G0 X353.2426 Y267.6773
G0 Z-8.0
G1 F300.0 Z-12.0
G1 F800.0 X359.5701 Y256.7177
G2 X358.1435 Y251.3934 I-3.3754 J-1.9488
G1 X351.3976 Y247.4987
G1 Y239.7092
G2 X347.5 Y235.8116 I-3.8976 J0.0
G1 X317.5
G2 X313.6024 Y239.7092 I0.0 J3.8976
G1 Y247.4987
G1 X306.8565 Y251.3934
G2 X305.4299 Y256.7177 I1.9488 J3.3754
G1 X320.4299 Y282.6984
G2 X325.7541 Y284.125 I3.3754 J-1.9488
G1 X332.5 Y280.2303
G1 X339.2459 Y284.125
G2 X344.5701 Y282.6984 I1.9488 J-3.3754
G1 X353.2426 Y267.6773
G1 F300.0 X354.2818 Y268.2773
G1 F800.0 X360.6093 Y257.3177
G2 X358.7435 Y250.3542 I-4.4147 J-2.5488
G1 X352.5976 Y246.8059
G1 Y239.7092
G2 X347.5 Y234.6116 I-5.0976 J0.0
G1 X317.5
G2 X312.4024 Y239.7092 I0.0 J5.0976
G1 Y246.8059
G1 X306.2565 Y250.3542
G2 X304.3907 Y257.3177 I2.5488 J4.4147
G1 X319.3907 Y283.2984
G2 X326.3541 Y285.1643 I4.4147 J-2.5488
G1 X332.5 Y281.616
G1 X338.6459 Y285.1643
G2 X345.6093 Y283.2984 I2.5488 J-4.4147
G1 X354.2818 Y268.2773
G0 Z5.0
G0 X359.7354 Y270.748
G0 Z-8.0
G1 F300.0 Z-12.0
G2 F800.0 X362.4 Y258.4092 I-27.2354 J-12.3387
G2 X317.55 Y232.5151 I-29.9 J0.0
G2 Y284.3034 I14.95 J25.8942
G2 X359.7354 Y270.748 I14.95 J-25.8942
G1 F300.0 X360.8284 Y271.2432
G2 F800.0 X363.6 Y258.4092 I-28.3284 J-12.8339
G2 X316.95 Y231.4759 I-31.1 J0.0
G2 Y285.3426 I15.55 J26.9334
G2 X360.8284 Y271.2432 I15.55 J-26.9334
G1 F300.0 X361.9215 Y271.7384
G2 F800.0 X364.8 Y258.4092 I-29.4215 J-13.3291
G2 X316.35 Y230.4366 I-32.3 J0.0
G2 Y286.3819 I16.15 J27.9726
G2 X361.9215 Y271.7384 I16.15 J-27.9726
G1 F300.0 X363.0145 Y272.2336
G2 F800.0 X366.0 Y258.4092 I-30.5145 J-13.8243
G2 X315.75 Y229.3974 I-33.5 J0.0
G2 Y287.4211 I16.75 J29.0119
G2 X363.0145 Y272.2336 I16.75 J-29.0119
G0 Z5.0
G0 X356.8799 Y269.7773
G0 Z-11.0
G1 F300.0 Z-14.0
G1 F800.0 X354.5349 Y273.8388
G2 X356.8799 Y269.7773 I-22.0349 J-15.4296
G1 F300.0 X356.3602 Y269.4773
G1 F800.0 X351.0064 Y278.7504
G2 X359.3692 Y264.2657 I-18.5064 J-20.3412
G1 X356.3602 Y269.4773
G1 F300.0 X355.321 Y268.8773
G1 F800.0 X347.0986 Y283.119
G2 X361.1986 Y258.6971 I-14.5986 J-24.7098
G1 X355.321 Y268.8773
G0 Z5.0
G0 X355.9896 Y245.3002
G0 Z-11.0
G1 F300.0 Z-14.0
G2 F800.0 X355.5976 Y244.6212 I-23.4896 J13.1091
G1 Y245.0738
G1 X355.9896 Y245.3002
G1 F300.0 X356.5136 Y245.0078
G2 F800.0 X354.9976 Y242.5944 I-24.0136 J13.4015
G1 Y245.4202
G1 X357.4448 Y246.8331
G2 X356.5136 Y245.0078 I-24.9448 J11.5761
G1 F300.0 X357.5614 Y244.423
G2 F800.0 X353.7721 Y239.143 I-25.0614 J13.9863
G3 X353.7976 Y239.7092 I-6.2721 J0.5662
G1 Y246.1131
G1 X359.3435 Y249.315
G3 X359.8211 Y249.6202 I-3.1488 J5.4539
G2 X357.5614 Y244.423 I-27.3211 J8.7891
G0 Z5.0
G0 X334.8449 Y231.6116
G0 Z-11.0
G1 F300.0 Z-14.0
G2 F800.0 X330.1551 I-2.3449 J26.7976
G1 X334.8449
G1 F300.0 X334.8972 Y231.0139
G2 F800.0 X324.1372 Y232.2116 I-2.3972 J27.3953
G1 X340.8628
G2 X334.8972 Y231.0139 I-8.3628 J26.1976
G1 F300.0 X335.0018 Y229.8185
G2 F800.0 X318.4 Y233.4116 I-2.5018 J28.5907
G1 X346.6
G2 X335.0018 Y229.8185 I-14.1 J24.9976
G0 Z5.0
G0 X309.4024 Y244.6212
G0 Z-11.0
G1 F300.0 Z-14.0
G2 F800.0 X309.0104 Y245.3002 I23.0976 J13.7881
G1 X309.4024 Y245.0738
G1 Y244.6212
G1 F300.0 X310.0024
G1 F800.0 Y242.5944
G2 X307.5552 Y246.8331 I22.4976 J15.8148
G1 X310.0024 Y245.4202
G1 Y244.6212
G1 F300.0 X311.2024
G1 F800.0 Y239.7092
G3 X311.2279 Y239.143 I6.2976 J0.0
G2 X305.1789 Y249.6202 I21.2721 J19.2662
G3 X305.6565 Y249.315 I3.6264 J5.1487
G1 X311.2024 Y246.1131
G1 Y244.6212
G0 Z5.0
G0 X308.1201 Y269.7773
G0 Z-11.0
G1 F300.0 Z-14.0
G2 F800.0 X310.4651 Y273.8388 I24.3799 J-11.368
G1 X308.1201 Y269.7773
G1 F300.0 X308.6398 Y269.4773
G1 F800.0 X305.6308 Y264.2657
G2 X313.9936 Y278.7504 I26.8692 J-5.8564
G1 X308.6398 Y269.4773
G1 F300.0 X309.679 Y268.8773
G1 F800.0 X303.8014 Y258.6971
G2 X317.9014 Y283.119 I28.6986 J-0.2878
G1 X309.679 Y268.8773
G0 Z5.0
G0 X332.108 Y285.3064
G0 Z-11.0
G1 F300.0 Z-14.0
G2 F800.0 X332.892 I0.392 J-26.8971
G1 X332.5 Y285.0801
G1 X332.108 Y285.3064
G1 F300.0 X332.0992 Y285.9063
G2 F800.0 X334.9472 Y285.8001 I0.4008 J-27.4971
G1 X332.5 Y284.3872
G1 X330.0528 Y285.8001
G2 X332.0992 Y285.9063 I2.4472 J-27.3909
G1 F300.0 X332.0817 Y287.1062
G2 F800.0 X338.549 Y286.4645 I0.4183 J-28.697
G3 X338.0459 Y286.2035 I2.6457 J-5.7149
G1 X332.5 Y283.0016
G1 X326.9541 Y286.2035
G3 X326.451 Y286.4645 I-3.1488 J-5.4539
G2 X332.0817 Y287.1062 I6.049 J-28.0553
G0 Z5.0
G0 X328.609 Y281.0912
G0 Z-10.0
G1 F300.0 Z-14.0
G1 F800.0 X325.1541 Y283.0858
G3 X321.4691 Y282.0984 I-1.3488 J-2.3362
G1 X306.4691 Y256.1177
G3 X307.4565 Y252.4327 I2.3362 J-1.3488
G1 X314.4012 Y248.4232
G2 X314.8024 Y247.7283 I-0.4012 J-0.6949
G1 Y239.7092
G3 X317.5 Y237.0116 I2.6976 J0.0
G1 X347.5
G3 X350.1976 Y239.7092 I0.0 J2.6976
G1 Y247.7283
G2 X350.5988 Y248.4232 I0.8024 J0.0
G1 X357.5435 Y252.4327
G3 X358.5309 Y256.1177 I-1.3488 J2.3362
G1 X343.5309 Y282.0984
G3 X339.8459 Y283.0858 I-2.3362 J-1.3488
G1 X332.9012 Y279.0763
G2 X332.0988 I-0.4012 J0.6949
G1 X328.609 Y281.0912
G1 F300.0 X328.0102 Y280.054
G1 F800.0 X324.5553 Y282.0487
G3 X322.5063 Y281.4996 I-0.75 J-1.299
G1 X307.5063 Y255.5189
G3 X308.0553 Y253.4698 I1.299 J-0.75
G1 X315.0 Y249.4603
G2 X316.0 Y247.7283 I-1.0 J-1.7321
G1 Y239.7092
G3 X317.5 Y238.2092 I1.5 J0.0
G1 X347.5
G3 X349.0 Y239.7092 I0.0 J1.5
G1 Y247.7283
G2 X350.0 Y249.4603 I2.0 J0.0
G1 X356.9447 Y253.4698
G3 X357.4937 Y255.5189 I-0.75 J1.299
G1 X342.4937 Y281.4996
G3 X340.4447 Y282.0487 I-1.299 J-0.75
G1 X333.5 Y278.0391
G2 X331.5 I-1.0 J1.7321
G1 X328.0102 Y280.054
G0 Z5.0
G0 X329.209 Y282.1304
G0 Z-10.0
G1 F300.0 Z-14.0
G1 F800.0 X332.5 Y280.2303
G1 X339.2459 Y284.125
G2 X344.5701 Y282.6984 I1.9488 J-3.3754
G1 X359.5701 Y256.7177
G2 X358.1435 Y251.3934 I-3.3754 J-1.9488
G1 X351.3976 Y247.4987
G1 Y239.7092
G2 X347.5 Y235.8116 I-3.8976 J0.0
G1 X317.5
G2 X313.6024 Y239.7092 I0.0 J3.8976
G1 Y247.4987
G1 X306.8565 Y251.3934
G2 X305.4299 Y256.7177 I1.9488 J3.3754
G1 X320.4299 Y282.6984
G2 X325.7541 Y284.125 I3.3754 J-1.9488
G1 X329.209 Y282.1304
G1 F300.0 X329.809 Y283.1696
G1 F800.0 X332.5 Y281.616
G1 X338.6459 Y285.1643
G2 X345.6093 Y283.2984 I2.5488 J-4.4147
G1 X360.6093 Y257.3177
G2 X358.7435 Y250.3542 I-4.4147 J-2.5488
G1 X352.5976 Y246.8059
G1 Y239.7092
G2 X347.5 Y234.6116 I-5.0976 J0.0
G1 X317.5
G2 X312.4024 Y239.7092 I0.0 J5.0976
G1 Y246.8059
G1 X306.2565 Y250.3542
G2 X304.3907 Y257.3177 I2.5488 J4.4147
G1 X319.3907 Y283.2984
G2 X326.3541 Y285.1643 I4.4147 J-2.5488
G1 X329.809 Y283.1696
G0 Z5.0
G0 X329.2694 Y288.1342
G0 Z-10.0
G1 F300.0 Z-14.0
G2 F800.0 X362.4 Y258.4092 I3.2306 J-29.725
G2 X317.55 Y232.5151 I-29.9 J0.0
G2 Y284.3034 I14.95 J25.8942
G2 X329.2694 Y288.1342 I14.95 J-25.8942
G1 F300.0 X329.1397 Y289.3272
G2 F800.0 X363.6 Y258.4092 I3.3603 J-30.9179
G2 X316.95 Y231.4759 I-31.1 J0.0
G2 Y285.3426 I15.55 J26.9334
G2 X329.1397 Y289.3272 I15.55 J-26.9334
G1 F300.0 X329.0101 Y290.5202
G2 F800.0 X364.8 Y258.4092 I3.4899 J-32.1109
G2 X316.35 Y230.4366 I-32.3 J0.0
G2 Y286.3819 I16.15 J27.9726
G2 X329.0101 Y290.5202 I16.15 J-27.9726
G1 F300.0 X328.8804 Y291.7131
G2 F800.0 X366.0 Y258.4092 I3.6196 J-33.3039
G2 X315.75 Y229.3974 I-33.5 J0.0
G2 Y287.4211 I16.75 J29.0119
G2 X328.8804 Y291.7131 I16.75 J-29.0119
( Profile1 plug  )
S1000
G0 Z5.0
G0 X363.9 Y258.4092
G0 Z1.0
G1 F300.0 Z0.0
G3 F800.0 X316.8 Y285.6024 Z-1.0 I-31.4 J0.0
G3 Y231.216 Z-2.0 I15.7 J-27.1932
G3 X363.9 Y258.4092 Z-3.0 I15.7 J27.1932
G3 X316.8 Y285.6024 Z-4.0 I-31.4 J0.0
G3 Y231.216 Z-5.0 I15.7 J-27.1932
G3 X363.9 Y258.4092 Z-6.0 I15.7 J27.1932
G3 X316.8 Y285.6024 Z-7.0 I-31.4 J0.0
G3 Y231.216 Z-8.0 I15.7 J-27.1932
G3 X363.9 Y258.4092 Z-9.0 I15.7 J27.1932
G3 X316.8 Y285.6024 Z-10.0 I-31.4 J0.0
G3 Y231.216 Z-11.0 I15.7 J-27.1932
G3 X363.9 Y258.4092 Z-12.0 I15.7 J27.1932
G3 X351.9351 Y283.0717 Z-12.4313 I-31.4 J0.0
G3 X344.1408 Y287.5717 Z-12.5687 I-19.4351 J-24.6625
G3 X316.8 Y285.6024 Z-13.0 I-11.6408 J-29.1625
G3 X301.4241 Y262.9092 Z-13.4313 I15.7 J-27.1932
G3 Y253.9092 Z-13.5687 I31.0759 J-4.5
G3 X316.8 Y231.216 Z-14.0 I31.0759 J4.5
G3 X344.1408 Y229.2467 Z-14.4313 I15.7 J27.1932
G3 X351.9351 Y233.7467 Z-14.5687 I-11.6408 J29.1625
G3 X363.9 Y258.4092 Z-15.0 I-19.4351 J24.6625
G3 X351.9351 Y283.0717 Z-15.4313 I-31.4 J0.0
G0 Z-14.7
G3 X344.1408 Y287.5717 I-19.4351 J-24.6625
G1 F300.0 Z-15.5687
G3 F800.0 X316.8 Y285.6024 Z-16.0 I-11.6408 J-29.1625
G3 X301.4241 Y262.9092 Z-16.4313 I15.7 J-27.1932
G0 Z-14.7
G3 Y253.9092 I31.0759 J-4.5
G1 F300.0 Z-16.5687
G3 F800.0 X316.8 Y231.216 Z-17.0 I31.0759 J4.5
G3 X344.1408 Y229.2467 Z-17.4313 I15.7 J27.1932
G0 Z-14.7
G3 X351.9351 Y233.7467 I-11.6408 J29.1625
G1 F300.0 Z-17.5687
G3 F800.0 X363.9 Y258.4092 Z-18.0 I-19.4351 J24.6625
G3 X351.9351 Y283.0717 Z-18.1006 I-31.4 J0.0
G0 Z-14.7
G3 X344.1408 Y287.5717 I-19.4351 J-24.6625
G1 F300.0 Z-18.1327
G3 F800.0 X316.8 Y285.6024 Z-18.2333 I-11.6408 J-29.1625
G3 X301.4241 Y262.9092 Z-18.334 I15.7 J-27.1932
G0 Z-14.7
G3 Y253.9092 I31.0759 J-4.5
G0 Z-15.5687
G1 F300.0 Z-18.366
G3 F800.0 X316.8 Y231.216 Z-18.4667 I31.0759 J4.5
G3 X344.1408 Y229.2467 Z-18.5673 I15.7 J27.1932
G0 Z-14.7
G3 X351.9351 Y233.7467 I-11.6408 J29.1625
G0 Z-16.5687
G1 F300.0 Z-18.5994
G3 F800.0 X363.9 Y258.4092 Z-18.7 I-19.4351 J24.6625
G3 X351.9351 Y283.0717 I-31.4 J0.0
G0 Z-14.7
G3 X344.1408 Y287.5717 I-19.4351 J-24.6625
G0 Z-17.1327
G1 F300.0 Z-18.7
G3 F800.0 X316.8 Y285.6024 I-11.6408 J-29.1625
G3 X301.4241 Y262.9092 I15.7 J-27.1932
G0 Z-14.7
G3 Y253.9092 I31.0759 J-4.5
G0 Z-17.366
G1 F300.0 Z-18.7
G3 F800.0 X316.8 Y231.216 I31.0759 J4.5
G3 X344.1408 Y229.2467 I15.7 J27.1932
G0 Z-14.7
G3 X351.9351 Y233.7467 I-11.6408 J29.1625
G0 Z-17.5994
G1 F300.0 Z-18.7
G3 F800.0 X363.9 Y258.4092 I-19.4351 J24.6625
G0 Z5.0
M5
M30
