( Made using CamBam - http://www.cambam.co.uk )
( Ken-Stool.Cutting-Files 9/4/2015 11:41:45 AM )
( T3 : 3.0 )
G21 G90 G64 G40
G0 Z5.0
( T3 : 3.0 )
T3 M6
( Pocket2 )
G17
M3 S1000
G0 X475.8799 Y69.7773
G0 Z1.0
G1 F300.0 Z-3.0
G1 F800.0 X473.5349 Y73.8388
G2 X475.8799 Y69.7773 I-22.0349 J-15.4296
G1 F300.0 X476.4236 Y70.0308
G2 F800.0 X478.3692 Y64.2657 I-24.9236 J-11.6216
G1 X470.0064 Y78.7504
G2 X476.4236 Y70.0308 I-18.5064 J-20.3412
G1 F300.0 X477.5112 Y70.538
G2 F800.0 X480.1986 Y58.6971 I-26.0112 J-12.1287
G1 X466.0986 Y83.119
G2 X477.5112 Y70.538 I-14.5986 J-24.7098
G0 Z5.0
G0 X474.9896 Y45.3002
G0 Z1.0
G1 F300.0 Z-3.0
G2 F800.0 X474.5976 Y44.6212 I-23.4896 J13.1091
G1 Y45.0738
G1 X474.9896 Y45.3002
G1 F300.0 X475.5136 Y45.0078
G2 F800.0 X473.9976 Y42.5944 I-24.0136 J13.4015
G1 Y45.4202
G1 X476.4448 Y46.8331
G2 X475.5136 Y45.0078 I-24.9448 J11.5761
G1 F300.0 X476.5614 Y44.423
G2 F800.0 X472.7721 Y39.143 I-25.0614 J13.9863
G3 X472.7976 Y39.7092 I-6.2721 J0.5662
G1 Y46.1131
G1 X478.3435 Y49.315
G3 X478.8211 Y49.6202 I-3.1488 J5.4539
G2 X476.5614 Y44.423 I-27.3211 J8.7891
G0 Z5.0
G0 X453.8449 Y31.6116
G0 Z1.0
G1 F300.0 Z-3.0
G2 F800.0 X449.1551 I-2.3449 J26.7976
G1 X453.8449
G1 F300.0 X453.8972 Y31.0139
G2 F800.0 X443.1372 Y32.2116 I-2.3972 J27.3953
G1 X459.8628
G2 X453.8972 Y31.0139 I-8.3628 J26.1976
G1 F300.0 X454.0018 Y29.8185
G2 F800.0 X437.4 Y33.4116 I-2.5018 J28.5907
G1 X465.6
G2 X454.0018 Y29.8185 I-14.1 J24.9976
G0 Z5.0
G0 X428.4024 Y44.6212
G0 Z1.0
G1 F300.0 Z-3.0
G2 F800.0 X428.0104 Y45.3002 I23.0976 J13.7881
G1 X428.4024 Y45.0738
G1 Y44.6212
G1 F300.0 X427.8872 Y44.3136
G2 F800.0 X426.5552 Y46.8331 I23.6128 J14.0956
G1 X429.0024 Y45.4202
G1 Y42.5944
G2 X427.8872 Y44.3136 I22.4976 J15.8148
G1 F300.0 X426.8568 Y43.6985
G2 F800.0 X424.1789 Y49.6202 I24.6432 J14.7107
G3 X424.6565 Y49.315 I3.6264 J5.1487
G1 X430.2024 Y46.1131
G1 Y39.7092
G3 X430.2279 Y39.143 I6.2976 J0.0
G2 X426.8568 Y43.6985 I21.2721 J19.2662
G0 Z5.0
G0 X427.1201 Y69.7773
G0 Z1.0
G1 F300.0 Z-3.0
G2 F800.0 X429.4651 Y73.8388 I24.3799 J-11.368
G1 X427.1201 Y69.7773
G1 F300.0 X427.6398 Y69.4773
G1 F800.0 X424.6308 Y64.2657
G2 X432.9936 Y78.7504 I26.8692 J-5.8564
G1 X427.6398 Y69.4773
G1 F300.0 X428.679 Y68.8773
G1 F800.0 X422.8014 Y58.6971
G2 X436.9014 Y83.119 I28.6986 J-0.2878
G1 X428.679 Y68.8773
G0 Z5.0
G0 X451.108 Y85.3064
G0 Z1.0
G1 F300.0 Z-3.0
G2 F800.0 X451.892 I0.392 J-26.8971
G1 X451.5 Y85.0801
G1 X451.108 Y85.3064
G1 F300.0 X451.0992 Y85.9063
G2 F800.0 X453.9472 Y85.8001 I0.4008 J-27.4971
G1 X451.5 Y84.3872
G1 X449.0528 Y85.8001
G2 X451.0992 Y85.9063 I2.4472 J-27.3909
G1 F300.0 X451.0817 Y87.1062
G2 F800.0 X457.549 Y86.4645 I0.4183 J-28.697
G3 X457.0459 Y86.2035 I2.6457 J-5.7149
G1 X451.5 Y83.0016
G1 X445.9541 Y86.2035
G3 X445.451 Y86.4645 I-3.1488 J-5.4539
G2 X451.0817 Y87.1062 I6.049 J-28.0553
G0 Z5.0
G0 X447.609 Y81.0912
G0 Z1.0
G1 F300.0 Z-3.0
G1 F800.0 X444.1541 Y83.0858
G3 X440.4691 Y82.0984 I-1.3488 J-2.3362
G1 X425.4691 Y56.1177
G3 X426.4565 Y52.4327 I2.3362 J-1.3488
G1 X433.4012 Y48.4232
G2 X433.8024 Y47.7283 I-0.4012 J-0.6949
G1 Y39.7092
G3 X436.5 Y37.0116 I2.6976 J0.0
G1 X466.5
G3 X469.1976 Y39.7092 I0.0 J2.6976
G1 Y47.7283
G2 X469.5988 Y48.4232 I0.8024 J0.0
G1 X476.5435 Y52.4327
G3 X477.5309 Y56.1177 I-1.3488 J2.3362
G1 X462.5309 Y82.0984
G3 X458.8459 Y83.0858 I-2.3362 J-1.3488
G1 X451.9012 Y79.0763
G2 X451.0988 I-0.4012 J0.6949
G1 X447.609 Y81.0912
G1 F300.0 X447.0102 Y80.054
G1 F800.0 X443.5553 Y82.0487
G3 X441.5063 Y81.4996 I-0.75 J-1.299
G1 X426.5063 Y55.5189
G3 X427.0553 Y53.4698 I1.299 J-0.75
G1 X434.0 Y49.4603
G2 X435.0 Y47.7283 I-1.0 J-1.7321
G1 Y39.7092
G3 X436.5 Y38.2092 I1.5 J0.0
G1 X466.5
G3 X468.0 Y39.7092 I0.0 J1.5
G1 Y47.7283
G2 X469.0 Y49.4603 I2.0 J0.0
G1 X475.9447 Y53.4698
G3 X476.4937 Y55.5189 I-0.75 J1.299
G1 X461.4937 Y81.4996
G3 X459.4447 Y82.0487 I-1.299 J-0.75
G1 X452.5 Y78.0391
G2 X450.5 I-1.0 J1.7321
G1 X447.0102 Y80.054
G0 Z5.0
G0 X448.209 Y82.1304
G0 Z1.0
G1 F300.0 Z-3.0
G1 F800.0 X451.5 Y80.2303
G1 X458.2459 Y84.125
G2 X463.5701 Y82.6984 I1.9488 J-3.3754
G1 X478.5701 Y56.7177
G2 X477.1435 Y51.3934 I-3.3754 J-1.9488
G1 X470.3976 Y47.4987
G1 Y39.7092
G2 X466.5 Y35.8116 I-3.8976 J0.0
G1 X436.5
G2 X432.6024 Y39.7092 I0.0 J3.8976
G1 Y47.4987
G1 X425.8565 Y51.3934
G2 X424.4299 Y56.7177 I1.9488 J3.3754
G1 X439.4299 Y82.6984
G2 X444.7541 Y84.125 I3.3754 J-1.9488
G1 X448.209 Y82.1304
G1 F300.0 X448.809 Y83.1696
G1 F800.0 X451.5 Y81.616
G1 X457.6459 Y85.1643
G2 X464.6093 Y83.2984 I2.5488 J-4.4147
G1 X479.6093 Y57.3177
G2 X477.7435 Y50.3542 I-4.4147 J-2.5488
G1 X471.5976 Y46.8059
G1 Y39.7092
G2 X466.5 Y34.6116 I-5.0976 J0.0
G1 X436.5
G2 X431.4024 Y39.7092 I0.0 J5.0976
G1 Y46.8059
G1 X425.2565 Y50.3542
G2 X423.3907 Y57.3177 I2.5488 J4.4147
G1 X438.3907 Y83.2984
G2 X445.3541 Y85.1643 I4.4147 J-2.5488
G1 X448.809 Y83.1696
G0 Z5.0
G0 X448.2694 Y88.1342
G0 Z1.0
G1 F300.0 Z-3.0
G2 F800.0 X481.4 Y58.4092 I3.2306 J-29.725
G2 X436.55 Y32.5151 I-29.9 J0.0
G2 Y84.3034 I14.95 J25.8942
G2 X448.2694 Y88.1342 I14.95 J-25.8942
G1 F300.0 X448.1397 Y89.3272
G2 F800.0 X482.6 Y58.4092 I3.3603 J-30.9179
G2 X435.95 Y31.4759 I-31.1 J0.0
G2 Y85.3426 I15.55 J26.9334
G2 X448.1397 Y89.3272 I15.55 J-26.9334
G1 F300.0 X448.0101 Y90.5202
G2 F800.0 X483.8 Y58.4092 I3.4899 J-32.1109
G2 X435.35 Y30.4366 I-32.3 J0.0
G2 Y86.3819 I16.15 J27.9726
G2 X448.0101 Y90.5202 I16.15 J-27.9726
G1 F300.0 X447.8804 Y91.7131
G2 F800.0 X485.0 Y58.4092 I3.6196 J-33.3039
G2 X434.75 Y29.3974 I-33.5 J0.0
G2 Y87.4211 I16.75 J29.0119
G2 X447.8804 Y91.7131 I16.75 J-29.0119
G0 Z5.0
G0 X451.108 Y85.3064
G0 Z-2.0
G1 F300.0 Z-6.0
G2 F800.0 X451.892 I0.392 J-26.8971
G1 X451.5 Y85.0801
G1 X451.108 Y85.3064
G1 F300.0 X451.0992 Y85.9063
G2 F800.0 X453.9472 Y85.8001 I0.4008 J-27.4971
G1 X451.5 Y84.3872
G1 X449.0528 Y85.8001
G2 X451.0992 Y85.9063 I2.4472 J-27.3909
G1 F300.0 X451.0817 Y87.1062
G2 F800.0 X457.549 Y86.4645 I0.4183 J-28.697
G3 X457.0459 Y86.2035 I2.6457 J-5.7149
G1 X451.5 Y83.0016
G1 X445.9541 Y86.2035
G3 X445.451 Y86.4645 I-3.1488 J-5.4539
G2 X451.0817 Y87.1062 I6.049 J-28.0553
G0 Z5.0
G0 X429.4651 Y73.8388
G0 Z-2.0
G1 F300.0 Z-6.0
G1 F800.0 X427.1201 Y69.7773
G2 X429.4651 Y73.8388 I24.3799 J-11.368
G1 F300.0 X429.9847 Y73.5388
G1 F800.0 X424.6308 Y64.2657
G2 X432.9936 Y78.7504 I26.8692 J-5.8564
G1 X429.9847 Y73.5388
G1 F300.0 X431.0239 Y72.9388
G1 F800.0 X422.8014 Y58.6971
G2 X436.9014 Y83.119 I28.6986 J-0.2878
G1 X431.0239 Y72.9388
G0 Z5.0
G0 X428.0104 Y45.3002
G0 Z-2.0
G1 F300.0 Z-6.0
G1 F800.0 X428.4024 Y45.0738
G1 Y44.6212
G2 X428.0104 Y45.3002 I23.0976 J13.7881
G1 F300.0 X428.3104 Y45.8198
G1 F800.0 X429.0024 Y45.4202
G1 Y42.5944
G2 X426.5552 Y46.8331 I22.4976 J15.8148
G1 X428.3104 Y45.8198
G1 F300.0 X428.9104 Y46.859
G1 F800.0 X430.2024 Y46.1131
G1 Y39.7092
G3 X430.2279 Y39.143 I6.2976 J0.0
G2 X424.1789 Y49.6202 I21.2721 J19.2662
G3 X424.6565 Y49.315 I3.6264 J5.1487
G1 X428.9104 Y46.859
G0 Z5.0
G0 X449.1551 Y31.6116
G0 Z-2.0
G1 F300.0 Z-6.0
G1 F800.0 X453.8449
G2 X449.1551 I-2.3449 J26.7976
G1 F300.0 X449.1028 Y31.0139
G2 F800.0 X443.1372 Y32.2116 I2.3972 J27.3953
G1 X459.8628
G2 X449.1028 Y31.0139 I-8.3628 J26.1976
G1 F300.0 X448.9982 Y29.8185
G2 F800.0 X437.4 Y33.4116 I2.5018 J28.5907
G1 X465.6
G2 X448.9982 Y29.8185 I-14.1 J24.9976
G0 Z5.0
G0 X474.5976 Y44.6212
G0 Z-2.0
G1 F300.0 Z-6.0
G1 F800.0 Y45.0738
G1 X474.9896 Y45.3002
G2 X474.5976 Y44.6212 I-23.4896 J13.1091
G1 F300.0 X475.1128 Y44.3136
G2 F800.0 X473.9976 Y42.5944 I-23.6128 J14.0956
G1 Y45.4202
G1 X476.4448 Y46.8331
G2 X475.1128 Y44.3136 I-24.9448 J11.5761
G1 F300.0 X476.1432 Y43.6985
G2 F800.0 X472.7721 Y39.143 I-24.6432 J14.7107
G3 X472.7976 Y39.7092 I-6.2721 J0.5662
G1 Y46.1131
G1 X478.3435 Y49.315
G3 X478.8211 Y49.6202 I-3.1488 J5.4539
G2 X476.1432 Y43.6985 I-27.3211 J8.7891
G0 Z5.0
G0 X475.8799 Y69.7773
G0 Z-2.0
G1 F300.0 Z-6.0
G1 F800.0 X473.5349 Y73.8388
G2 X475.8799 Y69.7773 I-22.0349 J-15.4296
G1 F300.0 X476.4236 Y70.0308
G2 F800.0 X478.3692 Y64.2657 I-24.9236 J-11.6216
G1 X470.0064 Y78.7504
G2 X476.4236 Y70.0308 I-18.5064 J-20.3412
G1 F300.0 X477.5112 Y70.538
G2 F800.0 X480.1986 Y58.6971 I-26.0112 J-12.1287
G1 X466.0986 Y83.119
G2 X477.5112 Y70.538 I-14.5986 J-24.7098
G0 Z5.0
G0 X471.2818 Y66.9414
G0 Z-2.0
G1 F300.0 Z-6.0
G1 F800.0 X462.5309 Y82.0984
G3 X458.8459 Y83.0858 I-2.3362 J-1.3488
G1 X451.9012 Y79.0763
G2 X451.0988 I-0.4012 J0.6949
G1 X444.1541 Y83.0858
G3 X440.4691 Y82.0984 I-1.3488 J-2.3362
G1 X425.4691 Y56.1177
G3 X426.4565 Y52.4327 I2.3362 J-1.3488
G1 X433.4012 Y48.4232
G2 X433.8024 Y47.7283 I-0.4012 J-0.6949
G1 Y39.7092
G3 X436.5 Y37.0116 I2.6976 J0.0
G1 X466.5
G3 X469.1976 Y39.7092 I0.0 J2.6976
G1 Y47.7283
G2 X469.5988 Y48.4232 I0.8024 J0.0
G1 X476.5435 Y52.4327
G3 X477.5309 Y56.1177 I-1.3488 J2.3362
G1 X471.2818 Y66.9414
G1 F300.0 X470.2446 Y66.3426
G1 F800.0 X461.4937 Y81.4996
G3 X459.4447 Y82.0487 I-1.299 J-0.75
G1 X452.5 Y78.0391
G2 X450.5 I-1.0 J1.7321
G1 X443.5553 Y82.0487
G3 X441.5063 Y81.4996 I-0.75 J-1.299
G1 X426.5063 Y55.5189
G3 X427.0553 Y53.4698 I1.299 J-0.75
G1 X434.0 Y49.4603
G2 X435.0 Y47.7283 I-1.0 J-1.7321
G1 Y39.7092
G3 X436.5 Y38.2092 I1.5 J0.0
G1 X466.5
G3 X468.0 Y39.7092 I0.0 J1.5
G1 Y47.7283
G2 X469.0 Y49.4603 I2.0 J0.0
G1 X475.9447 Y53.4698
G3 X476.4937 Y55.5189 I-0.75 J1.299
G1 X470.2446 Y66.3426
G0 Z5.0
G0 X472.321 Y67.5414
G0 Z-2.0
G1 F300.0 Z-6.0
G1 F800.0 X478.5701 Y56.7177
G2 X477.1435 Y51.3934 I-3.3754 J-1.9488
G1 X470.3976 Y47.4987
G1 Y39.7092
G2 X466.5 Y35.8116 I-3.8976 J0.0
G1 X436.5
G2 X432.6024 Y39.7092 I0.0 J3.8976
G1 Y47.4987
G1 X425.8565 Y51.3934
G2 X424.4299 Y56.7177 I1.9488 J3.3754
G1 X439.4299 Y82.6984
G2 X444.7541 Y84.125 I3.3754 J-1.9488
G1 X451.5 Y80.2303
G1 X458.2459 Y84.125
G2 X463.5701 Y82.6984 I1.9488 J-3.3754
G1 X472.321 Y67.5414
G1 F300.0 X473.3602 Y68.1414
G1 F800.0 X479.6093 Y57.3177
G2 X477.7435 Y50.3542 I-4.4147 J-2.5488
G1 X471.5976 Y46.8059
G1 Y39.7092
G2 X466.5 Y34.6116 I-5.0976 J0.0
G1 X436.5
G2 X431.4024 Y39.7092 I0.0 J5.0976
G1 Y46.8059
G1 X425.2565 Y50.3542
G2 X423.3907 Y57.3177 I2.5488 J4.4147
G1 X438.3907 Y83.2984
G2 X445.3541 Y85.1643 I4.4147 J-2.5488
G1 X451.5 Y81.616
G1 X457.6459 Y85.1643
G2 X464.6093 Y83.2984 I2.5488 J-4.4147
G1 X473.3602 Y68.1414
G0 Z5.0
G0 X478.8153 Y70.57
G0 Z-2.0
G1 F300.0 Z-6.0
G2 F800.0 X481.4 Y58.4092 I-27.3153 J-12.1607
G2 X436.55 Y32.5151 I-29.9 J0.0
G2 Y84.3034 I14.95 J25.8942
G2 X478.8153 Y70.57 I14.95 J-25.8942
G1 F300.0 X479.9116 Y71.058
G2 F800.0 X482.6 Y58.4092 I-28.4116 J-12.6488
G2 X435.95 Y31.4759 I-31.1 J0.0
G2 Y85.3426 I15.55 J26.9334
G2 X479.9116 Y71.058 I15.55 J-26.9334
G1 F300.0 X481.0078 Y71.5461
G2 F800.0 X483.8 Y58.4092 I-29.5078 J-13.1369
G2 X435.35 Y30.4366 I-32.3 J0.0
G2 Y86.3819 I16.15 J27.9726
G2 X481.0078 Y71.5461 I16.15 J-27.9726
G1 F300.0 X482.1041 Y72.0342
G2 F800.0 X485.0 Y58.4092 I-30.6041 J-13.6249
G2 X434.75 Y29.3974 I-33.5 J0.0
G2 Y87.4211 I16.75 J29.0119
G2 X482.1041 Y72.0342 I16.75 J-29.0119
G0 Z5.0
G0 X475.8799 Y69.7773
G0 Z-5.0
G1 F300.0 Z-9.0
G1 F800.0 X473.5349 Y73.8388
G2 X475.8799 Y69.7773 I-22.0349 J-15.4296
G1 F300.0 X476.4236 Y70.0308
G2 F800.0 X478.3692 Y64.2657 I-24.9236 J-11.6216
G1 X470.0064 Y78.7504
G2 X476.4236 Y70.0308 I-18.5064 J-20.3412
G1 F300.0 X477.5112 Y70.538
G2 F800.0 X480.1986 Y58.6971 I-26.0112 J-12.1287
G1 X466.0986 Y83.119
G2 X477.5112 Y70.538 I-14.5986 J-24.7098
G0 Z5.0
G0 X474.9896 Y45.3002
G0 Z-5.0
G1 F300.0 Z-9.0
G2 F800.0 X474.5976 Y44.6212 I-23.4896 J13.1091
G1 Y45.0738
G1 X474.9896 Y45.3002
G1 F300.0 X475.5136 Y45.0078
G2 F800.0 X473.9976 Y42.5944 I-24.0136 J13.4015
G1 Y45.4202
G1 X476.4448 Y46.8331
G2 X475.5136 Y45.0078 I-24.9448 J11.5761
G1 F300.0 X476.5614 Y44.423
G2 F800.0 X472.7721 Y39.143 I-25.0614 J13.9863
G3 X472.7976 Y39.7092 I-6.2721 J0.5662
G1 Y46.1131
G1 X478.3435 Y49.315
G3 X478.8211 Y49.6202 I-3.1488 J5.4539
G2 X476.5614 Y44.423 I-27.3211 J8.7891
G0 Z5.0
G0 X453.8449 Y31.6116
G0 Z-5.0
G1 F300.0 Z-9.0
G2 F800.0 X449.1551 I-2.3449 J26.7976
G1 X453.8449
G1 F300.0 X453.8972 Y31.0139
G2 F800.0 X443.1372 Y32.2116 I-2.3972 J27.3953
G1 X459.8628
G2 X453.8972 Y31.0139 I-8.3628 J26.1976
G1 F300.0 X454.0018 Y29.8185
G2 F800.0 X437.4 Y33.4116 I-2.5018 J28.5907
G1 X465.6
G2 X454.0018 Y29.8185 I-14.1 J24.9976
G0 Z5.0
G0 X428.4024 Y44.6212
G0 Z-5.0
G1 F300.0 Z-9.0
G2 F800.0 X428.0104 Y45.3002 I23.0976 J13.7881
G1 X428.4024 Y45.0738
G1 Y44.6212
G1 F300.0 X427.8872 Y44.3136
G2 F800.0 X426.5552 Y46.8331 I23.6128 J14.0956
G1 X429.0024 Y45.4202
G1 Y42.5944
G2 X427.8872 Y44.3136 I22.4976 J15.8148
G1 F300.0 X426.8568 Y43.6985
G2 F800.0 X424.1789 Y49.6202 I24.6432 J14.7107
G3 X424.6565 Y49.315 I3.6264 J5.1487
G1 X430.2024 Y46.1131
G1 Y39.7092
G3 X430.2279 Y39.143 I6.2976 J0.0
G2 X426.8568 Y43.6985 I21.2721 J19.2662
G0 Z5.0
G0 X427.1201 Y69.7773
G0 Z-5.0
G1 F300.0 Z-9.0
G2 F800.0 X429.4651 Y73.8388 I24.3799 J-11.368
G1 X427.1201 Y69.7773
G1 F300.0 X427.6398 Y69.4773
G1 F800.0 X424.6308 Y64.2657
G2 X432.9936 Y78.7504 I26.8692 J-5.8564
G1 X427.6398 Y69.4773
G1 F300.0 X428.679 Y68.8773
G1 F800.0 X422.8014 Y58.6971
G2 X436.9014 Y83.119 I28.6986 J-0.2878
G1 X428.679 Y68.8773
G0 Z5.0
G0 X451.108 Y85.3064
G0 Z-5.0
G1 F300.0 Z-9.0
G2 F800.0 X451.892 I0.392 J-26.8971
G1 X451.5 Y85.0801
G1 X451.108 Y85.3064
G1 F300.0 X451.0992 Y85.9063
G2 F800.0 X453.9472 Y85.8001 I0.4008 J-27.4971
G1 X451.5 Y84.3872
G1 X449.0528 Y85.8001
G2 X451.0992 Y85.9063 I2.4472 J-27.3909
G1 F300.0 X451.0817 Y87.1062
G2 F800.0 X457.549 Y86.4645 I0.4183 J-28.697
G3 X457.0459 Y86.2035 I2.6457 J-5.7149
G1 X451.5 Y83.0016
G1 X445.9541 Y86.2035
G3 X445.451 Y86.4645 I-3.1488 J-5.4539
G2 X451.0817 Y87.1062 I6.049 J-28.0553
G0 Z5.0
G0 X447.609 Y81.0912
G0 Z-5.0
G1 F300.0 Z-9.0
G1 F800.0 X444.1541 Y83.0858
G3 X440.4691 Y82.0984 I-1.3488 J-2.3362
G1 X425.4691 Y56.1177
G3 X426.4565 Y52.4327 I2.3362 J-1.3488
G1 X433.4012 Y48.4232
G2 X433.8024 Y47.7283 I-0.4012 J-0.6949
G1 Y39.7092
G3 X436.5 Y37.0116 I2.6976 J0.0
G1 X466.5
G3 X469.1976 Y39.7092 I0.0 J2.6976
G1 Y47.7283
G2 X469.5988 Y48.4232 I0.8024 J0.0
G1 X476.5435 Y52.4327
G3 X477.5309 Y56.1177 I-1.3488 J2.3362
G1 X462.5309 Y82.0984
G3 X458.8459 Y83.0858 I-2.3362 J-1.3488
G1 X451.9012 Y79.0763
G2 X451.0988 I-0.4012 J0.6949
G1 X447.609 Y81.0912
G1 F300.0 X447.0102 Y80.054
G1 F800.0 X443.5553 Y82.0487
G3 X441.5063 Y81.4996 I-0.75 J-1.299
G1 X426.5063 Y55.5189
G3 X427.0553 Y53.4698 I1.299 J-0.75
G1 X434.0 Y49.4603
G2 X435.0 Y47.7283 I-1.0 J-1.7321
G1 Y39.7092
G3 X436.5 Y38.2092 I1.5 J0.0
G1 X466.5
G3 X468.0 Y39.7092 I0.0 J1.5
G1 Y47.7283
G2 X469.0 Y49.4603 I2.0 J0.0
G1 X475.9447 Y53.4698
G3 X476.4937 Y55.5189 I-0.75 J1.299
G1 X461.4937 Y81.4996
G3 X459.4447 Y82.0487 I-1.299 J-0.75
G1 X452.5 Y78.0391
G2 X450.5 I-1.0 J1.7321
G1 X447.0102 Y80.054
G0 Z5.0
G0 X448.209 Y82.1304
G0 Z-5.0
G1 F300.0 Z-9.0
G1 F800.0 X451.5 Y80.2303
G1 X458.2459 Y84.125
G2 X463.5701 Y82.6984 I1.9488 J-3.3754
G1 X478.5701 Y56.7177
G2 X477.1435 Y51.3934 I-3.3754 J-1.9488
G1 X470.3976 Y47.4987
G1 Y39.7092
G2 X466.5 Y35.8116 I-3.8976 J0.0
G1 X436.5
G2 X432.6024 Y39.7092 I0.0 J3.8976
G1 Y47.4987
G1 X425.8565 Y51.3934
G2 X424.4299 Y56.7177 I1.9488 J3.3754
G1 X439.4299 Y82.6984
G2 X444.7541 Y84.125 I3.3754 J-1.9488
G1 X448.209 Y82.1304
G1 F300.0 X448.809 Y83.1696
G1 F800.0 X451.5 Y81.616
G1 X457.6459 Y85.1643
G2 X464.6093 Y83.2984 I2.5488 J-4.4147
G1 X479.6093 Y57.3177
G2 X477.7435 Y50.3542 I-4.4147 J-2.5488
G1 X471.5976 Y46.8059
G1 Y39.7092
G2 X466.5 Y34.6116 I-5.0976 J0.0
G1 X436.5
G2 X431.4024 Y39.7092 I0.0 J5.0976
G1 Y46.8059
G1 X425.2565 Y50.3542
G2 X423.3907 Y57.3177 I2.5488 J4.4147
G1 X438.3907 Y83.2984
G2 X445.3541 Y85.1643 I4.4147 J-2.5488
G1 X448.809 Y83.1696
G0 Z5.0
G0 X448.2694 Y88.1342
G0 Z-5.0
G1 F300.0 Z-9.0
G2 F800.0 X481.4 Y58.4092 I3.2306 J-29.725
G2 X436.55 Y32.5151 I-29.9 J0.0
G2 Y84.3034 I14.95 J25.8942
G2 X448.2694 Y88.1342 I14.95 J-25.8942
G1 F300.0 X448.1397 Y89.3272
G2 F800.0 X482.6 Y58.4092 I3.3603 J-30.9179
G2 X435.95 Y31.4759 I-31.1 J0.0
G2 Y85.3426 I15.55 J26.9334
G2 X448.1397 Y89.3272 I15.55 J-26.9334
G1 F300.0 X448.0101 Y90.5202
G2 F800.0 X483.8 Y58.4092 I3.4899 J-32.1109
G2 X435.35 Y30.4366 I-32.3 J0.0
G2 Y86.3819 I16.15 J27.9726
G2 X448.0101 Y90.5202 I16.15 J-27.9726
G1 F300.0 X447.8804 Y91.7131
G2 F800.0 X485.0 Y58.4092 I3.6196 J-33.3039
G2 X434.75 Y29.3974 I-33.5 J0.0
G2 Y87.4211 I16.75 J29.0119
G2 X447.8804 Y91.7131 I16.75 J-29.0119
G0 Z5.0
G0 X451.108 Y85.3064
G0 Z-8.0
G1 F300.0 Z-12.0
G2 F800.0 X451.892 I0.392 J-26.8971
G1 X451.5 Y85.0801
G1 X451.108 Y85.3064
G1 F300.0 X451.0992 Y85.9063
G2 F800.0 X453.9472 Y85.8001 I0.4008 J-27.4971
G1 X451.5 Y84.3872
G1 X449.0528 Y85.8001
G2 X451.0992 Y85.9063 I2.4472 J-27.3909
G1 F300.0 X451.0817 Y87.1062
G2 F800.0 X457.549 Y86.4645 I0.4183 J-28.697
G3 X457.0459 Y86.2035 I2.6457 J-5.7149
G1 X451.5 Y83.0016
G1 X445.9541 Y86.2035
G3 X445.451 Y86.4645 I-3.1488 J-5.4539
G2 X451.0817 Y87.1062 I6.049 J-28.0553
G0 Z5.0
G0 X429.4651 Y73.8388
G0 Z-8.0
G1 F300.0 Z-12.0
G1 F800.0 X427.1201 Y69.7773
G2 X429.4651 Y73.8388 I24.3799 J-11.368
G1 F300.0 X429.9847 Y73.5388
G1 F800.0 X424.6308 Y64.2657
G2 X432.9936 Y78.7504 I26.8692 J-5.8564
G1 X429.9847 Y73.5388
G1 F300.0 X431.0239 Y72.9388
G1 F800.0 X422.8014 Y58.6971
G2 X436.9014 Y83.119 I28.6986 J-0.2878
G1 X431.0239 Y72.9388
G0 Z5.0
G0 X428.0104 Y45.3002
G0 Z-8.0
G1 F300.0 Z-12.0
G1 F800.0 X428.4024 Y45.0738
G1 Y44.6212
G2 X428.0104 Y45.3002 I23.0976 J13.7881
G1 F300.0 X428.3104 Y45.8198
G1 F800.0 X429.0024 Y45.4202
G1 Y42.5944
G2 X426.5552 Y46.8331 I22.4976 J15.8148
G1 X428.3104 Y45.8198
G1 F300.0 X428.9104 Y46.859
G1 F800.0 X430.2024 Y46.1131
G1 Y39.7092
G3 X430.2279 Y39.143 I6.2976 J0.0
G2 X424.1789 Y49.6202 I21.2721 J19.2662
G3 X424.6565 Y49.315 I3.6264 J5.1487
G1 X428.9104 Y46.859
G0 Z5.0
G0 X449.1551 Y31.6116
G0 Z-8.0
G1 F300.0 Z-12.0
G1 F800.0 X453.8449
G2 X449.1551 I-2.3449 J26.7976
G1 F300.0 X449.1028 Y31.0139
G2 F800.0 X443.1372 Y32.2116 I2.3972 J27.3953
G1 X459.8628
G2 X449.1028 Y31.0139 I-8.3628 J26.1976
G1 F300.0 X448.9982 Y29.8185
G2 F800.0 X437.4 Y33.4116 I2.5018 J28.5907
G1 X465.6
G2 X448.9982 Y29.8185 I-14.1 J24.9976
G0 Z5.0
G0 X474.5976 Y44.6212
G0 Z-8.0
G1 F300.0 Z-12.0
G1 F800.0 Y45.0738
G1 X474.9896 Y45.3002
G2 X474.5976 Y44.6212 I-23.4896 J13.1091
G1 F300.0 X475.1128 Y44.3136
G2 F800.0 X473.9976 Y42.5944 I-23.6128 J14.0956
G1 Y45.4202
G1 X476.4448 Y46.8331
G2 X475.1128 Y44.3136 I-24.9448 J11.5761
G1 F300.0 X476.1432 Y43.6985
G2 F800.0 X472.7721 Y39.143 I-24.6432 J14.7107
G3 X472.7976 Y39.7092 I-6.2721 J0.5662
G1 Y46.1131
G1 X478.3435 Y49.315
G3 X478.8211 Y49.6202 I-3.1488 J5.4539
G2 X476.1432 Y43.6985 I-27.3211 J8.7891
G0 Z5.0
G0 X475.8799 Y69.7773
G0 Z-8.0
G1 F300.0 Z-12.0
G1 F800.0 X473.5349 Y73.8388
G2 X475.8799 Y69.7773 I-22.0349 J-15.4296
G1 F300.0 X476.4236 Y70.0308
G2 F800.0 X478.3692 Y64.2657 I-24.9236 J-11.6216
G1 X470.0064 Y78.7504
G2 X476.4236 Y70.0308 I-18.5064 J-20.3412
G1 F300.0 X477.5112 Y70.538
G2 F800.0 X480.1986 Y58.6971 I-26.0112 J-12.1287
G1 X466.0986 Y83.119
G2 X477.5112 Y70.538 I-14.5986 J-24.7098
G0 Z5.0
G0 X471.2818 Y66.9414
G0 Z-8.0
G1 F300.0 Z-12.0
G1 F800.0 X462.5309 Y82.0984
G3 X458.8459 Y83.0858 I-2.3362 J-1.3488
G1 X451.9012 Y79.0763
G2 X451.0988 I-0.4012 J0.6949
G1 X444.1541 Y83.0858
G3 X440.4691 Y82.0984 I-1.3488 J-2.3362
G1 X425.4691 Y56.1177
G3 X426.4565 Y52.4327 I2.3362 J-1.3488
G1 X433.4012 Y48.4232
G2 X433.8024 Y47.7283 I-0.4012 J-0.6949
G1 Y39.7092
G3 X436.5 Y37.0116 I2.6976 J0.0
G1 X466.5
G3 X469.1976 Y39.7092 I0.0 J2.6976
G1 Y47.7283
G2 X469.5988 Y48.4232 I0.8024 J0.0
G1 X476.5435 Y52.4327
G3 X477.5309 Y56.1177 I-1.3488 J2.3362
G1 X471.2818 Y66.9414
G1 F300.0 X470.2446 Y66.3426
G1 F800.0 X461.4937 Y81.4996
G3 X459.4447 Y82.0487 I-1.299 J-0.75
G1 X452.5 Y78.0391
G2 X450.5 I-1.0 J1.7321
G1 X443.5553 Y82.0487
G3 X441.5063 Y81.4996 I-0.75 J-1.299
G1 X426.5063 Y55.5189
G3 X427.0553 Y53.4698 I1.299 J-0.75
G1 X434.0 Y49.4603
G2 X435.0 Y47.7283 I-1.0 J-1.7321
G1 Y39.7092
G3 X436.5 Y38.2092 I1.5 J0.0
G1 X466.5
G3 X468.0 Y39.7092 I0.0 J1.5
G1 Y47.7283
G2 X469.0 Y49.4603 I2.0 J0.0
G1 X475.9447 Y53.4698
G3 X476.4937 Y55.5189 I-0.75 J1.299
G1 X470.2446 Y66.3426
G0 Z5.0
G0 X472.321 Y67.5414
G0 Z-8.0
G1 F300.0 Z-12.0
G1 F800.0 X478.5701 Y56.7177
G2 X477.1435 Y51.3934 I-3.3754 J-1.9488
G1 X470.3976 Y47.4987
G1 Y39.7092
G2 X466.5 Y35.8116 I-3.8976 J0.0
G1 X436.5
G2 X432.6024 Y39.7092 I0.0 J3.8976
G1 Y47.4987
G1 X425.8565 Y51.3934
G2 X424.4299 Y56.7177 I1.9488 J3.3754
G1 X439.4299 Y82.6984
G2 X444.7541 Y84.125 I3.3754 J-1.9488
G1 X451.5 Y80.2303
G1 X458.2459 Y84.125
G2 X463.5701 Y82.6984 I1.9488 J-3.3754
G1 X472.321 Y67.5414
G1 F300.0 X473.3602 Y68.1414
G1 F800.0 X479.6093 Y57.3177
G2 X477.7435 Y50.3542 I-4.4147 J-2.5488
G1 X471.5976 Y46.8059
G1 Y39.7092
G2 X466.5 Y34.6116 I-5.0976 J0.0
G1 X436.5
G2 X431.4024 Y39.7092 I0.0 J5.0976
G1 Y46.8059
G1 X425.2565 Y50.3542
G2 X423.3907 Y57.3177 I2.5488 J4.4147
G1 X438.3907 Y83.2984
G2 X445.3541 Y85.1643 I4.4147 J-2.5488
G1 X451.5 Y81.616
G1 X457.6459 Y85.1643
G2 X464.6093 Y83.2984 I2.5488 J-4.4147
G1 X473.3602 Y68.1414
G0 Z5.0
G0 X478.8153 Y70.57
G0 Z-8.0
G1 F300.0 Z-12.0
G2 F800.0 X481.4 Y58.4092 I-27.3153 J-12.1607
G2 X436.55 Y32.5151 I-29.9 J0.0
G2 Y84.3034 I14.95 J25.8942
G2 X478.8153 Y70.57 I14.95 J-25.8942
G1 F300.0 X479.9116 Y71.058
G2 F800.0 X482.6 Y58.4092 I-28.4116 J-12.6488
G2 X435.95 Y31.4759 I-31.1 J0.0
G2 Y85.3426 I15.55 J26.9334
G2 X479.9116 Y71.058 I15.55 J-26.9334
G1 F300.0 X481.0078 Y71.5461
G2 F800.0 X483.8 Y58.4092 I-29.5078 J-13.1369
G2 X435.35 Y30.4366 I-32.3 J0.0
G2 Y86.3819 I16.15 J27.9726
G2 X481.0078 Y71.5461 I16.15 J-27.9726
G1 F300.0 X482.1041 Y72.0342
G2 F800.0 X485.0 Y58.4092 I-30.6041 J-13.6249
G2 X434.75 Y29.3974 I-33.5 J0.0
G2 Y87.4211 I16.75 J29.0119
G2 X482.1041 Y72.0342 I16.75 J-29.0119
G0 Z5.0
G0 X475.8799 Y69.7773
G0 Z-11.0
G1 F300.0 Z-14.0
G1 F800.0 X473.5349 Y73.8388
G2 X475.8799 Y69.7773 I-22.0349 J-15.4296
G1 F300.0 X476.4236 Y70.0308
G2 F800.0 X478.3692 Y64.2657 I-24.9236 J-11.6216
G1 X470.0064 Y78.7504
G2 X476.4236 Y70.0308 I-18.5064 J-20.3412
G1 F300.0 X477.5112 Y70.538
G2 F800.0 X480.1986 Y58.6971 I-26.0112 J-12.1287
G1 X466.0986 Y83.119
G2 X477.5112 Y70.538 I-14.5986 J-24.7098
G0 Z5.0
G0 X474.9896 Y45.3002
G0 Z-11.0
G1 F300.0 Z-14.0
G2 F800.0 X474.5976 Y44.6212 I-23.4896 J13.1091
G1 Y45.0738
G1 X474.9896 Y45.3002
G1 F300.0 X475.5136 Y45.0078
G2 F800.0 X473.9976 Y42.5944 I-24.0136 J13.4015
G1 Y45.4202
G1 X476.4448 Y46.8331
G2 X475.5136 Y45.0078 I-24.9448 J11.5761
G1 F300.0 X476.5614 Y44.423
G2 F800.0 X472.7721 Y39.143 I-25.0614 J13.9863
G3 X472.7976 Y39.7092 I-6.2721 J0.5662
G1 Y46.1131
G1 X478.3435 Y49.315
G3 X478.8211 Y49.6202 I-3.1488 J5.4539
G2 X476.5614 Y44.423 I-27.3211 J8.7891
G0 Z5.0
G0 X453.8449 Y31.6116
G0 Z-11.0
G1 F300.0 Z-14.0
G2 F800.0 X449.1551 I-2.3449 J26.7976
G1 X453.8449
G1 F300.0 X453.8972 Y31.0139
G2 F800.0 X443.1372 Y32.2116 I-2.3972 J27.3953
G1 X459.8628
G2 X453.8972 Y31.0139 I-8.3628 J26.1976
G1 F300.0 X454.0018 Y29.8185
G2 F800.0 X437.4 Y33.4116 I-2.5018 J28.5907
G1 X465.6
G2 X454.0018 Y29.8185 I-14.1 J24.9976
G0 Z5.0
G0 X428.4024 Y44.6212
G0 Z-11.0
G1 F300.0 Z-14.0
G2 F800.0 X428.0104 Y45.3002 I23.0976 J13.7881
G1 X428.4024 Y45.0738
G1 Y44.6212
G1 F300.0 X427.8872 Y44.3136
G2 F800.0 X426.5552 Y46.8331 I23.6128 J14.0956
G1 X429.0024 Y45.4202
G1 Y42.5944
G2 X427.8872 Y44.3136 I22.4976 J15.8148
G1 F300.0 X426.8568 Y43.6985
G2 F800.0 X424.1789 Y49.6202 I24.6432 J14.7107
G3 X424.6565 Y49.315 I3.6264 J5.1487
G1 X430.2024 Y46.1131
G1 Y39.7092
G3 X430.2279 Y39.143 I6.2976 J0.0
G2 X426.8568 Y43.6985 I21.2721 J19.2662
G0 Z5.0
G0 X427.1201 Y69.7773
G0 Z-11.0
G1 F300.0 Z-14.0
G2 F800.0 X429.4651 Y73.8388 I24.3799 J-11.368
G1 X427.1201 Y69.7773
G1 F300.0 X427.6398 Y69.4773
G1 F800.0 X424.6308 Y64.2657
G2 X432.9936 Y78.7504 I26.8692 J-5.8564
G1 X427.6398 Y69.4773
G1 F300.0 X428.679 Y68.8773
G1 F800.0 X422.8014 Y58.6971
G2 X436.9014 Y83.119 I28.6986 J-0.2878
G1 X428.679 Y68.8773
G0 Z5.0
G0 X451.108 Y85.3064
G0 Z-11.0
G1 F300.0 Z-14.0
G2 F800.0 X451.892 I0.392 J-26.8971
G1 X451.5 Y85.0801
G1 X451.108 Y85.3064
G1 F300.0 X451.0992 Y85.9063
G2 F800.0 X453.9472 Y85.8001 I0.4008 J-27.4971
G1 X451.5 Y84.3872
G1 X449.0528 Y85.8001
G2 X451.0992 Y85.9063 I2.4472 J-27.3909
G1 F300.0 X451.0817 Y87.1062
G2 F800.0 X457.549 Y86.4645 I0.4183 J-28.697
G3 X457.0459 Y86.2035 I2.6457 J-5.7149
G1 X451.5 Y83.0016
G1 X445.9541 Y86.2035
G3 X445.451 Y86.4645 I-3.1488 J-5.4539
G2 X451.0817 Y87.1062 I6.049 J-28.0553
G0 Z5.0
G0 X447.609 Y81.0912
G0 Z-10.0
G1 F300.0 Z-14.0
G1 F800.0 X444.1541 Y83.0858
G3 X440.4691 Y82.0984 I-1.3488 J-2.3362
G1 X425.4691 Y56.1177
G3 X426.4565 Y52.4327 I2.3362 J-1.3488
G1 X433.4012 Y48.4232
G2 X433.8024 Y47.7283 I-0.4012 J-0.6949
G1 Y39.7092
G3 X436.5 Y37.0116 I2.6976 J0.0
G1 X466.5
G3 X469.1976 Y39.7092 I0.0 J2.6976
G1 Y47.7283
G2 X469.5988 Y48.4232 I0.8024 J0.0
G1 X476.5435 Y52.4327
G3 X477.5309 Y56.1177 I-1.3488 J2.3362
G1 X462.5309 Y82.0984
G3 X458.8459 Y83.0858 I-2.3362 J-1.3488
G1 X451.9012 Y79.0763
G2 X451.0988 I-0.4012 J0.6949
G1 X447.609 Y81.0912
G1 F300.0 X447.0102 Y80.054
G1 F800.0 X443.5553 Y82.0487
G3 X441.5063 Y81.4996 I-0.75 J-1.299
G1 X426.5063 Y55.5189
G3 X427.0553 Y53.4698 I1.299 J-0.75
G1 X434.0 Y49.4603
G2 X435.0 Y47.7283 I-1.0 J-1.7321
G1 Y39.7092
G3 X436.5 Y38.2092 I1.5 J0.0
G1 X466.5
G3 X468.0 Y39.7092 I0.0 J1.5
G1 Y47.7283
G2 X469.0 Y49.4603 I2.0 J0.0
G1 X475.9447 Y53.4698
G3 X476.4937 Y55.5189 I-0.75 J1.299
G1 X461.4937 Y81.4996
G3 X459.4447 Y82.0487 I-1.299 J-0.75
G1 X452.5 Y78.0391
G2 X450.5 I-1.0 J1.7321
G1 X447.0102 Y80.054
G0 Z5.0
G0 X448.209 Y82.1304
G0 Z-10.0
G1 F300.0 Z-14.0
G1 F800.0 X451.5 Y80.2303
G1 X458.2459 Y84.125
G2 X463.5701 Y82.6984 I1.9488 J-3.3754
G1 X478.5701 Y56.7177
G2 X477.1435 Y51.3934 I-3.3754 J-1.9488
G1 X470.3976 Y47.4987
G1 Y39.7092
G2 X466.5 Y35.8116 I-3.8976 J0.0
G1 X436.5
G2 X432.6024 Y39.7092 I0.0 J3.8976
G1 Y47.4987
G1 X425.8565 Y51.3934
G2 X424.4299 Y56.7177 I1.9488 J3.3754
G1 X439.4299 Y82.6984
G2 X444.7541 Y84.125 I3.3754 J-1.9488
G1 X448.209 Y82.1304
G1 F300.0 X448.809 Y83.1696
G1 F800.0 X451.5 Y81.616
G1 X457.6459 Y85.1643
G2 X464.6093 Y83.2984 I2.5488 J-4.4147
G1 X479.6093 Y57.3177
G2 X477.7435 Y50.3542 I-4.4147 J-2.5488
G1 X471.5976 Y46.8059
G1 Y39.7092
G2 X466.5 Y34.6116 I-5.0976 J0.0
G1 X436.5
G2 X431.4024 Y39.7092 I0.0 J5.0976
G1 Y46.8059
G1 X425.2565 Y50.3542
G2 X423.3907 Y57.3177 I2.5488 J4.4147
G1 X438.3907 Y83.2984
G2 X445.3541 Y85.1643 I4.4147 J-2.5488
G1 X448.809 Y83.1696
G0 Z5.0
G0 X448.2694 Y88.1342
G0 Z-10.0
G1 F300.0 Z-14.0
G2 F800.0 X481.4 Y58.4092 I3.2306 J-29.725
G2 X436.55 Y32.5151 I-29.9 J0.0
G2 Y84.3034 I14.95 J25.8942
G2 X448.2694 Y88.1342 I14.95 J-25.8942
G1 F300.0 X448.1397 Y89.3272
G2 F800.0 X482.6 Y58.4092 I3.3603 J-30.9179
G2 X435.95 Y31.4759 I-31.1 J0.0
G2 Y85.3426 I15.55 J26.9334
G2 X448.1397 Y89.3272 I15.55 J-26.9334
G1 F300.0 X448.0101 Y90.5202
G2 F800.0 X483.8 Y58.4092 I3.4899 J-32.1109
G2 X435.35 Y30.4366 I-32.3 J0.0
G2 Y86.3819 I16.15 J27.9726
G2 X448.0101 Y90.5202 I16.15 J-27.9726
G1 F300.0 X447.8804 Y91.7131
G2 F800.0 X485.0 Y58.4092 I3.6196 J-33.3039
G2 X434.75 Y29.3974 I-33.5 J0.0
G2 Y87.4211 I16.75 J29.0119
G2 X447.8804 Y91.7131 I16.75 J-29.0119
( Profile1 plug  )
S1000
G0 Z5.0
G0 X482.9 Y58.4092
G0 Z1.0
G1 F300.0 Z0.0
G3 F800.0 X435.8 Y85.6024 Z-1.6667 I-31.4 J0.0
G3 Y31.216 Z-3.3333 I15.7 J-27.1932
G3 X482.9 Y58.4092 Z-5.0 I15.7 J27.1932
G3 X435.8 Y85.6024 Z-6.6667 I-31.4 J0.0
G3 Y31.216 Z-8.3333 I15.7 J-27.1932
G3 X482.9 Y58.4092 Z-10.0 I15.7 J27.1932
G3 X435.8 Y85.6024 Z-11.6667 I-31.4 J0.0
G3 Y31.216 Z-13.3333 I15.7 J-27.1932
G3 X482.9 Y58.4092 Z-15.0 I15.7 J27.1932
G3 X469.7263 Y83.978 Z-15.6209 I-31.4 J0.0
G3 X464.5301 Y86.978 Z-15.7458 I-18.2263 J-25.5688
G3 X435.8 Y85.6024 Z-16.3667 I-13.0301 J-28.5688
G3 X420.2436 Y61.4092 Z-16.9876 I15.7 J-27.1932
G0 Z-16.1
G3 Y55.4092 I31.2564 J-3.0
G1 F300.0 Z-17.1124
G3 F800.0 X435.8 Y31.216 Z-17.7333 I31.2564 J3.0
G3 X464.5301 Y29.8404 Z-18.3542 I15.7 J27.1932
G0 Z-16.1
G3 X469.7263 Y32.8404 I-13.0301 J28.5688
G1 F300.0 Z-18.4791
G3 F800.0 X482.9 Y58.4092 Z-19.1 I-18.2263 J25.5688
G3 X469.7263 Y83.978 I-31.4 J0.0
G0 Z-16.1
G3 X464.5301 Y86.978 I-18.2263 J-25.5688
G1 F300.0 Z-19.1
G3 F800.0 X435.8 Y85.6024 I-13.0301 J-28.5688
G3 X420.2436 Y61.4092 I15.7 J-27.1932
G0 Z-16.1
G3 Y55.4092 I31.2564 J-3.0
G0 Z-16.1124
G1 F300.0 Z-19.1
G3 F800.0 X435.8 Y31.216 I31.2564 J3.0
G3 X464.5301 Y29.8404 I15.7 J27.1932
G0 Z-16.1
G3 X469.7263 Y32.8404 I-13.0301 J28.5688
G0 Z-17.4791
G1 F300.0 Z-19.1
G3 F800.0 X482.9 Y58.4092 I-18.2263 J25.5688
G0 Z5.0
M5
M30
