( Made using CamBam - http://www.cambam.co.uk )
( Ken-Stool.Cutting-Files 9/4/2015 2:36:11 PM )
( T3 : 3.0 )
G21 G90 G64 G40
G0 Z10.0
( T3 : 3.0 )
T3 M6
( Pocket2 )
G17
M3 S1000
G0 X303.8799 Y44.7773
G0 Z1.0
G1 F300.0 Z-3.0
G1 F800.0 X301.5349 Y48.8388
G2 X303.8799 Y44.7773 I-22.0349 J-15.4296
G1 F300.0 X304.4236 Y45.0308
G2 F800.0 X306.3692 Y39.2657 I-24.9236 J-11.6216
G1 X298.0064 Y53.7504
G2 X304.4236 Y45.0308 I-18.5064 J-20.3412
G1 F300.0 X305.5112 Y45.538
G2 F800.0 X308.1986 Y33.6971 I-26.0112 J-12.1287
G1 X294.0986 Y58.119
G2 X305.5112 Y45.538 I-14.5986 J-24.7098
G0 Z10.0
G0 X302.9896 Y20.3002
G0 Z1.0
G1 F300.0 Z-3.0
G2 F800.0 X302.5976 Y19.6212 I-23.4896 J13.1091
G1 Y20.0738
G1 X302.9896 Y20.3002
G1 F300.0 X303.5136 Y20.0078
G2 F800.0 X301.9976 Y17.5944 I-24.0136 J13.4015
G1 Y20.4202
G1 X304.4448 Y21.8331
G2 X303.5136 Y20.0078 I-24.9448 J11.5761
G1 F300.0 X304.5614 Y19.423
G2 F800.0 X300.7721 Y14.143 I-25.0614 J13.9863
G3 X300.7976 Y14.7092 I-6.2721 J0.5662
G1 Y21.1131
G1 X306.3435 Y24.315
G3 X306.8211 Y24.6202 I-3.1488 J5.4539
G2 X304.5614 Y19.423 I-27.3211 J8.7891
G0 Z10.0
G0 X281.8449 Y6.6116
G0 Z1.0
G1 F300.0 Z-3.0
G2 F800.0 X277.1551 I-2.3449 J26.7976
G1 X281.8449
G1 F300.0 X281.8972 Y6.0139
G2 F800.0 X271.1372 Y7.2116 I-2.3972 J27.3953
G1 X287.8628
G2 X281.8972 Y6.0139 I-8.3628 J26.1976
G1 F300.0 X282.0018 Y4.8185
G2 F800.0 X265.4 Y8.4116 I-2.5018 J28.5907
G1 X293.6
G2 X282.0018 Y4.8185 I-14.1 J24.9976
G0 Z10.0
G0 X256.4024 Y19.6212
G0 Z1.0
G1 F300.0 Z-3.0
G2 F800.0 X256.0104 Y20.3002 I23.0976 J13.7881
G1 X256.4024 Y20.0738
G1 Y19.6212
G1 F300.0 X257.0024
G1 F800.0 Y17.5944
G2 X254.5552 Y21.8331 I22.4976 J15.8148
G1 X257.0024 Y20.4202
G1 Y19.6212
G1 F300.0 X258.2024
G1 F800.0 Y14.7092
G3 X258.2279 Y14.143 I6.2976 J0.0
G2 X252.1789 Y24.6202 I21.2721 J19.2662
G3 X252.6565 Y24.315 I3.6264 J5.1487
G1 X258.2024 Y21.1131
G1 Y19.6212
G0 Z10.0
G0 X255.1201 Y44.7773
G0 Z1.0
G1 F300.0 Z-3.0
G2 F800.0 X257.4651 Y48.8388 I24.3799 J-11.368
G1 X255.1201 Y44.7773
G1 F300.0 X255.6398 Y44.4773
G1 F800.0 X252.6308 Y39.2657
G2 X260.9936 Y53.7504 I26.8692 J-5.8564
G1 X255.6398 Y44.4773
G1 F300.0 X256.679 Y43.8773
G1 F800.0 X250.8014 Y33.6971
G2 X264.9014 Y58.119 I28.6986 J-0.2878
G1 X256.679 Y43.8773
G0 Z10.0
G0 X279.108 Y60.3064
G0 Z1.0
G1 F300.0 Z-3.0
G2 F800.0 X279.892 I0.392 J-26.8971
G1 X279.5 Y60.0801
G1 X279.108 Y60.3064
G1 F300.0 X279.0992 Y60.9063
G2 F800.0 X281.9472 Y60.8001 I0.4008 J-27.4971
G1 X279.5 Y59.3872
G1 X277.0528 Y60.8001
G2 X279.0992 Y60.9063 I2.4472 J-27.3909
G1 F300.0 X279.0817 Y62.1062
G2 F800.0 X285.549 Y61.4645 I0.4183 J-28.697
G3 X285.0459 Y61.2035 I2.6457 J-5.7149
G1 X279.5 Y58.0016
G1 X273.9541 Y61.2035
G3 X273.451 Y61.4645 I-3.1488 J-5.4539
G2 X279.0817 Y62.1062 I6.049 J-28.0553
G0 Z10.0
G0 X275.609 Y56.0912
G0 Z1.0
G1 F300.0 Z-3.0
G1 F800.0 X272.1541 Y58.0858
G3 X268.4691 Y57.0984 I-1.3488 J-2.3362
G1 X253.4691 Y31.1177
G3 X254.4565 Y27.4327 I2.3362 J-1.3488
G1 X261.4012 Y23.4232
G2 X261.8024 Y22.7283 I-0.4012 J-0.6949
G1 Y14.7092
G3 X264.5 Y12.0116 I2.6976 J0.0
G1 X294.5
G3 X297.1976 Y14.7092 I0.0 J2.6976
G1 Y22.7283
G2 X297.5988 Y23.4232 I0.8024 J0.0
G1 X304.5435 Y27.4327
G3 X305.5309 Y31.1177 I-1.3488 J2.3362
G1 X290.5309 Y57.0984
G3 X286.8459 Y58.0858 I-2.3362 J-1.3488
G1 X279.9012 Y54.0763
G2 X279.0988 I-0.4012 J0.6949
G1 X275.609 Y56.0912
G1 F300.0 X275.0102 Y55.054
G1 F800.0 X271.5553 Y57.0487
G3 X269.5063 Y56.4996 I-0.75 J-1.299
G1 X254.5063 Y30.5189
G3 X255.0553 Y28.4698 I1.299 J-0.75
G1 X262.0 Y24.4603
G2 X263.0 Y22.7283 I-1.0 J-1.7321
G1 Y14.7092
G3 X264.5 Y13.2092 I1.5 J0.0
G1 X294.5
G3 X296.0 Y14.7092 I0.0 J1.5
G1 Y22.7283
G2 X297.0 Y24.4603 I2.0 J0.0
G1 X303.9447 Y28.4698
G3 X304.4937 Y30.5189 I-0.75 J1.299
G1 X289.4937 Y56.4996
G3 X287.4447 Y57.0487 I-1.299 J-0.75
G1 X280.5 Y53.0391
G2 X278.5 I-1.0 J1.7321
G1 X275.0102 Y55.054
G0 Z10.0
G0 X276.209 Y57.1304
G0 Z1.0
G1 F300.0 Z-3.0
G1 F800.0 X279.5 Y55.2303
G1 X286.2459 Y59.125
G2 X291.5701 Y57.6984 I1.9488 J-3.3754
G1 X306.5701 Y31.7177
G2 X305.1435 Y26.3934 I-3.3754 J-1.9488
G1 X298.3976 Y22.4987
G1 Y14.7092
G2 X294.5 Y10.8116 I-3.8976 J0.0
G1 X264.5
G2 X260.6024 Y14.7092 I0.0 J3.8976
G1 Y22.4987
G1 X253.8565 Y26.3934
G2 X252.4299 Y31.7177 I1.9488 J3.3754
G1 X267.4299 Y57.6984
G2 X272.7541 Y59.125 I3.3754 J-1.9488
G1 X276.209 Y57.1304
G1 F300.0 X276.809 Y58.1696
G1 F800.0 X279.5 Y56.616
G1 X285.6459 Y60.1643
G2 X292.6093 Y58.2984 I2.5488 J-4.4147
G1 X307.6093 Y32.3177
G2 X305.7435 Y25.3542 I-4.4147 J-2.5488
G1 X299.5976 Y21.8059
G1 Y14.7092
G2 X294.5 Y9.6116 I-5.0976 J0.0
G1 X264.5
G2 X259.4024 Y14.7092 I0.0 J5.0976
G1 Y21.8059
G1 X253.2565 Y25.3542
G2 X251.3907 Y32.3177 I2.5488 J4.4147
G1 X266.3907 Y58.2984
G2 X273.3541 Y60.1643 I4.4147 J-2.5488
G1 X276.809 Y58.1696
G0 Z10.0
G0 X276.2694 Y63.1342
G0 Z1.0
G1 F300.0 Z-3.0
G2 F800.0 X309.4 Y33.4092 I3.2306 J-29.725
G2 X264.55 Y7.5151 I-29.9 J0.0
G2 Y59.3034 I14.95 J25.8942
G2 X276.2694 Y63.1342 I14.95 J-25.8942
G1 F300.0 X276.1397 Y64.3272
G2 F800.0 X310.6 Y33.4092 I3.3603 J-30.9179
G2 X263.95 Y6.4759 I-31.1 J0.0
G2 Y60.3426 I15.55 J26.9334
G2 X276.1397 Y64.3272 I15.55 J-26.9334
G1 F300.0 X276.0101 Y65.5202
G2 F800.0 X311.8 Y33.4092 I3.4899 J-32.1109
G2 X263.35 Y5.4366 I-32.3 J0.0
G2 Y61.3819 I16.15 J27.9726
G2 X276.0101 Y65.5202 I16.15 J-27.9726
G1 F300.0 X275.8804 Y66.7131
G2 F800.0 X313.0 Y33.4092 I3.6196 J-33.3039
G2 X262.75 Y4.3974 I-33.5 J0.0
G2 Y62.4211 I16.75 J29.0119
G2 X275.8804 Y66.7131 I16.75 J-29.0119
G0 Z10.0
G0 X279.108 Y60.3064
G0 Z-2.0
G1 F300.0 Z-6.0
G2 F800.0 X279.892 I0.392 J-26.8971
G1 X279.5 Y60.0801
G1 X279.108 Y60.3064
G1 F300.0 X279.0992 Y60.9063
G2 F800.0 X281.9472 Y60.8001 I0.4008 J-27.4971
G1 X279.5 Y59.3872
G1 X277.0528 Y60.8001
G2 X279.0992 Y60.9063 I2.4472 J-27.3909
G1 F300.0 X279.0817 Y62.1062
G2 F800.0 X285.549 Y61.4645 I0.4183 J-28.697
G3 X285.0459 Y61.2035 I2.6457 J-5.7149
G1 X279.5 Y58.0016
G1 X273.9541 Y61.2035
G3 X273.451 Y61.4645 I-3.1488 J-5.4539
G2 X279.0817 Y62.1062 I6.049 J-28.0553
G0 Z10.0
G0 X257.4651 Y48.8388
G0 Z-2.0
G1 F300.0 Z-6.0
G1 F800.0 X255.1201 Y44.7773
G2 X257.4651 Y48.8388 I24.3799 J-11.368
G1 F300.0 X257.9847 Y48.5388
G1 F800.0 X252.6308 Y39.2657
G2 X260.9936 Y53.7504 I26.8692 J-5.8564
G1 X257.9847 Y48.5388
G1 F300.0 X259.0239 Y47.9388
G1 F800.0 X250.8014 Y33.6971
G2 X264.9014 Y58.119 I28.6986 J-0.2878
G1 X259.0239 Y47.9388
G0 Z10.0
G0 X256.0104 Y20.3002
G0 Z-2.0
G1 F300.0 Z-6.0
G1 F800.0 X256.4024 Y20.0738
G1 Y19.6212
G2 X256.0104 Y20.3002 I23.0976 J13.7881
G1 F300.0 X256.3104 Y20.8198
G1 F800.0 X257.0024 Y20.4202
G1 Y17.5944
G2 X254.5552 Y21.8331 I22.4976 J15.8148
G1 X256.3104 Y20.8198
G1 F300.0 X256.9104 Y21.859
G1 F800.0 X258.2024 Y21.1131
G1 Y14.7092
G3 X258.2279 Y14.143 I6.2976 J0.0
G2 X252.1789 Y24.6202 I21.2721 J19.2662
G3 X252.6565 Y24.315 I3.6264 J5.1487
G1 X256.9104 Y21.859
G0 Z10.0
G0 X277.1551 Y6.6116
G0 Z-2.0
G1 F300.0 Z-6.0
G1 F800.0 X281.8449
G2 X277.1551 I-2.3449 J26.7976
G1 F300.0 X277.1028 Y6.0139
G2 F800.0 X271.1372 Y7.2116 I2.3972 J27.3953
G1 X287.8628
G2 X277.1028 Y6.0139 I-8.3628 J26.1976
G1 F300.0 X276.9982 Y4.8185
G2 F800.0 X265.4 Y8.4116 I2.5018 J28.5907
G1 X293.6
G2 X276.9982 Y4.8185 I-14.1 J24.9976
G0 Z10.0
G0 X302.5976 Y19.6212
G0 Z-2.0
G1 F300.0 Z-6.0
G1 F800.0 Y20.0738
G1 X302.9896 Y20.3002
G2 X302.5976 Y19.6212 I-23.4896 J13.1091
G1 F300.0 X303.1128 Y19.3136
G2 F800.0 X301.9976 Y17.5944 I-23.6128 J14.0956
G1 Y20.4202
G1 X304.4448 Y21.8331
G2 X303.1128 Y19.3136 I-24.9448 J11.5761
G1 F300.0 X304.1432 Y18.6985
G2 F800.0 X300.7721 Y14.143 I-24.6432 J14.7107
G3 X300.7976 Y14.7092 I-6.2721 J0.5662
G1 Y21.1131
G1 X306.3435 Y24.315
G3 X306.8211 Y24.6202 I-3.1488 J5.4539
G2 X304.1432 Y18.6985 I-27.3211 J8.7891
G0 Z10.0
G0 X303.8799 Y44.7773
G0 Z-2.0
G1 F300.0 Z-6.0
G1 F800.0 X301.5349 Y48.8388
G2 X303.8799 Y44.7773 I-22.0349 J-15.4296
G1 F300.0 X304.4236 Y45.0308
G2 F800.0 X306.3692 Y39.2657 I-24.9236 J-11.6216
G1 X298.0064 Y53.7504
G2 X304.4236 Y45.0308 I-18.5064 J-20.3412
G1 F300.0 X305.5112 Y45.538
G2 F800.0 X308.1986 Y33.6971 I-26.0112 J-12.1287
G1 X294.0986 Y58.119
G2 X305.5112 Y45.538 I-14.5986 J-24.7098
G0 Z10.0
G0 X299.2818 Y41.9414
G0 Z-2.0
G1 F300.0 Z-6.0
G1 F800.0 X290.5309 Y57.0984
G3 X286.8459 Y58.0858 I-2.3362 J-1.3488
G1 X279.9012 Y54.0763
G2 X279.0988 I-0.4012 J0.6949
G1 X272.1541 Y58.0858
G3 X268.4691 Y57.0984 I-1.3488 J-2.3362
G1 X253.4691 Y31.1177
G3 X254.4565 Y27.4327 I2.3362 J-1.3488
G1 X261.4012 Y23.4232
G2 X261.8024 Y22.7283 I-0.4012 J-0.6949
G1 Y14.7092
G3 X264.5 Y12.0116 I2.6976 J0.0
G1 X294.5
G3 X297.1976 Y14.7092 I0.0 J2.6976
G1 Y22.7283
G2 X297.5988 Y23.4232 I0.8024 J0.0
G1 X304.5435 Y27.4327
G3 X305.5309 Y31.1177 I-1.3488 J2.3362
G1 X299.2818 Y41.9414
G1 F300.0 X298.2446 Y41.3426
G1 F800.0 X289.4937 Y56.4996
G3 X287.4447 Y57.0487 I-1.299 J-0.75
G1 X280.5 Y53.0391
G2 X278.5 I-1.0 J1.7321
G1 X271.5553 Y57.0487
G3 X269.5063 Y56.4996 I-0.75 J-1.299
G1 X254.5063 Y30.5189
G3 X255.0553 Y28.4698 I1.299 J-0.75
G1 X262.0 Y24.4603
G2 X263.0 Y22.7283 I-1.0 J-1.7321
G1 Y14.7092
G3 X264.5 Y13.2092 I1.5 J0.0
G1 X294.5
G3 X296.0 Y14.7092 I0.0 J1.5
G1 Y22.7283
G2 X297.0 Y24.4603 I2.0 J0.0
G1 X303.9447 Y28.4698
G3 X304.4937 Y30.5189 I-0.75 J1.299
G1 X298.2446 Y41.3426
G0 Z10.0
G0 X300.321 Y42.5414
G0 Z-2.0
G1 F300.0 Z-6.0
G1 F800.0 X306.5701 Y31.7177
G2 X305.1435 Y26.3934 I-3.3754 J-1.9488
G1 X298.3976 Y22.4987
G1 Y14.7092
G2 X294.5 Y10.8116 I-3.8976 J0.0
G1 X264.5
G2 X260.6024 Y14.7092 I0.0 J3.8976
G1 Y22.4987
G1 X253.8565 Y26.3934
G2 X252.4299 Y31.7177 I1.9488 J3.3754
G1 X267.4299 Y57.6984
G2 X272.7541 Y59.125 I3.3754 J-1.9488
G1 X279.5 Y55.2303
G1 X286.2459 Y59.125
G2 X291.5701 Y57.6984 I1.9488 J-3.3754
G1 X300.321 Y42.5414
G1 F300.0 X301.3602 Y43.1414
G1 F800.0 X307.6093 Y32.3177
G2 X305.7435 Y25.3542 I-4.4147 J-2.5488
G1 X299.5976 Y21.8059
G1 Y14.7092
G2 X294.5 Y9.6116 I-5.0976 J0.0
G1 X264.5
G2 X259.4024 Y14.7092 I0.0 J5.0976
G1 Y21.8059
G1 X253.2565 Y25.3542
G2 X251.3907 Y32.3177 I2.5488 J4.4147
G1 X266.3907 Y58.2984
G2 X273.3541 Y60.1643 I4.4147 J-2.5488
G1 X279.5 Y56.616
G1 X285.6459 Y60.1643
G2 X292.6093 Y58.2984 I2.5488 J-4.4147
G1 X301.3602 Y43.1414
G0 Z10.0
G0 X306.8153 Y45.57
G0 Z-2.0
G1 F300.0 Z-6.0
G2 F800.0 X309.4 Y33.4092 I-27.3153 J-12.1607
G2 X264.55 Y7.5151 I-29.9 J0.0
G2 Y59.3034 I14.95 J25.8942
G2 X306.8153 Y45.57 I14.95 J-25.8942
G1 F300.0 X307.9116 Y46.058
G2 F800.0 X310.6 Y33.4092 I-28.4116 J-12.6488
G2 X263.95 Y6.4759 I-31.1 J0.0
G2 Y60.3426 I15.55 J26.9334
G2 X307.9116 Y46.058 I15.55 J-26.9334
G1 F300.0 X309.0078 Y46.5461
G2 F800.0 X311.8 Y33.4092 I-29.5078 J-13.1369
G2 X263.35 Y5.4366 I-32.3 J0.0
G2 Y61.3819 I16.15 J27.9726
G2 X309.0078 Y46.5461 I16.15 J-27.9726
G1 F300.0 X310.1041 Y47.0342
G2 F800.0 X313.0 Y33.4092 I-30.6041 J-13.6249
G2 X262.75 Y4.3974 I-33.5 J0.0
G2 Y62.4211 I16.75 J29.0119
G2 X310.1041 Y47.0342 I16.75 J-29.0119
G0 Z10.0
G0 X303.8799 Y44.7773
G0 Z-5.0
G1 F300.0 Z-9.0
G1 F800.0 X301.5349 Y48.8388
G2 X303.8799 Y44.7773 I-22.0349 J-15.4296
G1 F300.0 X304.4236 Y45.0308
G2 F800.0 X306.3692 Y39.2657 I-24.9236 J-11.6216
G1 X298.0064 Y53.7504
G2 X304.4236 Y45.0308 I-18.5064 J-20.3412
G1 F300.0 X305.5112 Y45.538
G2 F800.0 X308.1986 Y33.6971 I-26.0112 J-12.1287
G1 X294.0986 Y58.119
G2 X305.5112 Y45.538 I-14.5986 J-24.7098
G0 Z10.0
G0 X302.9896 Y20.3002
G0 Z-5.0
G1 F300.0 Z-9.0
G2 F800.0 X302.5976 Y19.6212 I-23.4896 J13.1091
G1 Y20.0738
G1 X302.9896 Y20.3002
G1 F300.0 X303.5136 Y20.0078
G2 F800.0 X301.9976 Y17.5944 I-24.0136 J13.4015
G1 Y20.4202
G1 X304.4448 Y21.8331
G2 X303.5136 Y20.0078 I-24.9448 J11.5761
G1 F300.0 X304.5614 Y19.423
G2 F800.0 X300.7721 Y14.143 I-25.0614 J13.9863
G3 X300.7976 Y14.7092 I-6.2721 J0.5662
G1 Y21.1131
G1 X306.3435 Y24.315
G3 X306.8211 Y24.6202 I-3.1488 J5.4539
G2 X304.5614 Y19.423 I-27.3211 J8.7891
G0 Z10.0
G0 X281.8449 Y6.6116
G0 Z-5.0
G1 F300.0 Z-9.0
G2 F800.0 X277.1551 I-2.3449 J26.7976
G1 X281.8449
G1 F300.0 X281.8972 Y6.0139
G2 F800.0 X271.1372 Y7.2116 I-2.3972 J27.3953
G1 X287.8628
G2 X281.8972 Y6.0139 I-8.3628 J26.1976
G1 F300.0 X282.0018 Y4.8185
G2 F800.0 X265.4 Y8.4116 I-2.5018 J28.5907
G1 X293.6
G2 X282.0018 Y4.8185 I-14.1 J24.9976
G0 Z10.0
G0 X256.4024 Y19.6212
G0 Z-5.0
G1 F300.0 Z-9.0
G2 F800.0 X256.0104 Y20.3002 I23.0976 J13.7881
G1 X256.4024 Y20.0738
G1 Y19.6212
G1 F300.0 X257.0024
G1 F800.0 Y17.5944
G2 X254.5552 Y21.8331 I22.4976 J15.8148
G1 X257.0024 Y20.4202
G1 Y19.6212
G1 F300.0 X258.2024
G1 F800.0 Y14.7092
G3 X258.2279 Y14.143 I6.2976 J0.0
G2 X252.1789 Y24.6202 I21.2721 J19.2662
G3 X252.6565 Y24.315 I3.6264 J5.1487
G1 X258.2024 Y21.1131
G1 Y19.6212
G0 Z10.0
G0 X255.1201 Y44.7773
G0 Z-5.0
G1 F300.0 Z-9.0
G2 F800.0 X257.4651 Y48.8388 I24.3799 J-11.368
G1 X255.1201 Y44.7773
G1 F300.0 X255.6398 Y44.4773
G1 F800.0 X252.6308 Y39.2657
G2 X260.9936 Y53.7504 I26.8692 J-5.8564
G1 X255.6398 Y44.4773
G1 F300.0 X256.679 Y43.8773
G1 F800.0 X250.8014 Y33.6971
G2 X264.9014 Y58.119 I28.6986 J-0.2878
G1 X256.679 Y43.8773
G0 Z10.0
G0 X279.108 Y60.3064
G0 Z-5.0
G1 F300.0 Z-9.0
G2 F800.0 X279.892 I0.392 J-26.8971
G1 X279.5 Y60.0801
G1 X279.108 Y60.3064
G1 F300.0 X279.0992 Y60.9063
G2 F800.0 X281.9472 Y60.8001 I0.4008 J-27.4971
G1 X279.5 Y59.3872
G1 X277.0528 Y60.8001
G2 X279.0992 Y60.9063 I2.4472 J-27.3909
G1 F300.0 X279.0817 Y62.1062
G2 F800.0 X285.549 Y61.4645 I0.4183 J-28.697
G3 X285.0459 Y61.2035 I2.6457 J-5.7149
G1 X279.5 Y58.0016
G1 X273.9541 Y61.2035
G3 X273.451 Y61.4645 I-3.1488 J-5.4539
G2 X279.0817 Y62.1062 I6.049 J-28.0553
G0 Z10.0
G0 X275.609 Y56.0912
G0 Z-5.0
G1 F300.0 Z-9.0
G1 F800.0 X272.1541 Y58.0858
G3 X268.4691 Y57.0984 I-1.3488 J-2.3362
G1 X253.4691 Y31.1177
G3 X254.4565 Y27.4327 I2.3362 J-1.3488
G1 X261.4012 Y23.4232
G2 X261.8024 Y22.7283 I-0.4012 J-0.6949
G1 Y14.7092
G3 X264.5 Y12.0116 I2.6976 J0.0
G1 X294.5
G3 X297.1976 Y14.7092 I0.0 J2.6976
G1 Y22.7283
G2 X297.5988 Y23.4232 I0.8024 J0.0
G1 X304.5435 Y27.4327
G3 X305.5309 Y31.1177 I-1.3488 J2.3362
G1 X290.5309 Y57.0984
G3 X286.8459 Y58.0858 I-2.3362 J-1.3488
G1 X279.9012 Y54.0763
G2 X279.0988 I-0.4012 J0.6949
G1 X275.609 Y56.0912
G1 F300.0 X275.0102 Y55.054
G1 F800.0 X271.5553 Y57.0487
G3 X269.5063 Y56.4996 I-0.75 J-1.299
G1 X254.5063 Y30.5189
G3 X255.0553 Y28.4698 I1.299 J-0.75
G1 X262.0 Y24.4603
G2 X263.0 Y22.7283 I-1.0 J-1.7321
G1 Y14.7092
G3 X264.5 Y13.2092 I1.5 J0.0
G1 X294.5
G3 X296.0 Y14.7092 I0.0 J1.5
G1 Y22.7283
G2 X297.0 Y24.4603 I2.0 J0.0
G1 X303.9447 Y28.4698
G3 X304.4937 Y30.5189 I-0.75 J1.299
G1 X289.4937 Y56.4996
G3 X287.4447 Y57.0487 I-1.299 J-0.75
G1 X280.5 Y53.0391
G2 X278.5 I-1.0 J1.7321
G1 X275.0102 Y55.054
G0 Z10.0
G0 X276.209 Y57.1304
G0 Z-5.0
G1 F300.0 Z-9.0
G1 F800.0 X279.5 Y55.2303
G1 X286.2459 Y59.125
G2 X291.5701 Y57.6984 I1.9488 J-3.3754
G1 X306.5701 Y31.7177
G2 X305.1435 Y26.3934 I-3.3754 J-1.9488
G1 X298.3976 Y22.4987
G1 Y14.7092
G2 X294.5 Y10.8116 I-3.8976 J0.0
G1 X264.5
G2 X260.6024 Y14.7092 I0.0 J3.8976
G1 Y22.4987
G1 X253.8565 Y26.3934
G2 X252.4299 Y31.7177 I1.9488 J3.3754
G1 X267.4299 Y57.6984
G2 X272.7541 Y59.125 I3.3754 J-1.9488
G1 X276.209 Y57.1304
G1 F300.0 X276.809 Y58.1696
G1 F800.0 X279.5 Y56.616
G1 X285.6459 Y60.1643
G2 X292.6093 Y58.2984 I2.5488 J-4.4147
G1 X307.6093 Y32.3177
G2 X305.7435 Y25.3542 I-4.4147 J-2.5488
G1 X299.5976 Y21.8059
G1 Y14.7092
G2 X294.5 Y9.6116 I-5.0976 J0.0
G1 X264.5
G2 X259.4024 Y14.7092 I0.0 J5.0976
G1 Y21.8059
G1 X253.2565 Y25.3542
G2 X251.3907 Y32.3177 I2.5488 J4.4147
G1 X266.3907 Y58.2984
G2 X273.3541 Y60.1643 I4.4147 J-2.5488
G1 X276.809 Y58.1696
G0 Z10.0
G0 X276.2694 Y63.1342
G0 Z-5.0
G1 F300.0 Z-9.0
G2 F800.0 X309.4 Y33.4092 I3.2306 J-29.725
G2 X264.55 Y7.5151 I-29.9 J0.0
G2 Y59.3034 I14.95 J25.8942
G2 X276.2694 Y63.1342 I14.95 J-25.8942
G1 F300.0 X276.1397 Y64.3272
G2 F800.0 X310.6 Y33.4092 I3.3603 J-30.9179
G2 X263.95 Y6.4759 I-31.1 J0.0
G2 Y60.3426 I15.55 J26.9334
G2 X276.1397 Y64.3272 I15.55 J-26.9334
G1 F300.0 X276.0101 Y65.5202
G2 F800.0 X311.8 Y33.4092 I3.4899 J-32.1109
G2 X263.35 Y5.4366 I-32.3 J0.0
G2 Y61.3819 I16.15 J27.9726
G2 X276.0101 Y65.5202 I16.15 J-27.9726
G1 F300.0 X275.8804 Y66.7131
G2 F800.0 X313.0 Y33.4092 I3.6196 J-33.3039
G2 X262.75 Y4.3974 I-33.5 J0.0
G2 Y62.4211 I16.75 J29.0119
G2 X275.8804 Y66.7131 I16.75 J-29.0119
G0 Z10.0
G0 X279.108 Y60.3064
G0 Z-8.0
G1 F300.0 Z-12.0
G2 F800.0 X279.892 I0.392 J-26.8971
G1 X279.5 Y60.0801
G1 X279.108 Y60.3064
G1 F300.0 X279.0992 Y60.9063
G2 F800.0 X281.9472 Y60.8001 I0.4008 J-27.4971
G1 X279.5 Y59.3872
G1 X277.0528 Y60.8001
G2 X279.0992 Y60.9063 I2.4472 J-27.3909
G1 F300.0 X279.0817 Y62.1062
G2 F800.0 X285.549 Y61.4645 I0.4183 J-28.697
G3 X285.0459 Y61.2035 I2.6457 J-5.7149
G1 X279.5 Y58.0016
G1 X273.9541 Y61.2035
G3 X273.451 Y61.4645 I-3.1488 J-5.4539
G2 X279.0817 Y62.1062 I6.049 J-28.0553
G0 Z10.0
G0 X257.4651 Y48.8388
G0 Z-8.0
G1 F300.0 Z-12.0
G1 F800.0 X255.1201 Y44.7773
G2 X257.4651 Y48.8388 I24.3799 J-11.368
G1 F300.0 X257.9847 Y48.5388
G1 F800.0 X252.6308 Y39.2657
G2 X260.9936 Y53.7504 I26.8692 J-5.8564
G1 X257.9847 Y48.5388
G1 F300.0 X259.0239 Y47.9388
G1 F800.0 X250.8014 Y33.6971
G2 X264.9014 Y58.119 I28.6986 J-0.2878
G1 X259.0239 Y47.9388
G0 Z10.0
G0 X256.0104 Y20.3002
G0 Z-8.0
G1 F300.0 Z-12.0
G1 F800.0 X256.4024 Y20.0738
G1 Y19.6212
G2 X256.0104 Y20.3002 I23.0976 J13.7881
G1 F300.0 X256.3104 Y20.8198
G1 F800.0 X257.0024 Y20.4202
G1 Y17.5944
G2 X254.5552 Y21.8331 I22.4976 J15.8148
G1 X256.3104 Y20.8198
G1 F300.0 X256.9104 Y21.859
G1 F800.0 X258.2024 Y21.1131
G1 Y14.7092
G3 X258.2279 Y14.143 I6.2976 J0.0
G2 X252.1789 Y24.6202 I21.2721 J19.2662
G3 X252.6565 Y24.315 I3.6264 J5.1487
G1 X256.9104 Y21.859
G0 Z10.0
G0 X277.1551 Y6.6116
G0 Z-8.0
G1 F300.0 Z-12.0
G1 F800.0 X281.8449
G2 X277.1551 I-2.3449 J26.7976
G1 F300.0 X277.1028 Y6.0139
G2 F800.0 X271.1372 Y7.2116 I2.3972 J27.3953
G1 X287.8628
G2 X277.1028 Y6.0139 I-8.3628 J26.1976
G1 F300.0 X276.9982 Y4.8185
G2 F800.0 X265.4 Y8.4116 I2.5018 J28.5907
G1 X293.6
G2 X276.9982 Y4.8185 I-14.1 J24.9976
G0 Z10.0
G0 X302.5976 Y19.6212
G0 Z-8.0
G1 F300.0 Z-12.0
G1 F800.0 Y20.0738
G1 X302.9896 Y20.3002
G2 X302.5976 Y19.6212 I-23.4896 J13.1091
G1 F300.0 X303.1128 Y19.3136
G2 F800.0 X301.9976 Y17.5944 I-23.6128 J14.0956
G1 Y20.4202
G1 X304.4448 Y21.8331
G2 X303.1128 Y19.3136 I-24.9448 J11.5761
G1 F300.0 X304.1432 Y18.6985
G2 F800.0 X300.7721 Y14.143 I-24.6432 J14.7107
G3 X300.7976 Y14.7092 I-6.2721 J0.5662
G1 Y21.1131
G1 X306.3435 Y24.315
G3 X306.8211 Y24.6202 I-3.1488 J5.4539
G2 X304.1432 Y18.6985 I-27.3211 J8.7891
G0 Z10.0
G0 X303.8799 Y44.7773
G0 Z-8.0
G1 F300.0 Z-12.0
G1 F800.0 X301.5349 Y48.8388
G2 X303.8799 Y44.7773 I-22.0349 J-15.4296
G1 F300.0 X304.4236 Y45.0308
G2 F800.0 X306.3692 Y39.2657 I-24.9236 J-11.6216
G1 X298.0064 Y53.7504
G2 X304.4236 Y45.0308 I-18.5064 J-20.3412
G1 F300.0 X305.5112 Y45.538
G2 F800.0 X308.1986 Y33.6971 I-26.0112 J-12.1287
G1 X294.0986 Y58.119
G2 X305.5112 Y45.538 I-14.5986 J-24.7098
G0 Z10.0
G0 X299.2818 Y41.9414
G0 Z-8.0
G1 F300.0 Z-12.0
G1 F800.0 X290.5309 Y57.0984
G3 X286.8459 Y58.0858 I-2.3362 J-1.3488
G1 X279.9012 Y54.0763
G2 X279.0988 I-0.4012 J0.6949
G1 X272.1541 Y58.0858
G3 X268.4691 Y57.0984 I-1.3488 J-2.3362
G1 X253.4691 Y31.1177
G3 X254.4565 Y27.4327 I2.3362 J-1.3488
G1 X261.4012 Y23.4232
G2 X261.8024 Y22.7283 I-0.4012 J-0.6949
G1 Y14.7092
G3 X264.5 Y12.0116 I2.6976 J0.0
G1 X294.5
G3 X297.1976 Y14.7092 I0.0 J2.6976
G1 Y22.7283
G2 X297.5988 Y23.4232 I0.8024 J0.0
G1 X304.5435 Y27.4327
G3 X305.5309 Y31.1177 I-1.3488 J2.3362
G1 X299.2818 Y41.9414
G1 F300.0 X298.2446 Y41.3426
G1 F800.0 X289.4937 Y56.4996
G3 X287.4447 Y57.0487 I-1.299 J-0.75
G1 X280.5 Y53.0391
G2 X278.5 I-1.0 J1.7321
G1 X271.5553 Y57.0487
G3 X269.5063 Y56.4996 I-0.75 J-1.299
G1 X254.5063 Y30.5189
G3 X255.0553 Y28.4698 I1.299 J-0.75
G1 X262.0 Y24.4603
G2 X263.0 Y22.7283 I-1.0 J-1.7321
G1 Y14.7092
G3 X264.5 Y13.2092 I1.5 J0.0
G1 X294.5
G3 X296.0 Y14.7092 I0.0 J1.5
G1 Y22.7283
G2 X297.0 Y24.4603 I2.0 J0.0
G1 X303.9447 Y28.4698
G3 X304.4937 Y30.5189 I-0.75 J1.299
G1 X298.2446 Y41.3426
G0 Z10.0
G0 X300.321 Y42.5414
G0 Z-8.0
G1 F300.0 Z-12.0
G1 F800.0 X306.5701 Y31.7177
G2 X305.1435 Y26.3934 I-3.3754 J-1.9488
G1 X298.3976 Y22.4987
G1 Y14.7092
G2 X294.5 Y10.8116 I-3.8976 J0.0
G1 X264.5
G2 X260.6024 Y14.7092 I0.0 J3.8976
G1 Y22.4987
G1 X253.8565 Y26.3934
G2 X252.4299 Y31.7177 I1.9488 J3.3754
G1 X267.4299 Y57.6984
G2 X272.7541 Y59.125 I3.3754 J-1.9488
G1 X279.5 Y55.2303
G1 X286.2459 Y59.125
G2 X291.5701 Y57.6984 I1.9488 J-3.3754
G1 X300.321 Y42.5414
G1 F300.0 X301.3602 Y43.1414
G1 F800.0 X307.6093 Y32.3177
G2 X305.7435 Y25.3542 I-4.4147 J-2.5488
G1 X299.5976 Y21.8059
G1 Y14.7092
G2 X294.5 Y9.6116 I-5.0976 J0.0
G1 X264.5
G2 X259.4024 Y14.7092 I0.0 J5.0976
G1 Y21.8059
G1 X253.2565 Y25.3542
G2 X251.3907 Y32.3177 I2.5488 J4.4147
G1 X266.3907 Y58.2984
G2 X273.3541 Y60.1643 I4.4147 J-2.5488
G1 X279.5 Y56.616
G1 X285.6459 Y60.1643
G2 X292.6093 Y58.2984 I2.5488 J-4.4147
G1 X301.3602 Y43.1414
G0 Z10.0
G0 X306.8153 Y45.57
G0 Z-8.0
G1 F300.0 Z-12.0
G2 F800.0 X309.4 Y33.4092 I-27.3153 J-12.1607
G2 X264.55 Y7.5151 I-29.9 J0.0
G2 Y59.3034 I14.95 J25.8942
G2 X306.8153 Y45.57 I14.95 J-25.8942
G1 F300.0 X307.9116 Y46.058
G2 F800.0 X310.6 Y33.4092 I-28.4116 J-12.6488
G2 X263.95 Y6.4759 I-31.1 J0.0
G2 Y60.3426 I15.55 J26.9334
G2 X307.9116 Y46.058 I15.55 J-26.9334
G1 F300.0 X309.0078 Y46.5461
G2 F800.0 X311.8 Y33.4092 I-29.5078 J-13.1369
G2 X263.35 Y5.4366 I-32.3 J0.0
G2 Y61.3819 I16.15 J27.9726
G2 X309.0078 Y46.5461 I16.15 J-27.9726
G1 F300.0 X310.1041 Y47.0342
G2 F800.0 X313.0 Y33.4092 I-30.6041 J-13.6249
G2 X262.75 Y4.3974 I-33.5 J0.0
G2 Y62.4211 I16.75 J29.0119
G2 X310.1041 Y47.0342 I16.75 J-29.0119
G0 Z10.0
G0 X303.8799 Y44.7773
G0 Z-11.0
G1 F300.0 Z-14.0
G1 F800.0 X301.5349 Y48.8388
G2 X303.8799 Y44.7773 I-22.0349 J-15.4296
G1 F300.0 X304.4236 Y45.0308
G2 F800.0 X306.3692 Y39.2657 I-24.9236 J-11.6216
G1 X298.0064 Y53.7504
G2 X304.4236 Y45.0308 I-18.5064 J-20.3412
G1 F300.0 X305.5112 Y45.538
G2 F800.0 X308.1986 Y33.6971 I-26.0112 J-12.1287
G1 X294.0986 Y58.119
G2 X305.5112 Y45.538 I-14.5986 J-24.7098
G0 Z10.0
G0 X302.9896 Y20.3002
G0 Z-11.0
G1 F300.0 Z-14.0
G2 F800.0 X302.5976 Y19.6212 I-23.4896 J13.1091
G1 Y20.0738
G1 X302.9896 Y20.3002
G1 F300.0 X303.5136 Y20.0078
G2 F800.0 X301.9976 Y17.5944 I-24.0136 J13.4015
G1 Y20.4202
G1 X304.4448 Y21.8331
G2 X303.5136 Y20.0078 I-24.9448 J11.5761
G1 F300.0 X304.5614 Y19.423
G2 F800.0 X300.7721 Y14.143 I-25.0614 J13.9863
G3 X300.7976 Y14.7092 I-6.2721 J0.5662
G1 Y21.1131
G1 X306.3435 Y24.315
G3 X306.8211 Y24.6202 I-3.1488 J5.4539
G2 X304.5614 Y19.423 I-27.3211 J8.7891
G0 Z10.0
G0 X281.8449 Y6.6116
G0 Z-11.0
G1 F300.0 Z-14.0
G2 F800.0 X277.1551 I-2.3449 J26.7976
G1 X281.8449
G1 F300.0 X281.8972 Y6.0139
G2 F800.0 X271.1372 Y7.2116 I-2.3972 J27.3953
G1 X287.8628
G2 X281.8972 Y6.0139 I-8.3628 J26.1976
G1 F300.0 X282.0018 Y4.8185
G2 F800.0 X265.4 Y8.4116 I-2.5018 J28.5907
G1 X293.6
G2 X282.0018 Y4.8185 I-14.1 J24.9976
G0 Z10.0
G0 X256.4024 Y19.6212
G0 Z-11.0
G1 F300.0 Z-14.0
G2 F800.0 X256.0104 Y20.3002 I23.0976 J13.7881
G1 X256.4024 Y20.0738
G1 Y19.6212
G1 F300.0 X257.0024
G1 F800.0 Y17.5944
G2 X254.5552 Y21.8331 I22.4976 J15.8148
G1 X257.0024 Y20.4202
G1 Y19.6212
G1 F300.0 X258.2024
G1 F800.0 Y14.7092
G3 X258.2279 Y14.143 I6.2976 J0.0
G2 X252.1789 Y24.6202 I21.2721 J19.2662
G3 X252.6565 Y24.315 I3.6264 J5.1487
G1 X258.2024 Y21.1131
G1 Y19.6212
G0 Z10.0
G0 X255.1201 Y44.7773
G0 Z-11.0
G1 F300.0 Z-14.0
G2 F800.0 X257.4651 Y48.8388 I24.3799 J-11.368
G1 X255.1201 Y44.7773
G1 F300.0 X255.6398 Y44.4773
G1 F800.0 X252.6308 Y39.2657
G2 X260.9936 Y53.7504 I26.8692 J-5.8564
G1 X255.6398 Y44.4773
G1 F300.0 X256.679 Y43.8773
G1 F800.0 X250.8014 Y33.6971
G2 X264.9014 Y58.119 I28.6986 J-0.2878
G1 X256.679 Y43.8773
G0 Z10.0
G0 X279.108 Y60.3064
G0 Z-11.0
G1 F300.0 Z-14.0
G2 F800.0 X279.892 I0.392 J-26.8971
G1 X279.5 Y60.0801
G1 X279.108 Y60.3064
G1 F300.0 X279.0992 Y60.9063
G2 F800.0 X281.9472 Y60.8001 I0.4008 J-27.4971
G1 X279.5 Y59.3872
G1 X277.0528 Y60.8001
G2 X279.0992 Y60.9063 I2.4472 J-27.3909
G1 F300.0 X279.0817 Y62.1062
G2 F800.0 X285.549 Y61.4645 I0.4183 J-28.697
G3 X285.0459 Y61.2035 I2.6457 J-5.7149
G1 X279.5 Y58.0016
G1 X273.9541 Y61.2035
G3 X273.451 Y61.4645 I-3.1488 J-5.4539
G2 X279.0817 Y62.1062 I6.049 J-28.0553
G0 Z10.0
G0 X275.609 Y56.0912
G0 Z-10.0
G1 F300.0 Z-14.0
G1 F800.0 X272.1541 Y58.0858
G3 X268.4691 Y57.0984 I-1.3488 J-2.3362
G1 X253.4691 Y31.1177
G3 X254.4565 Y27.4327 I2.3362 J-1.3488
G1 X261.4012 Y23.4232
G2 X261.8024 Y22.7283 I-0.4012 J-0.6949
G1 Y14.7092
G3 X264.5 Y12.0116 I2.6976 J0.0
G1 X294.5
G3 X297.1976 Y14.7092 I0.0 J2.6976
G1 Y22.7283
G2 X297.5988 Y23.4232 I0.8024 J0.0
G1 X304.5435 Y27.4327
G3 X305.5309 Y31.1177 I-1.3488 J2.3362
G1 X290.5309 Y57.0984
G3 X286.8459 Y58.0858 I-2.3362 J-1.3488
G1 X279.9012 Y54.0763
G2 X279.0988 I-0.4012 J0.6949
G1 X275.609 Y56.0912
G1 F300.0 X275.0102 Y55.054
G1 F800.0 X271.5553 Y57.0487
G3 X269.5063 Y56.4996 I-0.75 J-1.299
G1 X254.5063 Y30.5189
G3 X255.0553 Y28.4698 I1.299 J-0.75
G1 X262.0 Y24.4603
G2 X263.0 Y22.7283 I-1.0 J-1.7321
G1 Y14.7092
G3 X264.5 Y13.2092 I1.5 J0.0
G1 X294.5
G3 X296.0 Y14.7092 I0.0 J1.5
G1 Y22.7283
G2 X297.0 Y24.4603 I2.0 J0.0
G1 X303.9447 Y28.4698
G3 X304.4937 Y30.5189 I-0.75 J1.299
G1 X289.4937 Y56.4996
G3 X287.4447 Y57.0487 I-1.299 J-0.75
G1 X280.5 Y53.0391
G2 X278.5 I-1.0 J1.7321
G1 X275.0102 Y55.054
G0 Z10.0
G0 X276.209 Y57.1304
G0 Z-10.0
G1 F300.0 Z-14.0
G1 F800.0 X279.5 Y55.2303
G1 X286.2459 Y59.125
G2 X291.5701 Y57.6984 I1.9488 J-3.3754
G1 X306.5701 Y31.7177
G2 X305.1435 Y26.3934 I-3.3754 J-1.9488
G1 X298.3976 Y22.4987
G1 Y14.7092
G2 X294.5 Y10.8116 I-3.8976 J0.0
G1 X264.5
G2 X260.6024 Y14.7092 I0.0 J3.8976
G1 Y22.4987
G1 X253.8565 Y26.3934
G2 X252.4299 Y31.7177 I1.9488 J3.3754
G1 X267.4299 Y57.6984
G2 X272.7541 Y59.125 I3.3754 J-1.9488
G1 X276.209 Y57.1304
G1 F300.0 X276.809 Y58.1696
G1 F800.0 X279.5 Y56.616
G1 X285.6459 Y60.1643
G2 X292.6093 Y58.2984 I2.5488 J-4.4147
G1 X307.6093 Y32.3177
G2 X305.7435 Y25.3542 I-4.4147 J-2.5488
G1 X299.5976 Y21.8059
G1 Y14.7092
G2 X294.5 Y9.6116 I-5.0976 J0.0
G1 X264.5
G2 X259.4024 Y14.7092 I0.0 J5.0976
G1 Y21.8059
G1 X253.2565 Y25.3542
G2 X251.3907 Y32.3177 I2.5488 J4.4147
G1 X266.3907 Y58.2984
G2 X273.3541 Y60.1643 I4.4147 J-2.5488
G1 X276.809 Y58.1696
G0 Z10.0
G0 X276.2694 Y63.1342
G0 Z-10.0
G1 F300.0 Z-14.0
G2 F800.0 X309.4 Y33.4092 I3.2306 J-29.725
G2 X264.55 Y7.5151 I-29.9 J0.0
G2 Y59.3034 I14.95 J25.8942
G2 X276.2694 Y63.1342 I14.95 J-25.8942
G1 F300.0 X276.1397 Y64.3272
G2 F800.0 X310.6 Y33.4092 I3.3603 J-30.9179
G2 X263.95 Y6.4759 I-31.1 J0.0
G2 Y60.3426 I15.55 J26.9334
G2 X276.1397 Y64.3272 I15.55 J-26.9334
G1 F300.0 X276.0101 Y65.5202
G2 F800.0 X311.8 Y33.4092 I3.4899 J-32.1109
G2 X263.35 Y5.4366 I-32.3 J0.0
G2 Y61.3819 I16.15 J27.9726
G2 X276.0101 Y65.5202 I16.15 J-27.9726
G1 F300.0 X275.8804 Y66.7131
G2 F800.0 X313.0 Y33.4092 I3.6196 J-33.3039
G2 X262.75 Y4.3974 I-33.5 J0.0
G2 Y62.4211 I16.75 J29.0119
G2 X275.8804 Y66.7131 I16.75 J-29.0119
( Profile1 plug  )
S1000
G0 Z10.0
G0 X310.9 Y33.4092
G0 Z1.0
G1 F300.0 Z0.0
G3 F800.0 X263.8 Y60.6024 Z-1.6667 I-31.4 J0.0
G3 Y6.216 Z-3.3333 I15.7 J-27.1932
G3 X310.9 Y33.4092 Z-5.0 I15.7 J27.1932
G3 X263.8 Y60.6024 Z-6.6667 I-31.4 J0.0
G3 Y6.216 Z-8.3333 I15.7 J-27.1932
G3 X310.9 Y33.4092 Z-10.0 I15.7 J27.1932
G3 X263.8 Y60.6024 Z-11.6667 I-31.4 J0.0
G3 Y6.216 Z-13.3333 I15.7 J-27.1932
G3 X310.9 Y33.4092 Z-15.0 I15.7 J27.1932
G3 X297.7263 Y58.978 Z-15.6209 I-31.4 J0.0
G3 X292.5301 Y61.978 Z-15.7458 I-18.2263 J-25.5688
G3 X263.8 Y60.6024 Z-16.3667 I-13.0301 J-28.5688
G3 X248.2436 Y36.4092 Z-16.9876 I15.7 J-27.1932
G0 Z-16.1
G3 Y30.4092 I31.2564 J-3.0
G1 F300.0 Z-17.1124
G3 F800.0 X263.8 Y6.216 Z-17.7333 I31.2564 J3.0
G3 X292.5301 Y4.8404 Z-18.3542 I15.7 J27.1932
G0 Z-16.1
G3 X297.7263 Y7.8404 I-13.0301 J28.5688
G1 F300.0 Z-18.4791
G3 F800.0 X310.9 Y33.4092 Z-19.1 I-18.2263 J25.5688
G3 X297.7263 Y58.978 I-31.4 J0.0
G0 Z-16.1
G3 X292.5301 Y61.978 I-18.2263 J-25.5688
G1 F300.0 Z-19.1
G3 F800.0 X263.8 Y60.6024 I-13.0301 J-28.5688
G3 X248.2436 Y36.4092 I15.7 J-27.1932
G0 Z-16.1
G3 Y30.4092 I31.2564 J-3.0
G0 Z-16.1124
G1 F300.0 Z-19.1
G3 F800.0 X263.8 Y6.216 I31.2564 J3.0
G3 X292.5301 Y4.8404 I15.7 J27.1932
G0 Z-16.1
G3 X297.7263 Y7.8404 I-13.0301 J28.5688
G0 Z-17.4791
G1 F300.0 Z-19.1
G3 F800.0 X310.9 Y33.4092 I-18.2263 J25.5688
G0 Z10.0
M5
M30
