( Made using CamBam - http://www.cambam.co.uk )
( Ken-Stool.Cutting-Legs 8/16/2015 12:51:51 PM )
( T3 : 3.0 )
G21 G90 G64 G40
G0 Z3.0
( T3 : 3.0 )
T3 M6
( Pocket2 )
G17
M3 S1000
G0 X444.8799 Y300.7773
G0 Z1.0
G1 F300.0 Z-5.0
G1 F800.0 X442.5349 Y304.8388
G2 X444.8799 Y300.7773 I-22.0349 J-15.4296
G1 F300.0 X444.3602 Y300.4773
G1 F800.0 X439.0064 Y309.7504
G2 X447.3692 Y295.2657 I-18.5064 J-20.3412
G1 X444.3602 Y300.4773
G1 F300.0 X443.321 Y299.8773
G1 F800.0 X435.0986 Y314.119
G2 X449.1986 Y289.6971 I-14.5986 J-24.7098
G1 X443.321 Y299.8773
G0 Z3.0
G0 X443.9896 Y276.3002
G0 Z1.0
G1 F300.0 Z-5.0
G2 F800.0 X443.5976 Y275.6212 I-23.4896 J13.1091
G1 Y276.0738
G1 X443.9896 Y276.3002
G1 F300.0 X444.5136 Y276.0078
G2 F800.0 X442.9976 Y273.5944 I-24.0136 J13.4015
G1 Y276.4202
G1 X445.4448 Y277.8331
G2 X444.5136 Y276.0078 I-24.9448 J11.5761
G1 F300.0 X445.5614 Y275.423
G2 F800.0 X441.7721 Y270.143 I-25.0614 J13.9863
G3 X441.7976 Y270.7092 I-6.2721 J0.5662
G1 Y277.1131
G1 X447.3435 Y280.315
G3 X447.8211 Y280.6202 I-3.1488 J5.4539
G2 X445.5614 Y275.423 I-27.3211 J8.7891
G0 Z3.0
G0 X422.8449 Y262.6116
G0 Z1.0
G1 F300.0 Z-5.0
G2 F800.0 X418.1551 I-2.3449 J26.7976
G1 X422.8449
G1 F300.0 Y263.2116
G1 F800.0 X428.8628
G2 X412.1372 I-8.3628 J26.1976
G1 X422.8449
G1 F300.0 Y264.4116
G1 F800.0 X434.6
G2 X406.4 I-14.1 J24.9976
G1 X422.8449
G0 Z3.0
G0 X397.4024 Y275.6212
G0 Z1.0
G1 F300.0 Z-5.0
G2 F800.0 X397.0104 Y276.3002 I23.0976 J13.7881
G1 X397.4024 Y276.0738
G1 Y275.6212
G1 F300.0 X398.0024
G1 F800.0 Y273.5944
G2 X395.5552 Y277.8331 I22.4976 J15.8148
G1 X398.0024 Y276.4202
G1 Y275.6212
G1 F300.0 X399.2024
G1 F800.0 Y270.7092
G3 X399.2279 Y270.143 I6.2976 J0.0
G2 X393.1789 Y280.6202 I21.2721 J19.2662
G3 X393.6565 Y280.315 I3.6264 J5.1487
G1 X399.2024 Y277.1131
G1 Y275.6212
G0 Z3.0
G0 X396.1201 Y300.7773
G0 Z1.0
G1 F300.0 Z-5.0
G2 F800.0 X398.4651 Y304.8388 I24.3799 J-11.368
G1 X396.1201 Y300.7773
G1 F300.0 X395.5764 Y301.0308
G2 F800.0 X401.9936 Y309.7504 I24.9236 J-11.6216
G1 X393.6308 Y295.2657
G2 X395.5764 Y301.0308 I26.8692 J-5.8564
G1 F300.0 X394.4888 Y301.538
G2 F800.0 X405.9014 Y314.119 I26.0112 J-12.1287
G1 X391.8014 Y289.6971
G2 X394.4888 Y301.538 I28.6986 J-0.2878
G0 Z3.0
G0 X420.108 Y316.3064
G0 Z1.0
G1 F300.0 Z-5.0
G2 F800.0 X420.892 I0.392 J-26.8971
G1 X420.5 Y316.0801
G1 X420.108 Y316.3064
G1 F300.0 X420.0992 Y316.9063
G2 F800.0 X422.9472 Y316.8001 I0.4008 J-27.4971
G1 X420.5 Y315.3872
G1 X418.0528 Y316.8001
G2 X420.0992 Y316.9063 I2.4472 J-27.3909
G1 F300.0 X420.0817 Y318.1062
G2 F800.0 X426.549 Y317.4645 I0.4183 J-28.697
G3 X426.0459 Y317.2035 I2.6457 J-5.7149
G1 X420.5 Y314.0016
G1 X414.9541 Y317.2035
G3 X414.451 Y317.4645 I-3.1488 J-5.4539
G2 X420.0817 Y318.1062 I6.049 J-28.0553
G0 Z3.0
G0 X416.609 Y312.0912
G0 Z1.0
G1 F300.0 Z-5.0
G1 F800.0 X413.1541 Y314.0858
G3 X409.4691 Y313.0984 I-1.3488 J-2.3362
G1 X394.4691 Y287.1177
G3 X395.4565 Y283.4327 I2.3362 J-1.3488
G1 X402.4012 Y279.4232
G2 X402.8024 Y278.7283 I-0.4012 J-0.6949
G1 Y270.7092
G3 X405.5 Y268.0116 I2.6976 J0.0
G1 X435.5
G3 X438.1976 Y270.7092 I0.0 J2.6976
G1 Y278.7283
G2 X438.5988 Y279.4232 I0.8024 J0.0
G1 X445.5435 Y283.4327
G3 X446.5309 Y287.1177 I-1.3488 J2.3362
G1 X431.5309 Y313.0984
G3 X427.8459 Y314.0858 I-2.3362 J-1.3488
G1 X420.9012 Y310.0763
G2 X420.0988 I-0.4012 J0.6949
G1 X416.609 Y312.0912
G1 F300.0 X416.0102 Y311.054
G1 F800.0 X412.5553 Y313.0487
G3 X410.5063 Y312.4996 I-0.75 J-1.299
G1 X395.5063 Y286.5189
G3 X396.0553 Y284.4698 I1.299 J-0.75
G1 X403.0 Y280.4603
G2 X404.0 Y278.7283 I-1.0 J-1.7321
G1 Y270.7092
G3 X405.5 Y269.2092 I1.5 J0.0
G1 X435.5
G3 X437.0 Y270.7092 I0.0 J1.5
G1 Y278.7283
G2 X438.0 Y280.4603 I2.0 J0.0
G1 X444.9447 Y284.4698
G3 X445.4937 Y286.5189 I-0.75 J1.299
G1 X430.4937 Y312.4996
G3 X428.4447 Y313.0487 I-1.299 J-0.75
G1 X421.5 Y309.0391
G2 X419.5 I-1.0 J1.7321
G1 X416.0102 Y311.054
G0 Z3.0
G0 X417.209 Y313.1304
G0 Z1.0
G1 F300.0 Z-5.0
G1 F800.0 X420.5 Y311.2303
G1 X427.2459 Y315.125
G2 X432.5701 Y313.6984 I1.9488 J-3.3754
G1 X447.5701 Y287.7177
G2 X446.1435 Y282.3934 I-3.3754 J-1.9488
G1 X439.3976 Y278.4987
G1 Y270.7092
G2 X435.5 Y266.8116 I-3.8976 J0.0
G1 X405.5
G2 X401.6024 Y270.7092 I0.0 J3.8976
G1 Y278.4987
G1 X394.8565 Y282.3934
G2 X393.4299 Y287.7177 I1.9488 J3.3754
G1 X408.4299 Y313.6984
G2 X413.7541 Y315.125 I3.3754 J-1.9488
G1 X417.209 Y313.1304
G1 F300.0 X417.809 Y314.1696
G1 F800.0 X420.5 Y312.616
G1 X426.6459 Y316.1643
G2 X433.6093 Y314.2984 I2.5488 J-4.4147
G1 X448.6093 Y288.3177
G2 X446.7435 Y281.3542 I-4.4147 J-2.5488
G1 X440.5976 Y277.8059
G1 Y270.7092
G2 X435.5 Y265.6116 I-5.0976 J0.0
G1 X405.5
G2 X400.4024 Y270.7092 I0.0 J5.0976
G1 Y277.8059
G1 X394.2565 Y281.3542
G2 X392.3907 Y288.3177 I2.5488 J4.4147
G1 X407.3907 Y314.2984
G2 X414.3541 Y316.1643 I4.4147 J-2.5488
G1 X417.809 Y314.1696
G0 Z3.0
G0 X417.2694 Y319.1342
G0 Z1.0
G1 F300.0 Z-5.0
G2 F800.0 X450.4 Y289.4092 I3.2306 J-29.725
G2 X405.55 Y263.5151 I-29.9 J0.0
G2 Y315.3034 I14.95 J25.8942
G2 X417.2694 Y319.1342 I14.95 J-25.8942
G1 F300.0 X417.1397 Y320.3272
G2 F800.0 X451.6 Y289.4092 I3.3603 J-30.9179
G2 X404.95 Y262.4759 I-31.1 J0.0
G2 Y316.3426 I15.55 J26.9334
G2 X417.1397 Y320.3272 I15.55 J-26.9334
G1 F300.0 X417.0101 Y321.5202
G2 F800.0 X452.8 Y289.4092 I3.4899 J-32.1109
G2 X404.35 Y261.4366 I-32.3 J0.0
G2 Y317.3819 I16.15 J27.9726
G2 X417.0101 Y321.5202 I16.15 J-27.9726
G1 F300.0 X416.8804 Y322.7131
G2 F800.0 X454.0 Y289.4092 I3.6196 J-33.3039
G2 X403.75 Y260.3974 I-33.5 J0.0
G2 Y318.4211 I16.75 J29.0119
G2 X416.8804 Y322.7131 I16.75 J-29.0119
G0 Z3.0
G0 X420.108 Y316.3064
G0 Z-4.0
G1 F300.0 Z-10.0
G2 F800.0 X420.892 I0.392 J-26.8971
G1 X420.5 Y316.0801
G1 X420.108 Y316.3064
G1 F300.0 X420.0992 Y316.9063
G2 F800.0 X422.9472 Y316.8001 I0.4008 J-27.4971
G1 X420.5 Y315.3872
G1 X418.0528 Y316.8001
G2 X420.0992 Y316.9063 I2.4472 J-27.3909
G1 F300.0 X420.0817 Y318.1062
G2 F800.0 X426.549 Y317.4645 I0.4183 J-28.697
G3 X426.0459 Y317.2035 I2.6457 J-5.7149
G1 X420.5 Y314.0016
G1 X414.9541 Y317.2035
G3 X414.451 Y317.4645 I-3.1488 J-5.4539
G2 X420.0817 Y318.1062 I6.049 J-28.0553
G0 Z3.0
G0 X398.4651 Y304.8388
G0 Z-4.0
G1 F300.0 Z-10.0
G1 F800.0 X396.1201 Y300.7773
G2 X398.4651 Y304.8388 I24.3799 J-11.368
G1 F300.0 X397.9736 Y305.183
G2 F800.0 X401.9936 Y309.7504 I22.5264 J-15.7737
G1 X393.6308 Y295.2657
G2 X397.9736 Y305.183 I26.8692 J-5.8564
G1 F300.0 X396.9906 Y305.8713
G2 F800.0 X405.9014 Y314.119 I23.5094 J-16.462
G1 X391.8014 Y289.6971
G2 X396.9906 Y305.8713 I28.6986 J-0.2878
G0 Z3.0
G0 X397.0104 Y276.3002
G0 Z-4.0
G1 F300.0 Z-10.0
G1 F800.0 X397.4024 Y276.0738
G1 Y275.6212
G2 X397.0104 Y276.3002 I23.0976 J13.7881
G1 F300.0 X397.3104 Y276.8198
G1 F800.0 X398.0024 Y276.4202
G1 Y273.5944
G2 X395.5552 Y277.8331 I22.4976 J15.8148
G1 X397.3104 Y276.8198
G1 F300.0 X397.9104 Y277.859
G1 F800.0 X399.2024 Y277.1131
G1 Y270.7092
G3 X399.2279 Y270.143 I6.2976 J0.0
G2 X393.1789 Y280.6202 I21.2721 J19.2662
G3 X393.6565 Y280.315 I3.6264 J5.1487
G1 X397.9104 Y277.859
G0 Z3.0
G0 X418.1551 Y262.6116
G0 Z-4.0
G1 F300.0 Z-10.0
G1 F800.0 X422.8449
G2 X418.1551 I-2.3449 J26.7976
G1 F300.0 Y263.2116
G1 F800.0 X428.8628
G2 X412.1372 I-8.3628 J26.1976
G1 X418.1551
G1 F300.0 Y264.4116
G1 F800.0 X434.6
G2 X406.4 I-14.1 J24.9976
G1 X418.1551
G0 Z3.0
G0 X443.5976 Y275.6212
G0 Z-4.0
G1 F300.0 Z-10.0
G1 F800.0 Y276.0738
G1 X443.9896 Y276.3002
G2 X443.5976 Y275.6212 I-23.4896 J13.1091
G1 F300.0 X442.9976
G1 F800.0 Y276.4202
G1 X445.4448 Y277.8331
G2 X442.9976 Y273.5944 I-24.9448 J11.5761
G1 Y275.6212
G1 F300.0 X441.7976
G1 F800.0 Y277.1131
G1 X447.3435 Y280.315
G3 X447.8211 Y280.6202 I-3.1488 J5.4539
G2 X441.7721 Y270.143 I-27.3211 J8.7891
G3 X441.7976 Y270.7092 I-6.2721 J0.5662
G1 Y275.6212
G0 Z3.0
G0 X444.8799 Y300.7773
G0 Z-4.0
G1 F300.0 Z-10.0
G1 F800.0 X442.5349 Y304.8388
G2 X444.8799 Y300.7773 I-22.0349 J-15.4296
G1 F300.0 X444.3602 Y300.4773
G1 F800.0 X439.0064 Y309.7504
G2 X447.3692 Y295.2657 I-18.5064 J-20.3412
G1 X444.3602 Y300.4773
G1 F300.0 X443.321 Y299.8773
G1 F800.0 X435.0986 Y314.119
G2 X449.1986 Y289.6971 I-14.5986 J-24.7098
G1 X443.321 Y299.8773
G0 Z3.0
G0 X440.2033 Y298.0773
G0 Z-4.0
G1 F300.0 Z-10.0
G1 F800.0 X431.5309 Y313.0984
G3 X427.8459 Y314.0858 I-2.3362 J-1.3488
G1 X420.9012 Y310.0763
G2 X420.0988 I-0.4012 J0.6949
G1 X413.1541 Y314.0858
G3 X409.4691 Y313.0984 I-1.3488 J-2.3362
G1 X394.4691 Y287.1177
G3 X395.4565 Y283.4327 I2.3362 J-1.3488
G1 X402.4012 Y279.4232
G2 X402.8024 Y278.7283 I-0.4012 J-0.6949
G1 Y270.7092
G3 X405.5 Y268.0116 I2.6976 J0.0
G1 X435.5
G3 X438.1976 Y270.7092 I0.0 J2.6976
G1 Y278.7283
G2 X438.5988 Y279.4232 I0.8024 J0.0
G1 X445.5435 Y283.4327
G3 X446.5309 Y287.1177 I-1.3488 J2.3362
G1 X440.2033 Y298.0773
G1 F300.0 X439.1662 Y297.4785
G1 F800.0 X430.4937 Y312.4996
G3 X428.4447 Y313.0487 I-1.299 J-0.75
G1 X421.5 Y309.0391
G2 X419.5 I-1.0 J1.7321
G1 X412.5553 Y313.0487
G3 X410.5063 Y312.4996 I-0.75 J-1.299
G1 X395.5063 Y286.5189
G3 X396.0553 Y284.4698 I1.299 J-0.75
G1 X403.0 Y280.4603
G2 X404.0 Y278.7283 I-1.0 J-1.7321
G1 Y270.7092
G3 X405.5 Y269.2092 I1.5 J0.0
G1 X435.5
G3 X437.0 Y270.7092 I0.0 J1.5
G1 Y278.7283
G2 X438.0 Y280.4603 I2.0 J0.0
G1 X444.9447 Y284.4698
G3 X445.4937 Y286.5189 I-0.75 J1.299
G1 X439.1662 Y297.4785
G0 Z3.0
G0 X441.2426 Y298.6773
G0 Z-4.0
G1 F300.0 Z-10.0
G1 F800.0 X447.5701 Y287.7177
G2 X446.1435 Y282.3934 I-3.3754 J-1.9488
G1 X439.3976 Y278.4987
G1 Y270.7092
G2 X435.5 Y266.8116 I-3.8976 J0.0
G1 X405.5
G2 X401.6024 Y270.7092 I0.0 J3.8976
G1 Y278.4987
G1 X394.8565 Y282.3934
G2 X393.4299 Y287.7177 I1.9488 J3.3754
G1 X408.4299 Y313.6984
G2 X413.7541 Y315.125 I3.3754 J-1.9488
G1 X420.5 Y311.2303
G1 X427.2459 Y315.125
G2 X432.5701 Y313.6984 I1.9488 J-3.3754
G1 X441.2426 Y298.6773
G1 F300.0 X442.2818 Y299.2773
G1 F800.0 X448.6093 Y288.3177
G2 X446.7435 Y281.3542 I-4.4147 J-2.5488
G1 X440.5976 Y277.8059
G1 Y270.7092
G2 X435.5 Y265.6116 I-5.0976 J0.0
G1 X405.5
G2 X400.4024 Y270.7092 I0.0 J5.0976
G1 Y277.8059
G1 X394.2565 Y281.3542
G2 X392.3907 Y288.3177 I2.5488 J4.4147
G1 X407.3907 Y314.2984
G2 X414.3541 Y316.1643 I4.4147 J-2.5488
G1 X420.5 Y312.616
G1 X426.6459 Y316.1643
G2 X433.6093 Y314.2984 I2.5488 J-4.4147
G1 X442.2818 Y299.2773
G0 Z3.0
G0 X447.7354 Y301.748
G0 Z-4.0
G1 F300.0 Z-10.0
G2 F800.0 X450.4 Y289.4092 I-27.2354 J-12.3387
G2 X405.55 Y263.5151 I-29.9 J0.0
G2 Y315.3034 I14.95 J25.8942
G2 X447.7354 Y301.748 I14.95 J-25.8942
G1 F300.0 X448.8284 Y302.2432
G2 F800.0 X451.6 Y289.4092 I-28.3284 J-12.8339
G2 X404.95 Y262.4759 I-31.1 J0.0
G2 Y316.3426 I15.55 J26.9334
G2 X448.8284 Y302.2432 I15.55 J-26.9334
G1 F300.0 X449.9215 Y302.7384
G2 F800.0 X452.8 Y289.4092 I-29.4215 J-13.3291
G2 X404.35 Y261.4366 I-32.3 J0.0
G2 Y317.3819 I16.15 J27.9726
G2 X449.9215 Y302.7384 I16.15 J-27.9726
G1 F300.0 X451.0145 Y303.2336
G2 F800.0 X454.0 Y289.4092 I-30.5145 J-13.8243
G2 X403.75 Y260.3974 I-33.5 J0.0
G2 Y318.4211 I16.75 J29.0119
G2 X451.0145 Y303.2336 I16.75 J-29.0119
G0 Z3.0
G0 X444.8799 Y300.7773
G0 Z-9.0
G1 F300.0 Z-14.0
G1 F800.0 X442.5349 Y304.8388
G2 X444.8799 Y300.7773 I-22.0349 J-15.4296
G1 F300.0 X444.3602 Y300.4773
G1 F800.0 X439.0064 Y309.7504
G2 X447.3692 Y295.2657 I-18.5064 J-20.3412
G1 X444.3602 Y300.4773
G1 F300.0 X443.321 Y299.8773
G1 F800.0 X435.0986 Y314.119
G2 X449.1986 Y289.6971 I-14.5986 J-24.7098
G1 X443.321 Y299.8773
G0 Z3.0
G0 X443.9896 Y276.3002
G0 Z-9.0
G1 F300.0 Z-14.0
G2 F800.0 X443.5976 Y275.6212 I-23.4896 J13.1091
G1 Y276.0738
G1 X443.9896 Y276.3002
G1 F300.0 X444.5136 Y276.0078
G2 F800.0 X442.9976 Y273.5944 I-24.0136 J13.4015
G1 Y276.4202
G1 X445.4448 Y277.8331
G2 X444.5136 Y276.0078 I-24.9448 J11.5761
G1 F300.0 X445.5614 Y275.423
G2 F800.0 X441.7721 Y270.143 I-25.0614 J13.9863
G3 X441.7976 Y270.7092 I-6.2721 J0.5662
G1 Y277.1131
G1 X447.3435 Y280.315
G3 X447.8211 Y280.6202 I-3.1488 J5.4539
G2 X445.5614 Y275.423 I-27.3211 J8.7891
G0 Z3.0
G0 X422.8449 Y262.6116
G0 Z-9.0
G1 F300.0 Z-14.0
G2 F800.0 X418.1551 I-2.3449 J26.7976
G1 X422.8449
G1 F300.0 Y263.2116
G1 F800.0 X428.8628
G2 X412.1372 I-8.3628 J26.1976
G1 X422.8449
G1 F300.0 Y264.4116
G1 F800.0 X434.6
G2 X406.4 I-14.1 J24.9976
G1 X422.8449
G0 Z3.0
G0 X397.4024 Y275.6212
G0 Z-9.0
G1 F300.0 Z-14.0
G2 F800.0 X397.0104 Y276.3002 I23.0976 J13.7881
G1 X397.4024 Y276.0738
G1 Y275.6212
G1 F300.0 X398.0024
G1 F800.0 Y273.5944
G2 X395.5552 Y277.8331 I22.4976 J15.8148
G1 X398.0024 Y276.4202
G1 Y275.6212
G1 F300.0 X399.2024
G1 F800.0 Y270.7092
G3 X399.2279 Y270.143 I6.2976 J0.0
G2 X393.1789 Y280.6202 I21.2721 J19.2662
G3 X393.6565 Y280.315 I3.6264 J5.1487
G1 X399.2024 Y277.1131
G1 Y275.6212
G0 Z3.0
G0 X396.1201 Y300.7773
G0 Z-9.0
G1 F300.0 Z-14.0
G2 F800.0 X398.4651 Y304.8388 I24.3799 J-11.368
G1 X396.1201 Y300.7773
G1 F300.0 X395.5764 Y301.0308
G2 F800.0 X401.9936 Y309.7504 I24.9236 J-11.6216
G1 X393.6308 Y295.2657
G2 X395.5764 Y301.0308 I26.8692 J-5.8564
G1 F300.0 X394.4888 Y301.538
G2 F800.0 X405.9014 Y314.119 I26.0112 J-12.1287
G1 X391.8014 Y289.6971
G2 X394.4888 Y301.538 I28.6986 J-0.2878
G0 Z3.0
G0 X420.108 Y316.3064
G0 Z-9.0
G1 F300.0 Z-14.0
G2 F800.0 X420.892 I0.392 J-26.8971
G1 X420.5 Y316.0801
G1 X420.108 Y316.3064
G1 F300.0 X420.0992 Y316.9063
G2 F800.0 X422.9472 Y316.8001 I0.4008 J-27.4971
G1 X420.5 Y315.3872
G1 X418.0528 Y316.8001
G2 X420.0992 Y316.9063 I2.4472 J-27.3909
G1 F300.0 X420.0817 Y318.1062
G2 F800.0 X426.549 Y317.4645 I0.4183 J-28.697
G3 X426.0459 Y317.2035 I2.6457 J-5.7149
G1 X420.5 Y314.0016
G1 X414.9541 Y317.2035
G3 X414.451 Y317.4645 I-3.1488 J-5.4539
G2 X420.0817 Y318.1062 I6.049 J-28.0553
G0 Z3.0
G0 X416.609 Y312.0912
G0 Z-8.0
G1 F300.0 Z-14.0
G1 F800.0 X413.1541 Y314.0858
G3 X409.4691 Y313.0984 I-1.3488 J-2.3362
G1 X394.4691 Y287.1177
G3 X395.4565 Y283.4327 I2.3362 J-1.3488
G1 X402.4012 Y279.4232
G2 X402.8024 Y278.7283 I-0.4012 J-0.6949
G1 Y270.7092
G3 X405.5 Y268.0116 I2.6976 J0.0
G1 X435.5
G3 X438.1976 Y270.7092 I0.0 J2.6976
G1 Y278.7283
G2 X438.5988 Y279.4232 I0.8024 J0.0
G1 X445.5435 Y283.4327
G3 X446.5309 Y287.1177 I-1.3488 J2.3362
G1 X431.5309 Y313.0984
G3 X427.8459 Y314.0858 I-2.3362 J-1.3488
G1 X420.9012 Y310.0763
G2 X420.0988 I-0.4012 J0.6949
G1 X416.609 Y312.0912
G1 F300.0 X416.0102 Y311.054
G1 F800.0 X412.5553 Y313.0487
G3 X410.5063 Y312.4996 I-0.75 J-1.299
G1 X395.5063 Y286.5189
G3 X396.0553 Y284.4698 I1.299 J-0.75
G1 X403.0 Y280.4603
G2 X404.0 Y278.7283 I-1.0 J-1.7321
G1 Y270.7092
G3 X405.5 Y269.2092 I1.5 J0.0
G1 X435.5
G3 X437.0 Y270.7092 I0.0 J1.5
G1 Y278.7283
G2 X438.0 Y280.4603 I2.0 J0.0
G1 X444.9447 Y284.4698
G3 X445.4937 Y286.5189 I-0.75 J1.299
G1 X430.4937 Y312.4996
G3 X428.4447 Y313.0487 I-1.299 J-0.75
G1 X421.5 Y309.0391
G2 X419.5 I-1.0 J1.7321
G1 X416.0102 Y311.054
G0 Z3.0
G0 X417.209 Y313.1304
G0 Z-8.0
G1 F300.0 Z-14.0
G1 F800.0 X420.5 Y311.2303
G1 X427.2459 Y315.125
G2 X432.5701 Y313.6984 I1.9488 J-3.3754
G1 X447.5701 Y287.7177
G2 X446.1435 Y282.3934 I-3.3754 J-1.9488
G1 X439.3976 Y278.4987
G1 Y270.7092
G2 X435.5 Y266.8116 I-3.8976 J0.0
G1 X405.5
G2 X401.6024 Y270.7092 I0.0 J3.8976
G1 Y278.4987
G1 X394.8565 Y282.3934
G2 X393.4299 Y287.7177 I1.9488 J3.3754
G1 X408.4299 Y313.6984
G2 X413.7541 Y315.125 I3.3754 J-1.9488
G1 X417.209 Y313.1304
G1 F300.0 X417.809 Y314.1696
G1 F800.0 X420.5 Y312.616
G1 X426.6459 Y316.1643
G2 X433.6093 Y314.2984 I2.5488 J-4.4147
G1 X448.6093 Y288.3177
G2 X446.7435 Y281.3542 I-4.4147 J-2.5488
G1 X440.5976 Y277.8059
G1 Y270.7092
G2 X435.5 Y265.6116 I-5.0976 J0.0
G1 X405.5
G2 X400.4024 Y270.7092 I0.0 J5.0976
G1 Y277.8059
G1 X394.2565 Y281.3542
G2 X392.3907 Y288.3177 I2.5488 J4.4147
G1 X407.3907 Y314.2984
G2 X414.3541 Y316.1643 I4.4147 J-2.5488
G1 X417.809 Y314.1696
G0 Z3.0
G0 X417.2694 Y319.1342
G0 Z-8.0
G1 F300.0 Z-14.0
G2 F800.0 X450.4 Y289.4092 I3.2306 J-29.725
G2 X405.55 Y263.5151 I-29.9 J0.0
G2 Y315.3034 I14.95 J25.8942
G2 X417.2694 Y319.1342 I14.95 J-25.8942
G1 F300.0 X417.1397 Y320.3272
G2 F800.0 X451.6 Y289.4092 I3.3603 J-30.9179
G2 X404.95 Y262.4759 I-31.1 J0.0
G2 Y316.3426 I15.55 J26.9334
G2 X417.1397 Y320.3272 I15.55 J-26.9334
G1 F300.0 X417.0101 Y321.5202
G2 F800.0 X452.8 Y289.4092 I3.4899 J-32.1109
G2 X404.35 Y261.4366 I-32.3 J0.0
G2 Y317.3819 I16.15 J27.9726
G2 X417.0101 Y321.5202 I16.15 J-27.9726
G1 F300.0 X416.8804 Y322.7131
G2 F800.0 X454.0 Y289.4092 I3.6196 J-33.3039
G2 X403.75 Y260.3974 I-33.5 J0.0
G2 Y318.4211 I16.75 J29.0119
G2 X416.8804 Y322.7131 I16.75 J-29.0119
( Profile1 plug  )
S1000
G0 Z3.0
G0 X451.9 Y289.4092
G0 Z1.0
G1 F300.0 Z-10.16
G3 F800.0 X404.8 Y316.6024 I-31.4 J0.0
G3 Y262.216 I15.7 J-27.1932
G3 X451.9 Y289.4092 I15.7 J27.1932
G1 F300.0 Z-18.3
G3 F800.0 X446.8812 Y306.4384 I-31.4 J0.0
G3 X446.0356 Y307.682 Z-15.3 I-26.3812 J-17.0292
G3 X444.1752 Y310.0356 I-25.5356 J-18.2728
G3 X443.1605 Y311.1455 Z-18.3 I-23.6752 J-20.6263
G3 X410.0224 Y319.0096 I-22.6605 J-21.7362
G3 X408.6172 Y318.474 Z-15.3 I10.4776 J-29.6003
G3 X405.8977 Y317.2073 I11.8828 J-29.0647
G3 X404.8 Y316.6024 Z-17.8066 I14.6023 J-27.7981
G3 X404.5835 Y316.4763 Z-18.3 I15.7 J-27.1932
G3 X389.2803 Y286.0496 I15.9165 J-27.067
G3 X389.4769 Y284.5586 Z-15.3 I31.2197 J3.3597
G3 X390.0814 Y281.6201 I31.0231 J4.8506
G3 X390.4893 Y280.1726 Z-18.3 I30.4186 J7.7891
G3 X404.8 Y262.216 I30.0107 J9.2366
G3 X416.5602 Y258.2574 I15.7 J27.1932
G3 X418.0563 Y258.1045 Z-15.3 I3.9398 J31.1519
G3 X421.0549 Y258.0141 I2.4437 J31.3048
G3 X422.5575 Y258.0767 Z-18.3 I-0.5549 J31.3951
G3 X449.9003 Y278.3829 I-2.0575 J31.3325
G3 X450.3946 Y279.8033 Z-15.3 I-29.4003 J11.0263
G3 X451.1748 Y282.7 I-29.8946 J9.606
G3 X451.4609 Y284.1764 Z-18.3 I-30.6748 J6.7092
G3 X451.9 Y289.4092 I-30.9609 J5.2328
G0 Z3.0
M5
M30
