( Made using CamBam - http://www.cambam.co.uk )
( Ken-Stool.Cutting-Legs 8/16/2015 11:41:18 AM )
( T3 : 3.0 )
G21 G90 G64 G40
G0 Z3.0
( T3 : 3.0 )
T3 M6
( Pocket1 )
G17
M3 S1000
G0 X45.4463 Y319.1695
G0 Z1.0
G1 F300.0 Z-0.6
G3 F800.0 X44.7802 Y318.7084 I12.755 J-19.1392
G1 X45.478 Y320.6257
G3 X45.4463 Y319.1695 I22.9648 J-1.2285
G1 F300.0 X46.1117 Y318.1709
G3 F800.0 X42.0232 Y314.6422 I12.0895 J-18.1407
G1 X55.8134 Y352.5307
G1 X57.1312 Y352.051
G1 X47.9597 Y326.8524
G3 X46.6625 Y318.5262 I20.483 J-7.4552
G3 X46.1117 Y318.1709 I11.5387 J-18.4959
G1 F300.0 X46.7772 Y317.1724
G3 F800.0 X38.8436 Y307.0759 I11.424 J-17.1421
G1 X26.5772 Y273.3744
G1 X25.8255 Y273.6481
G1 X55.0962 Y354.0687
G1 X58.6693 Y352.7682
G1 X49.0873 Y326.442
G3 X47.9018 Y317.8707 I19.3554 J-7.0448
G3 X46.7772 Y317.1724 I10.2995 J-17.8404
G1 F300.0 X47.4427 Y316.1738
G3 F800.0 X39.9712 Y306.6654 I10.7585 J-16.1435
G1 X27.2945 Y271.8364
G1 X24.2874 Y272.9309
G1 X54.379 Y355.6068
G1 X60.2161 Y353.4822
G3 X60.0021 Y352.9216 I18.0138 J-7.195
G1 X50.215 Y326.0316
G3 X49.17 Y317.1999 I18.2278 J-6.6344
G3 X47.4427 Y316.1738 I9.0312 J-17.1696
G1 F300.0 X48.1082 Y315.1752
G3 F800.0 X41.0988 Y306.255 I10.0931 J-15.145
G1 X28.0117 Y270.2983
G1 X22.7494 Y272.2136
G1 X53.6618 Y357.1448
G1 X61.8293 Y354.1721
G3 X61.1298 Y352.5112 I16.4007 J-7.8849
G1 X51.3426 Y325.6211
G3 X50.4758 Y316.5092 I17.1001 J-6.224
G3 X48.1082 Y315.1752 I7.7255 J-16.479
G1 F300.0 X48.7736 Y314.1767
G3 F800.0 X42.2265 Y305.8446 I9.4276 J-14.1464
G1 X28.7289 Y268.7603
G1 X21.2113 Y271.4964
G1 X52.9446 Y358.6829
G1 X63.5342 Y354.8286
G3 X62.2574 Y352.1008 I14.6957 J-8.5413
G1 X52.4702 Y325.2107
G3 X51.8319 Y315.792 I15.9725 J-5.8135
G3 X48.7736 Y314.1767 I6.3694 J-15.7617
G1 F300.0 X49.4391 Y313.1781
G3 F800.0 X43.3541 Y305.4342 I8.7621 J-13.1478
G1 X29.4461 Y267.2222
G1 X19.6733 Y270.7792
G1 X52.2274 Y360.2209
G1 X65.3558 Y355.4426
G3 X63.385 Y351.6903 I12.8741 J-9.1554
G1 X53.5978 Y324.8003
G3 X53.2587 Y315.0373 I14.8449 J-5.4031
G3 X49.4391 Y313.1781 I4.9426 J-15.007
G1 F300.0 X50.1046 Y312.1795
G3 F800.0 X44.4817 Y305.0237 I8.0966 J-12.1493
G1 X30.1633 Y265.6842
G1 X18.1352 Y270.062
G1 X51.5102 Y361.759
G1 X67.3327 Y356.0001
G3 X64.5127 Y351.2799 I10.8973 J-9.7128
G1 X54.7255 Y324.3899
G3 X54.7916 Y314.2265 I13.7173 J-4.9927
G3 X50.1046 Y312.1795 I3.4097 J-14.1963
G1 F300.0 X50.7701 Y311.1809
G3 F800.0 X45.6094 Y304.6133 I7.4312 J-11.1507
G1 X30.8805 Y264.1461
G1 X16.5972 Y269.3448
G1 X50.793 Y363.297
G1 X69.5312 Y356.4769
G3 X65.6403 Y350.8695 I8.6987 J-10.1896
G1 X55.8531 Y323.9794
G3 X56.5017 Y313.322 I12.5896 J-4.5823
G3 X50.7701 Y311.1809 I1.6995 J-13.2918
G1 F300.0 X51.4356 Y310.1824
G3 F800.0 X46.737 Y304.2029 I6.7657 J-10.1521
G1 X31.5977 Y262.6081
G1 X15.0591 Y268.6276
G1 X50.0758 Y364.8351
G1 X72.0855 Y356.8242
G3 X66.7679 Y350.4591 I6.1444 J-10.537
G1 X56.9807 Y323.569
G3 X58.577 Y312.2245 I11.462 J-4.1718
G3 X51.4356 Y310.1824 I-0.3757 J-12.1942
G1 F300.0 X52.101 Y309.1838
G3 F800.0 X47.8646 Y303.7925 I6.1002 J-9.1536
G1 X32.3149 Y261.07
G1 X13.5211 Y267.9104
G1 X49.3586 Y366.3731
G1 X75.3689 Y356.9062
G3 X67.8956 Y350.0486 I2.861 J-10.6189
G1 X58.1084 Y323.1586
G3 X61.5427 Y310.8335 I10.3344 J-3.7614
G1 X58.9265 Y311.0063
G3 X52.101 Y309.1838 I-0.7252 J-10.9761
G0 Z3.0
G0 X318.5108 Y311.622
G0 Z1.0
G1 F300.0 Z-0.6
G2 F800.0 X321.5401 Y306.5253 I-0.6638 J-3.8431
G3 X318.5108 Y311.622 I-10.6185 J-2.8626
G0 Z3.0
G0 X315.1984 Y308.1481
G0 Z1.0
G1 F300.0 Z-0.6
G3 F800.0 X311.8429 Y309.7915 I-4.2768 J-4.4854
G1 X125.5909 Y337.7904
G2 X106.0028 Y342.7741 I15.0594 J100.1768
G1 X80.3496 Y352.1111
G3 X72.4061 Y348.4069 I-2.1197 J-5.8238
G1 X62.6189 Y321.5169
G3 X68.0341 Y313.2131 I5.8238 J-2.1197
G1 X310.4111 Y297.1985
G3 X316.6928 Y301.4036 I0.4086 J6.1841
G3 X315.1984 Y308.1481 I-5.7712 J2.2591
G1 F300.0 X314.372 Y307.2814
G3 F800.0 X311.6649 Y308.6072 I-3.4504 J-3.6187
G1 X125.4128 Y336.6061
G2 X105.5932 Y341.6487 I15.2374 J101.3611
G1 X79.94 Y350.9857
G3 X73.5315 Y347.9973 I-1.7101 J-4.6985
G1 X63.7443 Y321.1073
G3 X68.1131 Y314.4081 I4.6985 J-1.7101
G1 X310.49 Y298.3935
G3 X315.567 Y301.8134 I0.3296 J4.9891
G3 X314.372 Y307.2814 I-4.6454 J1.8494
G0 Z3.0
G0 X316.0265 Y309.0166
G0 Z1.0
G1 F300.0 Z-0.6
G2 F800.0 X317.8207 Y300.9931 I-5.1049 J-5.3539
G2 X310.3319 Y296.0011 I-7.001 J2.3896
G1 X67.955 Y312.0157
G2 X61.4913 Y321.9273 I0.4877 J7.3815
G1 X71.2785 Y348.8174
G2 X80.7601 Y353.2387 I6.9515 J-2.5301
G1 X106.4132 Y343.9017
G3 X125.7693 Y338.9771 I34.237 J94.0655
G1 X312.0213 Y310.9781
G2 X316.0265 Y309.0166 I-1.0997 J-7.3154
G1 F300.0 X316.8546 Y309.8851
G2 F800.0 X318.9485 Y300.5826 I-5.933 J-6.2224
G2 X310.2528 Y294.8037 I-8.1289 J2.8001
G1 X67.8759 Y310.8183
G2 X60.3636 Y322.3377 I0.5668 J8.5789
G1 X70.1508 Y349.2278
G2 X81.1705 Y354.3663 I8.0791 J-2.9406
G1 X106.8237 Y345.0293
G3 X125.9477 Y340.1637 I33.8266 J92.9379
G1 X312.1997 Y312.1648
G2 X316.8546 Y309.8851 I-1.2781 J-8.5021
G1 F300.0 X317.6827 Y310.7536
G2 F800.0 X320.0763 Y300.1721 I-6.7611 J-7.0908
G2 X310.1737 Y293.6064 I-9.2566 J3.2105
G1 X67.7968 Y309.6209
G2 X59.236 Y322.7482 I0.6459 J9.7763
G1 X69.0232 Y349.6382
G2 X81.5809 Y355.494 I9.2067 J-3.351
G1 X107.2341 Y346.157
G3 X126.126 Y341.3504 I33.4162 J91.8102
G1 X312.3781 Y313.3515
G2 X317.6827 Y310.7536 I-1.4565 J-9.6887
G0 Z3.0
G0 X318.0072 Y312.9122
G0 Z1.0
G1 F300.0 Z-0.6
G1 F800.0 X318.6052 Y312.8223
G2 X322.6395 Y306.0346 I-0.7582 J-5.0433
G1 X319.9284 Y298.586
G2 X311.3492 Y293.1251 I-7.9391 J3.003
G3 X311.2894 Y293.1294 I-0.4751 J-6.2821
G1 X58.8473 Y309.8089
G3 X48.9922 Y303.3821 I-0.6461 J-9.7787
G1 X33.0321 Y259.5319
G1 X11.983 Y267.1932
G1 X48.6414 Y367.9112
G1 X107.3717 Y346.5351
G3 X126.1859 Y341.7483 I33.2786 J91.4321
G1 X318.0072 Y312.9122
G1 F300.0 X318.1856 Y314.0988
G1 F800.0 X318.7836 Y314.0089
G2 X323.7671 Y305.6242 I-0.9365 J-6.23
G1 X321.0536 Y298.1688
G2 X311.2587 Y291.9285 I-9.0642 J3.4203
G3 X311.2103 Y291.932 I-0.3846 J-5.0855
G1 X58.7682 Y308.6115
G3 X50.1199 Y302.9716 I-0.567 J-8.5813
G1 X33.7493 Y257.9939
G1 X10.4449 Y266.476
G1 X47.9241 Y369.4493
G1 X107.7821 Y347.6627
G3 X126.3643 Y342.935 I32.8681 J90.3045
G1 X318.1856 Y314.0988
G1 F300.0 X318.364 Y315.2855
G1 F800.0 X318.962 Y315.1956
G2 X324.8948 Y305.2138 I-1.1149 J-7.4167
G1 X322.1789 Y297.7519
G2 X311.1682 Y290.732 I-10.1895 J3.8371
G3 X311.1312 Y290.7346 I-0.2941 J-3.8889
G1 X58.6891 Y307.4142
G3 X51.2475 Y302.5612 I-0.4879 J-7.3839
G1 X34.4665 Y256.4558
G1 X8.9069 Y265.7588
G1 X47.2069 Y370.9873
G1 X108.1926 Y348.7904
G3 X126.5426 Y344.1217 I32.4577 J89.1768
G1 X318.364 Y315.2855
G1 F300.0 X318.5424 Y316.4722
G1 F800.0 X319.1404 Y316.3823
G2 X326.0224 Y304.8034 I-1.2933 J-8.6033
G1 X323.3043 Y297.3354
G2 X311.0777 Y289.5354 I-11.3149 J4.2536
G3 X311.0521 Y289.5372 I-0.2036 J-2.6923
G1 X58.61 Y306.2168
G3 X52.3751 Y302.1508 I-0.4088 J-6.1865
G1 X35.457 Y255.6687
G2 X34.4147 Y255.197 I-0.7518 J0.2736
G3 X34.3573 Y255.2186 I-0.9809 J-2.5155
G1 X8.1206 Y264.768
G2 X7.6424 Y265.7933 I0.2736 J0.7518
G1 X46.2161 Y371.7736
G2 X47.2415 Y372.2518 I0.7518 J-0.2736
G1 X108.603 Y349.918
G3 X126.721 Y345.3083 I32.0473 J88.0492
G1 X318.5424 Y316.4722
G1 F300.0 X318.7208 Y317.6588
G1 F800.0 X319.3188 Y317.5689
G2 X327.15 Y304.3929 I-1.4717 J-9.79
G1 X324.4298 Y296.9192
G2 X310.9872 Y288.3388 I-12.4405 J4.6698
G3 X310.973 Y288.3398 I-0.1131 J-1.4957
G1 X58.5309 Y305.0194
G3 X53.5028 Y301.7404 I-0.3296 J-4.9891
G1 X36.5847 Y255.2583
G2 X33.9787 Y254.0789 I-1.8794 J0.684
G3 X33.9468 Y254.091 I-0.5449 J-1.3975
G1 X7.7102 Y263.6403
G2 X6.5148 Y266.2038 I0.684 J1.8794
G1 X45.0885 Y372.184
G2 X47.6519 Y373.3794 I1.8794 J-0.684
G1 X109.0134 Y351.0456
G3 X126.8994 Y346.495 I31.6369 J86.9216
G1 X318.7208 Y317.6588
G0 Z3.0
G0 X318.5108 Y311.622
G0 Z0.4
G1 F300.0 Z-1.2
G2 F800.0 X321.5401 Y306.5253 I-0.6638 J-3.8431
G3 X318.5108 Y311.622 I-10.6185 J-2.8626
G0 Z3.0
G0 X45.4463 Y319.1695
G0 Z0.4
G1 F300.0 Z-1.2
G3 F800.0 X44.7802 Y318.7084 I12.755 J-19.1392
G1 X45.478 Y320.6257
G3 X45.4463 Y319.1695 I22.9648 J-1.2285
G1 F300.0 X46.1117 Y318.1709
G3 F800.0 X42.0232 Y314.6422 I12.0895 J-18.1407
G1 X55.8134 Y352.5307
G1 X57.1312 Y352.051
G1 X47.9597 Y326.8524
G3 X46.6625 Y318.5262 I20.483 J-7.4552
G3 X46.1117 Y318.1709 I11.5387 J-18.4959
G1 F300.0 X46.7772 Y317.1724
G3 F800.0 X38.8436 Y307.0759 I11.424 J-17.1421
G1 X26.5772 Y273.3744
G1 X25.8255 Y273.6481
G1 X55.0962 Y354.0687
G1 X58.6693 Y352.7682
G1 X49.0873 Y326.442
G3 X47.9018 Y317.8707 I19.3554 J-7.0448
G3 X46.7772 Y317.1724 I10.2995 J-17.8404
G1 F300.0 X47.4427 Y316.1738
G3 F800.0 X39.9712 Y306.6654 I10.7585 J-16.1435
G1 X27.2945 Y271.8364
G1 X24.2874 Y272.9309
G1 X54.379 Y355.6068
G1 X60.2161 Y353.4822
G3 X60.0021 Y352.9216 I18.0138 J-7.195
G1 X50.215 Y326.0316
G3 X49.17 Y317.1999 I18.2278 J-6.6344
G3 X47.4427 Y316.1738 I9.0312 J-17.1696
G1 F300.0 X48.1082 Y315.1752
G3 F800.0 X41.0988 Y306.255 I10.0931 J-15.145
G1 X28.0117 Y270.2983
G1 X22.7494 Y272.2136
G1 X53.6618 Y357.1448
G1 X61.8293 Y354.1721
G3 X61.1298 Y352.5112 I16.4007 J-7.8849
G1 X51.3426 Y325.6211
G3 X50.4758 Y316.5092 I17.1001 J-6.224
G3 X48.1082 Y315.1752 I7.7255 J-16.479
G1 F300.0 X48.7736 Y314.1767
G3 F800.0 X42.2265 Y305.8446 I9.4276 J-14.1464
G1 X28.7289 Y268.7603
G1 X21.2113 Y271.4964
G1 X52.9446 Y358.6829
G1 X63.5342 Y354.8286
G3 X62.2574 Y352.1008 I14.6957 J-8.5413
G1 X52.4702 Y325.2107
G3 X51.8319 Y315.792 I15.9725 J-5.8135
G3 X48.7736 Y314.1767 I6.3694 J-15.7617
G1 F300.0 X49.4391 Y313.1781
G3 F800.0 X43.3541 Y305.4342 I8.7621 J-13.1478
G1 X29.4461 Y267.2222
G1 X19.6733 Y270.7792
G1 X52.2274 Y360.2209
G1 X65.3558 Y355.4426
G3 X63.385 Y351.6903 I12.8741 J-9.1554
G1 X53.5978 Y324.8003
G3 X53.2587 Y315.0373 I14.8449 J-5.4031
G3 X49.4391 Y313.1781 I4.9426 J-15.007
G1 F300.0 X50.1046 Y312.1795
G3 F800.0 X44.4817 Y305.0237 I8.0966 J-12.1493
G1 X30.1633 Y265.6842
G1 X18.1352 Y270.062
G1 X51.5102 Y361.759
G1 X67.3327 Y356.0001
G3 X64.5127 Y351.2799 I10.8973 J-9.7128
G1 X54.7255 Y324.3899
G3 X54.7916 Y314.2265 I13.7173 J-4.9927
G3 X50.1046 Y312.1795 I3.4097 J-14.1963
G1 F300.0 X50.7701 Y311.1809
G3 F800.0 X45.6094 Y304.6133 I7.4312 J-11.1507
G1 X30.8805 Y264.1461
G1 X16.5972 Y269.3448
G1 X50.793 Y363.297
G1 X69.5312 Y356.4769
G3 X65.6403 Y350.8695 I8.6987 J-10.1896
G1 X55.8531 Y323.9794
G3 X56.5017 Y313.322 I12.5896 J-4.5823
G3 X50.7701 Y311.1809 I1.6995 J-13.2918
G1 F300.0 X51.4356 Y310.1824
G3 F800.0 X46.737 Y304.2029 I6.7657 J-10.1521
G1 X31.5977 Y262.6081
G1 X15.0591 Y268.6276
G1 X50.0758 Y364.8351
G1 X72.0855 Y356.8242
G3 X66.7679 Y350.4591 I6.1444 J-10.537
G1 X56.9807 Y323.569
G3 X58.577 Y312.2245 I11.462 J-4.1718
G3 X51.4356 Y310.1824 I-0.3757 J-12.1942
G1 F300.0 X52.101 Y309.1838
G3 F800.0 X47.8646 Y303.7925 I6.1002 J-9.1536
G1 X32.3149 Y261.07
G1 X13.5211 Y267.9104
G1 X49.3586 Y366.3731
G1 X75.3689 Y356.9062
G3 X67.8956 Y350.0486 I2.861 J-10.6189
G1 X58.1084 Y323.1586
G3 X61.5427 Y310.8335 I10.3344 J-3.7614
G1 X58.9265 Y311.0063
G3 X52.101 Y309.1838 I-0.7252 J-10.9761
G0 Z3.0
G0 X63.1872 Y316.1125
G0 Z0.4
G1 F300.0 Z-1.2
G3 F800.0 X68.0341 Y313.2131 I5.2556 J3.2847
G1 X310.4111 Y297.1985
G3 X316.6928 Y301.4036 I0.4086 J6.1841
G3 X311.8429 Y309.7915 I-5.7712 J2.2591
G1 X125.5909 Y337.7904
G2 X106.0028 Y342.7741 I15.0594 J100.1768
G1 X80.3496 Y352.1111
G3 X72.4061 Y348.4069 I-2.1197 J-5.8238
G1 X62.6189 Y321.5169
G3 X63.1872 Y316.1125 I5.8238 J-2.1197
G1 F300.0 X64.2027 Y316.7472
G3 F800.0 X68.1131 Y314.4081 I4.24 J2.65
G1 X310.49 Y298.3935
G3 X315.567 Y301.8134 I0.3296 J4.9891
G3 X311.6649 Y308.6072 I-4.6454 J1.8494
G1 X125.4128 Y336.6061
G2 X105.5932 Y341.6487 I15.2374 J101.3611
G1 X79.94 Y350.9857
G3 X73.5315 Y347.9973 I-1.7101 J-4.6985
G1 X63.7443 Y321.1073
G3 X64.2027 Y316.7472 I4.6985 J-1.7101
G0 Z3.0
G0 X62.1695 Y315.4765
G0 Z0.4
G1 F300.0 Z-1.2
G2 F800.0 X61.4913 Y321.9273 I6.2732 J3.9207
G1 X71.2785 Y348.8174
G2 X80.7601 Y353.2387 I6.9515 J-2.5301
G1 X106.4132 Y343.9017
G3 X125.7693 Y338.9771 I34.237 J94.0655
G1 X312.0213 Y310.9781
G2 X317.8207 Y300.9931 I-1.0997 J-7.3154
G2 X310.3319 Y296.0011 I-7.001 J2.3896
G1 X67.955 Y312.0157
G2 X62.1695 Y315.4765 I0.4877 J7.3815
G1 F300.0 X61.1519 Y314.8405
G2 F800.0 X60.3636 Y322.3377 I7.2908 J4.5567
G1 X70.1508 Y349.2278
G2 X81.1705 Y354.3663 I8.0791 J-2.9406
G1 X106.8237 Y345.0293
G3 X125.9477 Y340.1637 I33.8266 J92.9379
G1 X312.1997 Y312.1648
G2 X318.9485 Y300.5826 I-1.2781 J-8.5021
G2 X310.2528 Y294.8037 I-8.1289 J2.8001
G1 X67.8759 Y310.8183
G2 X61.1519 Y314.8405 I0.5668 J8.5789
G1 F300.0 X60.1343 Y314.2045
G2 F800.0 X59.236 Y322.7482 I8.3084 J5.1926
G1 X69.0232 Y349.6382
G2 X81.5809 Y355.494 I9.2067 J-3.351
G1 X107.2341 Y346.157
G3 X126.126 Y341.3504 I33.4162 J91.8102
G1 X312.3781 Y313.3515
G2 X320.0763 Y300.1721 I-1.4565 J-9.6887
G2 X310.1737 Y293.6064 I-9.2566 J3.2105
G1 X67.7968 Y309.6209
G2 X60.1343 Y314.2045 I0.6459 J9.7763
G0 Z3.0
G0 X59.8396 Y309.7434
G0 Z0.4
G1 F300.0 Z-1.2
G1 F800.0 X58.8473 Y309.8089
G3 X48.9922 Y303.3821 I-0.6461 J-9.7787
G1 X33.0321 Y259.5319
G1 X11.983 Y267.1932
G1 X48.6414 Y367.9112
G1 X107.3717 Y346.5351
G3 X126.1859 Y341.7483 I33.2786 J91.4321
G1 X318.6052 Y312.8223
G2 X322.6395 Y306.0346 I-0.7582 J-5.0433
G1 X319.9284 Y298.586
G2 X311.3492 Y293.1251 I-7.9391 J3.003
G3 X311.2894 Y293.1294 I-0.4751 J-6.2821
G1 X59.8396 Y309.7434
G1 F300.0 X59.7605 Y308.546
G1 F800.0 X58.7682 Y308.6115
G3 X50.1199 Y302.9716 I-0.567 J-8.5813
G1 X33.7493 Y257.9939
G1 X10.4449 Y266.476
G1 X47.9241 Y369.4493
G1 X107.7821 Y347.6627
G3 X126.3643 Y342.935 I32.8681 J90.3045
G1 X318.7836 Y314.0089
G2 X323.7671 Y305.6242 I-0.9365 J-6.23
G1 X321.0536 Y298.1688
G2 X311.2587 Y291.9285 I-9.0642 J3.4203
G3 X311.2103 Y291.932 I-0.3846 J-5.0855
G1 X59.7605 Y308.546
G1 F300.0 X59.6814 Y307.3486
G1 F800.0 X58.6891 Y307.4142
G3 X51.2475 Y302.5612 I-0.4879 J-7.3839
G1 X34.4665 Y256.4558
G1 X8.9069 Y265.7588
G1 X47.2069 Y370.9873
G1 X108.1926 Y348.7904
G3 X126.5426 Y344.1217 I32.4577 J89.1768
G1 X318.962 Y315.1956
G2 X324.8948 Y305.2138 I-1.1149 J-7.4167
G1 X322.1789 Y297.7519
G2 X311.1682 Y290.732 I-10.1895 J3.8371
G3 X311.1312 Y290.7346 I-0.2941 J-3.8889
G1 X59.6814 Y307.3486
G1 F300.0 X59.6022 Y306.1512
G1 F800.0 X58.61 Y306.2168
G3 X52.3751 Y302.1508 I-0.4088 J-6.1865
G1 X35.457 Y255.6687
G2 X34.4147 Y255.197 I-0.7518 J0.2736
G3 X34.3573 Y255.2186 I-0.9809 J-2.5155
G1 X8.1206 Y264.768
G2 X7.6424 Y265.7933 I0.2736 J0.7518
G1 X46.2161 Y371.7736
G2 X47.2415 Y372.2518 I0.7518 J-0.2736
G1 X108.603 Y349.918
G3 X126.721 Y345.3083 I32.0473 J88.0492
G1 X319.1404 Y316.3823
G2 X326.0224 Y304.8034 I-1.2933 J-8.6033
G1 X323.3043 Y297.3354
G2 X311.0777 Y289.5354 I-11.3149 J4.2536
G3 X311.0521 Y289.5372 I-0.2036 J-2.6923
G1 X59.6022 Y306.1512
G1 F300.0 X59.5231 Y304.9538
G1 F800.0 X58.5309 Y305.0194
G3 X53.5028 Y301.7404 I-0.3296 J-4.9891
G1 X36.5847 Y255.2583
G2 X33.9787 Y254.0789 I-1.8794 J0.684
G3 X33.9468 Y254.091 I-0.5449 J-1.3975
G1 X7.7102 Y263.6403
G2 X6.5148 Y266.2038 I0.684 J1.8794
G1 X45.0885 Y372.184
G2 X47.6519 Y373.3794 I1.8794 J-0.684
G1 X109.0134 Y351.0456
G3 X126.8994 Y346.495 I31.6369 J86.9216
G1 X319.3188 Y317.5689
G2 X327.15 Y304.3929 I-1.4717 J-9.79
G1 X324.4298 Y296.9192
G2 X310.9872 Y288.3388 I-12.4405 J4.6698
G3 X310.973 Y288.3398 I-0.1131 J-1.4957
G1 X59.5231 Y304.9538
G0 Z3.0
G0 X45.4463 Y319.1695
G0 Z-0.2
G1 F300.0 Z-1.8
G3 F800.0 X44.7802 Y318.7084 I12.755 J-19.1392
G1 X45.478 Y320.6257
G3 X45.4463 Y319.1695 I22.9648 J-1.2285
G1 F300.0 X46.1117 Y318.1709
G3 F800.0 X42.0232 Y314.6422 I12.0895 J-18.1407
G1 X55.8134 Y352.5307
G1 X57.1312 Y352.051
G1 X47.9597 Y326.8524
G3 X46.6625 Y318.5262 I20.483 J-7.4552
G3 X46.1117 Y318.1709 I11.5387 J-18.4959
G1 F300.0 X46.7772 Y317.1724
G3 F800.0 X38.8436 Y307.0759 I11.424 J-17.1421
G1 X26.5772 Y273.3744
G1 X25.8255 Y273.6481
G1 X55.0962 Y354.0687
G1 X58.6693 Y352.7682
G1 X49.0873 Y326.442
G3 X47.9018 Y317.8707 I19.3554 J-7.0448
G3 X46.7772 Y317.1724 I10.2995 J-17.8404
G1 F300.0 X47.4427 Y316.1738
G3 F800.0 X39.9712 Y306.6654 I10.7585 J-16.1435
G1 X27.2945 Y271.8364
G1 X24.2874 Y272.9309
G1 X54.379 Y355.6068
G1 X60.2161 Y353.4822
G3 X60.0021 Y352.9216 I18.0138 J-7.195
G1 X50.215 Y326.0316
G3 X49.17 Y317.1999 I18.2278 J-6.6344
G3 X47.4427 Y316.1738 I9.0312 J-17.1696
G1 F300.0 X48.1082 Y315.1752
G3 F800.0 X41.0988 Y306.255 I10.0931 J-15.145
G1 X28.0117 Y270.2983
G1 X22.7494 Y272.2136
G1 X53.6618 Y357.1448
G1 X61.8293 Y354.1721
G3 X61.1298 Y352.5112 I16.4007 J-7.8849
G1 X51.3426 Y325.6211
G3 X50.4758 Y316.5092 I17.1001 J-6.224
G3 X48.1082 Y315.1752 I7.7255 J-16.479
G1 F300.0 X48.7736 Y314.1767
G3 F800.0 X42.2265 Y305.8446 I9.4276 J-14.1464
G1 X28.7289 Y268.7603
G1 X21.2113 Y271.4964
G1 X52.9446 Y358.6829
G1 X63.5342 Y354.8286
G3 X62.2574 Y352.1008 I14.6957 J-8.5413
G1 X52.4702 Y325.2107
G3 X51.8319 Y315.792 I15.9725 J-5.8135
G3 X48.7736 Y314.1767 I6.3694 J-15.7617
G1 F300.0 X49.4391 Y313.1781
G3 F800.0 X43.3541 Y305.4342 I8.7621 J-13.1478
G1 X29.4461 Y267.2222
G1 X19.6733 Y270.7792
G1 X52.2274 Y360.2209
G1 X65.3558 Y355.4426
G3 X63.385 Y351.6903 I12.8741 J-9.1554
G1 X53.5978 Y324.8003
G3 X53.2587 Y315.0373 I14.8449 J-5.4031
G3 X49.4391 Y313.1781 I4.9426 J-15.007
G1 F300.0 X50.1046 Y312.1795
G3 F800.0 X44.4817 Y305.0237 I8.0966 J-12.1493
G1 X30.1633 Y265.6842
G1 X18.1352 Y270.062
G1 X51.5102 Y361.759
G1 X67.3327 Y356.0001
G3 X64.5127 Y351.2799 I10.8973 J-9.7128
G1 X54.7255 Y324.3899
G3 X54.7916 Y314.2265 I13.7173 J-4.9927
G3 X50.1046 Y312.1795 I3.4097 J-14.1963
G1 F300.0 X50.7701 Y311.1809
G3 F800.0 X45.6094 Y304.6133 I7.4312 J-11.1507
G1 X30.8805 Y264.1461
G1 X16.5972 Y269.3448
G1 X50.793 Y363.297
G1 X69.5312 Y356.4769
G3 X65.6403 Y350.8695 I8.6987 J-10.1896
G1 X55.8531 Y323.9794
G3 X56.5017 Y313.322 I12.5896 J-4.5823
G3 X50.7701 Y311.1809 I1.6995 J-13.2918
G1 F300.0 X51.4356 Y310.1824
G3 F800.0 X46.737 Y304.2029 I6.7657 J-10.1521
G1 X31.5977 Y262.6081
G1 X15.0591 Y268.6276
G1 X50.0758 Y364.8351
G1 X72.0855 Y356.8242
G3 X66.7679 Y350.4591 I6.1444 J-10.537
G1 X56.9807 Y323.569
G3 X58.577 Y312.2245 I11.462 J-4.1718
G3 X51.4356 Y310.1824 I-0.3757 J-12.1942
G1 F300.0 X52.101 Y309.1838
G3 F800.0 X47.8646 Y303.7925 I6.1002 J-9.1536
G1 X32.3149 Y261.07
G1 X13.5211 Y267.9104
G1 X49.3586 Y366.3731
G1 X75.3689 Y356.9062
G3 X67.8956 Y350.0486 I2.861 J-10.6189
G1 X58.1084 Y323.1586
G3 X61.5427 Y310.8335 I10.3344 J-3.7614
G1 X58.9265 Y311.0063
G3 X52.101 Y309.1838 I-0.7252 J-10.9761
G0 Z3.0
G0 X318.5108 Y311.622
G0 Z-0.2
G1 F300.0 Z-1.8
G2 F800.0 X321.5401 Y306.5253 I-0.6638 J-3.8431
G3 X318.5108 Y311.622 I-10.6185 J-2.8626
G0 Z3.0
G0 X315.1984 Y308.1481
G0 Z-0.2
G1 F300.0 Z-1.8
G3 F800.0 X311.8429 Y309.7915 I-4.2768 J-4.4854
G1 X125.5909 Y337.7904
G2 X106.0028 Y342.7741 I15.0594 J100.1768
G1 X80.3496 Y352.1111
G3 X72.4061 Y348.4069 I-2.1197 J-5.8238
G1 X62.6189 Y321.5169
G3 X68.0341 Y313.2131 I5.8238 J-2.1197
G1 X310.4111 Y297.1985
G3 X316.6928 Y301.4036 I0.4086 J6.1841
G3 X315.1984 Y308.1481 I-5.7712 J2.2591
G1 F300.0 X314.372 Y307.2814
G3 F800.0 X311.6649 Y308.6072 I-3.4504 J-3.6187
G1 X125.4128 Y336.6061
G2 X105.5932 Y341.6487 I15.2374 J101.3611
G1 X79.94 Y350.9857
G3 X73.5315 Y347.9973 I-1.7101 J-4.6985
G1 X63.7443 Y321.1073
G3 X68.1131 Y314.4081 I4.6985 J-1.7101
G1 X310.49 Y298.3935
G3 X315.567 Y301.8134 I0.3296 J4.9891
G3 X314.372 Y307.2814 I-4.6454 J1.8494
G0 Z3.0
G0 X316.0265 Y309.0166
G0 Z-0.2
G1 F300.0 Z-1.8
G2 F800.0 X317.8207 Y300.9931 I-5.1049 J-5.3539
G2 X310.3319 Y296.0011 I-7.001 J2.3896
G1 X67.955 Y312.0157
G2 X61.4913 Y321.9273 I0.4877 J7.3815
G1 X71.2785 Y348.8174
G2 X80.7601 Y353.2387 I6.9515 J-2.5301
G1 X106.4132 Y343.9017
G3 X125.7693 Y338.9771 I34.237 J94.0655
G1 X312.0213 Y310.9781
G2 X316.0265 Y309.0166 I-1.0997 J-7.3154
G1 F300.0 X316.8546 Y309.8851
G2 F800.0 X318.9485 Y300.5826 I-5.933 J-6.2224
G2 X310.2528 Y294.8037 I-8.1289 J2.8001
G1 X67.8759 Y310.8183
G2 X60.3636 Y322.3377 I0.5668 J8.5789
G1 X70.1508 Y349.2278
G2 X81.1705 Y354.3663 I8.0791 J-2.9406
G1 X106.8237 Y345.0293
G3 X125.9477 Y340.1637 I33.8266 J92.9379
G1 X312.1997 Y312.1648
G2 X316.8546 Y309.8851 I-1.2781 J-8.5021
G1 F300.0 X317.6827 Y310.7536
G2 F800.0 X320.0763 Y300.1721 I-6.7611 J-7.0908
G2 X310.1737 Y293.6064 I-9.2566 J3.2105
G1 X67.7968 Y309.6209
G2 X59.236 Y322.7482 I0.6459 J9.7763
G1 X69.0232 Y349.6382
G2 X81.5809 Y355.494 I9.2067 J-3.351
G1 X107.2341 Y346.157
G3 X126.126 Y341.3504 I33.4162 J91.8102
G1 X312.3781 Y313.3515
G2 X317.6827 Y310.7536 I-1.4565 J-9.6887
G0 Z3.0
G0 X318.0072 Y312.9122
G0 Z-0.2
G1 F300.0 Z-1.8
G1 F800.0 X318.6052 Y312.8223
G2 X322.6395 Y306.0346 I-0.7582 J-5.0433
G1 X319.9284 Y298.586
G2 X311.3492 Y293.1251 I-7.9391 J3.003
G3 X311.2894 Y293.1294 I-0.4751 J-6.2821
G1 X58.8473 Y309.8089
G3 X48.9922 Y303.3821 I-0.6461 J-9.7787
G1 X33.0321 Y259.5319
G1 X11.983 Y267.1932
G1 X48.6414 Y367.9112
G1 X107.3717 Y346.5351
G3 X126.1859 Y341.7483 I33.2786 J91.4321
G1 X318.0072 Y312.9122
G1 F300.0 X318.1856 Y314.0988
G1 F800.0 X318.7836 Y314.0089
G2 X323.7671 Y305.6242 I-0.9365 J-6.23
G1 X321.0536 Y298.1688
G2 X311.2587 Y291.9285 I-9.0642 J3.4203
G3 X311.2103 Y291.932 I-0.3846 J-5.0855
G1 X58.7682 Y308.6115
G3 X50.1199 Y302.9716 I-0.567 J-8.5813
G1 X33.7493 Y257.9939
G1 X10.4449 Y266.476
G1 X47.9241 Y369.4493
G1 X107.7821 Y347.6627
G3 X126.3643 Y342.935 I32.8681 J90.3045
G1 X318.1856 Y314.0988
G1 F300.0 X318.364 Y315.2855
G1 F800.0 X318.962 Y315.1956
G2 X324.8948 Y305.2138 I-1.1149 J-7.4167
G1 X322.1789 Y297.7519
G2 X311.1682 Y290.732 I-10.1895 J3.8371
G3 X311.1312 Y290.7346 I-0.2941 J-3.8889
G1 X58.6891 Y307.4142
G3 X51.2475 Y302.5612 I-0.4879 J-7.3839
G1 X34.4665 Y256.4558
G1 X8.9069 Y265.7588
G1 X47.2069 Y370.9873
G1 X108.1926 Y348.7904
G3 X126.5426 Y344.1217 I32.4577 J89.1768
G1 X318.364 Y315.2855
G1 F300.0 X318.5424 Y316.4722
G1 F800.0 X319.1404 Y316.3823
G2 X326.0224 Y304.8034 I-1.2933 J-8.6033
G1 X323.3043 Y297.3354
G2 X311.0777 Y289.5354 I-11.3149 J4.2536
G3 X311.0521 Y289.5372 I-0.2036 J-2.6923
G1 X58.61 Y306.2168
G3 X52.3751 Y302.1508 I-0.4088 J-6.1865
G1 X35.457 Y255.6687
G2 X34.4147 Y255.197 I-0.7518 J0.2736
G3 X34.3573 Y255.2186 I-0.9809 J-2.5155
G1 X8.1206 Y264.768
G2 X7.6424 Y265.7933 I0.2736 J0.7518
G1 X46.2161 Y371.7736
G2 X47.2415 Y372.2518 I0.7518 J-0.2736
G1 X108.603 Y349.918
G3 X126.721 Y345.3083 I32.0473 J88.0492
G1 X318.5424 Y316.4722
G1 F300.0 X318.7208 Y317.6588
G1 F800.0 X319.3188 Y317.5689
G2 X327.15 Y304.3929 I-1.4717 J-9.79
G1 X324.4298 Y296.9192
G2 X310.9872 Y288.3388 I-12.4405 J4.6698
G3 X310.973 Y288.3398 I-0.1131 J-1.4957
G1 X58.5309 Y305.0194
G3 X53.5028 Y301.7404 I-0.3296 J-4.9891
G1 X36.5847 Y255.2583
G2 X33.9787 Y254.0789 I-1.8794 J0.684
G3 X33.9468 Y254.091 I-0.5449 J-1.3975
G1 X7.7102 Y263.6403
G2 X6.5148 Y266.2038 I0.684 J1.8794
G1 X45.0885 Y372.184
G2 X47.6519 Y373.3794 I1.8794 J-0.684
G1 X109.0134 Y351.0456
G3 X126.8994 Y346.495 I31.6369 J86.9216
G1 X318.7208 Y317.6588
G0 Z3.0
G0 X318.5108 Y311.622
G0 Z-0.8
G1 F300.0 Z-2.4
G2 F800.0 X321.5401 Y306.5253 I-0.6638 J-3.8431
G3 X318.5108 Y311.622 I-10.6185 J-2.8626
G0 Z3.0
G0 X45.4463 Y319.1695
G0 Z-0.8
G1 F300.0 Z-2.4
G3 F800.0 X44.7802 Y318.7084 I12.755 J-19.1392
G1 X45.478 Y320.6257
G3 X45.4463 Y319.1695 I22.9648 J-1.2285
G1 F300.0 X46.1117 Y318.1709
G3 F800.0 X42.0232 Y314.6422 I12.0895 J-18.1407
G1 X55.8134 Y352.5307
G1 X57.1312 Y352.051
G1 X47.9597 Y326.8524
G3 X46.6625 Y318.5262 I20.483 J-7.4552
G3 X46.1117 Y318.1709 I11.5387 J-18.4959
G1 F300.0 X46.7772 Y317.1724
G3 F800.0 X38.8436 Y307.0759 I11.424 J-17.1421
G1 X26.5772 Y273.3744
G1 X25.8255 Y273.6481
G1 X55.0962 Y354.0687
G1 X58.6693 Y352.7682
G1 X49.0873 Y326.442
G3 X47.9018 Y317.8707 I19.3554 J-7.0448
G3 X46.7772 Y317.1724 I10.2995 J-17.8404
G1 F300.0 X47.4427 Y316.1738
G3 F800.0 X39.9712 Y306.6654 I10.7585 J-16.1435
G1 X27.2945 Y271.8364
G1 X24.2874 Y272.9309
G1 X54.379 Y355.6068
G1 X60.2161 Y353.4822
G3 X60.0021 Y352.9216 I18.0138 J-7.195
G1 X50.215 Y326.0316
G3 X49.17 Y317.1999 I18.2278 J-6.6344
G3 X47.4427 Y316.1738 I9.0312 J-17.1696
G1 F300.0 X48.1082 Y315.1752
G3 F800.0 X41.0988 Y306.255 I10.0931 J-15.145
G1 X28.0117 Y270.2983
G1 X22.7494 Y272.2136
G1 X53.6618 Y357.1448
G1 X61.8293 Y354.1721
G3 X61.1298 Y352.5112 I16.4007 J-7.8849
G1 X51.3426 Y325.6211
G3 X50.4758 Y316.5092 I17.1001 J-6.224
G3 X48.1082 Y315.1752 I7.7255 J-16.479
G1 F300.0 X48.7736 Y314.1767
G3 F800.0 X42.2265 Y305.8446 I9.4276 J-14.1464
G1 X28.7289 Y268.7603
G1 X21.2113 Y271.4964
G1 X52.9446 Y358.6829
G1 X63.5342 Y354.8286
G3 X62.2574 Y352.1008 I14.6957 J-8.5413
G1 X52.4702 Y325.2107
G3 X51.8319 Y315.792 I15.9725 J-5.8135
G3 X48.7736 Y314.1767 I6.3694 J-15.7617
G1 F300.0 X49.4391 Y313.1781
G3 F800.0 X43.3541 Y305.4342 I8.7621 J-13.1478
G1 X29.4461 Y267.2222
G1 X19.6733 Y270.7792
G1 X52.2274 Y360.2209
G1 X65.3558 Y355.4426
G3 X63.385 Y351.6903 I12.8741 J-9.1554
G1 X53.5978 Y324.8003
G3 X53.2587 Y315.0373 I14.8449 J-5.4031
G3 X49.4391 Y313.1781 I4.9426 J-15.007
G1 F300.0 X50.1046 Y312.1795
G3 F800.0 X44.4817 Y305.0237 I8.0966 J-12.1493
G1 X30.1633 Y265.6842
G1 X18.1352 Y270.062
G1 X51.5102 Y361.759
G1 X67.3327 Y356.0001
G3 X64.5127 Y351.2799 I10.8973 J-9.7128
G1 X54.7255 Y324.3899
G3 X54.7916 Y314.2265 I13.7173 J-4.9927
G3 X50.1046 Y312.1795 I3.4097 J-14.1963
G1 F300.0 X50.7701 Y311.1809
G3 F800.0 X45.6094 Y304.6133 I7.4312 J-11.1507
G1 X30.8805 Y264.1461
G1 X16.5972 Y269.3448
G1 X50.793 Y363.297
G1 X69.5312 Y356.4769
G3 X65.6403 Y350.8695 I8.6987 J-10.1896
G1 X55.8531 Y323.9794
G3 X56.5017 Y313.322 I12.5896 J-4.5823
G3 X50.7701 Y311.1809 I1.6995 J-13.2918
G1 F300.0 X51.4356 Y310.1824
G3 F800.0 X46.737 Y304.2029 I6.7657 J-10.1521
G1 X31.5977 Y262.6081
G1 X15.0591 Y268.6276
G1 X50.0758 Y364.8351
G1 X72.0855 Y356.8242
G3 X66.7679 Y350.4591 I6.1444 J-10.537
G1 X56.9807 Y323.569
G3 X58.577 Y312.2245 I11.462 J-4.1718
G3 X51.4356 Y310.1824 I-0.3757 J-12.1942
G1 F300.0 X52.101 Y309.1838
G3 F800.0 X47.8646 Y303.7925 I6.1002 J-9.1536
G1 X32.3149 Y261.07
G1 X13.5211 Y267.9104
G1 X49.3586 Y366.3731
G1 X75.3689 Y356.9062
G3 X67.8956 Y350.0486 I2.861 J-10.6189
G1 X58.1084 Y323.1586
G3 X61.5427 Y310.8335 I10.3344 J-3.7614
G1 X58.9265 Y311.0063
G3 X52.101 Y309.1838 I-0.7252 J-10.9761
G0 Z3.0
G0 X63.1872 Y316.1125
G0 Z-0.8
G1 F300.0 Z-2.4
G3 F800.0 X68.0341 Y313.2131 I5.2556 J3.2847
G1 X310.4111 Y297.1985
G3 X316.6928 Y301.4036 I0.4086 J6.1841
G3 X311.8429 Y309.7915 I-5.7712 J2.2591
G1 X125.5909 Y337.7904
G2 X106.0028 Y342.7741 I15.0594 J100.1768
G1 X80.3496 Y352.1111
G3 X72.4061 Y348.4069 I-2.1197 J-5.8238
G1 X62.6189 Y321.5169
G3 X63.1872 Y316.1125 I5.8238 J-2.1197
G1 F300.0 X64.2027 Y316.7472
G3 F800.0 X68.1131 Y314.4081 I4.24 J2.65
G1 X310.49 Y298.3935
G3 X315.567 Y301.8134 I0.3296 J4.9891
G3 X311.6649 Y308.6072 I-4.6454 J1.8494
G1 X125.4128 Y336.6061
G2 X105.5932 Y341.6487 I15.2374 J101.3611
G1 X79.94 Y350.9857
G3 X73.5315 Y347.9973 I-1.7101 J-4.6985
G1 X63.7443 Y321.1073
G3 X64.2027 Y316.7472 I4.6985 J-1.7101
G0 Z3.0
G0 X62.1695 Y315.4765
G0 Z-0.8
G1 F300.0 Z-2.4
G2 F800.0 X61.4913 Y321.9273 I6.2732 J3.9207
G1 X71.2785 Y348.8174
G2 X80.7601 Y353.2387 I6.9515 J-2.5301
G1 X106.4132 Y343.9017
G3 X125.7693 Y338.9771 I34.237 J94.0655
G1 X312.0213 Y310.9781
G2 X317.8207 Y300.9931 I-1.0997 J-7.3154
G2 X310.3319 Y296.0011 I-7.001 J2.3896
G1 X67.955 Y312.0157
G2 X62.1695 Y315.4765 I0.4877 J7.3815
G1 F300.0 X61.1519 Y314.8405
G2 F800.0 X60.3636 Y322.3377 I7.2908 J4.5567
G1 X70.1508 Y349.2278
G2 X81.1705 Y354.3663 I8.0791 J-2.9406
G1 X106.8237 Y345.0293
G3 X125.9477 Y340.1637 I33.8266 J92.9379
G1 X312.1997 Y312.1648
G2 X318.9485 Y300.5826 I-1.2781 J-8.5021
G2 X310.2528 Y294.8037 I-8.1289 J2.8001
G1 X67.8759 Y310.8183
G2 X61.1519 Y314.8405 I0.5668 J8.5789
G1 F300.0 X60.1343 Y314.2045
G2 F800.0 X59.236 Y322.7482 I8.3084 J5.1926
G1 X69.0232 Y349.6382
G2 X81.5809 Y355.494 I9.2067 J-3.351
G1 X107.2341 Y346.157
G3 X126.126 Y341.3504 I33.4162 J91.8102
G1 X312.3781 Y313.3515
G2 X320.0763 Y300.1721 I-1.4565 J-9.6887
G2 X310.1737 Y293.6064 I-9.2566 J3.2105
G1 X67.7968 Y309.6209
G2 X60.1343 Y314.2045 I0.6459 J9.7763
G0 Z3.0
G0 X59.8396 Y309.7434
G0 Z-0.8
G1 F300.0 Z-2.4
G1 F800.0 X58.8473 Y309.8089
G3 X48.9922 Y303.3821 I-0.6461 J-9.7787
G1 X33.0321 Y259.5319
G1 X11.983 Y267.1932
G1 X48.6414 Y367.9112
G1 X107.3717 Y346.5351
G3 X126.1859 Y341.7483 I33.2786 J91.4321
G1 X318.6052 Y312.8223
G2 X322.6395 Y306.0346 I-0.7582 J-5.0433
G1 X319.9284 Y298.586
G2 X311.3492 Y293.1251 I-7.9391 J3.003
G3 X311.2894 Y293.1294 I-0.4751 J-6.2821
G1 X59.8396 Y309.7434
G1 F300.0 X59.7605 Y308.546
G1 F800.0 X58.7682 Y308.6115
G3 X50.1199 Y302.9716 I-0.567 J-8.5813
G1 X33.7493 Y257.9939
G1 X10.4449 Y266.476
G1 X47.9241 Y369.4493
G1 X107.7821 Y347.6627
G3 X126.3643 Y342.935 I32.8681 J90.3045
G1 X318.7836 Y314.0089
G2 X323.7671 Y305.6242 I-0.9365 J-6.23
G1 X321.0536 Y298.1688
G2 X311.2587 Y291.9285 I-9.0642 J3.4203
G3 X311.2103 Y291.932 I-0.3846 J-5.0855
G1 X59.7605 Y308.546
G1 F300.0 X59.6814 Y307.3486
G1 F800.0 X58.6891 Y307.4142
G3 X51.2475 Y302.5612 I-0.4879 J-7.3839
G1 X34.4665 Y256.4558
G1 X8.9069 Y265.7588
G1 X47.2069 Y370.9873
G1 X108.1926 Y348.7904
G3 X126.5426 Y344.1217 I32.4577 J89.1768
G1 X318.962 Y315.1956
G2 X324.8948 Y305.2138 I-1.1149 J-7.4167
G1 X322.1789 Y297.7519
G2 X311.1682 Y290.732 I-10.1895 J3.8371
G3 X311.1312 Y290.7346 I-0.2941 J-3.8889
G1 X59.6814 Y307.3486
G1 F300.0 X59.6022 Y306.1512
G1 F800.0 X58.61 Y306.2168
G3 X52.3751 Y302.1508 I-0.4088 J-6.1865
G1 X35.457 Y255.6687
G2 X34.4147 Y255.197 I-0.7518 J0.2736
G3 X34.3573 Y255.2186 I-0.9809 J-2.5155
G1 X8.1206 Y264.768
G2 X7.6424 Y265.7933 I0.2736 J0.7518
G1 X46.2161 Y371.7736
G2 X47.2415 Y372.2518 I0.7518 J-0.2736
G1 X108.603 Y349.918
G3 X126.721 Y345.3083 I32.0473 J88.0492
G1 X319.1404 Y316.3823
G2 X326.0224 Y304.8034 I-1.2933 J-8.6033
G1 X323.3043 Y297.3354
G2 X311.0777 Y289.5354 I-11.3149 J4.2536
G3 X311.0521 Y289.5372 I-0.2036 J-2.6923
G1 X59.6022 Y306.1512
G1 F300.0 X59.5231 Y304.9538
G1 F800.0 X58.5309 Y305.0194
G3 X53.5028 Y301.7404 I-0.3296 J-4.9891
G1 X36.5847 Y255.2583
G2 X33.9787 Y254.0789 I-1.8794 J0.684
G3 X33.9468 Y254.091 I-0.5449 J-1.3975
G1 X7.7102 Y263.6403
G2 X6.5148 Y266.2038 I0.684 J1.8794
G1 X45.0885 Y372.184
G2 X47.6519 Y373.3794 I1.8794 J-0.684
G1 X109.0134 Y351.0456
G3 X126.8994 Y346.495 I31.6369 J86.9216
G1 X319.3188 Y317.5689
G2 X327.15 Y304.3929 I-1.4717 J-9.79
G1 X324.4298 Y296.9192
G2 X310.9872 Y288.3388 I-12.4405 J4.6698
G3 X310.973 Y288.3398 I-0.1131 J-1.4957
G1 X59.5231 Y304.9538
G0 Z3.0
G0 X45.4463 Y319.1695
G0 Z-1.4
G1 F300.0 Z-3.0
G3 F800.0 X44.7802 Y318.7084 I12.755 J-19.1392
G1 X45.478 Y320.6257
G3 X45.4463 Y319.1695 I22.9648 J-1.2285
G1 F300.0 X46.1117 Y318.1709
G3 F800.0 X42.0232 Y314.6422 I12.0895 J-18.1407
G1 X55.8134 Y352.5307
G1 X57.1312 Y352.051
G1 X47.9597 Y326.8524
G3 X46.6625 Y318.5262 I20.483 J-7.4552
G3 X46.1117 Y318.1709 I11.5387 J-18.4959
G1 F300.0 X46.7772 Y317.1724
G3 F800.0 X38.8436 Y307.0759 I11.424 J-17.1421
G1 X26.5772 Y273.3744
G1 X25.8255 Y273.6481
G1 X55.0962 Y354.0687
G1 X58.6693 Y352.7682
G1 X49.0873 Y326.442
G3 X47.9018 Y317.8707 I19.3554 J-7.0448
G3 X46.7772 Y317.1724 I10.2995 J-17.8404
G1 F300.0 X47.4427 Y316.1738
G3 F800.0 X39.9712 Y306.6654 I10.7585 J-16.1435
G1 X27.2945 Y271.8364
G1 X24.2874 Y272.9309
G1 X54.379 Y355.6068
G1 X60.2161 Y353.4822
G3 X60.0021 Y352.9216 I18.0138 J-7.195
G1 X50.215 Y326.0316
G3 X49.17 Y317.1999 I18.2278 J-6.6344
G3 X47.4427 Y316.1738 I9.0312 J-17.1696
G1 F300.0 X48.1082 Y315.1752
G3 F800.0 X41.0988 Y306.255 I10.0931 J-15.145
G1 X28.0117 Y270.2983
G1 X22.7494 Y272.2136
G1 X53.6618 Y357.1448
G1 X61.8293 Y354.1721
G3 X61.1298 Y352.5112 I16.4007 J-7.8849
G1 X51.3426 Y325.6211
G3 X50.4758 Y316.5092 I17.1001 J-6.224
G3 X48.1082 Y315.1752 I7.7255 J-16.479
G1 F300.0 X48.7736 Y314.1767
G3 F800.0 X42.2265 Y305.8446 I9.4276 J-14.1464
G1 X28.7289 Y268.7603
G1 X21.2113 Y271.4964
G1 X52.9446 Y358.6829
G1 X63.5342 Y354.8286
G3 X62.2574 Y352.1008 I14.6957 J-8.5413
G1 X52.4702 Y325.2107
G3 X51.8319 Y315.792 I15.9725 J-5.8135
G3 X48.7736 Y314.1767 I6.3694 J-15.7617
G1 F300.0 X49.4391 Y313.1781
G3 F800.0 X43.3541 Y305.4342 I8.7621 J-13.1478
G1 X29.4461 Y267.2222
G1 X19.6733 Y270.7792
G1 X52.2274 Y360.2209
G1 X65.3558 Y355.4426
G3 X63.385 Y351.6903 I12.8741 J-9.1554
G1 X53.5978 Y324.8003
G3 X53.2587 Y315.0373 I14.8449 J-5.4031
G3 X49.4391 Y313.1781 I4.9426 J-15.007
G1 F300.0 X50.1046 Y312.1795
G3 F800.0 X44.4817 Y305.0237 I8.0966 J-12.1493
G1 X30.1633 Y265.6842
G1 X18.1352 Y270.062
G1 X51.5102 Y361.759
G1 X67.3327 Y356.0001
G3 X64.5127 Y351.2799 I10.8973 J-9.7128
G1 X54.7255 Y324.3899
G3 X54.7916 Y314.2265 I13.7173 J-4.9927
G3 X50.1046 Y312.1795 I3.4097 J-14.1963
G1 F300.0 X50.7701 Y311.1809
G3 F800.0 X45.6094 Y304.6133 I7.4312 J-11.1507
G1 X30.8805 Y264.1461
G1 X16.5972 Y269.3448
G1 X50.793 Y363.297
G1 X69.5312 Y356.4769
G3 X65.6403 Y350.8695 I8.6987 J-10.1896
G1 X55.8531 Y323.9794
G3 X56.5017 Y313.322 I12.5896 J-4.5823
G3 X50.7701 Y311.1809 I1.6995 J-13.2918
G1 F300.0 X51.4356 Y310.1824
G3 F800.0 X46.737 Y304.2029 I6.7657 J-10.1521
G1 X31.5977 Y262.6081
G1 X15.0591 Y268.6276
G1 X50.0758 Y364.8351
G1 X72.0855 Y356.8242
G3 X66.7679 Y350.4591 I6.1444 J-10.537
G1 X56.9807 Y323.569
G3 X58.577 Y312.2245 I11.462 J-4.1718
G3 X51.4356 Y310.1824 I-0.3757 J-12.1942
G1 F300.0 X52.101 Y309.1838
G3 F800.0 X47.8646 Y303.7925 I6.1002 J-9.1536
G1 X32.3149 Y261.07
G1 X13.5211 Y267.9104
G1 X49.3586 Y366.3731
G1 X75.3689 Y356.9062
G3 X67.8956 Y350.0486 I2.861 J-10.6189
G1 X58.1084 Y323.1586
G3 X61.5427 Y310.8335 I10.3344 J-3.7614
G1 X58.9265 Y311.0063
G3 X52.101 Y309.1838 I-0.7252 J-10.9761
G0 Z3.0
G0 X318.5108 Y311.622
G0 Z-1.4
G1 F300.0 Z-3.0
G2 F800.0 X321.5401 Y306.5253 I-0.6638 J-3.8431
G3 X318.5108 Y311.622 I-10.6185 J-2.8626
G0 Z3.0
G0 X315.1984 Y308.1481
G0 Z-1.4
G1 F300.0 Z-3.0
G3 F800.0 X311.8429 Y309.7915 I-4.2768 J-4.4854
G1 X125.5909 Y337.7904
G2 X106.0028 Y342.7741 I15.0594 J100.1768
G1 X80.3496 Y352.1111
G3 X72.4061 Y348.4069 I-2.1197 J-5.8238
G1 X62.6189 Y321.5169
G3 X68.0341 Y313.2131 I5.8238 J-2.1197
G1 X310.4111 Y297.1985
G3 X316.6928 Y301.4036 I0.4086 J6.1841
G3 X315.1984 Y308.1481 I-5.7712 J2.2591
G1 F300.0 X314.372 Y307.2814
G3 F800.0 X311.6649 Y308.6072 I-3.4504 J-3.6187
G1 X125.4128 Y336.6061
G2 X105.5932 Y341.6487 I15.2374 J101.3611
G1 X79.94 Y350.9857
G3 X73.5315 Y347.9973 I-1.7101 J-4.6985
G1 X63.7443 Y321.1073
G3 X68.1131 Y314.4081 I4.6985 J-1.7101
G1 X310.49 Y298.3935
G3 X315.567 Y301.8134 I0.3296 J4.9891
G3 X314.372 Y307.2814 I-4.6454 J1.8494
G0 Z3.0
G0 X316.0265 Y309.0166
G0 Z-1.4
G1 F300.0 Z-3.0
G2 F800.0 X317.8207 Y300.9931 I-5.1049 J-5.3539
G2 X310.3319 Y296.0011 I-7.001 J2.3896
G1 X67.955 Y312.0157
G2 X61.4913 Y321.9273 I0.4877 J7.3815
G1 X71.2785 Y348.8174
G2 X80.7601 Y353.2387 I6.9515 J-2.5301
G1 X106.4132 Y343.9017
G3 X125.7693 Y338.9771 I34.237 J94.0655
G1 X312.0213 Y310.9781
G2 X316.0265 Y309.0166 I-1.0997 J-7.3154
G1 F300.0 X316.8546 Y309.8851
G2 F800.0 X318.9485 Y300.5826 I-5.933 J-6.2224
G2 X310.2528 Y294.8037 I-8.1289 J2.8001
G1 X67.8759 Y310.8183
G2 X60.3636 Y322.3377 I0.5668 J8.5789
G1 X70.1508 Y349.2278
G2 X81.1705 Y354.3663 I8.0791 J-2.9406
G1 X106.8237 Y345.0293
G3 X125.9477 Y340.1637 I33.8266 J92.9379
G1 X312.1997 Y312.1648
G2 X316.8546 Y309.8851 I-1.2781 J-8.5021
G1 F300.0 X317.6827 Y310.7536
G2 F800.0 X320.0763 Y300.1721 I-6.7611 J-7.0908
G2 X310.1737 Y293.6064 I-9.2566 J3.2105
G1 X67.7968 Y309.6209
G2 X59.236 Y322.7482 I0.6459 J9.7763
G1 X69.0232 Y349.6382
G2 X81.5809 Y355.494 I9.2067 J-3.351
G1 X107.2341 Y346.157
G3 X126.126 Y341.3504 I33.4162 J91.8102
G1 X312.3781 Y313.3515
G2 X317.6827 Y310.7536 I-1.4565 J-9.6887
G0 Z3.0
G0 X318.0072 Y312.9122
G0 Z-1.4
G1 F300.0 Z-3.0
G1 F800.0 X318.6052 Y312.8223
G2 X322.6395 Y306.0346 I-0.7582 J-5.0433
G1 X319.9284 Y298.586
G2 X311.3492 Y293.1251 I-7.9391 J3.003
G3 X311.2894 Y293.1294 I-0.4751 J-6.2821
G1 X58.8473 Y309.8089
G3 X48.9922 Y303.3821 I-0.6461 J-9.7787
G1 X33.0321 Y259.5319
G1 X11.983 Y267.1932
G1 X48.6414 Y367.9112
G1 X107.3717 Y346.5351
G3 X126.1859 Y341.7483 I33.2786 J91.4321
G1 X318.0072 Y312.9122
G1 F300.0 X318.1856 Y314.0988
G1 F800.0 X318.7836 Y314.0089
G2 X323.7671 Y305.6242 I-0.9365 J-6.23
G1 X321.0536 Y298.1688
G2 X311.2587 Y291.9285 I-9.0642 J3.4203
G3 X311.2103 Y291.932 I-0.3846 J-5.0855
G1 X58.7682 Y308.6115
G3 X50.1199 Y302.9716 I-0.567 J-8.5813
G1 X33.7493 Y257.9939
G1 X10.4449 Y266.476
G1 X47.9241 Y369.4493
G1 X107.7821 Y347.6627
G3 X126.3643 Y342.935 I32.8681 J90.3045
G1 X318.1856 Y314.0988
G1 F300.0 X318.364 Y315.2855
G1 F800.0 X318.962 Y315.1956
G2 X324.8948 Y305.2138 I-1.1149 J-7.4167
G1 X322.1789 Y297.7519
G2 X311.1682 Y290.732 I-10.1895 J3.8371
G3 X311.1312 Y290.7346 I-0.2941 J-3.8889
G1 X58.6891 Y307.4142
G3 X51.2475 Y302.5612 I-0.4879 J-7.3839
G1 X34.4665 Y256.4558
G1 X8.9069 Y265.7588
G1 X47.2069 Y370.9873
G1 X108.1926 Y348.7904
G3 X126.5426 Y344.1217 I32.4577 J89.1768
G1 X318.364 Y315.2855
G1 F300.0 X318.5424 Y316.4722
G1 F800.0 X319.1404 Y316.3823
G2 X326.0224 Y304.8034 I-1.2933 J-8.6033
G1 X323.3043 Y297.3354
G2 X311.0777 Y289.5354 I-11.3149 J4.2536
G3 X311.0521 Y289.5372 I-0.2036 J-2.6923
G1 X58.61 Y306.2168
G3 X52.3751 Y302.1508 I-0.4088 J-6.1865
G1 X35.457 Y255.6687
G2 X34.4147 Y255.197 I-0.7518 J0.2736
G3 X34.3573 Y255.2186 I-0.9809 J-2.5155
G1 X8.1206 Y264.768
G2 X7.6424 Y265.7933 I0.2736 J0.7518
G1 X46.2161 Y371.7736
G2 X47.2415 Y372.2518 I0.7518 J-0.2736
G1 X108.603 Y349.918
G3 X126.721 Y345.3083 I32.0473 J88.0492
G1 X318.5424 Y316.4722
G1 F300.0 X318.7208 Y317.6588
G1 F800.0 X319.3188 Y317.5689
G2 X327.15 Y304.3929 I-1.4717 J-9.79
G1 X324.4298 Y296.9192
G2 X310.9872 Y288.3388 I-12.4405 J4.6698
G3 X310.973 Y288.3398 I-0.1131 J-1.4957
G1 X58.5309 Y305.0194
G3 X53.5028 Y301.7404 I-0.3296 J-4.9891
G1 X36.5847 Y255.2583
G2 X33.9787 Y254.0789 I-1.8794 J0.684
G3 X33.9468 Y254.091 I-0.5449 J-1.3975
G1 X7.7102 Y263.6403
G2 X6.5148 Y266.2038 I0.684 J1.8794
G1 X45.0885 Y372.184
G2 X47.6519 Y373.3794 I1.8794 J-0.684
G1 X109.0134 Y351.0456
G3 X126.8994 Y346.495 I31.6369 J86.9216
G1 X318.7208 Y317.6588
G0 Z3.0
G0 X318.5108 Y311.622
G0 Z-2.0
G1 F300.0 Z-3.6
G2 F800.0 X321.5401 Y306.5253 I-0.6638 J-3.8431
G3 X318.5108 Y311.622 I-10.6185 J-2.8626
G0 Z3.0
G0 X45.4463 Y319.1695
G0 Z-2.0
G1 F300.0 Z-3.6
G3 F800.0 X44.7802 Y318.7084 I12.755 J-19.1392
G1 X45.478 Y320.6257
G3 X45.4463 Y319.1695 I22.9648 J-1.2285
G1 F300.0 X46.1117 Y318.1709
G3 F800.0 X42.0232 Y314.6422 I12.0895 J-18.1407
G1 X55.8134 Y352.5307
G1 X57.1312 Y352.051
G1 X47.9597 Y326.8524
G3 X46.6625 Y318.5262 I20.483 J-7.4552
G3 X46.1117 Y318.1709 I11.5387 J-18.4959
G1 F300.0 X46.7772 Y317.1724
G3 F800.0 X38.8436 Y307.0759 I11.424 J-17.1421
G1 X26.5772 Y273.3744
G1 X25.8255 Y273.6481
G1 X55.0962 Y354.0687
G1 X58.6693 Y352.7682
G1 X49.0873 Y326.442
G3 X47.9018 Y317.8707 I19.3554 J-7.0448
G3 X46.7772 Y317.1724 I10.2995 J-17.8404
G1 F300.0 X47.4427 Y316.1738
G3 F800.0 X39.9712 Y306.6654 I10.7585 J-16.1435
G1 X27.2945 Y271.8364
G1 X24.2874 Y272.9309
G1 X54.379 Y355.6068
G1 X60.2161 Y353.4822
G3 X60.0021 Y352.9216 I18.0138 J-7.195
G1 X50.215 Y326.0316
G3 X49.17 Y317.1999 I18.2278 J-6.6344
G3 X47.4427 Y316.1738 I9.0312 J-17.1696
G1 F300.0 X48.1082 Y315.1752
G3 F800.0 X41.0988 Y306.255 I10.0931 J-15.145
G1 X28.0117 Y270.2983
G1 X22.7494 Y272.2136
G1 X53.6618 Y357.1448
G1 X61.8293 Y354.1721
G3 X61.1298 Y352.5112 I16.4007 J-7.8849
G1 X51.3426 Y325.6211
G3 X50.4758 Y316.5092 I17.1001 J-6.224
G3 X48.1082 Y315.1752 I7.7255 J-16.479
G1 F300.0 X48.7736 Y314.1767
G3 F800.0 X42.2265 Y305.8446 I9.4276 J-14.1464
G1 X28.7289 Y268.7603
G1 X21.2113 Y271.4964
G1 X52.9446 Y358.6829
G1 X63.5342 Y354.8286
G3 X62.2574 Y352.1008 I14.6957 J-8.5413
G1 X52.4702 Y325.2107
G3 X51.8319 Y315.792 I15.9725 J-5.8135
G3 X48.7736 Y314.1767 I6.3694 J-15.7617
G1 F300.0 X49.4391 Y313.1781
G3 F800.0 X43.3541 Y305.4342 I8.7621 J-13.1478
G1 X29.4461 Y267.2222
G1 X19.6733 Y270.7792
G1 X52.2274 Y360.2209
G1 X65.3558 Y355.4426
G3 X63.385 Y351.6903 I12.8741 J-9.1554
G1 X53.5978 Y324.8003
G3 X53.2587 Y315.0373 I14.8449 J-5.4031
G3 X49.4391 Y313.1781 I4.9426 J-15.007
G1 F300.0 X50.1046 Y312.1795
G3 F800.0 X44.4817 Y305.0237 I8.0966 J-12.1493
G1 X30.1633 Y265.6842
G1 X18.1352 Y270.062
G1 X51.5102 Y361.759
G1 X67.3327 Y356.0001
G3 X64.5127 Y351.2799 I10.8973 J-9.7128
G1 X54.7255 Y324.3899
G3 X54.7916 Y314.2265 I13.7173 J-4.9927
G3 X50.1046 Y312.1795 I3.4097 J-14.1963
G1 F300.0 X50.7701 Y311.1809
G3 F800.0 X45.6094 Y304.6133 I7.4312 J-11.1507
G1 X30.8805 Y264.1461
G1 X16.5972 Y269.3448
G1 X50.793 Y363.297
G1 X69.5312 Y356.4769
G3 X65.6403 Y350.8695 I8.6987 J-10.1896
G1 X55.8531 Y323.9794
G3 X56.5017 Y313.322 I12.5896 J-4.5823
G3 X50.7701 Y311.1809 I1.6995 J-13.2918
G1 F300.0 X51.4356 Y310.1824
G3 F800.0 X46.737 Y304.2029 I6.7657 J-10.1521
G1 X31.5977 Y262.6081
G1 X15.0591 Y268.6276
G1 X50.0758 Y364.8351
G1 X72.0855 Y356.8242
G3 X66.7679 Y350.4591 I6.1444 J-10.537
G1 X56.9807 Y323.569
G3 X58.577 Y312.2245 I11.462 J-4.1718
G3 X51.4356 Y310.1824 I-0.3757 J-12.1942
G1 F300.0 X52.101 Y309.1838
G3 F800.0 X47.8646 Y303.7925 I6.1002 J-9.1536
G1 X32.3149 Y261.07
G1 X13.5211 Y267.9104
G1 X49.3586 Y366.3731
G1 X75.3689 Y356.9062
G3 X67.8956 Y350.0486 I2.861 J-10.6189
G1 X58.1084 Y323.1586
G3 X61.5427 Y310.8335 I10.3344 J-3.7614
G1 X58.9265 Y311.0063
G3 X52.101 Y309.1838 I-0.7252 J-10.9761
G0 Z3.0
G0 X63.1872 Y316.1125
G0 Z-2.0
G1 F300.0 Z-3.6
G3 F800.0 X68.0341 Y313.2131 I5.2556 J3.2847
G1 X310.4111 Y297.1985
G3 X316.6928 Y301.4036 I0.4086 J6.1841
G3 X311.8429 Y309.7915 I-5.7712 J2.2591
G1 X125.5909 Y337.7904
G2 X106.0028 Y342.7741 I15.0594 J100.1768
G1 X80.3496 Y352.1111
G3 X72.4061 Y348.4069 I-2.1197 J-5.8238
G1 X62.6189 Y321.5169
G3 X63.1872 Y316.1125 I5.8238 J-2.1197
G1 F300.0 X64.2027 Y316.7472
G3 F800.0 X68.1131 Y314.4081 I4.24 J2.65
G1 X310.49 Y298.3935
G3 X315.567 Y301.8134 I0.3296 J4.9891
G3 X311.6649 Y308.6072 I-4.6454 J1.8494
G1 X125.4128 Y336.6061
G2 X105.5932 Y341.6487 I15.2374 J101.3611
G1 X79.94 Y350.9857
G3 X73.5315 Y347.9973 I-1.7101 J-4.6985
G1 X63.7443 Y321.1073
G3 X64.2027 Y316.7472 I4.6985 J-1.7101
G0 Z3.0
G0 X62.1695 Y315.4765
G0 Z-2.0
G1 F300.0 Z-3.6
G2 F800.0 X61.4913 Y321.9273 I6.2732 J3.9207
G1 X71.2785 Y348.8174
G2 X80.7601 Y353.2387 I6.9515 J-2.5301
G1 X106.4132 Y343.9017
G3 X125.7693 Y338.9771 I34.237 J94.0655
G1 X312.0213 Y310.9781
G2 X317.8207 Y300.9931 I-1.0997 J-7.3154
G2 X310.3319 Y296.0011 I-7.001 J2.3896
G1 X67.955 Y312.0157
G2 X62.1695 Y315.4765 I0.4877 J7.3815
G1 F300.0 X61.1519 Y314.8405
G2 F800.0 X60.3636 Y322.3377 I7.2908 J4.5567
G1 X70.1508 Y349.2278
G2 X81.1705 Y354.3663 I8.0791 J-2.9406
G1 X106.8237 Y345.0293
G3 X125.9477 Y340.1637 I33.8266 J92.9379
G1 X312.1997 Y312.1648
G2 X318.9485 Y300.5826 I-1.2781 J-8.5021
G2 X310.2528 Y294.8037 I-8.1289 J2.8001
G1 X67.8759 Y310.8183
G2 X61.1519 Y314.8405 I0.5668 J8.5789
G1 F300.0 X60.1343 Y314.2045
G2 F800.0 X59.236 Y322.7482 I8.3084 J5.1926
G1 X69.0232 Y349.6382
G2 X81.5809 Y355.494 I9.2067 J-3.351
G1 X107.2341 Y346.157
G3 X126.126 Y341.3504 I33.4162 J91.8102
G1 X312.3781 Y313.3515
G2 X320.0763 Y300.1721 I-1.4565 J-9.6887
G2 X310.1737 Y293.6064 I-9.2566 J3.2105
G1 X67.7968 Y309.6209
G2 X60.1343 Y314.2045 I0.6459 J9.7763
G0 Z3.0
G0 X59.8396 Y309.7434
G0 Z-2.0
G1 F300.0 Z-3.6
G1 F800.0 X58.8473 Y309.8089
G3 X48.9922 Y303.3821 I-0.6461 J-9.7787
G1 X33.0321 Y259.5319
G1 X11.983 Y267.1932
G1 X48.6414 Y367.9112
G1 X107.3717 Y346.5351
G3 X126.1859 Y341.7483 I33.2786 J91.4321
G1 X318.6052 Y312.8223
G2 X322.6395 Y306.0346 I-0.7582 J-5.0433
G1 X319.9284 Y298.586
G2 X311.3492 Y293.1251 I-7.9391 J3.003
G3 X311.2894 Y293.1294 I-0.4751 J-6.2821
G1 X59.8396 Y309.7434
G1 F300.0 X59.7605 Y308.546
G1 F800.0 X58.7682 Y308.6115
G3 X50.1199 Y302.9716 I-0.567 J-8.5813
G1 X33.7493 Y257.9939
G1 X10.4449 Y266.476
G1 X47.9241 Y369.4493
G1 X107.7821 Y347.6627
G3 X126.3643 Y342.935 I32.8681 J90.3045
G1 X318.7836 Y314.0089
G2 X323.7671 Y305.6242 I-0.9365 J-6.23
G1 X321.0536 Y298.1688
G2 X311.2587 Y291.9285 I-9.0642 J3.4203
G3 X311.2103 Y291.932 I-0.3846 J-5.0855
G1 X59.7605 Y308.546
G1 F300.0 X59.6814 Y307.3486
G1 F800.0 X58.6891 Y307.4142
G3 X51.2475 Y302.5612 I-0.4879 J-7.3839
G1 X34.4665 Y256.4558
G1 X8.9069 Y265.7588
G1 X47.2069 Y370.9873
G1 X108.1926 Y348.7904
G3 X126.5426 Y344.1217 I32.4577 J89.1768
G1 X318.962 Y315.1956
G2 X324.8948 Y305.2138 I-1.1149 J-7.4167
G1 X322.1789 Y297.7519
G2 X311.1682 Y290.732 I-10.1895 J3.8371
G3 X311.1312 Y290.7346 I-0.2941 J-3.8889
G1 X59.6814 Y307.3486
G1 F300.0 X59.6022 Y306.1512
G1 F800.0 X58.61 Y306.2168
G3 X52.3751 Y302.1508 I-0.4088 J-6.1865
G1 X35.457 Y255.6687
G2 X34.4147 Y255.197 I-0.7518 J0.2736
G3 X34.3573 Y255.2186 I-0.9809 J-2.5155
G1 X8.1206 Y264.768
G2 X7.6424 Y265.7933 I0.2736 J0.7518
G1 X46.2161 Y371.7736
G2 X47.2415 Y372.2518 I0.7518 J-0.2736
G1 X108.603 Y349.918
G3 X126.721 Y345.3083 I32.0473 J88.0492
G1 X319.1404 Y316.3823
G2 X326.0224 Y304.8034 I-1.2933 J-8.6033
G1 X323.3043 Y297.3354
G2 X311.0777 Y289.5354 I-11.3149 J4.2536
G3 X311.0521 Y289.5372 I-0.2036 J-2.6923
G1 X59.6022 Y306.1512
G1 F300.0 X59.5231 Y304.9538
G1 F800.0 X58.5309 Y305.0194
G3 X53.5028 Y301.7404 I-0.3296 J-4.9891
G1 X36.5847 Y255.2583
G2 X33.9787 Y254.0789 I-1.8794 J0.684
G3 X33.9468 Y254.091 I-0.5449 J-1.3975
G1 X7.7102 Y263.6403
G2 X6.5148 Y266.2038 I0.684 J1.8794
G1 X45.0885 Y372.184
G2 X47.6519 Y373.3794 I1.8794 J-0.684
G1 X109.0134 Y351.0456
G3 X126.8994 Y346.495 I31.6369 J86.9216
G1 X319.3188 Y317.5689
G2 X327.15 Y304.3929 I-1.4717 J-9.79
G1 X324.4298 Y296.9192
G2 X310.9872 Y288.3388 I-12.4405 J4.6698
G3 X310.973 Y288.3398 I-0.1131 J-1.4957
G1 X59.5231 Y304.9538
G0 Z3.0
G0 X45.4463 Y319.1695
G0 Z-2.6
G1 F300.0 Z-4.2
G3 F800.0 X44.7802 Y318.7084 I12.755 J-19.1392
G1 X45.478 Y320.6257
G3 X45.4463 Y319.1695 I22.9648 J-1.2285
G1 F300.0 X46.1117 Y318.1709
G3 F800.0 X42.0232 Y314.6422 I12.0895 J-18.1407
G1 X55.8134 Y352.5307
G1 X57.1312 Y352.051
G1 X47.9597 Y326.8524
G3 X46.6625 Y318.5262 I20.483 J-7.4552
G3 X46.1117 Y318.1709 I11.5387 J-18.4959
G1 F300.0 X46.7772 Y317.1724
G3 F800.0 X38.8436 Y307.0759 I11.424 J-17.1421
G1 X26.5772 Y273.3744
G1 X25.8255 Y273.6481
G1 X55.0962 Y354.0687
G1 X58.6693 Y352.7682
G1 X49.0873 Y326.442
G3 X47.9018 Y317.8707 I19.3554 J-7.0448
G3 X46.7772 Y317.1724 I10.2995 J-17.8404
G1 F300.0 X47.4427 Y316.1738
G3 F800.0 X39.9712 Y306.6654 I10.7585 J-16.1435
G1 X27.2945 Y271.8364
G1 X24.2874 Y272.9309
G1 X54.379 Y355.6068
G1 X60.2161 Y353.4822
G3 X60.0021 Y352.9216 I18.0138 J-7.195
G1 X50.215 Y326.0316
G3 X49.17 Y317.1999 I18.2278 J-6.6344
G3 X47.4427 Y316.1738 I9.0312 J-17.1696
G1 F300.0 X48.1082 Y315.1752
G3 F800.0 X41.0988 Y306.255 I10.0931 J-15.145
G1 X28.0117 Y270.2983
G1 X22.7494 Y272.2136
G1 X53.6618 Y357.1448
G1 X61.8293 Y354.1721
G3 X61.1298 Y352.5112 I16.4007 J-7.8849
G1 X51.3426 Y325.6211
G3 X50.4758 Y316.5092 I17.1001 J-6.224
G3 X48.1082 Y315.1752 I7.7255 J-16.479
G1 F300.0 X48.7736 Y314.1767
G3 F800.0 X42.2265 Y305.8446 I9.4276 J-14.1464
G1 X28.7289 Y268.7603
G1 X21.2113 Y271.4964
G1 X52.9446 Y358.6829
G1 X63.5342 Y354.8286
G3 X62.2574 Y352.1008 I14.6957 J-8.5413
G1 X52.4702 Y325.2107
G3 X51.8319 Y315.792 I15.9725 J-5.8135
G3 X48.7736 Y314.1767 I6.3694 J-15.7617
G1 F300.0 X49.4391 Y313.1781
G3 F800.0 X43.3541 Y305.4342 I8.7621 J-13.1478
G1 X29.4461 Y267.2222
G1 X19.6733 Y270.7792
G1 X52.2274 Y360.2209
G1 X65.3558 Y355.4426
G3 X63.385 Y351.6903 I12.8741 J-9.1554
G1 X53.5978 Y324.8003
G3 X53.2587 Y315.0373 I14.8449 J-5.4031
G3 X49.4391 Y313.1781 I4.9426 J-15.007
G1 F300.0 X50.1046 Y312.1795
G3 F800.0 X44.4817 Y305.0237 I8.0966 J-12.1493
G1 X30.1633 Y265.6842
G1 X18.1352 Y270.062
G1 X51.5102 Y361.759
G1 X67.3327 Y356.0001
G3 X64.5127 Y351.2799 I10.8973 J-9.7128
G1 X54.7255 Y324.3899
G3 X54.7916 Y314.2265 I13.7173 J-4.9927
G3 X50.1046 Y312.1795 I3.4097 J-14.1963
G1 F300.0 X50.7701 Y311.1809
G3 F800.0 X45.6094 Y304.6133 I7.4312 J-11.1507
G1 X30.8805 Y264.1461
G1 X16.5972 Y269.3448
G1 X50.793 Y363.297
G1 X69.5312 Y356.4769
G3 X65.6403 Y350.8695 I8.6987 J-10.1896
G1 X55.8531 Y323.9794
G3 X56.5017 Y313.322 I12.5896 J-4.5823
G3 X50.7701 Y311.1809 I1.6995 J-13.2918
G1 F300.0 X51.4356 Y310.1824
G3 F800.0 X46.737 Y304.2029 I6.7657 J-10.1521
G1 X31.5977 Y262.6081
G1 X15.0591 Y268.6276
G1 X50.0758 Y364.8351
G1 X72.0855 Y356.8242
G3 X66.7679 Y350.4591 I6.1444 J-10.537
G1 X56.9807 Y323.569
G3 X58.577 Y312.2245 I11.462 J-4.1718
G3 X51.4356 Y310.1824 I-0.3757 J-12.1942
G1 F300.0 X52.101 Y309.1838
G3 F800.0 X47.8646 Y303.7925 I6.1002 J-9.1536
G1 X32.3149 Y261.07
G1 X13.5211 Y267.9104
G1 X49.3586 Y366.3731
G1 X75.3689 Y356.9062
G3 X67.8956 Y350.0486 I2.861 J-10.6189
G1 X58.1084 Y323.1586
G3 X61.5427 Y310.8335 I10.3344 J-3.7614
G1 X58.9265 Y311.0063
G3 X52.101 Y309.1838 I-0.7252 J-10.9761
G0 Z3.0
G0 X318.5108 Y311.622
G0 Z-2.6
G1 F300.0 Z-4.2
G2 F800.0 X321.5401 Y306.5253 I-0.6638 J-3.8431
G3 X318.5108 Y311.622 I-10.6185 J-2.8626
G0 Z3.0
G0 X315.1984 Y308.1481
G0 Z-2.6
G1 F300.0 Z-4.2
G3 F800.0 X311.8429 Y309.7915 I-4.2768 J-4.4854
G1 X125.5909 Y337.7904
G2 X106.0028 Y342.7741 I15.0594 J100.1768
G1 X80.3496 Y352.1111
G3 X72.4061 Y348.4069 I-2.1197 J-5.8238
G1 X62.6189 Y321.5169
G3 X68.0341 Y313.2131 I5.8238 J-2.1197
G1 X310.4111 Y297.1985
G3 X316.6928 Y301.4036 I0.4086 J6.1841
G3 X315.1984 Y308.1481 I-5.7712 J2.2591
G1 F300.0 X314.372 Y307.2814
G3 F800.0 X311.6649 Y308.6072 I-3.4504 J-3.6187
G1 X125.4128 Y336.6061
G2 X105.5932 Y341.6487 I15.2374 J101.3611
G1 X79.94 Y350.9857
G3 X73.5315 Y347.9973 I-1.7101 J-4.6985
G1 X63.7443 Y321.1073
G3 X68.1131 Y314.4081 I4.6985 J-1.7101
G1 X310.49 Y298.3935
G3 X315.567 Y301.8134 I0.3296 J4.9891
G3 X314.372 Y307.2814 I-4.6454 J1.8494
G0 Z3.0
G0 X316.0265 Y309.0166
G0 Z-2.6
G1 F300.0 Z-4.2
G2 F800.0 X317.8207 Y300.9931 I-5.1049 J-5.3539
G2 X310.3319 Y296.0011 I-7.001 J2.3896
G1 X67.955 Y312.0157
G2 X61.4913 Y321.9273 I0.4877 J7.3815
G1 X71.2785 Y348.8174
G2 X80.7601 Y353.2387 I6.9515 J-2.5301
G1 X106.4132 Y343.9017
G3 X125.7693 Y338.9771 I34.237 J94.0655
G1 X312.0213 Y310.9781
G2 X316.0265 Y309.0166 I-1.0997 J-7.3154
G1 F300.0 X316.8546 Y309.8851
G2 F800.0 X318.9485 Y300.5826 I-5.933 J-6.2224
G2 X310.2528 Y294.8037 I-8.1289 J2.8001
G1 X67.8759 Y310.8183
G2 X60.3636 Y322.3377 I0.5668 J8.5789
G1 X70.1508 Y349.2278
G2 X81.1705 Y354.3663 I8.0791 J-2.9406
G1 X106.8237 Y345.0293
G3 X125.9477 Y340.1637 I33.8266 J92.9379
G1 X312.1997 Y312.1648
G2 X316.8546 Y309.8851 I-1.2781 J-8.5021
G1 F300.0 X317.6827 Y310.7536
G2 F800.0 X320.0763 Y300.1721 I-6.7611 J-7.0908
G2 X310.1737 Y293.6064 I-9.2566 J3.2105
G1 X67.7968 Y309.6209
G2 X59.236 Y322.7482 I0.6459 J9.7763
G1 X69.0232 Y349.6382
G2 X81.5809 Y355.494 I9.2067 J-3.351
G1 X107.2341 Y346.157
G3 X126.126 Y341.3504 I33.4162 J91.8102
G1 X312.3781 Y313.3515
G2 X317.6827 Y310.7536 I-1.4565 J-9.6887
G0 Z3.0
G0 X318.0072 Y312.9122
G0 Z-2.6
G1 F300.0 Z-4.2
G1 F800.0 X318.6052 Y312.8223
G2 X322.6395 Y306.0346 I-0.7582 J-5.0433
G1 X319.9284 Y298.586
G2 X311.3492 Y293.1251 I-7.9391 J3.003
G3 X311.2894 Y293.1294 I-0.4751 J-6.2821
G1 X58.8473 Y309.8089
G3 X48.9922 Y303.3821 I-0.6461 J-9.7787
G1 X33.0321 Y259.5319
G1 X11.983 Y267.1932
G1 X48.6414 Y367.9112
G1 X107.3717 Y346.5351
G3 X126.1859 Y341.7483 I33.2786 J91.4321
G1 X318.0072 Y312.9122
G1 F300.0 X318.1856 Y314.0988
G1 F800.0 X318.7836 Y314.0089
G2 X323.7671 Y305.6242 I-0.9365 J-6.23
G1 X321.0536 Y298.1688
G2 X311.2587 Y291.9285 I-9.0642 J3.4203
G3 X311.2103 Y291.932 I-0.3846 J-5.0855
G1 X58.7682 Y308.6115
G3 X50.1199 Y302.9716 I-0.567 J-8.5813
G1 X33.7493 Y257.9939
G1 X10.4449 Y266.476
G1 X47.9241 Y369.4493
G1 X107.7821 Y347.6627
G3 X126.3643 Y342.935 I32.8681 J90.3045
G1 X318.1856 Y314.0988
G1 F300.0 X318.364 Y315.2855
G1 F800.0 X318.962 Y315.1956
G2 X324.8948 Y305.2138 I-1.1149 J-7.4167
G1 X322.1789 Y297.7519
G2 X311.1682 Y290.732 I-10.1895 J3.8371
G3 X311.1312 Y290.7346 I-0.2941 J-3.8889
G1 X58.6891 Y307.4142
G3 X51.2475 Y302.5612 I-0.4879 J-7.3839
G1 X34.4665 Y256.4558
G1 X8.9069 Y265.7588
G1 X47.2069 Y370.9873
G1 X108.1926 Y348.7904
G3 X126.5426 Y344.1217 I32.4577 J89.1768
G1 X318.364 Y315.2855
G1 F300.0 X318.5424 Y316.4722
G1 F800.0 X319.1404 Y316.3823
G2 X326.0224 Y304.8034 I-1.2933 J-8.6033
G1 X323.3043 Y297.3354
G2 X311.0777 Y289.5354 I-11.3149 J4.2536
G3 X311.0521 Y289.5372 I-0.2036 J-2.6923
G1 X58.61 Y306.2168
G3 X52.3751 Y302.1508 I-0.4088 J-6.1865
G1 X35.457 Y255.6687
G2 X34.4147 Y255.197 I-0.7518 J0.2736
G3 X34.3573 Y255.2186 I-0.9809 J-2.5155
G1 X8.1206 Y264.768
G2 X7.6424 Y265.7933 I0.2736 J0.7518
G1 X46.2161 Y371.7736
G2 X47.2415 Y372.2518 I0.7518 J-0.2736
G1 X108.603 Y349.918
G3 X126.721 Y345.3083 I32.0473 J88.0492
G1 X318.5424 Y316.4722
G1 F300.0 X318.7208 Y317.6588
G1 F800.0 X319.3188 Y317.5689
G2 X327.15 Y304.3929 I-1.4717 J-9.79
G1 X324.4298 Y296.9192
G2 X310.9872 Y288.3388 I-12.4405 J4.6698
G3 X310.973 Y288.3398 I-0.1131 J-1.4957
G1 X58.5309 Y305.0194
G3 X53.5028 Y301.7404 I-0.3296 J-4.9891
G1 X36.5847 Y255.2583
G2 X33.9787 Y254.0789 I-1.8794 J0.684
G3 X33.9468 Y254.091 I-0.5449 J-1.3975
G1 X7.7102 Y263.6403
G2 X6.5148 Y266.2038 I0.684 J1.8794
G1 X45.0885 Y372.184
G2 X47.6519 Y373.3794 I1.8794 J-0.684
G1 X109.0134 Y351.0456
G3 X126.8994 Y346.495 I31.6369 J86.9216
G1 X318.7208 Y317.6588
G0 Z3.0
G0 X318.5108 Y311.622
G0 Z-3.2
G1 F300.0 Z-4.8
G2 F800.0 X321.5401 Y306.5253 I-0.6638 J-3.8431
G3 X318.5108 Y311.622 I-10.6185 J-2.8626
G0 Z3.0
G0 X45.4463 Y319.1695
G0 Z-3.2
G1 F300.0 Z-4.8
G3 F800.0 X44.7802 Y318.7084 I12.755 J-19.1392
G1 X45.478 Y320.6257
G3 X45.4463 Y319.1695 I22.9648 J-1.2285
G1 F300.0 X46.1117 Y318.1709
G3 F800.0 X42.0232 Y314.6422 I12.0895 J-18.1407
G1 X55.8134 Y352.5307
G1 X57.1312 Y352.051
G1 X47.9597 Y326.8524
G3 X46.6625 Y318.5262 I20.483 J-7.4552
G3 X46.1117 Y318.1709 I11.5387 J-18.4959
G1 F300.0 X46.7772 Y317.1724
G3 F800.0 X38.8436 Y307.0759 I11.424 J-17.1421
G1 X26.5772 Y273.3744
G1 X25.8255 Y273.6481
G1 X55.0962 Y354.0687
G1 X58.6693 Y352.7682
G1 X49.0873 Y326.442
G3 X47.9018 Y317.8707 I19.3554 J-7.0448
G3 X46.7772 Y317.1724 I10.2995 J-17.8404
G1 F300.0 X47.4427 Y316.1738
G3 F800.0 X39.9712 Y306.6654 I10.7585 J-16.1435
G1 X27.2945 Y271.8364
G1 X24.2874 Y272.9309
G1 X54.379 Y355.6068
G1 X60.2161 Y353.4822
G3 X60.0021 Y352.9216 I18.0138 J-7.195
G1 X50.215 Y326.0316
G3 X49.17 Y317.1999 I18.2278 J-6.6344
G3 X47.4427 Y316.1738 I9.0312 J-17.1696
G1 F300.0 X48.1082 Y315.1752
G3 F800.0 X41.0988 Y306.255 I10.0931 J-15.145
G1 X28.0117 Y270.2983
G1 X22.7494 Y272.2136
G1 X53.6618 Y357.1448
G1 X61.8293 Y354.1721
G3 X61.1298 Y352.5112 I16.4007 J-7.8849
G1 X51.3426 Y325.6211
G3 X50.4758 Y316.5092 I17.1001 J-6.224
G3 X48.1082 Y315.1752 I7.7255 J-16.479
G1 F300.0 X48.7736 Y314.1767
G3 F800.0 X42.2265 Y305.8446 I9.4276 J-14.1464
G1 X28.7289 Y268.7603
G1 X21.2113 Y271.4964
G1 X52.9446 Y358.6829
G1 X63.5342 Y354.8286
G3 X62.2574 Y352.1008 I14.6957 J-8.5413
G1 X52.4702 Y325.2107
G3 X51.8319 Y315.792 I15.9725 J-5.8135
G3 X48.7736 Y314.1767 I6.3694 J-15.7617
G1 F300.0 X49.4391 Y313.1781
G3 F800.0 X43.3541 Y305.4342 I8.7621 J-13.1478
G1 X29.4461 Y267.2222
G1 X19.6733 Y270.7792
G1 X52.2274 Y360.2209
G1 X65.3558 Y355.4426
G3 X63.385 Y351.6903 I12.8741 J-9.1554
G1 X53.5978 Y324.8003
G3 X53.2587 Y315.0373 I14.8449 J-5.4031
G3 X49.4391 Y313.1781 I4.9426 J-15.007
G1 F300.0 X50.1046 Y312.1795
G3 F800.0 X44.4817 Y305.0237 I8.0966 J-12.1493
G1 X30.1633 Y265.6842
G1 X18.1352 Y270.062
G1 X51.5102 Y361.759
G1 X67.3327 Y356.0001
G3 X64.5127 Y351.2799 I10.8973 J-9.7128
G1 X54.7255 Y324.3899
G3 X54.7916 Y314.2265 I13.7173 J-4.9927
G3 X50.1046 Y312.1795 I3.4097 J-14.1963
G1 F300.0 X50.7701 Y311.1809
G3 F800.0 X45.6094 Y304.6133 I7.4312 J-11.1507
G1 X30.8805 Y264.1461
G1 X16.5972 Y269.3448
G1 X50.793 Y363.297
G1 X69.5312 Y356.4769
G3 X65.6403 Y350.8695 I8.6987 J-10.1896
G1 X55.8531 Y323.9794
G3 X56.5017 Y313.322 I12.5896 J-4.5823
G3 X50.7701 Y311.1809 I1.6995 J-13.2918
G1 F300.0 X51.4356 Y310.1824
G3 F800.0 X46.737 Y304.2029 I6.7657 J-10.1521
G1 X31.5977 Y262.6081
G1 X15.0591 Y268.6276
G1 X50.0758 Y364.8351
G1 X72.0855 Y356.8242
G3 X66.7679 Y350.4591 I6.1444 J-10.537
G1 X56.9807 Y323.569
G3 X58.577 Y312.2245 I11.462 J-4.1718
G3 X51.4356 Y310.1824 I-0.3757 J-12.1942
G1 F300.0 X52.101 Y309.1838
G3 F800.0 X47.8646 Y303.7925 I6.1002 J-9.1536
G1 X32.3149 Y261.07
G1 X13.5211 Y267.9104
G1 X49.3586 Y366.3731
G1 X75.3689 Y356.9062
G3 X67.8956 Y350.0486 I2.861 J-10.6189
G1 X58.1084 Y323.1586
G3 X61.5427 Y310.8335 I10.3344 J-3.7614
G1 X58.9265 Y311.0063
G3 X52.101 Y309.1838 I-0.7252 J-10.9761
G0 Z3.0
G0 X63.1872 Y316.1125
G0 Z-3.2
G1 F300.0 Z-4.8
G3 F800.0 X68.0341 Y313.2131 I5.2556 J3.2847
G1 X310.4111 Y297.1985
G3 X316.6928 Y301.4036 I0.4086 J6.1841
G3 X311.8429 Y309.7915 I-5.7712 J2.2591
G1 X125.5909 Y337.7904
G2 X106.0028 Y342.7741 I15.0594 J100.1768
G1 X80.3496 Y352.1111
G3 X72.4061 Y348.4069 I-2.1197 J-5.8238
G1 X62.6189 Y321.5169
G3 X63.1872 Y316.1125 I5.8238 J-2.1197
G1 F300.0 X64.2027 Y316.7472
G3 F800.0 X68.1131 Y314.4081 I4.24 J2.65
G1 X310.49 Y298.3935
G3 X315.567 Y301.8134 I0.3296 J4.9891
G3 X311.6649 Y308.6072 I-4.6454 J1.8494
G1 X125.4128 Y336.6061
G2 X105.5932 Y341.6487 I15.2374 J101.3611
G1 X79.94 Y350.9857
G3 X73.5315 Y347.9973 I-1.7101 J-4.6985
G1 X63.7443 Y321.1073
G3 X64.2027 Y316.7472 I4.6985 J-1.7101
G0 Z3.0
G0 X62.1695 Y315.4765
G0 Z-3.2
G1 F300.0 Z-4.8
G2 F800.0 X61.4913 Y321.9273 I6.2732 J3.9207
G1 X71.2785 Y348.8174
G2 X80.7601 Y353.2387 I6.9515 J-2.5301
G1 X106.4132 Y343.9017
G3 X125.7693 Y338.9771 I34.237 J94.0655
G1 X312.0213 Y310.9781
G2 X317.8207 Y300.9931 I-1.0997 J-7.3154
G2 X310.3319 Y296.0011 I-7.001 J2.3896
G1 X67.955 Y312.0157
G2 X62.1695 Y315.4765 I0.4877 J7.3815
G1 F300.0 X61.1519 Y314.8405
G2 F800.0 X60.3636 Y322.3377 I7.2908 J4.5567
G1 X70.1508 Y349.2278
G2 X81.1705 Y354.3663 I8.0791 J-2.9406
G1 X106.8237 Y345.0293
G3 X125.9477 Y340.1637 I33.8266 J92.9379
G1 X312.1997 Y312.1648
G2 X318.9485 Y300.5826 I-1.2781 J-8.5021
G2 X310.2528 Y294.8037 I-8.1289 J2.8001
G1 X67.8759 Y310.8183
G2 X61.1519 Y314.8405 I0.5668 J8.5789
G1 F300.0 X60.1343 Y314.2045
G2 F800.0 X59.236 Y322.7482 I8.3084 J5.1926
G1 X69.0232 Y349.6382
G2 X81.5809 Y355.494 I9.2067 J-3.351
G1 X107.2341 Y346.157
G3 X126.126 Y341.3504 I33.4162 J91.8102
G1 X312.3781 Y313.3515
G2 X320.0763 Y300.1721 I-1.4565 J-9.6887
G2 X310.1737 Y293.6064 I-9.2566 J3.2105
G1 X67.7968 Y309.6209
G2 X60.1343 Y314.2045 I0.6459 J9.7763
G0 Z3.0
G0 X59.8396 Y309.7434
G0 Z-3.2
G1 F300.0 Z-4.8
G1 F800.0 X58.8473 Y309.8089
G3 X48.9922 Y303.3821 I-0.6461 J-9.7787
G1 X33.0321 Y259.5319
G1 X11.983 Y267.1932
G1 X48.6414 Y367.9112
G1 X107.3717 Y346.5351
G3 X126.1859 Y341.7483 I33.2786 J91.4321
G1 X318.6052 Y312.8223
G2 X322.6395 Y306.0346 I-0.7582 J-5.0433
G1 X319.9284 Y298.586
G2 X311.3492 Y293.1251 I-7.9391 J3.003
G3 X311.2894 Y293.1294 I-0.4751 J-6.2821
G1 X59.8396 Y309.7434
G1 F300.0 X59.7605 Y308.546
G1 F800.0 X58.7682 Y308.6115
G3 X50.1199 Y302.9716 I-0.567 J-8.5813
G1 X33.7493 Y257.9939
G1 X10.4449 Y266.476
G1 X47.9241 Y369.4493
G1 X107.7821 Y347.6627
G3 X126.3643 Y342.935 I32.8681 J90.3045
G1 X318.7836 Y314.0089
G2 X323.7671 Y305.6242 I-0.9365 J-6.23
G1 X321.0536 Y298.1688
G2 X311.2587 Y291.9285 I-9.0642 J3.4203
G3 X311.2103 Y291.932 I-0.3846 J-5.0855
G1 X59.7605 Y308.546
G1 F300.0 X59.6814 Y307.3486
G1 F800.0 X58.6891 Y307.4142
G3 X51.2475 Y302.5612 I-0.4879 J-7.3839
G1 X34.4665 Y256.4558
G1 X8.9069 Y265.7588
G1 X47.2069 Y370.9873
G1 X108.1926 Y348.7904
G3 X126.5426 Y344.1217 I32.4577 J89.1768
G1 X318.962 Y315.1956
G2 X324.8948 Y305.2138 I-1.1149 J-7.4167
G1 X322.1789 Y297.7519
G2 X311.1682 Y290.732 I-10.1895 J3.8371
G3 X311.1312 Y290.7346 I-0.2941 J-3.8889
G1 X59.6814 Y307.3486
G1 F300.0 X59.6022 Y306.1512
G1 F800.0 X58.61 Y306.2168
G3 X52.3751 Y302.1508 I-0.4088 J-6.1865
G1 X35.457 Y255.6687
G2 X34.4147 Y255.197 I-0.7518 J0.2736
G3 X34.3573 Y255.2186 I-0.9809 J-2.5155
G1 X8.1206 Y264.768
G2 X7.6424 Y265.7933 I0.2736 J0.7518
G1 X46.2161 Y371.7736
G2 X47.2415 Y372.2518 I0.7518 J-0.2736
G1 X108.603 Y349.918
G3 X126.721 Y345.3083 I32.0473 J88.0492
G1 X319.1404 Y316.3823
G2 X326.0224 Y304.8034 I-1.2933 J-8.6033
G1 X323.3043 Y297.3354
G2 X311.0777 Y289.5354 I-11.3149 J4.2536
G3 X311.0521 Y289.5372 I-0.2036 J-2.6923
G1 X59.6022 Y306.1512
G1 F300.0 X59.5231 Y304.9538
G1 F800.0 X58.5309 Y305.0194
G3 X53.5028 Y301.7404 I-0.3296 J-4.9891
G1 X36.5847 Y255.2583
G2 X33.9787 Y254.0789 I-1.8794 J0.684
G3 X33.9468 Y254.091 I-0.5449 J-1.3975
G1 X7.7102 Y263.6403
G2 X6.5148 Y266.2038 I0.684 J1.8794
G1 X45.0885 Y372.184
G2 X47.6519 Y373.3794 I1.8794 J-0.684
G1 X109.0134 Y351.0456
G3 X126.8994 Y346.495 I31.6369 J86.9216
G1 X319.3188 Y317.5689
G2 X327.15 Y304.3929 I-1.4717 J-9.79
G1 X324.4298 Y296.9192
G2 X310.9872 Y288.3388 I-12.4405 J4.6698
G3 X310.973 Y288.3398 I-0.1131 J-1.4957
G1 X59.5231 Y304.9538
G0 Z3.0
G0 X45.4463 Y319.1695
G0 Z-3.8
G1 F300.0 Z-5.4
G3 F800.0 X44.7802 Y318.7084 I12.755 J-19.1392
G1 X45.478 Y320.6257
G3 X45.4463 Y319.1695 I22.9648 J-1.2285
G1 F300.0 X46.1117 Y318.1709
G3 F800.0 X42.0232 Y314.6422 I12.0895 J-18.1407
G1 X55.8134 Y352.5307
G1 X57.1312 Y352.051
G1 X47.9597 Y326.8524
G3 X46.6625 Y318.5262 I20.483 J-7.4552
G3 X46.1117 Y318.1709 I11.5387 J-18.4959
G1 F300.0 X46.7772 Y317.1724
G3 F800.0 X38.8436 Y307.0759 I11.424 J-17.1421
G1 X26.5772 Y273.3744
G1 X25.8255 Y273.6481
G1 X55.0962 Y354.0687
G1 X58.6693 Y352.7682
G1 X49.0873 Y326.442
G3 X47.9018 Y317.8707 I19.3554 J-7.0448
G3 X46.7772 Y317.1724 I10.2995 J-17.8404
G1 F300.0 X47.4427 Y316.1738
G3 F800.0 X39.9712 Y306.6654 I10.7585 J-16.1435
G1 X27.2945 Y271.8364
G1 X24.2874 Y272.9309
G1 X54.379 Y355.6068
G1 X60.2161 Y353.4822
G3 X60.0021 Y352.9216 I18.0138 J-7.195
G1 X50.215 Y326.0316
G3 X49.17 Y317.1999 I18.2278 J-6.6344
G3 X47.4427 Y316.1738 I9.0312 J-17.1696
G1 F300.0 X48.1082 Y315.1752
G3 F800.0 X41.0988 Y306.255 I10.0931 J-15.145
G1 X28.0117 Y270.2983
G1 X22.7494 Y272.2136
G1 X53.6618 Y357.1448
G1 X61.8293 Y354.1721
G3 X61.1298 Y352.5112 I16.4007 J-7.8849
G1 X51.3426 Y325.6211
G3 X50.4758 Y316.5092 I17.1001 J-6.224
G3 X48.1082 Y315.1752 I7.7255 J-16.479
G1 F300.0 X48.7736 Y314.1767
G3 F800.0 X42.2265 Y305.8446 I9.4276 J-14.1464
G1 X28.7289 Y268.7603
G1 X21.2113 Y271.4964
G1 X52.9446 Y358.6829
G1 X63.5342 Y354.8286
G3 X62.2574 Y352.1008 I14.6957 J-8.5413
G1 X52.4702 Y325.2107
G3 X51.8319 Y315.792 I15.9725 J-5.8135
G3 X48.7736 Y314.1767 I6.3694 J-15.7617
G1 F300.0 X49.4391 Y313.1781
G3 F800.0 X43.3541 Y305.4342 I8.7621 J-13.1478
G1 X29.4461 Y267.2222
G1 X19.6733 Y270.7792
G1 X52.2274 Y360.2209
G1 X65.3558 Y355.4426
G3 X63.385 Y351.6903 I12.8741 J-9.1554
G1 X53.5978 Y324.8003
G3 X53.2587 Y315.0373 I14.8449 J-5.4031
G3 X49.4391 Y313.1781 I4.9426 J-15.007
G1 F300.0 X50.1046 Y312.1795
G3 F800.0 X44.4817 Y305.0237 I8.0966 J-12.1493
G1 X30.1633 Y265.6842
G1 X18.1352 Y270.062
G1 X51.5102 Y361.759
G1 X67.3327 Y356.0001
G3 X64.5127 Y351.2799 I10.8973 J-9.7128
G1 X54.7255 Y324.3899
G3 X54.7916 Y314.2265 I13.7173 J-4.9927
G3 X50.1046 Y312.1795 I3.4097 J-14.1963
G1 F300.0 X50.7701 Y311.1809
G3 F800.0 X45.6094 Y304.6133 I7.4312 J-11.1507
G1 X30.8805 Y264.1461
G1 X16.5972 Y269.3448
G1 X50.793 Y363.297
G1 X69.5312 Y356.4769
G3 X65.6403 Y350.8695 I8.6987 J-10.1896
G1 X55.8531 Y323.9794
G3 X56.5017 Y313.322 I12.5896 J-4.5823
G3 X50.7701 Y311.1809 I1.6995 J-13.2918
G1 F300.0 X51.4356 Y310.1824
G3 F800.0 X46.737 Y304.2029 I6.7657 J-10.1521
G1 X31.5977 Y262.6081
G1 X15.0591 Y268.6276
G1 X50.0758 Y364.8351
G1 X72.0855 Y356.8242
G3 X66.7679 Y350.4591 I6.1444 J-10.537
G1 X56.9807 Y323.569
G3 X58.577 Y312.2245 I11.462 J-4.1718
G3 X51.4356 Y310.1824 I-0.3757 J-12.1942
G1 F300.0 X52.101 Y309.1838
G3 F800.0 X47.8646 Y303.7925 I6.1002 J-9.1536
G1 X32.3149 Y261.07
G1 X13.5211 Y267.9104
G1 X49.3586 Y366.3731
G1 X75.3689 Y356.9062
G3 X67.8956 Y350.0486 I2.861 J-10.6189
G1 X58.1084 Y323.1586
G3 X61.5427 Y310.8335 I10.3344 J-3.7614
G1 X58.9265 Y311.0063
G3 X52.101 Y309.1838 I-0.7252 J-10.9761
G0 Z3.0
G0 X318.5108 Y311.622
G0 Z-3.8
G1 F300.0 Z-5.4
G2 F800.0 X321.5401 Y306.5253 I-0.6638 J-3.8431
G3 X318.5108 Y311.622 I-10.6185 J-2.8626
G0 Z3.0
G0 X315.1984 Y308.1481
G0 Z-3.8
G1 F300.0 Z-5.4
G3 F800.0 X311.8429 Y309.7915 I-4.2768 J-4.4854
G1 X125.5909 Y337.7904
G2 X106.0028 Y342.7741 I15.0594 J100.1768
G1 X80.3496 Y352.1111
G3 X72.4061 Y348.4069 I-2.1197 J-5.8238
G1 X62.6189 Y321.5169
G3 X68.0341 Y313.2131 I5.8238 J-2.1197
G1 X310.4111 Y297.1985
G3 X316.6928 Y301.4036 I0.4086 J6.1841
G3 X315.1984 Y308.1481 I-5.7712 J2.2591
G1 F300.0 X314.372 Y307.2814
G3 F800.0 X311.6649 Y308.6072 I-3.4504 J-3.6187
G1 X125.4128 Y336.6061
G2 X105.5932 Y341.6487 I15.2374 J101.3611
G1 X79.94 Y350.9857
G3 X73.5315 Y347.9973 I-1.7101 J-4.6985
G1 X63.7443 Y321.1073
G3 X68.1131 Y314.4081 I4.6985 J-1.7101
G1 X310.49 Y298.3935
G3 X315.567 Y301.8134 I0.3296 J4.9891
G3 X314.372 Y307.2814 I-4.6454 J1.8494
G0 Z3.0
G0 X316.0265 Y309.0166
G0 Z-3.8
G1 F300.0 Z-5.4
G2 F800.0 X317.8207 Y300.9931 I-5.1049 J-5.3539
G2 X310.3319 Y296.0011 I-7.001 J2.3896
G1 X67.955 Y312.0157
G2 X61.4913 Y321.9273 I0.4877 J7.3815
G1 X71.2785 Y348.8174
G2 X80.7601 Y353.2387 I6.9515 J-2.5301
G1 X106.4132 Y343.9017
G3 X125.7693 Y338.9771 I34.237 J94.0655
G1 X312.0213 Y310.9781
G2 X316.0265 Y309.0166 I-1.0997 J-7.3154
G1 F300.0 X316.8546 Y309.8851
G2 F800.0 X318.9485 Y300.5826 I-5.933 J-6.2224
G2 X310.2528 Y294.8037 I-8.1289 J2.8001
G1 X67.8759 Y310.8183
G2 X60.3636 Y322.3377 I0.5668 J8.5789
G1 X70.1508 Y349.2278
G2 X81.1705 Y354.3663 I8.0791 J-2.9406
G1 X106.8237 Y345.0293
G3 X125.9477 Y340.1637 I33.8266 J92.9379
G1 X312.1997 Y312.1648
G2 X316.8546 Y309.8851 I-1.2781 J-8.5021
G1 F300.0 X317.6827 Y310.7536
G2 F800.0 X320.0763 Y300.1721 I-6.7611 J-7.0908
G2 X310.1737 Y293.6064 I-9.2566 J3.2105
G1 X67.7968 Y309.6209
G2 X59.236 Y322.7482 I0.6459 J9.7763
G1 X69.0232 Y349.6382
G2 X81.5809 Y355.494 I9.2067 J-3.351
G1 X107.2341 Y346.157
G3 X126.126 Y341.3504 I33.4162 J91.8102
G1 X312.3781 Y313.3515
G2 X317.6827 Y310.7536 I-1.4565 J-9.6887
G0 Z3.0
G0 X318.0072 Y312.9122
G0 Z-3.8
G1 F300.0 Z-5.4
G1 F800.0 X318.6052 Y312.8223
G2 X322.6395 Y306.0346 I-0.7582 J-5.0433
G1 X319.9284 Y298.586
G2 X311.3492 Y293.1251 I-7.9391 J3.003
G3 X311.2894 Y293.1294 I-0.4751 J-6.2821
G1 X58.8473 Y309.8089
G3 X48.9922 Y303.3821 I-0.6461 J-9.7787
G1 X33.0321 Y259.5319
G1 X11.983 Y267.1932
G1 X48.6414 Y367.9112
G1 X107.3717 Y346.5351
G3 X126.1859 Y341.7483 I33.2786 J91.4321
G1 X318.0072 Y312.9122
G1 F300.0 X318.1856 Y314.0988
G1 F800.0 X318.7836 Y314.0089
G2 X323.7671 Y305.6242 I-0.9365 J-6.23
G1 X321.0536 Y298.1688
G2 X311.2587 Y291.9285 I-9.0642 J3.4203
G3 X311.2103 Y291.932 I-0.3846 J-5.0855
G1 X58.7682 Y308.6115
G3 X50.1199 Y302.9716 I-0.567 J-8.5813
G1 X33.7493 Y257.9939
G1 X10.4449 Y266.476
G1 X47.9241 Y369.4493
G1 X107.7821 Y347.6627
G3 X126.3643 Y342.935 I32.8681 J90.3045
G1 X318.1856 Y314.0988
G1 F300.0 X318.364 Y315.2855
G1 F800.0 X318.962 Y315.1956
G2 X324.8948 Y305.2138 I-1.1149 J-7.4167
G1 X322.1789 Y297.7519
G2 X311.1682 Y290.732 I-10.1895 J3.8371
G3 X311.1312 Y290.7346 I-0.2941 J-3.8889
G1 X58.6891 Y307.4142
G3 X51.2475 Y302.5612 I-0.4879 J-7.3839
G1 X34.4665 Y256.4558
G1 X8.9069 Y265.7588
G1 X47.2069 Y370.9873
G1 X108.1926 Y348.7904
G3 X126.5426 Y344.1217 I32.4577 J89.1768
G1 X318.364 Y315.2855
G1 F300.0 X318.5424 Y316.4722
G1 F800.0 X319.1404 Y316.3823
G2 X326.0224 Y304.8034 I-1.2933 J-8.6033
G1 X323.3043 Y297.3354
G2 X311.0777 Y289.5354 I-11.3149 J4.2536
G3 X311.0521 Y289.5372 I-0.2036 J-2.6923
G1 X58.61 Y306.2168
G3 X52.3751 Y302.1508 I-0.4088 J-6.1865
G1 X35.457 Y255.6687
G2 X34.4147 Y255.197 I-0.7518 J0.2736
G3 X34.3573 Y255.2186 I-0.9809 J-2.5155
G1 X8.1206 Y264.768
G2 X7.6424 Y265.7933 I0.2736 J0.7518
G1 X46.2161 Y371.7736
G2 X47.2415 Y372.2518 I0.7518 J-0.2736
G1 X108.603 Y349.918
G3 X126.721 Y345.3083 I32.0473 J88.0492
G1 X318.5424 Y316.4722
G1 F300.0 X318.7208 Y317.6588
G1 F800.0 X319.3188 Y317.5689
G2 X327.15 Y304.3929 I-1.4717 J-9.79
G1 X324.4298 Y296.9192
G2 X310.9872 Y288.3388 I-12.4405 J4.6698
G3 X310.973 Y288.3398 I-0.1131 J-1.4957
G1 X58.5309 Y305.0194
G3 X53.5028 Y301.7404 I-0.3296 J-4.9891
G1 X36.5847 Y255.2583
G2 X33.9787 Y254.0789 I-1.8794 J0.684
G3 X33.9468 Y254.091 I-0.5449 J-1.3975
G1 X7.7102 Y263.6403
G2 X6.5148 Y266.2038 I0.684 J1.8794
G1 X45.0885 Y372.184
G2 X47.6519 Y373.3794 I1.8794 J-0.684
G1 X109.0134 Y351.0456
G3 X126.8994 Y346.495 I31.6369 J86.9216
G1 X318.7208 Y317.6588
G0 Z3.0
G0 X318.5108 Y311.622
G0 Z-4.4
G1 F300.0 Z-6.0
G2 F800.0 X321.5401 Y306.5253 I-0.6638 J-3.8431
G3 X318.5108 Y311.622 I-10.6185 J-2.8626
G0 Z3.0
G0 X45.4463 Y319.1695
G0 Z-4.4
G1 F300.0 Z-6.0
G3 F800.0 X44.7802 Y318.7084 I12.755 J-19.1392
G1 X45.478 Y320.6257
G3 X45.4463 Y319.1695 I22.9648 J-1.2285
G1 F300.0 X46.1117 Y318.1709
G3 F800.0 X42.0232 Y314.6422 I12.0895 J-18.1407
G1 X55.8134 Y352.5307
G1 X57.1312 Y352.051
G1 X47.9597 Y326.8524
G3 X46.6625 Y318.5262 I20.483 J-7.4552
G3 X46.1117 Y318.1709 I11.5387 J-18.4959
G1 F300.0 X46.7772 Y317.1724
G3 F800.0 X38.8436 Y307.0759 I11.424 J-17.1421
G1 X26.5772 Y273.3744
G1 X25.8255 Y273.6481
G1 X55.0962 Y354.0687
G1 X58.6693 Y352.7682
G1 X49.0873 Y326.442
G3 X47.9018 Y317.8707 I19.3554 J-7.0448
G3 X46.7772 Y317.1724 I10.2995 J-17.8404
G1 F300.0 X47.4427 Y316.1738
G3 F800.0 X39.9712 Y306.6654 I10.7585 J-16.1435
G1 X27.2945 Y271.8364
G1 X24.2874 Y272.9309
G1 X54.379 Y355.6068
G1 X60.2161 Y353.4822
G3 X60.0021 Y352.9216 I18.0138 J-7.195
G1 X50.215 Y326.0316
G3 X49.17 Y317.1999 I18.2278 J-6.6344
G3 X47.4427 Y316.1738 I9.0312 J-17.1696
G1 F300.0 X48.1082 Y315.1752
G3 F800.0 X41.0988 Y306.255 I10.0931 J-15.145
G1 X28.0117 Y270.2983
G1 X22.7494 Y272.2136
G1 X53.6618 Y357.1448
G1 X61.8293 Y354.1721
G3 X61.1298 Y352.5112 I16.4007 J-7.8849
G1 X51.3426 Y325.6211
G3 X50.4758 Y316.5092 I17.1001 J-6.224
G3 X48.1082 Y315.1752 I7.7255 J-16.479
G1 F300.0 X48.7736 Y314.1767
G3 F800.0 X42.2265 Y305.8446 I9.4276 J-14.1464
G1 X28.7289 Y268.7603
G1 X21.2113 Y271.4964
G1 X52.9446 Y358.6829
G1 X63.5342 Y354.8286
G3 X62.2574 Y352.1008 I14.6957 J-8.5413
G1 X52.4702 Y325.2107
G3 X51.8319 Y315.792 I15.9725 J-5.8135
G3 X48.7736 Y314.1767 I6.3694 J-15.7617
G1 F300.0 X49.4391 Y313.1781
G3 F800.0 X43.3541 Y305.4342 I8.7621 J-13.1478
G1 X29.4461 Y267.2222
G1 X19.6733 Y270.7792
G1 X52.2274 Y360.2209
G1 X65.3558 Y355.4426
G3 X63.385 Y351.6903 I12.8741 J-9.1554
G1 X53.5978 Y324.8003
G3 X53.2587 Y315.0373 I14.8449 J-5.4031
G3 X49.4391 Y313.1781 I4.9426 J-15.007
G1 F300.0 X50.1046 Y312.1795
G3 F800.0 X44.4817 Y305.0237 I8.0966 J-12.1493
G1 X30.1633 Y265.6842
G1 X18.1352 Y270.062
G1 X51.5102 Y361.759
G1 X67.3327 Y356.0001
G3 X64.5127 Y351.2799 I10.8973 J-9.7128
G1 X54.7255 Y324.3899
G3 X54.7916 Y314.2265 I13.7173 J-4.9927
G3 X50.1046 Y312.1795 I3.4097 J-14.1963
G1 F300.0 X50.7701 Y311.1809
G3 F800.0 X45.6094 Y304.6133 I7.4312 J-11.1507
G1 X30.8805 Y264.1461
G1 X16.5972 Y269.3448
G1 X50.793 Y363.297
G1 X69.5312 Y356.4769
G3 X65.6403 Y350.8695 I8.6987 J-10.1896
G1 X55.8531 Y323.9794
G3 X56.5017 Y313.322 I12.5896 J-4.5823
G3 X50.7701 Y311.1809 I1.6995 J-13.2918
G1 F300.0 X51.4356 Y310.1824
G3 F800.0 X46.737 Y304.2029 I6.7657 J-10.1521
G1 X31.5977 Y262.6081
G1 X15.0591 Y268.6276
G1 X50.0758 Y364.8351
G1 X72.0855 Y356.8242
G3 X66.7679 Y350.4591 I6.1444 J-10.537
G1 X56.9807 Y323.569
G3 X58.577 Y312.2245 I11.462 J-4.1718
G3 X51.4356 Y310.1824 I-0.3757 J-12.1942
G1 F300.0 X52.101 Y309.1838
G3 F800.0 X47.8646 Y303.7925 I6.1002 J-9.1536
G1 X32.3149 Y261.07
G1 X13.5211 Y267.9104
G1 X49.3586 Y366.3731
G1 X75.3689 Y356.9062
G3 X67.8956 Y350.0486 I2.861 J-10.6189
G1 X58.1084 Y323.1586
G3 X61.5427 Y310.8335 I10.3344 J-3.7614
G1 X58.9265 Y311.0063
G3 X52.101 Y309.1838 I-0.7252 J-10.9761
G0 Z3.0
G0 X63.1872 Y316.1125
G0 Z-4.4
G1 F300.0 Z-6.0
G3 F800.0 X68.0341 Y313.2131 I5.2556 J3.2847
G1 X310.4111 Y297.1985
G3 X316.6928 Y301.4036 I0.4086 J6.1841
G3 X311.8429 Y309.7915 I-5.7712 J2.2591
G1 X125.5909 Y337.7904
G2 X106.0028 Y342.7741 I15.0594 J100.1768
G1 X80.3496 Y352.1111
G3 X72.4061 Y348.4069 I-2.1197 J-5.8238
G1 X62.6189 Y321.5169
G3 X63.1872 Y316.1125 I5.8238 J-2.1197
G1 F300.0 X64.2027 Y316.7472
G3 F800.0 X68.1131 Y314.4081 I4.24 J2.65
G1 X310.49 Y298.3935
G3 X315.567 Y301.8134 I0.3296 J4.9891
G3 X311.6649 Y308.6072 I-4.6454 J1.8494
G1 X125.4128 Y336.6061
G2 X105.5932 Y341.6487 I15.2374 J101.3611
G1 X79.94 Y350.9857
G3 X73.5315 Y347.9973 I-1.7101 J-4.6985
G1 X63.7443 Y321.1073
G3 X64.2027 Y316.7472 I4.6985 J-1.7101
G0 Z3.0
G0 X62.1695 Y315.4765
G0 Z-4.4
G1 F300.0 Z-6.0
G2 F800.0 X61.4913 Y321.9273 I6.2732 J3.9207
G1 X71.2785 Y348.8174
G2 X80.7601 Y353.2387 I6.9515 J-2.5301
G1 X106.4132 Y343.9017
G3 X125.7693 Y338.9771 I34.237 J94.0655
G1 X312.0213 Y310.9781
G2 X317.8207 Y300.9931 I-1.0997 J-7.3154
G2 X310.3319 Y296.0011 I-7.001 J2.3896
G1 X67.955 Y312.0157
G2 X62.1695 Y315.4765 I0.4877 J7.3815
G1 F300.0 X61.1519 Y314.8405
G2 F800.0 X60.3636 Y322.3377 I7.2908 J4.5567
G1 X70.1508 Y349.2278
G2 X81.1705 Y354.3663 I8.0791 J-2.9406
G1 X106.8237 Y345.0293
G3 X125.9477 Y340.1637 I33.8266 J92.9379
G1 X312.1997 Y312.1648
G2 X318.9485 Y300.5826 I-1.2781 J-8.5021
G2 X310.2528 Y294.8037 I-8.1289 J2.8001
G1 X67.8759 Y310.8183
G2 X61.1519 Y314.8405 I0.5668 J8.5789
G1 F300.0 X60.1343 Y314.2045
G2 F800.0 X59.236 Y322.7482 I8.3084 J5.1926
G1 X69.0232 Y349.6382
G2 X81.5809 Y355.494 I9.2067 J-3.351
G1 X107.2341 Y346.157
G3 X126.126 Y341.3504 I33.4162 J91.8102
G1 X312.3781 Y313.3515
G2 X320.0763 Y300.1721 I-1.4565 J-9.6887
G2 X310.1737 Y293.6064 I-9.2566 J3.2105
G1 X67.7968 Y309.6209
G2 X60.1343 Y314.2045 I0.6459 J9.7763
G0 Z3.0
G0 X59.8396 Y309.7434
G0 Z-4.4
G1 F300.0 Z-6.0
G1 F800.0 X58.8473 Y309.8089
G3 X48.9922 Y303.3821 I-0.6461 J-9.7787
G1 X33.0321 Y259.5319
G1 X11.983 Y267.1932
G1 X48.6414 Y367.9112
G1 X107.3717 Y346.5351
G3 X126.1859 Y341.7483 I33.2786 J91.4321
G1 X318.6052 Y312.8223
G2 X322.6395 Y306.0346 I-0.7582 J-5.0433
G1 X319.9284 Y298.586
G2 X311.3492 Y293.1251 I-7.9391 J3.003
G3 X311.2894 Y293.1294 I-0.4751 J-6.2821
G1 X59.8396 Y309.7434
G1 F300.0 X59.7605 Y308.546
G1 F800.0 X58.7682 Y308.6115
G3 X50.1199 Y302.9716 I-0.567 J-8.5813
G1 X33.7493 Y257.9939
G1 X10.4449 Y266.476
G1 X47.9241 Y369.4493
G1 X107.7821 Y347.6627
G3 X126.3643 Y342.935 I32.8681 J90.3045
G1 X318.7836 Y314.0089
G2 X323.7671 Y305.6242 I-0.9365 J-6.23
G1 X321.0536 Y298.1688
G2 X311.2587 Y291.9285 I-9.0642 J3.4203
G3 X311.2103 Y291.932 I-0.3846 J-5.0855
G1 X59.7605 Y308.546
G1 F300.0 X59.6814 Y307.3486
G1 F800.0 X58.6891 Y307.4142
G3 X51.2475 Y302.5612 I-0.4879 J-7.3839
G1 X34.4665 Y256.4558
G1 X8.9069 Y265.7588
G1 X47.2069 Y370.9873
G1 X108.1926 Y348.7904
G3 X126.5426 Y344.1217 I32.4577 J89.1768
G1 X318.962 Y315.1956
G2 X324.8948 Y305.2138 I-1.1149 J-7.4167
G1 X322.1789 Y297.7519
G2 X311.1682 Y290.732 I-10.1895 J3.8371
G3 X311.1312 Y290.7346 I-0.2941 J-3.8889
G1 X59.6814 Y307.3486
G1 F300.0 X59.6022 Y306.1512
G1 F800.0 X58.61 Y306.2168
G3 X52.3751 Y302.1508 I-0.4088 J-6.1865
G1 X35.457 Y255.6687
G2 X34.4147 Y255.197 I-0.7518 J0.2736
G3 X34.3573 Y255.2186 I-0.9809 J-2.5155
G1 X8.1206 Y264.768
G2 X7.6424 Y265.7933 I0.2736 J0.7518
G1 X46.2161 Y371.7736
G2 X47.2415 Y372.2518 I0.7518 J-0.2736
G1 X108.603 Y349.918
G3 X126.721 Y345.3083 I32.0473 J88.0492
G1 X319.1404 Y316.3823
G2 X326.0224 Y304.8034 I-1.2933 J-8.6033
G1 X323.3043 Y297.3354
G2 X311.0777 Y289.5354 I-11.3149 J4.2536
G3 X311.0521 Y289.5372 I-0.2036 J-2.6923
G1 X59.6022 Y306.1512
G1 F300.0 X59.5231 Y304.9538
G1 F800.0 X58.5309 Y305.0194
G3 X53.5028 Y301.7404 I-0.3296 J-4.9891
G1 X36.5847 Y255.2583
G2 X33.9787 Y254.0789 I-1.8794 J0.684
G3 X33.9468 Y254.091 I-0.5449 J-1.3975
G1 X7.7102 Y263.6403
G2 X6.5148 Y266.2038 I0.684 J1.8794
G1 X45.0885 Y372.184
G2 X47.6519 Y373.3794 I1.8794 J-0.684
G1 X109.0134 Y351.0456
G3 X126.8994 Y346.495 I31.6369 J86.9216
G1 X319.3188 Y317.5689
G2 X327.15 Y304.3929 I-1.4717 J-9.79
G1 X324.4298 Y296.9192
G2 X310.9872 Y288.3388 I-12.4405 J4.6698
G3 X310.973 Y288.3398 I-0.1131 J-1.4957
G1 X59.5231 Y304.9538
( Profile1 )
S1000
G0 Z3.0
G0 X126.6021 Y344.5172
G0 Z1.0
G1 F300.0 Z-0.6
G2 F800.0 X108.3294 Y349.1662 I14.0482 J93.45
G1 X71.8697 Y362.4365
G3 X69.9472 Y361.54 I-0.513 J-1.4095
G1 X67.895 Y355.9018
G2 X64.1363 Y357.2699 I-1.8794 J0.684
G3 X63.2398 Y359.1924 I-1.4095 J0.513
G1 X60.4207 Y360.2185
G3 X58.4981 Y359.322 I-0.513 J-1.4095
G1 X55.0779 Y349.9251
G2 X52.5145 Y348.7297 I-1.8794 J0.684
G1 X52.0487 Y348.8993
G2 X50.8216 Y351.368 I0.684 J1.8794
G1 X53.8235 Y361.1031
G3 X52.9031 Y362.9547 I-1.4334 J0.442
G1 X46.3253 Y365.3488
G3 X44.4027 Y364.4523 I-0.513 J-1.4095
G1 X34.1421 Y336.2615
G3 X35.0386 Y334.339 I1.4095 J-0.513
G1 X49.134 Y329.2087
G2 X47.7659 Y325.4499 I-0.684 J-1.8794
G3 X45.8434 Y324.5534 I-0.513 J-1.4095
G1 X34.5567 Y293.5435
G2 X31.9933 Y292.3482 I-1.8794 J0.684
G1 X31.5275 Y292.5177
G2 X30.3004 Y294.9864 I0.684 J1.8794
G1 X33.3023 Y304.7216
G3 X32.3819 Y306.5731 I-1.4334 J0.442
G1 X25.8041 Y308.9673
G3 X23.8815 Y308.0707 I-0.513 J-1.4095
G1 X13.6209 Y279.88
G3 X14.5174 Y277.9574 I1.4095 J-0.513
G1 X28.6128 Y272.8271
G2 X27.2447 Y269.0683 I-0.684 J-1.8794
G3 X25.3222 Y268.1718 I-0.513 J-1.4095
G1 X23.0996 Y262.0654
G3 X23.9611 Y260.1561 I1.4095 J-0.513
G1 X33.2725 Y256.501
G3 X35.2301 Y257.3842 I0.5481 J1.3963
G1 X52.9108 Y305.9616
G2 X55.08 Y307.2565 I1.8794 J-0.684
G3 X55.1985 Y307.2439 I0.2174 J1.4842
G1 X311.3855 Y290.3169
G3 X322.5479 Y297.5963 I0.7318 J11.0758
G1 X325.2707 Y305.077
G3 X319.0215 Y315.5912 I-7.4236 J2.702
G1 X126.6021 Y344.5172
G1 F300.0 Z-1.2
G2 F800.0 X108.3294 Y349.1662 I14.0482 J93.45
G1 X71.8697 Y362.4365
G3 X69.9472 Y361.54 I-0.513 J-1.4095
G1 X67.895 Y355.9018
G2 X64.1363 Y357.2699 I-1.8794 J0.684
G3 X63.2398 Y359.1924 I-1.4095 J0.513
G1 X60.4207 Y360.2185
G3 X58.4981 Y359.322 I-0.513 J-1.4095
G1 X55.0779 Y349.9251
G2 X52.5145 Y348.7297 I-1.8794 J0.684
G1 X52.0487 Y348.8993
G2 X50.8216 Y351.368 I0.684 J1.8794
G1 X53.8235 Y361.1031
G3 X52.9031 Y362.9547 I-1.4334 J0.442
G1 X46.3253 Y365.3488
G3 X44.4027 Y364.4523 I-0.513 J-1.4095
G1 X34.1421 Y336.2615
G3 X35.0386 Y334.339 I1.4095 J-0.513
G1 X49.134 Y329.2087
G2 X47.7659 Y325.4499 I-0.684 J-1.8794
G3 X45.8434 Y324.5534 I-0.513 J-1.4095
G1 X34.5567 Y293.5435
G2 X31.9933 Y292.3482 I-1.8794 J0.684
G1 X31.5275 Y292.5177
G2 X30.3004 Y294.9864 I0.684 J1.8794
G1 X33.3023 Y304.7216
G3 X32.3819 Y306.5731 I-1.4334 J0.442
G1 X25.8041 Y308.9673
G3 X23.8815 Y308.0707 I-0.513 J-1.4095
G1 X13.6209 Y279.88
G3 X14.5174 Y277.9574 I1.4095 J-0.513
G1 X28.6128 Y272.8271
G2 X27.2447 Y269.0683 I-0.684 J-1.8794
G3 X25.3222 Y268.1718 I-0.513 J-1.4095
G1 X23.0996 Y262.0654
G3 X23.9611 Y260.1561 I1.4095 J-0.513
G1 X33.2725 Y256.501
G3 X35.2301 Y257.3842 I0.5481 J1.3963
G1 X52.9108 Y305.9616
G2 X55.08 Y307.2565 I1.8794 J-0.684
G3 X55.1985 Y307.2439 I0.2174 J1.4842
G1 X311.3855 Y290.3169
G3 X322.5479 Y297.5963 I0.7318 J11.0758
G1 X325.2707 Y305.077
G3 X319.0215 Y315.5912 I-7.4236 J2.702
G1 X126.6021 Y344.5172
G1 F300.0 Z-1.8
G2 F800.0 X108.3294 Y349.1662 I14.0482 J93.45
G1 X71.8697 Y362.4365
G3 X69.9472 Y361.54 I-0.513 J-1.4095
G1 X67.895 Y355.9018
G2 X64.1363 Y357.2699 I-1.8794 J0.684
G3 X63.2398 Y359.1924 I-1.4095 J0.513
G1 X60.4207 Y360.2185
G3 X58.4981 Y359.322 I-0.513 J-1.4095
G1 X55.0779 Y349.9251
G2 X52.5145 Y348.7297 I-1.8794 J0.684
G1 X52.0487 Y348.8993
G2 X50.8216 Y351.368 I0.684 J1.8794
G1 X53.8235 Y361.1031
G3 X52.9031 Y362.9547 I-1.4334 J0.442
G1 X46.3253 Y365.3488
G3 X44.4027 Y364.4523 I-0.513 J-1.4095
G1 X34.1421 Y336.2615
G3 X35.0386 Y334.339 I1.4095 J-0.513
G1 X49.134 Y329.2087
G2 X47.7659 Y325.4499 I-0.684 J-1.8794
G3 X45.8434 Y324.5534 I-0.513 J-1.4095
G1 X34.5567 Y293.5435
G2 X31.9933 Y292.3482 I-1.8794 J0.684
G1 X31.5275 Y292.5177
G2 X30.3004 Y294.9864 I0.684 J1.8794
G1 X33.3023 Y304.7216
G3 X32.3819 Y306.5731 I-1.4334 J0.442
G1 X25.8041 Y308.9673
G3 X23.8815 Y308.0707 I-0.513 J-1.4095
G1 X13.6209 Y279.88
G3 X14.5174 Y277.9574 I1.4095 J-0.513
G1 X28.6128 Y272.8271
G2 X27.2447 Y269.0683 I-0.684 J-1.8794
G3 X25.3222 Y268.1718 I-0.513 J-1.4095
G1 X23.0996 Y262.0654
G3 X23.9611 Y260.1561 I1.4095 J-0.513
G1 X33.2725 Y256.501
G3 X35.2301 Y257.3842 I0.5481 J1.3963
G1 X52.9108 Y305.9616
G2 X55.08 Y307.2565 I1.8794 J-0.684
G3 X55.1985 Y307.2439 I0.2174 J1.4842
G1 X311.3855 Y290.3169
G3 X322.5479 Y297.5963 I0.7318 J11.0758
G1 X325.2707 Y305.077
G3 X319.0215 Y315.5912 I-7.4236 J2.702
G1 X126.6021 Y344.5172
G1 F300.0 Z-2.4
G2 F800.0 X108.3294 Y349.1662 I14.0482 J93.45
G1 X71.8697 Y362.4365
G3 X69.9472 Y361.54 I-0.513 J-1.4095
G1 X67.895 Y355.9018
G2 X64.1363 Y357.2699 I-1.8794 J0.684
G3 X63.2398 Y359.1924 I-1.4095 J0.513
G1 X60.4207 Y360.2185
G3 X58.4981 Y359.322 I-0.513 J-1.4095
G1 X55.0779 Y349.9251
G2 X52.5145 Y348.7297 I-1.8794 J0.684
G1 X52.0487 Y348.8993
G2 X50.8216 Y351.368 I0.684 J1.8794
G1 X53.8235 Y361.1031
G3 X52.9031 Y362.9547 I-1.4334 J0.442
G1 X46.3253 Y365.3488
G3 X44.4027 Y364.4523 I-0.513 J-1.4095
G1 X34.1421 Y336.2615
G3 X35.0386 Y334.339 I1.4095 J-0.513
G1 X49.134 Y329.2087
G2 X47.7659 Y325.4499 I-0.684 J-1.8794
G3 X45.8434 Y324.5534 I-0.513 J-1.4095
G1 X34.5567 Y293.5435
G2 X31.9933 Y292.3482 I-1.8794 J0.684
G1 X31.5275 Y292.5177
G2 X30.3004 Y294.9864 I0.684 J1.8794
G1 X33.3023 Y304.7216
G3 X32.3819 Y306.5731 I-1.4334 J0.442
G1 X25.8041 Y308.9673
G3 X23.8815 Y308.0707 I-0.513 J-1.4095
G1 X13.6209 Y279.88
G3 X14.5174 Y277.9574 I1.4095 J-0.513
G1 X28.6128 Y272.8271
G2 X27.2447 Y269.0683 I-0.684 J-1.8794
G3 X25.3222 Y268.1718 I-0.513 J-1.4095
G1 X23.0996 Y262.0654
G3 X23.9611 Y260.1561 I1.4095 J-0.513
G1 X33.2725 Y256.501
G3 X35.2301 Y257.3842 I0.5481 J1.3963
G1 X52.9108 Y305.9616
G2 X55.08 Y307.2565 I1.8794 J-0.684
G3 X55.1985 Y307.2439 I0.2174 J1.4842
G1 X311.3855 Y290.3169
G3 X322.5479 Y297.5963 I0.7318 J11.0758
G1 X325.2707 Y305.077
G3 X319.0215 Y315.5912 I-7.4236 J2.702
G1 X126.6021 Y344.5172
G1 F300.0 Z-3.0
G2 F800.0 X108.3294 Y349.1662 I14.0482 J93.45
G1 X71.8697 Y362.4365
G3 X69.9472 Y361.54 I-0.513 J-1.4095
G1 X67.895 Y355.9018
G2 X64.1363 Y357.2699 I-1.8794 J0.684
G3 X63.2398 Y359.1924 I-1.4095 J0.513
G1 X60.4207 Y360.2185
G3 X58.4981 Y359.322 I-0.513 J-1.4095
G1 X55.0779 Y349.9251
G2 X52.5145 Y348.7297 I-1.8794 J0.684
G1 X52.0487 Y348.8993
G2 X50.8216 Y351.368 I0.684 J1.8794
G1 X53.8235 Y361.1031
G3 X52.9031 Y362.9547 I-1.4334 J0.442
G1 X46.3253 Y365.3488
G3 X44.4027 Y364.4523 I-0.513 J-1.4095
G1 X34.1421 Y336.2615
G3 X35.0386 Y334.339 I1.4095 J-0.513
G1 X49.134 Y329.2087
G2 X47.7659 Y325.4499 I-0.684 J-1.8794
G3 X45.8434 Y324.5534 I-0.513 J-1.4095
G1 X34.5567 Y293.5435
G2 X31.9933 Y292.3482 I-1.8794 J0.684
G1 X31.5275 Y292.5177
G2 X30.3004 Y294.9864 I0.684 J1.8794
G1 X33.3023 Y304.7216
G3 X32.3819 Y306.5731 I-1.4334 J0.442
G1 X25.8041 Y308.9673
G3 X23.8815 Y308.0707 I-0.513 J-1.4095
G1 X13.6209 Y279.88
G3 X14.5174 Y277.9574 I1.4095 J-0.513
G1 X28.6128 Y272.8271
G2 X27.2447 Y269.0683 I-0.684 J-1.8794
G3 X25.3222 Y268.1718 I-0.513 J-1.4095
G1 X23.0996 Y262.0654
G3 X23.9611 Y260.1561 I1.4095 J-0.513
G1 X33.2725 Y256.501
G3 X35.2301 Y257.3842 I0.5481 J1.3963
G1 X52.9108 Y305.9616
G2 X55.08 Y307.2565 I1.8794 J-0.684
G3 X55.1985 Y307.2439 I0.2174 J1.4842
G1 X311.3855 Y290.3169
G3 X322.5479 Y297.5963 I0.7318 J11.0758
G1 X325.2707 Y305.077
G3 X319.0215 Y315.5912 I-7.4236 J2.702
G1 X126.6021 Y344.5172
G1 F300.0 Z-3.6
G2 F800.0 X108.3294 Y349.1662 I14.0482 J93.45
G1 X71.8697 Y362.4365
G3 X69.9472 Y361.54 I-0.513 J-1.4095
G1 X67.895 Y355.9018
G2 X64.1363 Y357.2699 I-1.8794 J0.684
G3 X63.2398 Y359.1924 I-1.4095 J0.513
G1 X60.4207 Y360.2185
G3 X58.4981 Y359.322 I-0.513 J-1.4095
G1 X55.0779 Y349.9251
G2 X52.5145 Y348.7297 I-1.8794 J0.684
G1 X52.0487 Y348.8993
G2 X50.8216 Y351.368 I0.684 J1.8794
G1 X53.8235 Y361.1031
G3 X52.9031 Y362.9547 I-1.4334 J0.442
G1 X46.3253 Y365.3488
G3 X44.4027 Y364.4523 I-0.513 J-1.4095
G1 X34.1421 Y336.2615
G3 X35.0386 Y334.339 I1.4095 J-0.513
G1 X49.134 Y329.2087
G2 X47.7659 Y325.4499 I-0.684 J-1.8794
G3 X45.8434 Y324.5534 I-0.513 J-1.4095
G1 X34.5567 Y293.5435
G2 X31.9933 Y292.3482 I-1.8794 J0.684
G1 X31.5275 Y292.5177
G2 X30.3004 Y294.9864 I0.684 J1.8794
G1 X33.3023 Y304.7216
G3 X32.3819 Y306.5731 I-1.4334 J0.442
G1 X25.8041 Y308.9673
G3 X23.8815 Y308.0707 I-0.513 J-1.4095
G1 X13.6209 Y279.88
G3 X14.5174 Y277.9574 I1.4095 J-0.513
G1 X28.6128 Y272.8271
G2 X27.2447 Y269.0683 I-0.684 J-1.8794
G3 X25.3222 Y268.1718 I-0.513 J-1.4095
G1 X23.0996 Y262.0654
G3 X23.9611 Y260.1561 I1.4095 J-0.513
G1 X33.2725 Y256.501
G3 X35.2301 Y257.3842 I0.5481 J1.3963
G1 X52.9108 Y305.9616
G2 X55.08 Y307.2565 I1.8794 J-0.684
G3 X55.1985 Y307.2439 I0.2174 J1.4842
G1 X311.3855 Y290.3169
G3 X322.5479 Y297.5963 I0.7318 J11.0758
G1 X325.2707 Y305.077
G3 X319.0215 Y315.5912 I-7.4236 J2.702
G1 X126.6021 Y344.5172
G1 F300.0 Z-4.2
G2 F800.0 X108.3294 Y349.1662 I14.0482 J93.45
G1 X71.8697 Y362.4365
G3 X69.9472 Y361.54 I-0.513 J-1.4095
G1 X67.895 Y355.9018
G2 X64.1363 Y357.2699 I-1.8794 J0.684
G3 X63.2398 Y359.1924 I-1.4095 J0.513
G1 X60.4207 Y360.2185
G3 X58.4981 Y359.322 I-0.513 J-1.4095
G1 X55.0779 Y349.9251
G2 X52.5145 Y348.7297 I-1.8794 J0.684
G1 X52.0487 Y348.8993
G2 X50.8216 Y351.368 I0.684 J1.8794
G1 X53.8235 Y361.1031
G3 X52.9031 Y362.9547 I-1.4334 J0.442
G1 X46.3253 Y365.3488
G3 X44.4027 Y364.4523 I-0.513 J-1.4095
G1 X34.1421 Y336.2615
G3 X35.0386 Y334.339 I1.4095 J-0.513
G1 X49.134 Y329.2087
G2 X47.7659 Y325.4499 I-0.684 J-1.8794
G3 X45.8434 Y324.5534 I-0.513 J-1.4095
G1 X34.5567 Y293.5435
G2 X31.9933 Y292.3482 I-1.8794 J0.684
G1 X31.5275 Y292.5177
G2 X30.3004 Y294.9864 I0.684 J1.8794
G1 X33.3023 Y304.7216
G3 X32.3819 Y306.5731 I-1.4334 J0.442
G1 X25.8041 Y308.9673
G3 X23.8815 Y308.0707 I-0.513 J-1.4095
G1 X13.6209 Y279.88
G3 X14.5174 Y277.9574 I1.4095 J-0.513
G1 X28.6128 Y272.8271
G2 X27.2447 Y269.0683 I-0.684 J-1.8794
G3 X25.3222 Y268.1718 I-0.513 J-1.4095
G1 X23.0996 Y262.0654
G3 X23.9611 Y260.1561 I1.4095 J-0.513
G1 X33.2725 Y256.501
G3 X35.2301 Y257.3842 I0.5481 J1.3963
G1 X52.9108 Y305.9616
G2 X55.08 Y307.2565 I1.8794 J-0.684
G3 X55.1985 Y307.2439 I0.2174 J1.4842
G1 X311.3855 Y290.3169
G3 X322.5479 Y297.5963 I0.7318 J11.0758
G1 X325.2707 Y305.077
G3 X319.0215 Y315.5912 I-7.4236 J2.702
G1 X126.6021 Y344.5172
G1 F300.0 Z-4.8
G2 F800.0 X108.3294 Y349.1662 I14.0482 J93.45
G1 X71.8697 Y362.4365
G3 X69.9472 Y361.54 I-0.513 J-1.4095
G1 X67.895 Y355.9018
G2 X64.1363 Y357.2699 I-1.8794 J0.684
G3 X63.2398 Y359.1924 I-1.4095 J0.513
G1 X60.4207 Y360.2185
G3 X58.4981 Y359.322 I-0.513 J-1.4095
G1 X55.0779 Y349.9251
G2 X52.5145 Y348.7297 I-1.8794 J0.684
G1 X52.0487 Y348.8993
G2 X50.8216 Y351.368 I0.684 J1.8794
G1 X53.8235 Y361.1031
G3 X52.9031 Y362.9547 I-1.4334 J0.442
G1 X46.3253 Y365.3488
G3 X44.4027 Y364.4523 I-0.513 J-1.4095
G1 X34.1421 Y336.2615
G3 X35.0386 Y334.339 I1.4095 J-0.513
G1 X49.134 Y329.2087
G2 X47.7659 Y325.4499 I-0.684 J-1.8794
G3 X45.8434 Y324.5534 I-0.513 J-1.4095
G1 X34.5567 Y293.5435
G2 X31.9933 Y292.3482 I-1.8794 J0.684
G1 X31.5275 Y292.5177
G2 X30.3004 Y294.9864 I0.684 J1.8794
G1 X33.3023 Y304.7216
G3 X32.3819 Y306.5731 I-1.4334 J0.442
G1 X25.8041 Y308.9673
G3 X23.8815 Y308.0707 I-0.513 J-1.4095
G1 X13.6209 Y279.88
G3 X14.5174 Y277.9574 I1.4095 J-0.513
G1 X28.6128 Y272.8271
G2 X27.2447 Y269.0683 I-0.684 J-1.8794
G3 X25.3222 Y268.1718 I-0.513 J-1.4095
G1 X23.0996 Y262.0654
G3 X23.9611 Y260.1561 I1.4095 J-0.513
G1 X33.2725 Y256.501
G3 X35.2301 Y257.3842 I0.5481 J1.3963
G1 X52.9108 Y305.9616
G2 X55.08 Y307.2565 I1.8794 J-0.684
G3 X55.1985 Y307.2439 I0.2174 J1.4842
G1 X311.3855 Y290.3169
G3 X322.5479 Y297.5963 I0.7318 J11.0758
G1 X325.2707 Y305.077
G3 X319.0215 Y315.5912 I-7.4236 J2.702
G1 X126.6021 Y344.5172
G1 F300.0 Z-5.4
G2 F800.0 X108.3294 Y349.1662 I14.0482 J93.45
G1 X71.8697 Y362.4365
G3 X69.9472 Y361.54 I-0.513 J-1.4095
G1 X67.895 Y355.9018
G2 X64.1363 Y357.2699 I-1.8794 J0.684
G3 X63.2398 Y359.1924 I-1.4095 J0.513
G1 X60.4207 Y360.2185
G3 X58.4981 Y359.322 I-0.513 J-1.4095
G1 X55.0779 Y349.9251
G2 X52.5145 Y348.7297 I-1.8794 J0.684
G1 X52.0487 Y348.8993
G2 X50.8216 Y351.368 I0.684 J1.8794
G1 X53.8235 Y361.1031
G3 X52.9031 Y362.9547 I-1.4334 J0.442
G1 X46.3253 Y365.3488
G3 X44.4027 Y364.4523 I-0.513 J-1.4095
G1 X34.1421 Y336.2615
G3 X35.0386 Y334.339 I1.4095 J-0.513
G1 X49.134 Y329.2087
G2 X47.7659 Y325.4499 I-0.684 J-1.8794
G3 X45.8434 Y324.5534 I-0.513 J-1.4095
G1 X34.5567 Y293.5435
G2 X31.9933 Y292.3482 I-1.8794 J0.684
G1 X31.5275 Y292.5177
G2 X30.3004 Y294.9864 I0.684 J1.8794
G1 X33.3023 Y304.7216
G3 X32.3819 Y306.5731 I-1.4334 J0.442
G1 X25.8041 Y308.9673
G3 X23.8815 Y308.0707 I-0.513 J-1.4095
G1 X13.6209 Y279.88
G3 X14.5174 Y277.9574 I1.4095 J-0.513
G1 X28.6128 Y272.8271
G2 X27.2447 Y269.0683 I-0.684 J-1.8794
G3 X25.3222 Y268.1718 I-0.513 J-1.4095
G1 X23.0996 Y262.0654
G3 X23.9611 Y260.1561 I1.4095 J-0.513
G1 X33.2725 Y256.501
G3 X35.2301 Y257.3842 I0.5481 J1.3963
G1 X52.9108 Y305.9616
G2 X55.08 Y307.2565 I1.8794 J-0.684
G3 X55.1985 Y307.2439 I0.2174 J1.4842
G1 X311.3855 Y290.3169
G3 X322.5479 Y297.5963 I0.7318 J11.0758
G1 X325.2707 Y305.077
G3 X319.0215 Y315.5912 I-7.4236 J2.702
G1 X126.6021 Y344.5172
G1 F300.0 Z-6.0
G2 F800.0 X108.3294 Y349.1662 I14.0482 J93.45
G1 X71.8697 Y362.4365
G3 X69.9472 Y361.54 I-0.513 J-1.4095
G1 X67.895 Y355.9018
G2 X64.1363 Y357.2699 I-1.8794 J0.684
G3 X63.2398 Y359.1924 I-1.4095 J0.513
G1 X60.4207 Y360.2185
G3 X58.4981 Y359.322 I-0.513 J-1.4095
G1 X55.0779 Y349.9251
G2 X52.5145 Y348.7297 I-1.8794 J0.684
G1 X52.0487 Y348.8993
G2 X50.8216 Y351.368 I0.684 J1.8794
G1 X53.8235 Y361.1031
G3 X52.9031 Y362.9547 I-1.4334 J0.442
G1 X46.3253 Y365.3488
G3 X44.4027 Y364.4523 I-0.513 J-1.4095
G1 X34.1421 Y336.2615
G3 X35.0386 Y334.339 I1.4095 J-0.513
G1 X49.134 Y329.2087
G2 X47.7659 Y325.4499 I-0.684 J-1.8794
G3 X45.8434 Y324.5534 I-0.513 J-1.4095
G1 X34.5567 Y293.5435
G2 X31.9933 Y292.3482 I-1.8794 J0.684
G1 X31.5275 Y292.5177
G2 X30.3004 Y294.9864 I0.684 J1.8794
G1 X33.3023 Y304.7216
G3 X32.3819 Y306.5731 I-1.4334 J0.442
G1 X25.8041 Y308.9673
G3 X23.8815 Y308.0707 I-0.513 J-1.4095
G1 X13.6209 Y279.88
G3 X14.5174 Y277.9574 I1.4095 J-0.513
G1 X28.6128 Y272.8271
G2 X27.2447 Y269.0683 I-0.684 J-1.8794
G3 X25.3222 Y268.1718 I-0.513 J-1.4095
G1 X23.0996 Y262.0654
G3 X23.9611 Y260.1561 I1.4095 J-0.513
G1 X33.2725 Y256.501
G3 X35.2301 Y257.3842 I0.5481 J1.3963
G1 X52.9108 Y305.9616
G2 X55.08 Y307.2565 I1.8794 J-0.684
G3 X55.1985 Y307.2439 I0.2174 J1.4842
G1 X311.3855 Y290.3169
G3 X322.5479 Y297.5963 I0.7318 J11.0758
G1 X325.2707 Y305.077
G3 X319.0215 Y315.5912 I-7.4236 J2.702
G1 X126.6021 Y344.5172
G1 F300.0 Z-6.6
G2 F800.0 X108.3294 Y349.1662 I14.0482 J93.45
G1 X71.8697 Y362.4365
G3 X69.9472 Y361.54 I-0.513 J-1.4095
G1 X67.895 Y355.9018
G2 X64.1363 Y357.2699 I-1.8794 J0.684
G3 X63.2398 Y359.1924 I-1.4095 J0.513
G1 X60.4207 Y360.2185
G3 X58.4981 Y359.322 I-0.513 J-1.4095
G1 X55.0779 Y349.9251
G2 X52.5145 Y348.7297 I-1.8794 J0.684
G1 X52.0487 Y348.8993
G2 X50.8216 Y351.368 I0.684 J1.8794
G1 X53.8235 Y361.1031
G3 X52.9031 Y362.9547 I-1.4334 J0.442
G1 X46.3253 Y365.3488
G3 X44.4027 Y364.4523 I-0.513 J-1.4095
G1 X34.1421 Y336.2615
G3 X35.0386 Y334.339 I1.4095 J-0.513
G1 X49.134 Y329.2087
G2 X47.7659 Y325.4499 I-0.684 J-1.8794
G3 X45.8434 Y324.5534 I-0.513 J-1.4095
G1 X34.5567 Y293.5435
G2 X31.9933 Y292.3482 I-1.8794 J0.684
G1 X31.5275 Y292.5177
G2 X30.3004 Y294.9864 I0.684 J1.8794
G1 X33.3023 Y304.7216
G3 X32.3819 Y306.5731 I-1.4334 J0.442
G1 X25.8041 Y308.9673
G3 X23.8815 Y308.0707 I-0.513 J-1.4095
G1 X13.6209 Y279.88
G3 X14.5174 Y277.9574 I1.4095 J-0.513
G1 X28.6128 Y272.8271
G2 X27.2447 Y269.0683 I-0.684 J-1.8794
G3 X25.3222 Y268.1718 I-0.513 J-1.4095
G1 X23.0996 Y262.0654
G3 X23.9611 Y260.1561 I1.4095 J-0.513
G1 X33.2725 Y256.501
G3 X35.2301 Y257.3842 I0.5481 J1.3963
G1 X52.9108 Y305.9616
G2 X55.08 Y307.2565 I1.8794 J-0.684
G3 X55.1985 Y307.2439 I0.2174 J1.4842
G1 X311.3855 Y290.3169
G3 X322.5479 Y297.5963 I0.7318 J11.0758
G1 X325.2707 Y305.077
G3 X319.0215 Y315.5912 I-7.4236 J2.702
G1 X126.6021 Y344.5172
G1 F300.0 Z-7.2
G2 F800.0 X108.3294 Y349.1662 I14.0482 J93.45
G1 X71.8697 Y362.4365
G3 X69.9472 Y361.54 I-0.513 J-1.4095
G1 X67.895 Y355.9018
G2 X64.1363 Y357.2699 I-1.8794 J0.684
G3 X63.2398 Y359.1924 I-1.4095 J0.513
G1 X60.4207 Y360.2185
G3 X58.4981 Y359.322 I-0.513 J-1.4095
G1 X55.0779 Y349.9251
G2 X52.5145 Y348.7297 I-1.8794 J0.684
G1 X52.0487 Y348.8993
G2 X50.8216 Y351.368 I0.684 J1.8794
G1 X53.8235 Y361.1031
G3 X52.9031 Y362.9547 I-1.4334 J0.442
G1 X46.3253 Y365.3488
G3 X44.4027 Y364.4523 I-0.513 J-1.4095
G1 X34.1421 Y336.2615
G3 X35.0386 Y334.339 I1.4095 J-0.513
G1 X49.134 Y329.2087
G2 X47.7659 Y325.4499 I-0.684 J-1.8794
G3 X45.8434 Y324.5534 I-0.513 J-1.4095
G1 X34.5567 Y293.5435
G2 X31.9933 Y292.3482 I-1.8794 J0.684
G1 X31.5275 Y292.5177
G2 X30.3004 Y294.9864 I0.684 J1.8794
G1 X33.3023 Y304.7216
G3 X32.3819 Y306.5731 I-1.4334 J0.442
G1 X25.8041 Y308.9673
G3 X23.8815 Y308.0707 I-0.513 J-1.4095
G1 X13.6209 Y279.88
G3 X14.5174 Y277.9574 I1.4095 J-0.513
G1 X28.6128 Y272.8271
G2 X27.2447 Y269.0683 I-0.684 J-1.8794
G3 X25.3222 Y268.1718 I-0.513 J-1.4095
G1 X23.0996 Y262.0654
G3 X23.9611 Y260.1561 I1.4095 J-0.513
G1 X33.2725 Y256.501
G3 X35.2301 Y257.3842 I0.5481 J1.3963
G1 X52.9108 Y305.9616
G2 X55.08 Y307.2565 I1.8794 J-0.684
G3 X55.1985 Y307.2439 I0.2174 J1.4842
G1 X311.3855 Y290.3169
G3 X322.5479 Y297.5963 I0.7318 J11.0758
G1 X325.2707 Y305.077
G3 X319.0215 Y315.5912 I-7.4236 J2.702
G1 X126.6021 Y344.5172
G1 F300.0 Z-7.8
G2 F800.0 X108.3294 Y349.1662 I14.0482 J93.45
G1 X71.8697 Y362.4365
G3 X69.9472 Y361.54 I-0.513 J-1.4095
G1 X67.895 Y355.9018
G2 X64.1363 Y357.2699 I-1.8794 J0.684
G3 X63.2398 Y359.1924 I-1.4095 J0.513
G1 X60.4207 Y360.2185
G3 X58.4981 Y359.322 I-0.513 J-1.4095
G1 X55.0779 Y349.9251
G2 X52.5145 Y348.7297 I-1.8794 J0.684
G1 X52.0487 Y348.8993
G2 X50.8216 Y351.368 I0.684 J1.8794
G1 X53.8235 Y361.1031
G3 X52.9031 Y362.9547 I-1.4334 J0.442
G1 X46.3253 Y365.3488
G3 X44.4027 Y364.4523 I-0.513 J-1.4095
G1 X34.1421 Y336.2615
G3 X35.0386 Y334.339 I1.4095 J-0.513
G1 X49.134 Y329.2087
G2 X47.7659 Y325.4499 I-0.684 J-1.8794
G3 X45.8434 Y324.5534 I-0.513 J-1.4095
G1 X34.5567 Y293.5435
G2 X31.9933 Y292.3482 I-1.8794 J0.684
G1 X31.5275 Y292.5177
G2 X30.3004 Y294.9864 I0.684 J1.8794
G1 X33.3023 Y304.7216
G3 X32.3819 Y306.5731 I-1.4334 J0.442
G1 X25.8041 Y308.9673
G3 X23.8815 Y308.0707 I-0.513 J-1.4095
G1 X13.6209 Y279.88
G3 X14.5174 Y277.9574 I1.4095 J-0.513
G1 X28.6128 Y272.8271
G2 X27.2447 Y269.0683 I-0.684 J-1.8794
G3 X25.3222 Y268.1718 I-0.513 J-1.4095
G1 X23.0996 Y262.0654
G3 X23.9611 Y260.1561 I1.4095 J-0.513
G1 X33.2725 Y256.501
G3 X35.2301 Y257.3842 I0.5481 J1.3963
G1 X52.9108 Y305.9616
G2 X55.08 Y307.2565 I1.8794 J-0.684
G3 X55.1985 Y307.2439 I0.2174 J1.4842
G1 X311.3855 Y290.3169
G3 X322.5479 Y297.5963 I0.7318 J11.0758
G1 X325.2707 Y305.077
G3 X319.0215 Y315.5912 I-7.4236 J2.702
G1 X126.6021 Y344.5172
G1 F300.0 Z-8.4
G2 F800.0 X108.3294 Y349.1662 I14.0482 J93.45
G1 X71.8697 Y362.4365
G3 X69.9472 Y361.54 I-0.513 J-1.4095
G1 X67.895 Y355.9018
G2 X64.1363 Y357.2699 I-1.8794 J0.684
G3 X63.2398 Y359.1924 I-1.4095 J0.513
G1 X60.4207 Y360.2185
G3 X58.4981 Y359.322 I-0.513 J-1.4095
G1 X55.0779 Y349.9251
G2 X52.5145 Y348.7297 I-1.8794 J0.684
G1 X52.0487 Y348.8993
G2 X50.8216 Y351.368 I0.684 J1.8794
G1 X53.8235 Y361.1031
G3 X52.9031 Y362.9547 I-1.4334 J0.442
G1 X46.3253 Y365.3488
G3 X44.4027 Y364.4523 I-0.513 J-1.4095
G1 X34.1421 Y336.2615
G3 X35.0386 Y334.339 I1.4095 J-0.513
G1 X49.134 Y329.2087
G2 X47.7659 Y325.4499 I-0.684 J-1.8794
G3 X45.8434 Y324.5534 I-0.513 J-1.4095
G1 X34.5567 Y293.5435
G2 X31.9933 Y292.3482 I-1.8794 J0.684
G1 X31.5275 Y292.5177
G2 X30.3004 Y294.9864 I0.684 J1.8794
G1 X33.3023 Y304.7216
G3 X32.3819 Y306.5731 I-1.4334 J0.442
G1 X25.8041 Y308.9673
G3 X23.8815 Y308.0707 I-0.513 J-1.4095
G1 X13.6209 Y279.88
G3 X14.5174 Y277.9574 I1.4095 J-0.513
G1 X28.6128 Y272.8271
G2 X27.2447 Y269.0683 I-0.684 J-1.8794
G3 X25.3222 Y268.1718 I-0.513 J-1.4095
G1 X23.0996 Y262.0654
G3 X23.9611 Y260.1561 I1.4095 J-0.513
G1 X33.2725 Y256.501
G3 X35.2301 Y257.3842 I0.5481 J1.3963
G1 X52.9108 Y305.9616
G2 X55.08 Y307.2565 I1.8794 J-0.684
G3 X55.1985 Y307.2439 I0.2174 J1.4842
G1 X311.3855 Y290.3169
G3 X322.5479 Y297.5963 I0.7318 J11.0758
G1 X325.2707 Y305.077
G3 X319.0215 Y315.5912 I-7.4236 J2.702
G1 X126.6021 Y344.5172
G1 F300.0 Z-9.0
G2 F800.0 X108.3294 Y349.1662 I14.0482 J93.45
G1 X71.8697 Y362.4365
G3 X69.9472 Y361.54 I-0.513 J-1.4095
G1 X67.895 Y355.9018
G2 X64.1363 Y357.2699 I-1.8794 J0.684
G3 X63.2398 Y359.1924 I-1.4095 J0.513
G1 X60.4207 Y360.2185
G3 X58.4981 Y359.322 I-0.513 J-1.4095
G1 X55.0779 Y349.9251
G2 X52.5145 Y348.7297 I-1.8794 J0.684
G1 X52.0487 Y348.8993
G2 X50.8216 Y351.368 I0.684 J1.8794
G1 X53.8235 Y361.1031
G3 X52.9031 Y362.9547 I-1.4334 J0.442
G1 X46.3253 Y365.3488
G3 X44.4027 Y364.4523 I-0.513 J-1.4095
G1 X34.1421 Y336.2615
G3 X35.0386 Y334.339 I1.4095 J-0.513
G1 X49.134 Y329.2087
G2 X47.7659 Y325.4499 I-0.684 J-1.8794
G3 X45.8434 Y324.5534 I-0.513 J-1.4095
G1 X34.5567 Y293.5435
G2 X31.9933 Y292.3482 I-1.8794 J0.684
G1 X31.5275 Y292.5177
G2 X30.3004 Y294.9864 I0.684 J1.8794
G1 X33.3023 Y304.7216
G3 X32.3819 Y306.5731 I-1.4334 J0.442
G1 X25.8041 Y308.9673
G3 X23.8815 Y308.0707 I-0.513 J-1.4095
G1 X13.6209 Y279.88
G3 X14.5174 Y277.9574 I1.4095 J-0.513
G1 X28.6128 Y272.8271
G2 X27.2447 Y269.0683 I-0.684 J-1.8794
G3 X25.3222 Y268.1718 I-0.513 J-1.4095
G1 X23.0996 Y262.0654
G3 X23.9611 Y260.1561 I1.4095 J-0.513
G1 X33.2725 Y256.501
G3 X35.2301 Y257.3842 I0.5481 J1.3963
G1 X52.9108 Y305.9616
G2 X55.08 Y307.2565 I1.8794 J-0.684
G3 X55.1985 Y307.2439 I0.2174 J1.4842
G1 X311.3855 Y290.3169
G3 X322.5479 Y297.5963 I0.7318 J11.0758
G1 X325.2707 Y305.077
G3 X319.0215 Y315.5912 I-7.4236 J2.702
G1 X126.6021 Y344.5172
G1 F300.0 Z-9.6
G2 F800.0 X108.3294 Y349.1662 I14.0482 J93.45
G1 X71.8697 Y362.4365
G3 X69.9472 Y361.54 I-0.513 J-1.4095
G1 X67.895 Y355.9018
G2 X64.1363 Y357.2699 I-1.8794 J0.684
G3 X63.2398 Y359.1924 I-1.4095 J0.513
G1 X60.4207 Y360.2185
G3 X58.4981 Y359.322 I-0.513 J-1.4095
G1 X55.0779 Y349.9251
G2 X52.5145 Y348.7297 I-1.8794 J0.684
G1 X52.0487 Y348.8993
G2 X50.8216 Y351.368 I0.684 J1.8794
G1 X53.8235 Y361.1031
G3 X52.9031 Y362.9547 I-1.4334 J0.442
G1 X46.3253 Y365.3488
G3 X44.4027 Y364.4523 I-0.513 J-1.4095
G1 X34.1421 Y336.2615
G3 X35.0386 Y334.339 I1.4095 J-0.513
G1 X49.134 Y329.2087
G2 X47.7659 Y325.4499 I-0.684 J-1.8794
G3 X45.8434 Y324.5534 I-0.513 J-1.4095
G1 X34.5567 Y293.5435
G2 X31.9933 Y292.3482 I-1.8794 J0.684
G1 X31.5275 Y292.5177
G2 X30.3004 Y294.9864 I0.684 J1.8794
G1 X33.3023 Y304.7216
G3 X32.3819 Y306.5731 I-1.4334 J0.442
G1 X25.8041 Y308.9673
G3 X23.8815 Y308.0707 I-0.513 J-1.4095
G1 X13.6209 Y279.88
G3 X14.5174 Y277.9574 I1.4095 J-0.513
G1 X28.6128 Y272.8271
G2 X27.2447 Y269.0683 I-0.684 J-1.8794
G3 X25.3222 Y268.1718 I-0.513 J-1.4095
G1 X23.0996 Y262.0654
G3 X23.9611 Y260.1561 I1.4095 J-0.513
G1 X33.2725 Y256.501
G3 X35.2301 Y257.3842 I0.5481 J1.3963
G1 X52.9108 Y305.9616
G2 X55.08 Y307.2565 I1.8794 J-0.684
G3 X55.1985 Y307.2439 I0.2174 J1.4842
G1 X311.3855 Y290.3169
G3 X322.5479 Y297.5963 I0.7318 J11.0758
G1 X325.2707 Y305.077
G3 X319.0215 Y315.5912 I-7.4236 J2.702
G1 X126.6021 Y344.5172
G1 F300.0 Z-10.2
G2 F800.0 X108.3294 Y349.1662 I14.0482 J93.45
G1 X71.8697 Y362.4365
G3 X69.9472 Y361.54 I-0.513 J-1.4095
G1 X67.895 Y355.9018
G2 X64.1363 Y357.2699 I-1.8794 J0.684
G3 X63.2398 Y359.1924 I-1.4095 J0.513
G1 X60.4207 Y360.2185
G3 X58.4981 Y359.322 I-0.513 J-1.4095
G1 X55.0779 Y349.9251
G2 X52.5145 Y348.7297 I-1.8794 J0.684
G1 X52.0487 Y348.8993
G2 X50.8216 Y351.368 I0.684 J1.8794
G1 X53.8235 Y361.1031
G3 X52.9031 Y362.9547 I-1.4334 J0.442
G1 X46.3253 Y365.3488
G3 X44.4027 Y364.4523 I-0.513 J-1.4095
G1 X34.1421 Y336.2615
G3 X35.0386 Y334.339 I1.4095 J-0.513
G1 X49.134 Y329.2087
G2 X47.7659 Y325.4499 I-0.684 J-1.8794
G3 X45.8434 Y324.5534 I-0.513 J-1.4095
G1 X34.5567 Y293.5435
G2 X31.9933 Y292.3482 I-1.8794 J0.684
G1 X31.5275 Y292.5177
G2 X30.3004 Y294.9864 I0.684 J1.8794
G1 X33.3023 Y304.7216
G3 X32.3819 Y306.5731 I-1.4334 J0.442
G1 X25.8041 Y308.9673
G3 X23.8815 Y308.0707 I-0.513 J-1.4095
G1 X13.6209 Y279.88
G3 X14.5174 Y277.9574 I1.4095 J-0.513
G1 X28.6128 Y272.8271
G2 X27.2447 Y269.0683 I-0.684 J-1.8794
G3 X25.3222 Y268.1718 I-0.513 J-1.4095
G1 X23.0996 Y262.0654
G3 X23.9611 Y260.1561 I1.4095 J-0.513
G1 X33.2725 Y256.501
G3 X35.2301 Y257.3842 I0.5481 J1.3963
G1 X52.9108 Y305.9616
G2 X55.08 Y307.2565 I1.8794 J-0.684
G3 X55.1985 Y307.2439 I0.2174 J1.4842
G1 X311.3855 Y290.3169
G3 X322.5479 Y297.5963 I0.7318 J11.0758
G1 X325.2707 Y305.077
G3 X319.0215 Y315.5912 I-7.4236 J2.702
G1 X126.6021 Y344.5172
G1 F300.0 Z-10.8
G2 F800.0 X108.3294 Y349.1662 I14.0482 J93.45
G1 X71.8697 Y362.4365
G3 X69.9472 Y361.54 I-0.513 J-1.4095
G1 X67.895 Y355.9018
G2 X64.1363 Y357.2699 I-1.8794 J0.684
G3 X63.2398 Y359.1924 I-1.4095 J0.513
G1 X60.4207 Y360.2185
G3 X58.4981 Y359.322 I-0.513 J-1.4095
G1 X55.0779 Y349.9251
G2 X52.5145 Y348.7297 I-1.8794 J0.684
G1 X52.0487 Y348.8993
