( Made using CamBam - http://www.cambam.co.uk )
( Ken-Stool.Cutting-Files 9/4/2015 7:36:59 PM )
( T3 : 3.0 )
G21 G90 G64 G40
G0 Z5.0
( T3 : 3.0 )
T3 M6
( Pocket2 )
G17
M3 S1000
G0 X143.8799 Y217.7773
G0 Z1.0
G1 F300.0 Z-5.0
G1 F800.0 X141.5349 Y221.8388
G2 X143.8799 Y217.7773 I-22.0349 J-15.4296
G1 F300.0 X143.3602 Y217.4773
G1 F800.0 X138.0064 Y226.7504
G2 X146.3692 Y212.2657 I-18.5064 J-20.3412
G1 X143.3602 Y217.4773
G1 F300.0 X142.321 Y216.8773
G1 F800.0 X134.0986 Y231.119
G2 X148.1986 Y206.6971 I-14.5986 J-24.7098
G1 X142.321 Y216.8773
G0 Z5.0
G0 X142.9896 Y193.3002
G0 Z1.0
G1 F300.0 Z-5.0
G2 F800.0 X142.5976 Y192.6212 I-23.4896 J13.1091
G1 Y193.0738
G1 X142.9896 Y193.3002
G1 F300.0 X143.5136 Y193.0078
G2 F800.0 X141.9976 Y190.5944 I-24.0136 J13.4015
G1 Y193.4202
G1 X144.4448 Y194.8331
G2 X143.5136 Y193.0078 I-24.9448 J11.5761
G1 F300.0 X144.5614 Y192.423
G2 F800.0 X140.7721 Y187.143 I-25.0614 J13.9863
G3 X140.7976 Y187.7092 I-6.2721 J0.5662
G1 Y194.1131
G1 X146.3435 Y197.315
G3 X146.8211 Y197.6202 I-3.1488 J5.4539
G2 X144.5614 Y192.423 I-27.3211 J8.7891
G0 Z5.0
G0 X121.8449 Y179.6116
G0 Z1.0
G1 F300.0 Z-5.0
G2 F800.0 X117.1551 I-2.3449 J26.7976
G1 X121.8449
G1 F300.0 Y180.2116
G1 F800.0 X127.8628
G2 X111.1372 I-8.3628 J26.1976
G1 X121.8449
G1 F300.0 Y181.4116
G1 F800.0 X133.6
G2 X105.4 I-14.1 J24.9976
G1 X121.8449
G0 Z5.0
G0 X96.4024 Y192.6212
G0 Z1.0
G1 F300.0 Z-5.0
G2 F800.0 X96.0104 Y193.3002 I23.0976 J13.7881
G1 X96.4024 Y193.0738
G1 Y192.6212
G1 F300.0 X97.0024
G1 F800.0 Y190.5944
G2 X94.5552 Y194.8331 I22.4976 J15.8148
G1 X97.0024 Y193.4202
G1 Y192.6212
G1 F300.0 X98.2024
G1 F800.0 Y187.7092
G3 X98.2279 Y187.143 I6.2976 J0.0
G2 X92.1789 Y197.6202 I21.2721 J19.2662
G3 X92.6565 Y197.315 I3.6264 J5.1487
G1 X98.2024 Y194.1131
G1 Y192.6212
G0 Z5.0
G0 X95.1201 Y217.7773
G0 Z1.0
G1 F300.0 Z-5.0
G2 F800.0 X97.4651 Y221.8388 I24.3799 J-11.368
G1 X95.1201 Y217.7773
G1 F300.0 X95.6398 Y217.4773
G1 F800.0 X92.6308 Y212.2657
G2 X100.9936 Y226.7504 I26.8692 J-5.8564
G1 X95.6398 Y217.4773
G1 F300.0 X96.679 Y216.8773
G1 F800.0 X90.8014 Y206.6971
G2 X104.9014 Y231.119 I28.6986 J-0.2878
G1 X96.679 Y216.8773
G0 Z5.0
G0 X119.108 Y233.3064
G0 Z1.0
G1 F300.0 Z-5.0
G2 F800.0 X119.892 I0.392 J-26.8971
G1 X119.5 Y233.0801
G1 X119.108 Y233.3064
G1 F300.0 X119.0992 Y233.9063
G2 F800.0 X121.9472 Y233.8001 I0.4008 J-27.4971
G1 X119.5 Y232.3872
G1 X117.0528 Y233.8001
G2 X119.0992 Y233.9063 I2.4472 J-27.3909
G1 F300.0 X119.0817 Y235.1062
G2 F800.0 X125.549 Y234.4645 I0.4183 J-28.697
G3 X125.0459 Y234.2035 I2.6457 J-5.7149
G1 X119.5 Y231.0016
G1 X113.9541 Y234.2035
G3 X113.451 Y234.4645 I-3.1488 J-5.4539
G2 X119.0817 Y235.1062 I6.049 J-28.0553
G0 Z5.0
G0 X115.609 Y229.0912
G0 Z1.0
G1 F300.0 Z-5.0
G1 F800.0 X112.1541 Y231.0858
G3 X108.4691 Y230.0984 I-1.3488 J-2.3362
G1 X93.4691 Y204.1177
G3 X94.4565 Y200.4327 I2.3362 J-1.3488
G1 X101.4012 Y196.4232
G2 X101.8024 Y195.7283 I-0.4012 J-0.6949
G1 Y187.7092
G3 X104.5 Y185.0116 I2.6976 J0.0
G1 X134.5
G3 X137.1976 Y187.7092 I0.0 J2.6976
G1 Y195.7283
G2 X137.5988 Y196.4232 I0.8024 J0.0
G1 X144.5435 Y200.4327
G3 X145.5309 Y204.1177 I-1.3488 J2.3362
G1 X130.5309 Y230.0984
G3 X126.8459 Y231.0858 I-2.3362 J-1.3488
G1 X119.9012 Y227.0763
G2 X119.0988 I-0.4012 J0.6949
G1 X115.609 Y229.0912
G1 F300.0 X115.0102 Y228.054
G1 F800.0 X111.5553 Y230.0487
G3 X109.5063 Y229.4996 I-0.75 J-1.299
G1 X94.5063 Y203.5189
G3 X95.0553 Y201.4698 I1.299 J-0.75
G1 X102.0 Y197.4603
G2 X103.0 Y195.7283 I-1.0 J-1.7321
G1 Y187.7092
G3 X104.5 Y186.2092 I1.5 J0.0
G1 X134.5
G3 X136.0 Y187.7092 I0.0 J1.5
G1 Y195.7283
G2 X137.0 Y197.4603 I2.0 J0.0
G1 X143.9447 Y201.4698
G3 X144.4937 Y203.5189 I-0.75 J1.299
G1 X129.4937 Y229.4996
G3 X127.4447 Y230.0487 I-1.299 J-0.75
G1 X120.5 Y226.0391
G2 X118.5 I-1.0 J1.7321
G1 X115.0102 Y228.054
G0 Z5.0
G0 X116.209 Y230.1304
G0 Z1.0
G1 F300.0 Z-5.0
G1 F800.0 X119.5 Y228.2303
G1 X126.2459 Y232.125
G2 X131.5701 Y230.6984 I1.9488 J-3.3754
G1 X146.5701 Y204.7177
G2 X145.1435 Y199.3934 I-3.3754 J-1.9488
G1 X138.3976 Y195.4987
G1 Y187.7092
G2 X134.5 Y183.8116 I-3.8976 J0.0
G1 X104.5
G2 X100.6024 Y187.7092 I0.0 J3.8976
G1 Y195.4987
G1 X93.8565 Y199.3934
G2 X92.4299 Y204.7177 I1.9488 J3.3754
G1 X107.4299 Y230.6984
G2 X112.7541 Y232.125 I3.3754 J-1.9488
G1 X116.209 Y230.1304
G1 F300.0 X116.809 Y231.1696
G1 F800.0 X119.5 Y229.616
G1 X125.6459 Y233.1643
G2 X132.6093 Y231.2984 I2.5488 J-4.4147
G1 X147.6093 Y205.3177
G2 X145.7435 Y198.3542 I-4.4147 J-2.5488
G1 X139.5976 Y194.8059
G1 Y187.7092
G2 X134.5 Y182.6116 I-5.0976 J0.0
G1 X104.5
G2 X99.4024 Y187.7092 I0.0 J5.0976
G1 Y194.8059
G1 X93.2565 Y198.3542
G2 X91.3907 Y205.3177 I2.5488 J4.4147
G1 X106.3907 Y231.2984
G2 X113.3541 Y233.1643 I4.4147 J-2.5488
G1 X116.809 Y231.1696
G0 Z5.0
G0 X116.2694 Y236.1342
G0 Z1.0
G1 F300.0 Z-5.0
G2 F800.0 X149.4 Y206.4092 I3.2306 J-29.725
G2 X104.55 Y180.5151 I-29.9 J0.0
G2 Y232.3034 I14.95 J25.8942
G2 X116.2694 Y236.1342 I14.95 J-25.8942
G1 F300.0 X116.1397 Y237.3272
G2 F800.0 X150.6 Y206.4092 I3.3603 J-30.9179
G2 X103.95 Y179.4759 I-31.1 J0.0
G2 Y233.3426 I15.55 J26.9334
G2 X116.1397 Y237.3272 I15.55 J-26.9334
G1 F300.0 X116.0101 Y238.5202
G2 F800.0 X151.8 Y206.4092 I3.4899 J-32.1109
G2 X103.35 Y178.4366 I-32.3 J0.0
G2 Y234.3819 I16.15 J27.9726
G2 X116.0101 Y238.5202 I16.15 J-27.9726
G1 F300.0 X115.8804 Y239.7131
G2 F800.0 X153.0 Y206.4092 I3.6196 J-33.3039
G2 X102.75 Y177.3974 I-33.5 J0.0
G2 Y235.4211 I16.75 J29.0119
G2 X115.8804 Y239.7131 I16.75 J-29.0119
G0 Z5.0
G0 X119.108 Y233.3064
G0 Z-4.0
G1 F300.0 Z-10.0
G2 F800.0 X119.892 I0.392 J-26.8971
G1 X119.5 Y233.0801
G1 X119.108 Y233.3064
G1 F300.0 X119.0992 Y233.9063
G2 F800.0 X121.9472 Y233.8001 I0.4008 J-27.4971
G1 X119.5 Y232.3872
G1 X117.0528 Y233.8001
G2 X119.0992 Y233.9063 I2.4472 J-27.3909
G1 F300.0 X119.0817 Y235.1062
G2 F800.0 X125.549 Y234.4645 I0.4183 J-28.697
G3 X125.0459 Y234.2035 I2.6457 J-5.7149
G1 X119.5 Y231.0016
G1 X113.9541 Y234.2035
G3 X113.451 Y234.4645 I-3.1488 J-5.4539
G2 X119.0817 Y235.1062 I6.049 J-28.0553
G0 Z5.0
G0 X97.4651 Y221.8388
G0 Z-4.0
G1 F300.0 Z-10.0
G1 F800.0 X95.1201 Y217.7773
G2 X97.4651 Y221.8388 I24.3799 J-11.368
G1 F300.0 X96.9736 Y222.183
G2 F800.0 X100.9936 Y226.7504 I22.5264 J-15.7737
G1 X92.6308 Y212.2657
G2 X96.9736 Y222.183 I26.8692 J-5.8564
G1 F300.0 X95.9906 Y222.8713
G2 F800.0 X104.9014 Y231.119 I23.5094 J-16.462
G1 X90.8014 Y206.6971
G2 X95.9906 Y222.8713 I28.6986 J-0.2878
G0 Z5.0
G0 X96.0104 Y193.3002
G0 Z-4.0
G1 F300.0 Z-10.0
G1 F800.0 X96.4024 Y193.0738
G1 Y192.6212
G2 X96.0104 Y193.3002 I23.0976 J13.7881
G1 F300.0 X95.4864 Y193.0078
G2 F800.0 X94.5552 Y194.8331 I24.0136 J13.4015
G1 X97.0024 Y193.4202
G1 Y190.5944
G2 X95.4864 Y193.0078 I22.4976 J15.8148
G1 F300.0 X94.4386 Y192.423
G2 F800.0 X92.1789 Y197.6202 I25.0614 J13.9863
G3 X92.6565 Y197.315 I3.6264 J5.1487
G1 X98.2024 Y194.1131
G1 Y187.7092
G3 X98.2279 Y187.143 I6.2976 J0.0
G2 X94.4386 Y192.423 I21.2721 J19.2662
G0 Z5.0
G0 X117.1551 Y179.6116
G0 Z-4.0
G1 F300.0 Z-10.0
G1 F800.0 X121.8449
G2 X117.1551 I-2.3449 J26.7976
G1 F300.0 X117.1028 Y179.0139
G2 F800.0 X111.1372 Y180.2116 I2.3972 J27.3953
G1 X127.8628
G2 X117.1028 Y179.0139 I-8.3628 J26.1976
G1 F300.0 X116.9982 Y177.8185
G2 F800.0 X105.4 Y181.4116 I2.5018 J28.5907
G1 X133.6
G2 X116.9982 Y177.8185 I-14.1 J24.9976
G0 Z5.0
G0 X142.5976 Y192.6212
G0 Z-4.0
G1 F300.0 Z-10.0
G1 F800.0 Y193.0738
G1 X142.9896 Y193.3002
G2 X142.5976 Y192.6212 I-23.4896 J13.1091
G1 F300.0 X141.9976
G1 F800.0 Y193.4202
G1 X144.4448 Y194.8331
G2 X141.9976 Y190.5944 I-24.9448 J11.5761
G1 Y192.6212
G1 F300.0 X140.7976
G1 F800.0 Y194.1131
G1 X146.3435 Y197.315
G3 X146.8211 Y197.6202 I-3.1488 J5.4539
G2 X140.7721 Y187.143 I-27.3211 J8.7891
G3 X140.7976 Y187.7092 I-6.2721 J0.5662
G1 Y192.6212
G0 Z5.0
G0 X143.8799 Y217.7773
G0 Z-4.0
G1 F300.0 Z-10.0
G1 F800.0 X141.5349 Y221.8388
G2 X143.8799 Y217.7773 I-22.0349 J-15.4296
G1 F300.0 X143.3602 Y217.4773
G1 F800.0 X138.0064 Y226.7504
G2 X146.3692 Y212.2657 I-18.5064 J-20.3412
G1 X143.3602 Y217.4773
G1 F300.0 X142.321 Y216.8773
G1 F800.0 X134.0986 Y231.119
G2 X148.1986 Y206.6971 I-14.5986 J-24.7098
G1 X142.321 Y216.8773
G0 Z5.0
G0 X139.2033 Y215.0773
G0 Z-4.0
G1 F300.0 Z-10.0
G1 F800.0 X130.5309 Y230.0984
G3 X126.8459 Y231.0858 I-2.3362 J-1.3488
G1 X119.9012 Y227.0763
G2 X119.0988 I-0.4012 J0.6949
G1 X112.1541 Y231.0858
G3 X108.4691 Y230.0984 I-1.3488 J-2.3362
G1 X93.4691 Y204.1177
G3 X94.4565 Y200.4327 I2.3362 J-1.3488
G1 X101.4012 Y196.4232
G2 X101.8024 Y195.7283 I-0.4012 J-0.6949
G1 Y187.7092
G3 X104.5 Y185.0116 I2.6976 J0.0
G1 X134.5
G3 X137.1976 Y187.7092 I0.0 J2.6976
G1 Y195.7283
G2 X137.5988 Y196.4232 I0.8024 J0.0
G1 X144.5435 Y200.4327
G3 X145.5309 Y204.1177 I-1.3488 J2.3362
G1 X139.2033 Y215.0773
G1 F300.0 X138.1662 Y214.4785
G1 F800.0 X129.4937 Y229.4996
G3 X127.4447 Y230.0487 I-1.299 J-0.75
G1 X120.5 Y226.0391
G2 X118.5 I-1.0 J1.7321
G1 X111.5553 Y230.0487
G3 X109.5063 Y229.4996 I-0.75 J-1.299
G1 X94.5063 Y203.5189
G3 X95.0553 Y201.4698 I1.299 J-0.75
G1 X102.0 Y197.4603
G2 X103.0 Y195.7283 I-1.0 J-1.7321
G1 Y187.7092
G3 X104.5 Y186.2092 I1.5 J0.0
G1 X134.5
G3 X136.0 Y187.7092 I0.0 J1.5
G1 Y195.7283
G2 X137.0 Y197.4603 I2.0 J0.0
G1 X143.9447 Y201.4698
G3 X144.4937 Y203.5189 I-0.75 J1.299
G1 X138.1662 Y214.4785
G0 Z5.0
G0 X140.2426 Y215.6773
G0 Z-4.0
G1 F300.0 Z-10.0
G1 F800.0 X146.5701 Y204.7177
G2 X145.1435 Y199.3934 I-3.3754 J-1.9488
G1 X138.3976 Y195.4987
G1 Y187.7092
G2 X134.5 Y183.8116 I-3.8976 J0.0
G1 X104.5
G2 X100.6024 Y187.7092 I0.0 J3.8976
G1 Y195.4987
G1 X93.8565 Y199.3934
G2 X92.4299 Y204.7177 I1.9488 J3.3754
G1 X107.4299 Y230.6984
G2 X112.7541 Y232.125 I3.3754 J-1.9488
G1 X119.5 Y228.2303
G1 X126.2459 Y232.125
G2 X131.5701 Y230.6984 I1.9488 J-3.3754
G1 X140.2426 Y215.6773
G1 F300.0 X141.2818 Y216.2773
G1 F800.0 X147.6093 Y205.3177
G2 X145.7435 Y198.3542 I-4.4147 J-2.5488
G1 X139.5976 Y194.8059
G1 Y187.7092
G2 X134.5 Y182.6116 I-5.0976 J0.0
G1 X104.5
G2 X99.4024 Y187.7092 I0.0 J5.0976
G1 Y194.8059
G1 X93.2565 Y198.3542
G2 X91.3907 Y205.3177 I2.5488 J4.4147
G1 X106.3907 Y231.2984
G2 X113.3541 Y233.1643 I4.4147 J-2.5488
G1 X119.5 Y229.616
G1 X125.6459 Y233.1643
G2 X132.6093 Y231.2984 I2.5488 J-4.4147
G1 X141.2818 Y216.2773
G0 Z5.0
G0 X146.7354 Y218.748
G0 Z-4.0
G1 F300.0 Z-10.0
G2 F800.0 X149.4 Y206.4092 I-27.2354 J-12.3387
G2 X104.55 Y180.5151 I-29.9 J0.0
G2 Y232.3034 I14.95 J25.8942
G2 X146.7354 Y218.748 I14.95 J-25.8942
G1 F300.0 X147.8284 Y219.2432
G2 F800.0 X150.6 Y206.4092 I-28.3284 J-12.8339
G2 X103.95 Y179.4759 I-31.1 J0.0
G2 Y233.3426 I15.55 J26.9334
G2 X147.8284 Y219.2432 I15.55 J-26.9334
G1 F300.0 X148.9215 Y219.7384
G2 F800.0 X151.8 Y206.4092 I-29.4215 J-13.3291
G2 X103.35 Y178.4366 I-32.3 J0.0
G2 Y234.3819 I16.15 J27.9726
G2 X148.9215 Y219.7384 I16.15 J-27.9726
G1 F300.0 X150.0145 Y220.2336
G2 F800.0 X153.0 Y206.4092 I-30.5145 J-13.8243
G2 X102.75 Y177.3974 I-33.5 J0.0
G2 Y235.4211 I16.75 J29.0119
G2 X150.0145 Y220.2336 I16.75 J-29.0119
G0 Z5.0
G0 X143.8799 Y217.7773
G0 Z-9.0
G1 F300.0 Z-14.0
G1 F800.0 X141.5349 Y221.8388
G2 X143.8799 Y217.7773 I-22.0349 J-15.4296
G1 F300.0 X143.3602 Y217.4773
G1 F800.0 X138.0064 Y226.7504
G2 X146.3692 Y212.2657 I-18.5064 J-20.3412
G1 X143.3602 Y217.4773
G1 F300.0 X142.321 Y216.8773
G1 F800.0 X134.0986 Y231.119
G2 X148.1986 Y206.6971 I-14.5986 J-24.7098
G1 X142.321 Y216.8773
G0 Z5.0
G0 X142.9896 Y193.3002
G0 Z-9.0
G1 F300.0 Z-14.0
G2 F800.0 X142.5976 Y192.6212 I-23.4896 J13.1091
G1 Y193.0738
G1 X142.9896 Y193.3002
G1 F300.0 X143.5136 Y193.0078
G2 F800.0 X141.9976 Y190.5944 I-24.0136 J13.4015
G1 Y193.4202
G1 X144.4448 Y194.8331
G2 X143.5136 Y193.0078 I-24.9448 J11.5761
G1 F300.0 X144.5614 Y192.423
G2 F800.0 X140.7721 Y187.143 I-25.0614 J13.9863
G3 X140.7976 Y187.7092 I-6.2721 J0.5662
G1 Y194.1131
G1 X146.3435 Y197.315
G3 X146.8211 Y197.6202 I-3.1488 J5.4539
G2 X144.5614 Y192.423 I-27.3211 J8.7891
G0 Z5.0
G0 X121.8449 Y179.6116
G0 Z-9.0
G1 F300.0 Z-14.0
G2 F800.0 X117.1551 I-2.3449 J26.7976
G1 X121.8449
G1 F300.0 Y180.2116
G1 F800.0 X127.8628
G2 X111.1372 I-8.3628 J26.1976
G1 X121.8449
G1 F300.0 Y181.4116
G1 F800.0 X133.6
G2 X105.4 I-14.1 J24.9976
G1 X121.8449
G0 Z5.0
G0 X96.4024 Y192.6212
G0 Z-9.0
G1 F300.0 Z-14.0
G2 F800.0 X96.0104 Y193.3002 I23.0976 J13.7881
G1 X96.4024 Y193.0738
G1 Y192.6212
G1 F300.0 X97.0024
G1 F800.0 Y190.5944
G2 X94.5552 Y194.8331 I22.4976 J15.8148
G1 X97.0024 Y193.4202
G1 Y192.6212
G1 F300.0 X98.2024
G1 F800.0 Y187.7092
G3 X98.2279 Y187.143 I6.2976 J0.0
G2 X92.1789 Y197.6202 I21.2721 J19.2662
G3 X92.6565 Y197.315 I3.6264 J5.1487
G1 X98.2024 Y194.1131
G1 Y192.6212
G0 Z5.0
G0 X95.1201 Y217.7773
G0 Z-9.0
G1 F300.0 Z-14.0
G2 F800.0 X97.4651 Y221.8388 I24.3799 J-11.368
G1 X95.1201 Y217.7773
G1 F300.0 X95.6398 Y217.4773
G1 F800.0 X92.6308 Y212.2657
G2 X100.9936 Y226.7504 I26.8692 J-5.8564
G1 X95.6398 Y217.4773
G1 F300.0 X96.679 Y216.8773
G1 F800.0 X90.8014 Y206.6971
G2 X104.9014 Y231.119 I28.6986 J-0.2878
G1 X96.679 Y216.8773
G0 Z5.0
G0 X119.108 Y233.3064
G0 Z-9.0
G1 F300.0 Z-14.0
G2 F800.0 X119.892 I0.392 J-26.8971
G1 X119.5 Y233.0801
G1 X119.108 Y233.3064
G1 F300.0 X119.0992 Y233.9063
G2 F800.0 X121.9472 Y233.8001 I0.4008 J-27.4971
G1 X119.5 Y232.3872
G1 X117.0528 Y233.8001
G2 X119.0992 Y233.9063 I2.4472 J-27.3909
G1 F300.0 X119.0817 Y235.1062
G2 F800.0 X125.549 Y234.4645 I0.4183 J-28.697
G3 X125.0459 Y234.2035 I2.6457 J-5.7149
G1 X119.5 Y231.0016
G1 X113.9541 Y234.2035
G3 X113.451 Y234.4645 I-3.1488 J-5.4539
G2 X119.0817 Y235.1062 I6.049 J-28.0553
G0 Z5.0
G0 X115.609 Y229.0912
G0 Z-8.0
G1 F300.0 Z-14.0
G1 F800.0 X112.1541 Y231.0858
G3 X108.4691 Y230.0984 I-1.3488 J-2.3362
G1 X93.4691 Y204.1177
G3 X94.4565 Y200.4327 I2.3362 J-1.3488
G1 X101.4012 Y196.4232
G2 X101.8024 Y195.7283 I-0.4012 J-0.6949
G1 Y187.7092
G3 X104.5 Y185.0116 I2.6976 J0.0
G1 X134.5
G3 X137.1976 Y187.7092 I0.0 J2.6976
G1 Y195.7283
G2 X137.5988 Y196.4232 I0.8024 J0.0
G1 X144.5435 Y200.4327
G3 X145.5309 Y204.1177 I-1.3488 J2.3362
G1 X130.5309 Y230.0984
G3 X126.8459 Y231.0858 I-2.3362 J-1.3488
G1 X119.9012 Y227.0763
G2 X119.0988 I-0.4012 J0.6949
G1 X115.609 Y229.0912
G1 F300.0 X115.0102 Y228.054
G1 F800.0 X111.5553 Y230.0487
G3 X109.5063 Y229.4996 I-0.75 J-1.299
G1 X94.5063 Y203.5189
G3 X95.0553 Y201.4698 I1.299 J-0.75
G1 X102.0 Y197.4603
G2 X103.0 Y195.7283 I-1.0 J-1.7321
G1 Y187.7092
G3 X104.5 Y186.2092 I1.5 J0.0
G1 X134.5
G3 X136.0 Y187.7092 I0.0 J1.5
G1 Y195.7283
G2 X137.0 Y197.4603 I2.0 J0.0
G1 X143.9447 Y201.4698
G3 X144.4937 Y203.5189 I-0.75 J1.299
G1 X129.4937 Y229.4996
G3 X127.4447 Y230.0487 I-1.299 J-0.75
G1 X120.5 Y226.0391
G2 X118.5 I-1.0 J1.7321
G1 X115.0102 Y228.054
G0 Z5.0
G0 X116.209 Y230.1304
G0 Z-8.0
G1 F300.0 Z-14.0
G1 F800.0 X119.5 Y228.2303
G1 X126.2459 Y232.125
G2 X131.5701 Y230.6984 I1.9488 J-3.3754
G1 X146.5701 Y204.7177
G2 X145.1435 Y199.3934 I-3.3754 J-1.9488
G1 X138.3976 Y195.4987
G1 Y187.7092
G2 X134.5 Y183.8116 I-3.8976 J0.0
G1 X104.5
G2 X100.6024 Y187.7092 I0.0 J3.8976
G1 Y195.4987
G1 X93.8565 Y199.3934
G2 X92.4299 Y204.7177 I1.9488 J3.3754
G1 X107.4299 Y230.6984
G2 X112.7541 Y232.125 I3.3754 J-1.9488
G1 X116.209 Y230.1304
G1 F300.0 X116.809 Y231.1696
G1 F800.0 X119.5 Y229.616
G1 X125.6459 Y233.1643
G2 X132.6093 Y231.2984 I2.5488 J-4.4147
G1 X147.6093 Y205.3177
G2 X145.7435 Y198.3542 I-4.4147 J-2.5488
G1 X139.5976 Y194.8059
G1 Y187.7092
G2 X134.5 Y182.6116 I-5.0976 J0.0
G1 X104.5
G2 X99.4024 Y187.7092 I0.0 J5.0976
G1 Y194.8059
G1 X93.2565 Y198.3542
G2 X91.3907 Y205.3177 I2.5488 J4.4147
G1 X106.3907 Y231.2984
G2 X113.3541 Y233.1643 I4.4147 J-2.5488
G1 X116.809 Y231.1696
G0 Z5.0
G0 X116.2694 Y236.1342
G0 Z-8.0
G1 F300.0 Z-14.0
G2 F800.0 X149.4 Y206.4092 I3.2306 J-29.725
G2 X104.55 Y180.5151 I-29.9 J0.0
G2 Y232.3034 I14.95 J25.8942
G2 X116.2694 Y236.1342 I14.95 J-25.8942
G1 F300.0 X116.1397 Y237.3272
G2 F800.0 X150.6 Y206.4092 I3.3603 J-30.9179
G2 X103.95 Y179.4759 I-31.1 J0.0
G2 Y233.3426 I15.55 J26.9334
G2 X116.1397 Y237.3272 I15.55 J-26.9334
G1 F300.0 X116.0101 Y238.5202
G2 F800.0 X151.8 Y206.4092 I3.4899 J-32.1109
G2 X103.35 Y178.4366 I-32.3 J0.0
G2 Y234.3819 I16.15 J27.9726
G2 X116.0101 Y238.5202 I16.15 J-27.9726
G1 F300.0 X115.8804 Y239.7131
G2 F800.0 X153.0 Y206.4092 I3.6196 J-33.3039
G2 X102.75 Y177.3974 I-33.5 J0.0
G2 Y235.4211 I16.75 J29.0119
G2 X115.8804 Y239.7131 I16.75 J-29.0119
( Profile1 plug  )
S1000
G0 Z5.0
G0 X150.9 Y206.4092
G0 Z1.0
G1 F300.0 Z0.0
G3 F800.0 X103.8 Y233.6024 Z-1.6667 I-31.4 J0.0
G3 Y179.216 Z-3.3333 I15.7 J-27.1932
G3 X150.9 Y206.4092 Z-5.0 I15.7 J27.1932
G3 X103.8 Y233.6024 Z-6.6667 I-31.4 J0.0
G3 Y179.216 Z-8.3333 I15.7 J-27.1932
G3 X150.9 Y206.4092 Z-10.0 I15.7 J27.1932
G3 X103.8 Y233.6024 Z-11.6667 I-31.4 J0.0
G3 Y179.216 Z-13.3333 I15.7 J-27.1932
G3 X150.9 Y206.4092 Z-15.0 I15.7 J27.1932
G3 X138.9351 Y231.0717 Z-15.5895 I-31.4 J0.0
G3 X136.4811 Y232.8214 Z-15.1 I-19.4351 J-24.6625
G3 X133.883 Y234.3214 I-16.9811 J-26.4122
G3 X131.1408 Y235.5717 Z-15.7772 I-14.383 J-27.9122
G3 X103.8 Y233.6024 Z-16.3667 I-11.6408 J-29.1625
G3 X88.4241 Y210.9092 Z-16.9562 I15.7 J-27.1932
G3 X88.1358 Y207.9092 Z-15.1 I31.0759 J-4.5
G3 Y204.9092 I31.3642 J-1.5
G3 X88.4241 Y201.9092 Z-17.1438 I31.3642 J1.5
G3 X103.8 Y179.216 Z-17.7333 I31.0759 J4.5
G3 X131.1408 Y177.2467 Z-18.3228 I15.7 J27.1932
G3 X133.883 Y178.4971 Z-15.1 I-11.6408 J29.1625
G3 X136.4811 Y179.9971 I-14.383 J27.9122
G3 X138.9351 Y181.7467 Z-18.5105 I-16.9811 J26.4122
G3 X150.9 Y206.4092 Z-19.1 I-19.4351 J24.6625
G3 X138.9351 Y231.0717 I-31.4 J0.0
G3 X136.4811 Y232.8214 Z-15.1 I-19.4351 J-24.6625
G3 X133.883 Y234.3214 I-16.9811 J-26.4122
G3 X131.1408 Y235.5717 Z-19.1 I-14.383 J-27.9122
G3 X103.8 Y233.6024 I-11.6408 J-29.1625
G3 X88.4241 Y210.9092 I15.7 J-27.1932
G3 X88.1358 Y207.9092 Z-15.1 I31.0759 J-4.5
G3 Y204.9092 I31.3642 J-1.5
G3 X88.4241 Y201.9092 Z-19.1 I31.3642 J1.5
G3 X103.8 Y179.216 I31.0759 J4.5
G3 X131.1408 Y177.2467 I15.7 J27.1932
G3 X133.883 Y178.4971 Z-15.1 I-11.6408 J29.1625
G3 X136.4811 Y179.9971 I-14.383 J27.9122
G3 X138.9351 Y181.7467 Z-19.1 I-16.9811 J26.4122
G3 X150.9 Y206.4092 I-19.4351 J24.6625
G0 Z5.0
M5
M30
