( Made using CamBam - http://www.cambam.co.uk )
( Ken-Stool.Cutting-Files 8/31/2015 4:42:44 PM )
( T3 : 3.0 )
G21 G90 G64 G40
G0 Z5.0
( T3 : 3.0 )
T3 M6
( Pocket2 )
S1000
G0 Z5.0
G0 X164.8799 Y299.7773
G0 Z1.0
G1 F300.0 Z-3.0
G1 F800.0 X162.5349 Y303.8388
G2 X164.8799 Y299.7773 I-22.0349 J-15.4296
G1 F300.0 X165.4236 Y300.0308
G2 F800.0 X167.3692 Y294.2657 I-24.9236 J-11.6216
G1 X159.0064 Y308.7504
G2 X165.4236 Y300.0308 I-18.5064 J-20.3412
G1 F300.0 X166.5112 Y300.538
G2 F800.0 X169.1986 Y288.6971 I-26.0112 J-12.1287
G1 X155.0986 Y313.119
G2 X166.5112 Y300.538 I-14.5986 J-24.7098
G0 Z5.0
G0 X163.9896 Y275.3002
G0 Z1.0
G1 F300.0 Z-3.0
G2 F800.0 X163.5976 Y274.6212 I-23.4896 J13.1091
G1 Y275.0738
G1 X163.9896 Y275.3002
G1 F300.0 X163.6896 Y275.8198
G1 F800.0 X165.4448 Y276.8331
G2 X162.9976 Y272.5944 I-24.9448 J11.5761
G1 Y275.4202
G1 X163.6896 Y275.8198
G1 F300.0 X163.0896 Y276.859
G1 F800.0 X167.3435 Y279.315
G3 X167.8211 Y279.6202 I-3.1488 J5.4539
G2 X161.7721 Y269.143 I-27.3211 J8.7891
G3 X161.7976 Y269.7092 I-6.2721 J0.5662
G1 Y276.1131
G1 X163.0896 Y276.859
G0 Z5.0
G0 X142.8449 Y261.6116
G0 Z1.0
G1 F300.0 Z-3.0
G2 F800.0 X138.1551 I-2.3449 J26.7976
G1 X142.8449
G1 F300.0 X142.8972 Y261.0139
G2 F800.0 X132.1372 Y262.2116 I-2.3972 J27.3953
G1 X148.8628
G2 X142.8972 Y261.0139 I-8.3628 J26.1976
G1 F300.0 X143.0018 Y259.8185
G2 F800.0 X126.4 Y263.4116 I-2.5018 J28.5907
G1 X154.6
G2 X143.0018 Y259.8185 I-14.1 J24.9976
G0 Z5.0
G0 X117.4024 Y274.6212
G0 Z1.0
G1 F300.0 Z-3.0
G2 F800.0 X117.0104 Y275.3002 I23.0976 J13.7881
G1 X117.4024 Y275.0738
G1 Y274.6212
G1 F300.0 X118.0024
G1 F800.0 Y272.5944
G2 X115.5552 Y276.8331 I22.4976 J15.8148
G1 X118.0024 Y275.4202
G1 Y274.6212
G1 F300.0 X119.2024
G1 F800.0 Y269.7092
G3 X119.2279 Y269.143 I6.2976 J0.0
G2 X113.1789 Y279.6202 I21.2721 J19.2662
G3 X113.6565 Y279.315 I3.6264 J5.1487
G1 X119.2024 Y276.1131
G1 Y274.6212
G0 Z5.0
G0 X116.1201 Y299.7773
G0 Z1.0
G1 F300.0 Z-3.0
G2 F800.0 X118.4651 Y303.8388 I24.3799 J-11.368
G1 X116.1201 Y299.7773
G1 F300.0 X115.5764 Y300.0308
G2 F800.0 X121.9936 Y308.7504 I24.9236 J-11.6216
G1 X113.6308 Y294.2657
G2 X115.5764 Y300.0308 I26.8692 J-5.8564
G1 F300.0 X114.4888 Y300.538
G2 F800.0 X125.9014 Y313.119 I26.0112 J-12.1287
G1 X111.8014 Y288.6971
G2 X114.4888 Y300.538 I28.6986 J-0.2878
G0 Z5.0
G0 X140.108 Y315.3064
G0 Z1.0
G1 F300.0 Z-3.0
G2 F800.0 X140.892 I0.392 J-26.8971
G1 X140.5 Y315.0801
G1 X140.108 Y315.3064
G1 F300.0 X140.0992 Y315.9063
G2 F800.0 X142.9472 Y315.8001 I0.4008 J-27.4971
G1 X140.5 Y314.3872
G1 X138.0528 Y315.8001
G2 X140.0992 Y315.9063 I2.4472 J-27.3909
G1 F300.0 X140.0817 Y317.1062
G2 F800.0 X146.549 Y316.4645 I0.4183 J-28.697
G3 X146.0459 Y316.2035 I2.6457 J-5.7149
G1 X140.5 Y313.0016
G1 X134.9541 Y316.2035
G3 X134.451 Y316.4645 I-3.1488 J-5.4539
G2 X140.0817 Y317.1062 I6.049 J-28.0553
G0 Z5.0
G0 X136.609 Y311.0912
G0 Z1.0
G1 F300.0 Z-3.0
G1 F800.0 X133.1541 Y313.0858
G3 X129.4691 Y312.0984 I-1.3488 J-2.3362
G1 X114.4691 Y286.1177
G3 X115.4565 Y282.4327 I2.3362 J-1.3488
G1 X122.4012 Y278.4232
G2 X122.8024 Y277.7283 I-0.4012 J-0.6949
G1 Y269.7092
G3 X125.5 Y267.0116 I2.6976 J0.0
G1 X155.5
G3 X158.1976 Y269.7092 I0.0 J2.6976
G1 Y277.7283
G2 X158.5988 Y278.4232 I0.8024 J0.0
G1 X165.5435 Y282.4327
G3 X166.5309 Y286.1177 I-1.3488 J2.3362
G1 X151.5309 Y312.0984
G3 X147.8459 Y313.0858 I-2.3362 J-1.3488
G1 X140.9012 Y309.0763
G2 X140.0988 I-0.4012 J0.6949
G1 X136.609 Y311.0912
G1 F300.0 X136.0102 Y310.054
G1 F800.0 X132.5553 Y312.0487
G3 X130.5063 Y311.4996 I-0.75 J-1.299
G1 X115.5063 Y285.5189
G3 X116.0553 Y283.4698 I1.299 J-0.75
G1 X123.0 Y279.4603
G2 X124.0 Y277.7283 I-1.0 J-1.7321
G1 Y269.7092
G3 X125.5 Y268.2092 I1.5 J0.0
G1 X155.5
G3 X157.0 Y269.7092 I0.0 J1.5
G1 Y277.7283
G2 X158.0 Y279.4603 I2.0 J0.0
G1 X164.9447 Y283.4698
G3 X165.4937 Y285.5189 I-0.75 J1.299
G1 X150.4937 Y311.4996
G3 X148.4447 Y312.0487 I-1.299 J-0.75
G1 X141.5 Y308.0391
G2 X139.5 I-1.0 J1.7321
G1 X136.0102 Y310.054
G0 Z5.0
G0 X137.209 Y312.1304
G0 Z1.0
G1 F300.0 Z-3.0
G1 F800.0 X140.5 Y310.2303
G1 X147.2459 Y314.125
G2 X152.5701 Y312.6984 I1.9488 J-3.3754
G1 X167.5701 Y286.7177
G2 X166.1435 Y281.3934 I-3.3754 J-1.9488
G1 X159.3976 Y277.4987
G1 Y269.7092
G2 X155.5 Y265.8116 I-3.8976 J0.0
G1 X125.5
G2 X121.6024 Y269.7092 I0.0 J3.8976
G1 Y277.4987
G1 X114.8565 Y281.3934
G2 X113.4299 Y286.7177 I1.9488 J3.3754
G1 X128.4299 Y312.6984
G2 X133.7541 Y314.125 I3.3754 J-1.9488
G1 X137.209 Y312.1304
G1 F300.0 X137.809 Y313.1696
G1 F800.0 X140.5 Y311.616
G1 X146.6459 Y315.1643
G2 X153.6093 Y313.2984 I2.5488 J-4.4147
G1 X168.6093 Y287.3177
G2 X166.7435 Y280.3542 I-4.4147 J-2.5488
G1 X160.5976 Y276.8059
G1 Y269.7092
G2 X155.5 Y264.6116 I-5.0976 J0.0
G1 X125.5
G2 X120.4024 Y269.7092 I0.0 J5.0976
G1 Y276.8059
G1 X114.2565 Y280.3542
G2 X112.3907 Y287.3177 I2.5488 J4.4147
G1 X127.3907 Y313.2984
G2 X134.3541 Y315.1643 I4.4147 J-2.5488
G1 X137.809 Y313.1696
G0 Z5.0
G0 X137.2694 Y318.1342
G0 Z1.0
G1 F300.0 Z-3.0
G2 F800.0 X170.4 Y288.4092 I3.2306 J-29.725
G2 X125.55 Y262.5151 I-29.9 J0.0
G2 Y314.3034 I14.95 J25.8942
G2 X137.2694 Y318.1342 I14.95 J-25.8942
G1 F300.0 X137.1397 Y319.3272
G2 F800.0 X171.6 Y288.4092 I3.3603 J-30.9179
G2 X124.95 Y261.4759 I-31.1 J0.0
G2 Y315.3426 I15.55 J26.9334
G2 X137.1397 Y319.3272 I15.55 J-26.9334
G1 F300.0 X137.0101 Y320.5202
G2 F800.0 X172.8 Y288.4092 I3.4899 J-32.1109
G2 X124.35 Y260.4366 I-32.3 J0.0
G2 Y316.3819 I16.15 J27.9726
G2 X137.0101 Y320.5202 I16.15 J-27.9726
G1 F300.0 X136.8804 Y321.7131
G2 F800.0 X174.0 Y288.4092 I3.6196 J-33.3039
G2 X123.75 Y259.3974 I-33.5 J0.0
G2 Y317.4211 I16.75 J29.0119
G2 X136.8804 Y321.7131 I16.75 J-29.0119
G0 Z5.0
G0 X140.108 Y315.3064
G0 Z-2.0
G1 F300.0 Z-6.0
G2 F800.0 X140.892 I0.392 J-26.8971
G1 X140.5 Y315.0801
G1 X140.108 Y315.3064
G1 F300.0 X140.0992 Y315.9063
G2 F800.0 X142.9472 Y315.8001 I0.4008 J-27.4971
G1 X140.5 Y314.3872
G1 X138.0528 Y315.8001
G2 X140.0992 Y315.9063 I2.4472 J-27.3909
G1 F300.0 X140.0817 Y317.1062
G2 F800.0 X146.549 Y316.4645 I0.4183 J-28.697
G3 X146.0459 Y316.2035 I2.6457 J-5.7149
G1 X140.5 Y313.0016
G1 X134.9541 Y316.2035
G3 X134.451 Y316.4645 I-3.1488 J-5.4539
G2 X140.0817 Y317.1062 I6.049 J-28.0553
G0 Z5.0
G0 X118.4651 Y303.8388
G0 Z-2.0
G1 F300.0 Z-6.0
G1 F800.0 X116.1201 Y299.7773
G2 X118.4651 Y303.8388 I24.3799 J-11.368
G1 F300.0 X117.9736 Y304.183
G2 F800.0 X121.9936 Y308.7504 I22.5264 J-15.7737
G1 X113.6308 Y294.2657
G2 X117.9736 Y304.183 I26.8692 J-5.8564
G1 F300.0 X116.9906 Y304.8713
G2 F800.0 X125.9014 Y313.119 I23.5094 J-16.462
G1 X111.8014 Y288.6971
G2 X116.9906 Y304.8713 I28.6986 J-0.2878
G0 Z5.0
G0 X117.0104 Y275.3002
G0 Z-2.0
G1 F300.0 Z-6.0
G1 F800.0 X117.4024 Y275.0738
G1 Y274.6212
G2 X117.0104 Y275.3002 I23.0976 J13.7881
G1 F300.0 X117.3104 Y275.8198
G1 F800.0 X118.0024 Y275.4202
G1 Y272.5944
G2 X115.5552 Y276.8331 I22.4976 J15.8148
G1 X117.3104 Y275.8198
G1 F300.0 X117.9104 Y276.859
G1 F800.0 X119.2024 Y276.1131
G1 Y269.7092
G3 X119.2279 Y269.143 I6.2976 J0.0
G2 X113.1789 Y279.6202 I21.2721 J19.2662
G3 X113.6565 Y279.315 I3.6264 J5.1487
G1 X117.9104 Y276.859
G0 Z5.0
G0 X138.1551 Y261.6116
G0 Z-2.0
G1 F300.0 Z-6.0
G1 F800.0 X142.8449
G2 X138.1551 I-2.3449 J26.7976
G1 F300.0 X138.1028 Y261.0139
G2 F800.0 X132.1372 Y262.2116 I2.3972 J27.3953
G1 X148.8628
G2 X138.1028 Y261.0139 I-8.3628 J26.1976
G1 F300.0 X137.9982 Y259.8185
G2 F800.0 X126.4 Y263.4116 I2.5018 J28.5907
G1 X154.6
G2 X137.9982 Y259.8185 I-14.1 J24.9976
G0 Z5.0
G0 X163.5976 Y274.6212
G0 Z-2.0
G1 F300.0 Z-6.0
G1 F800.0 Y275.0738
G1 X163.9896 Y275.3002
G2 X163.5976 Y274.6212 I-23.4896 J13.1091
G1 F300.0 X162.9976
G1 F800.0 Y275.4202
G1 X165.4448 Y276.8331
G2 X162.9976 Y272.5944 I-24.9448 J11.5761
G1 Y274.6212
G1 F300.0 X161.7976
G1 F800.0 Y276.1131
G1 X167.3435 Y279.315
G3 X167.8211 Y279.6202 I-3.1488 J5.4539
G2 X161.7721 Y269.143 I-27.3211 J8.7891
G3 X161.7976 Y269.7092 I-6.2721 J0.5662
G1 Y274.6212
G0 Z5.0
G0 X164.8799 Y299.7773
G0 Z-2.0
G1 F300.0 Z-6.0
G1 F800.0 X162.5349 Y303.8388
G2 X164.8799 Y299.7773 I-22.0349 J-15.4296
G1 F300.0 X165.4236 Y300.0308
G2 F800.0 X167.3692 Y294.2657 I-24.9236 J-11.6216
G1 X159.0064 Y308.7504
G2 X165.4236 Y300.0308 I-18.5064 J-20.3412
G1 F300.0 X166.5112 Y300.538
G2 F800.0 X169.1986 Y288.6971 I-26.0112 J-12.1287
G1 X155.0986 Y313.119
G2 X166.5112 Y300.538 I-14.5986 J-24.7098
G0 Z5.0
G0 X160.2818 Y296.9414
G0 Z-2.0
G1 F300.0 Z-6.0
G1 F800.0 X151.5309 Y312.0984
G3 X147.8459 Y313.0858 I-2.3362 J-1.3488
G1 X140.9012 Y309.0763
G2 X140.0988 I-0.4012 J0.6949
G1 X133.1541 Y313.0858
G3 X129.4691 Y312.0984 I-1.3488 J-2.3362
G1 X114.4691 Y286.1177
G3 X115.4565 Y282.4327 I2.3362 J-1.3488
G1 X122.4012 Y278.4232
G2 X122.8024 Y277.7283 I-0.4012 J-0.6949
G1 Y269.7092
G3 X125.5 Y267.0116 I2.6976 J0.0
G1 X155.5
G3 X158.1976 Y269.7092 I0.0 J2.6976
G1 Y277.7283
G2 X158.5988 Y278.4232 I0.8024 J0.0
G1 X165.5435 Y282.4327
G3 X166.5309 Y286.1177 I-1.3488 J2.3362
G1 X160.2818 Y296.9414
G1 F300.0 X159.2446 Y296.3426
G1 F800.0 X150.4937 Y311.4996
G3 X148.4447 Y312.0487 I-1.299 J-0.75
G1 X141.5 Y308.0391
G2 X139.5 I-1.0 J1.7321
G1 X132.5553 Y312.0487
G3 X130.5063 Y311.4996 I-0.75 J-1.299
G1 X115.5063 Y285.5189
G3 X116.0553 Y283.4698 I1.299 J-0.75
G1 X123.0 Y279.4603
G2 X124.0 Y277.7283 I-1.0 J-1.7321
G1 Y269.7092
G3 X125.5 Y268.2092 I1.5 J0.0
G1 X155.5
G3 X157.0 Y269.7092 I0.0 J1.5
G1 Y277.7283
G2 X158.0 Y279.4603 I2.0 J0.0
G1 X164.9447 Y283.4698
G3 X165.4937 Y285.5189 I-0.75 J1.299
G1 X159.2446 Y296.3426
G0 Z5.0
G0 X161.321 Y297.5414
G0 Z-2.0
G1 F300.0 Z-6.0
G1 F800.0 X167.5701 Y286.7177
G2 X166.1435 Y281.3934 I-3.3754 J-1.9488
G1 X159.3976 Y277.4987
G1 Y269.7092
G2 X155.5 Y265.8116 I-3.8976 J0.0
G1 X125.5
G2 X121.6024 Y269.7092 I0.0 J3.8976
G1 Y277.4987
G1 X114.8565 Y281.3934
G2 X113.4299 Y286.7177 I1.9488 J3.3754
G1 X128.4299 Y312.6984
G2 X133.7541 Y314.125 I3.3754 J-1.9488
G1 X140.5 Y310.2303
G1 X147.2459 Y314.125
G2 X152.5701 Y312.6984 I1.9488 J-3.3754
G1 X161.321 Y297.5414
G1 F300.0 X162.3602 Y298.1414
G1 F800.0 X168.6093 Y287.3177
G2 X166.7435 Y280.3542 I-4.4147 J-2.5488
G1 X160.5976 Y276.8059
G1 Y269.7092
G2 X155.5 Y264.6116 I-5.0976 J0.0
G1 X125.5
G2 X120.4024 Y269.7092 I0.0 J5.0976
G1 Y276.8059
G1 X114.2565 Y280.3542
G2 X112.3907 Y287.3177 I2.5488 J4.4147
G1 X127.3907 Y313.2984
G2 X134.3541 Y315.1643 I4.4147 J-2.5488
G1 X140.5 Y311.616
G1 X146.6459 Y315.1643
G2 X153.6093 Y313.2984 I2.5488 J-4.4147
G1 X162.3602 Y298.1414
G0 Z5.0
G0 X167.8153 Y300.57
G0 Z-2.0
G1 F300.0 Z-6.0
G2 F800.0 X170.4 Y288.4092 I-27.3153 J-12.1607
G2 X125.55 Y262.5151 I-29.9 J0.0
G2 Y314.3034 I14.95 J25.8942
G2 X167.8153 Y300.57 I14.95 J-25.8942
G1 F300.0 X168.9116 Y301.058
G2 F800.0 X171.6 Y288.4092 I-28.4116 J-12.6488
G2 X124.95 Y261.4759 I-31.1 J0.0
G2 Y315.3426 I15.55 J26.9334
G2 X168.9116 Y301.058 I15.55 J-26.9334
G1 F300.0 X170.0078 Y301.5461
G2 F800.0 X172.8 Y288.4092 I-29.5078 J-13.1369
G2 X124.35 Y260.4366 I-32.3 J0.0
G2 Y316.3819 I16.15 J27.9726
G2 X170.0078 Y301.5461 I16.15 J-27.9726
G1 F300.0 X171.1041 Y302.0342
G2 F800.0 X174.0 Y288.4092 I-30.6041 J-13.6249
G2 X123.75 Y259.3974 I-33.5 J0.0
G2 Y317.4211 I16.75 J29.0119
G2 X171.1041 Y302.0342 I16.75 J-29.0119
G0 Z5.0
G0 X164.8799 Y299.7773
G0 Z-5.0
G1 F300.0 Z-9.0
G1 F800.0 X162.5349 Y303.8388
G2 X164.8799 Y299.7773 I-22.0349 J-15.4296
G1 F300.0 X165.4236 Y300.0308
G2 F800.0 X167.3692 Y294.2657 I-24.9236 J-11.6216
G1 X159.0064 Y308.7504
G2 X165.4236 Y300.0308 I-18.5064 J-20.3412
G1 F300.0 X166.5112 Y300.538
G2 F800.0 X169.1986 Y288.6971 I-26.0112 J-12.1287
G1 X155.0986 Y313.119
G2 X166.5112 Y300.538 I-14.5986 J-24.7098
G0 Z5.0
G0 X163.9896 Y275.3002
G0 Z-5.0
G1 F300.0 Z-9.0
G2 F800.0 X163.5976 Y274.6212 I-23.4896 J13.1091
G1 Y275.0738
G1 X163.9896 Y275.3002
G1 F300.0 X163.6896 Y275.8198
G1 F800.0 X165.4448 Y276.8331
G2 X162.9976 Y272.5944 I-24.9448 J11.5761
G1 Y275.4202
G1 X163.6896 Y275.8198
G1 F300.0 X163.0896 Y276.859
G1 F800.0 X167.3435 Y279.315
G3 X167.8211 Y279.6202 I-3.1488 J5.4539
G2 X161.7721 Y269.143 I-27.3211 J8.7891
G3 X161.7976 Y269.7092 I-6.2721 J0.5662
G1 Y276.1131
G1 X163.0896 Y276.859
G0 Z5.0
G0 X142.8449 Y261.6116
G0 Z-5.0
G1 F300.0 Z-9.0
G2 F800.0 X138.1551 I-2.3449 J26.7976
G1 X142.8449
G1 F300.0 X142.8972 Y261.0139
G2 F800.0 X132.1372 Y262.2116 I-2.3972 J27.3953
G1 X148.8628
G2 X142.8972 Y261.0139 I-8.3628 J26.1976
G1 F300.0 X143.0018 Y259.8185
G2 F800.0 X126.4 Y263.4116 I-2.5018 J28.5907
G1 X154.6
G2 X143.0018 Y259.8185 I-14.1 J24.9976
G0 Z5.0
G0 X117.4024 Y274.6212
G0 Z-5.0
G1 F300.0 Z-9.0
G2 F800.0 X117.0104 Y275.3002 I23.0976 J13.7881
G1 X117.4024 Y275.0738
G1 Y274.6212
G1 F300.0 X118.0024
G1 F800.0 Y272.5944
G2 X115.5552 Y276.8331 I22.4976 J15.8148
G1 X118.0024 Y275.4202
G1 Y274.6212
G1 F300.0 X119.2024
G1 F800.0 Y269.7092
G3 X119.2279 Y269.143 I6.2976 J0.0
G2 X113.1789 Y279.6202 I21.2721 J19.2662
G3 X113.6565 Y279.315 I3.6264 J5.1487
G1 X119.2024 Y276.1131
G1 Y274.6212
G0 Z5.0
G0 X116.1201 Y299.7773
G0 Z-5.0
G1 F300.0 Z-9.0
G2 F800.0 X118.4651 Y303.8388 I24.3799 J-11.368
G1 X116.1201 Y299.7773
G1 F300.0 X115.5764 Y300.0308
G2 F800.0 X121.9936 Y308.7504 I24.9236 J-11.6216
G1 X113.6308 Y294.2657
G2 X115.5764 Y300.0308 I26.8692 J-5.8564
G1 F300.0 X114.4888 Y300.538
G2 F800.0 X125.9014 Y313.119 I26.0112 J-12.1287
G1 X111.8014 Y288.6971
G2 X114.4888 Y300.538 I28.6986 J-0.2878
G0 Z5.0
G0 X140.108 Y315.3064
G0 Z-5.0
G1 F300.0 Z-9.0
G2 F800.0 X140.892 I0.392 J-26.8971
G1 X140.5 Y315.0801
G1 X140.108 Y315.3064
G1 F300.0 X140.0992 Y315.9063
G2 F800.0 X142.9472 Y315.8001 I0.4008 J-27.4971
G1 X140.5 Y314.3872
G1 X138.0528 Y315.8001
G2 X140.0992 Y315.9063 I2.4472 J-27.3909
G1 F300.0 X140.0817 Y317.1062
G2 F800.0 X146.549 Y316.4645 I0.4183 J-28.697
G3 X146.0459 Y316.2035 I2.6457 J-5.7149
G1 X140.5 Y313.0016
G1 X134.9541 Y316.2035
G3 X134.451 Y316.4645 I-3.1488 J-5.4539
G2 X140.0817 Y317.1062 I6.049 J-28.0553
G0 Z5.0
G0 X136.609 Y311.0912
G0 Z-5.0
G1 F300.0 Z-9.0
G1 F800.0 X133.1541 Y313.0858
G3 X129.4691 Y312.0984 I-1.3488 J-2.3362
G1 X114.4691 Y286.1177
G3 X115.4565 Y282.4327 I2.3362 J-1.3488
G1 X122.4012 Y278.4232
G2 X122.8024 Y277.7283 I-0.4012 J-0.6949
G1 Y269.7092
G3 X125.5 Y267.0116 I2.6976 J0.0
G1 X155.5
G3 X158.1976 Y269.7092 I0.0 J2.6976
G1 Y277.7283
G2 X158.5988 Y278.4232 I0.8024 J0.0
G1 X165.5435 Y282.4327
G3 X166.5309 Y286.1177 I-1.3488 J2.3362
G1 X151.5309 Y312.0984
G3 X147.8459 Y313.0858 I-2.3362 J-1.3488
G1 X140.9012 Y309.0763
G2 X140.0988 I-0.4012 J0.6949
G1 X136.609 Y311.0912
G1 F300.0 X136.0102 Y310.054
G1 F800.0 X132.5553 Y312.0487
G3 X130.5063 Y311.4996 I-0.75 J-1.299
G1 X115.5063 Y285.5189
G3 X116.0553 Y283.4698 I1.299 J-0.75
G1 X123.0 Y279.4603
G2 X124.0 Y277.7283 I-1.0 J-1.7321
G1 Y269.7092
G3 X125.5 Y268.2092 I1.5 J0.0
G1 X155.5
G3 X157.0 Y269.7092 I0.0 J1.5
G1 Y277.7283
G2 X158.0 Y279.4603 I2.0 J0.0
G1 X164.9447 Y283.4698
G3 X165.4937 Y285.5189 I-0.75 J1.299
G1 X150.4937 Y311.4996
G3 X148.4447 Y312.0487 I-1.299 J-0.75
G1 X141.5 Y308.0391
G2 X139.5 I-1.0 J1.7321
G1 X136.0102 Y310.054
G0 Z5.0
G0 X137.209 Y312.1304
G0 Z-5.0
G1 F300.0 Z-9.0
G1 F800.0 X140.5 Y310.2303
G1 X147.2459 Y314.125
G2 X152.5701 Y312.6984 I1.9488 J-3.3754
G1 X167.5701 Y286.7177
G2 X166.1435 Y281.3934 I-3.3754 J-1.9488
G1 X159.3976 Y277.4987
G1 Y269.7092
G2 X155.5 Y265.8116 I-3.8976 J0.0
G1 X125.5
G2 X121.6024 Y269.7092 I0.0 J3.8976
G1 Y277.4987
G1 X114.8565 Y281.3934
G2 X113.4299 Y286.7177 I1.9488 J3.3754
G1 X128.4299 Y312.6984
G2 X133.7541 Y314.125 I3.3754 J-1.9488
G1 X137.209 Y312.1304
G1 F300.0 X137.809 Y313.1696
G1 F800.0 X140.5 Y311.616
G1 X146.6459 Y315.1643
G2 X153.6093 Y313.2984 I2.5488 J-4.4147
G1 X168.6093 Y287.3177
G2 X166.7435 Y280.3542 I-4.4147 J-2.5488
G1 X160.5976 Y276.8059
G1 Y269.7092
G2 X155.5 Y264.6116 I-5.0976 J0.0
G1 X125.5
G2 X120.4024 Y269.7092 I0.0 J5.0976
G1 Y276.8059
G1 X114.2565 Y280.3542
G2 X112.3907 Y287.3177 I2.5488 J4.4147
G1 X127.3907 Y313.2984
G2 X134.3541 Y315.1643 I4.4147 J-2.5488
G1 X137.809 Y313.1696
G0 Z5.0
G0 X137.2694 Y318.1342
G0 Z-5.0
G1 F300.0 Z-9.0
G2 F800.0 X170.4 Y288.4092 I3.2306 J-29.725
G2 X125.55 Y262.5151 I-29.9 J0.0
G2 Y314.3034 I14.95 J25.8942
G2 X137.2694 Y318.1342 I14.95 J-25.8942
G1 F300.0 X137.1397 Y319.3272
G2 F800.0 X171.6 Y288.4092 I3.3603 J-30.9179
G2 X124.95 Y261.4759 I-31.1 J0.0
G2 Y315.3426 I15.55 J26.9334
G2 X137.1397 Y319.3272 I15.55 J-26.9334
G1 F300.0 X137.0101 Y320.5202
G2 F800.0 X172.8 Y288.4092 I3.4899 J-32.1109
G2 X124.35 Y260.4366 I-32.3 J0.0
G2 Y316.3819 I16.15 J27.9726
G2 X137.0101 Y320.5202 I16.15 J-27.9726
G1 F300.0 X136.8804 Y321.7131
G2 F800.0 X174.0 Y288.4092 I3.6196 J-33.3039
G2 X123.75 Y259.3974 I-33.5 J0.0
G2 Y317.4211 I16.75 J29.0119
G2 X136.8804 Y321.7131 I16.75 J-29.0119
G0 Z5.0
G0 X140.108 Y315.3064
G0 Z-8.0
G1 F300.0 Z-12.0
G2 F800.0 X140.892 I0.392 J-26.8971
G1 X140.5 Y315.0801
G1 X140.108 Y315.3064
G1 F300.0 X140.0992 Y315.9063
G2 F800.0 X142.9472 Y315.8001 I0.4008 J-27.4971
G1 X140.5 Y314.3872
G1 X138.0528 Y315.8001
G2 X140.0992 Y315.9063 I2.4472 J-27.3909
G1 F300.0 X140.0817 Y317.1062
G2 F800.0 X146.549 Y316.4645 I0.4183 J-28.697
G3 X146.0459 Y316.2035 I2.6457 J-5.7149
G1 X140.5 Y313.0016
G1 X134.9541 Y316.2035
G3 X134.451 Y316.4645 I-3.1488 J-5.4539
G2 X140.0817 Y317.1062 I6.049 J-28.0553
G0 Z5.0
G0 X118.4651 Y303.8388
G0 Z-8.0
G1 F300.0 Z-12.0
G1 F800.0 X116.1201 Y299.7773
G2 X118.4651 Y303.8388 I24.3799 J-11.368
G1 F300.0 X117.9736 Y304.183
G2 F800.0 X121.9936 Y308.7504 I22.5264 J-15.7737
G1 X113.6308 Y294.2657
G2 X117.9736 Y304.183 I26.8692 J-5.8564
G1 F300.0 X116.9906 Y304.8713
G2 F800.0 X125.9014 Y313.119 I23.5094 J-16.462
G1 X111.8014 Y288.6971
G2 X116.9906 Y304.8713 I28.6986 J-0.2878
G0 Z5.0
G0 X117.0104 Y275.3002
G0 Z-8.0
G1 F300.0 Z-12.0
G1 F800.0 X117.4024 Y275.0738
G1 Y274.6212
G2 X117.0104 Y275.3002 I23.0976 J13.7881
G1 F300.0 X117.3104 Y275.8198
G1 F800.0 X118.0024 Y275.4202
G1 Y272.5944
G2 X115.5552 Y276.8331 I22.4976 J15.8148
G1 X117.3104 Y275.8198
G1 F300.0 X117.9104 Y276.859
G1 F800.0 X119.2024 Y276.1131
G1 Y269.7092
G3 X119.2279 Y269.143 I6.2976 J0.0
G2 X113.1789 Y279.6202 I21.2721 J19.2662
G3 X113.6565 Y279.315 I3.6264 J5.1487
G1 X117.9104 Y276.859
G0 Z5.0
G0 X138.1551 Y261.6116
G0 Z-8.0
G1 F300.0 Z-12.0
G1 F800.0 X142.8449
G2 X138.1551 I-2.3449 J26.7976
G1 F300.0 X138.1028 Y261.0139
G2 F800.0 X132.1372 Y262.2116 I2.3972 J27.3953
G1 X148.8628
G2 X138.1028 Y261.0139 I-8.3628 J26.1976
G1 F300.0 X137.9982 Y259.8185
G2 F800.0 X126.4 Y263.4116 I2.5018 J28.5907
G1 X154.6
G2 X137.9982 Y259.8185 I-14.1 J24.9976
G0 Z5.0
G0 X163.5976 Y274.6212
G0 Z-8.0
G1 F300.0 Z-12.0
G1 F800.0 Y275.0738
G1 X163.9896 Y275.3002
G2 X163.5976 Y274.6212 I-23.4896 J13.1091
G1 F300.0 X162.9976
G1 F800.0 Y275.4202
G1 X165.4448 Y276.8331
G2 X162.9976 Y272.5944 I-24.9448 J11.5761
G1 Y274.6212
G1 F300.0 X161.7976
G1 F800.0 Y276.1131
G1 X167.3435 Y279.315
G3 X167.8211 Y279.6202 I-3.1488 J5.4539
G2 X161.7721 Y269.143 I-27.3211 J8.7891
G3 X161.7976 Y269.7092 I-6.2721 J0.5662
G1 Y274.6212
G0 Z5.0
G0 X164.8799 Y299.7773
G0 Z-8.0
G1 F300.0 Z-12.0
G1 F800.0 X162.5349 Y303.8388
G2 X164.8799 Y299.7773 I-22.0349 J-15.4296
G1 F300.0 X165.4236 Y300.0308
G2 F800.0 X167.3692 Y294.2657 I-24.9236 J-11.6216
G1 X159.0064 Y308.7504
G2 X165.4236 Y300.0308 I-18.5064 J-20.3412
G1 F300.0 X166.5112 Y300.538
G2 F800.0 X169.1986 Y288.6971 I-26.0112 J-12.1287
G1 X155.0986 Y313.119
G2 X166.5112 Y300.538 I-14.5986 J-24.7098
G0 Z5.0
G0 X160.2818 Y296.9414
G0 Z-8.0
G1 F300.0 Z-12.0
G1 F800.0 X151.5309 Y312.0984
G3 X147.8459 Y313.0858 I-2.3362 J-1.3488
G1 X140.9012 Y309.0763
G2 X140.0988 I-0.4012 J0.6949
G1 X133.1541 Y313.0858
G3 X129.4691 Y312.0984 I-1.3488 J-2.3362
G1 X114.4691 Y286.1177
G3 X115.4565 Y282.4327 I2.3362 J-1.3488
G1 X122.4012 Y278.4232
G2 X122.8024 Y277.7283 I-0.4012 J-0.6949
G1 Y269.7092
G3 X125.5 Y267.0116 I2.6976 J0.0
G1 X155.5
G3 X158.1976 Y269.7092 I0.0 J2.6976
G1 Y277.7283
G2 X158.5988 Y278.4232 I0.8024 J0.0
G1 X165.5435 Y282.4327
G3 X166.5309 Y286.1177 I-1.3488 J2.3362
G1 X160.2818 Y296.9414
G1 F300.0 X159.2446 Y296.3426
G1 F800.0 X150.4937 Y311.4996
G3 X148.4447 Y312.0487 I-1.299 J-0.75
G1 X141.5 Y308.0391
G2 X139.5 I-1.0 J1.7321
G1 X132.5553 Y312.0487
G3 X130.5063 Y311.4996 I-0.75 J-1.299
G1 X115.5063 Y285.5189
G3 X116.0553 Y283.4698 I1.299 J-0.75
G1 X123.0 Y279.4603
G2 X124.0 Y277.7283 I-1.0 J-1.7321
G1 Y269.7092
G3 X125.5 Y268.2092 I1.5 J0.0
G1 X155.5
G3 X157.0 Y269.7092 I0.0 J1.5
G1 Y277.7283
G2 X158.0 Y279.4603 I2.0 J0.0
G1 X164.9447 Y283.4698
G3 X165.4937 Y285.5189 I-0.75 J1.299
G1 X159.2446 Y296.3426
G0 Z5.0
G0 X161.321 Y297.5414
G0 Z-8.0
G1 F300.0 Z-12.0
G1 F800.0 X167.5701 Y286.7177
G2 X166.1435 Y281.3934 I-3.3754 J-1.9488
G1 X159.3976 Y277.4987
G1 Y269.7092
G2 X155.5 Y265.8116 I-3.8976 J0.0
G1 X125.5
G2 X121.6024 Y269.7092 I0.0 J3.8976
G1 Y277.4987
G1 X114.8565 Y281.3934
G2 X113.4299 Y286.7177 I1.9488 J3.3754
G1 X128.4299 Y312.6984
G2 X133.7541 Y314.125 I3.3754 J-1.9488
G1 X140.5 Y310.2303
G1 X147.2459 Y314.125
G2 X152.5701 Y312.6984 I1.9488 J-3.3754
G1 X161.321 Y297.5414
G1 F300.0 X162.3602 Y298.1414
G1 F800.0 X168.6093 Y287.3177
G2 X166.7435 Y280.3542 I-4.4147 J-2.5488
G1 X160.5976 Y276.8059
G1 Y269.7092
G2 X155.5 Y264.6116 I-5.0976 J0.0
G1 X125.5
G2 X120.4024 Y269.7092 I0.0 J5.0976
G1 Y276.8059
G1 X114.2565 Y280.3542
G2 X112.3907 Y287.3177 I2.5488 J4.4147
G1 X127.3907 Y313.2984
G2 X134.3541 Y315.1643 I4.4147 J-2.5488
G1 X140.5 Y311.616
G1 X146.6459 Y315.1643
G2 X153.6093 Y313.2984 I2.5488 J-4.4147
G1 X162.3602 Y298.1414
G0 Z5.0
G0 X167.8153 Y300.57
G0 Z-8.0
G1 F300.0 Z-12.0
G2 F800.0 X170.4 Y288.4092 I-27.3153 J-12.1607
G2 X125.55 Y262.5151 I-29.9 J0.0
G2 Y314.3034 I14.95 J25.8942
G2 X167.8153 Y300.57 I14.95 J-25.8942
G1 F300.0 X168.9116 Y301.058
G2 F800.0 X171.6 Y288.4092 I-28.4116 J-12.6488
G2 X124.95 Y261.4759 I-31.1 J0.0
G2 Y315.3426 I15.55 J26.9334
G2 X168.9116 Y301.058 I15.55 J-26.9334
G1 F300.0 X170.0078 Y301.5461
G2 F800.0 X172.8 Y288.4092 I-29.5078 J-13.1369
G2 X124.35 Y260.4366 I-32.3 J0.0
G2 Y316.3819 I16.15 J27.9726
G2 X170.0078 Y301.5461 I16.15 J-27.9726
G1 F300.0 X171.1041 Y302.0342
G2 F800.0 X174.0 Y288.4092 I-30.6041 J-13.6249
G2 X123.75 Y259.3974 I-33.5 J0.0
G2 Y317.4211 I16.75 J29.0119
G2 X171.1041 Y302.0342 I16.75 J-29.0119
G0 Z5.0
G0 X164.8799 Y299.7773
G0 Z-11.0
G1 F300.0 Z-14.0
G1 F800.0 X162.5349 Y303.8388
G2 X164.8799 Y299.7773 I-22.0349 J-15.4296
G1 F300.0 X165.4236 Y300.0308
G2 F800.0 X167.3692 Y294.2657 I-24.9236 J-11.6216
G1 X159.0064 Y308.7504
G2 X165.4236 Y300.0308 I-18.5064 J-20.3412
G1 F300.0 X166.5112 Y300.538
G2 F800.0 X169.1986 Y288.6971 I-26.0112 J-12.1287
G1 X155.0986 Y313.119
G2 X166.5112 Y300.538 I-14.5986 J-24.7098
G0 Z5.0
G0 X163.9896 Y275.3002
G0 Z-11.0
G1 F300.0 Z-14.0
G2 F800.0 X163.5976 Y274.6212 I-23.4896 J13.1091
G1 Y275.0738
G1 X163.9896 Y275.3002
G1 F300.0 X163.6896 Y275.8198
G1 F800.0 X165.4448 Y276.8331
G2 X162.9976 Y272.5944 I-24.9448 J11.5761
G1 Y275.4202
G1 X163.6896 Y275.8198
G1 F300.0 X163.0896 Y276.859
G1 F800.0 X167.3435 Y279.315
G3 X167.8211 Y279.6202 I-3.1488 J5.4539
G2 X161.7721 Y269.143 I-27.3211 J8.7891
G3 X161.7976 Y269.7092 I-6.2721 J0.5662
G1 Y276.1131
G1 X163.0896 Y276.859
G0 Z5.0
G0 X142.8449 Y261.6116
G0 Z-11.0
G1 F300.0 Z-14.0
G2 F800.0 X138.1551 I-2.3449 J26.7976
G1 X142.8449
G1 F300.0 X142.8972 Y261.0139
G2 F800.0 X132.1372 Y262.2116 I-2.3972 J27.3953
G1 X148.8628
G2 X142.8972 Y261.0139 I-8.3628 J26.1976
G1 F300.0 X143.0018 Y259.8185
G2 F800.0 X126.4 Y263.4116 I-2.5018 J28.5907
G1 X154.6
G2 X143.0018 Y259.8185 I-14.1 J24.9976
G0 Z5.0
G0 X117.4024 Y274.6212
G0 Z-11.0
G1 F300.0 Z-14.0
G2 F800.0 X117.0104 Y275.3002 I23.0976 J13.7881
G1 X117.4024 Y275.0738
G1 Y274.6212
G1 F300.0 X118.0024
G1 F800.0 Y272.5944
G2 X115.5552 Y276.8331 I22.4976 J15.8148
G1 X118.0024 Y275.4202
G1 Y274.6212
G1 F300.0 X119.2024
G1 F800.0 Y269.7092
G3 X119.2279 Y269.143 I6.2976 J0.0
G2 X113.1789 Y279.6202 I21.2721 J19.2662
G3 X113.6565 Y279.315 I3.6264 J5.1487
G1 X119.2024 Y276.1131
G1 Y274.6212
G0 Z5.0
G0 X116.1201 Y299.7773
G0 Z-11.0
G1 F300.0 Z-14.0
G2 F800.0 X118.4651 Y303.8388 I24.3799 J-11.368
G1 X116.1201 Y299.7773
G1 F300.0 X115.5764 Y300.0308
G2 F800.0 X121.9936 Y308.7504 I24.9236 J-11.6216
G1 X113.6308 Y294.2657
G2 X115.5764 Y300.0308 I26.8692 J-5.8564
G1 F300.0 X114.4888 Y300.538
G2 F800.0 X125.9014 Y313.119 I26.0112 J-12.1287
G1 X111.8014 Y288.6971
G2 X114.4888 Y300.538 I28.6986 J-0.2878
G0 Z5.0
G0 X140.108 Y315.3064
G0 Z-11.0
G1 F300.0 Z-14.0
G2 F800.0 X140.892 I0.392 J-26.8971
G1 X140.5 Y315.0801
G1 X140.108 Y315.3064
G1 F300.0 X140.0992 Y315.9063
G2 F800.0 X142.9472 Y315.8001 I0.4008 J-27.4971
G1 X140.5 Y314.3872
G1 X138.0528 Y315.8001
G2 X140.0992 Y315.9063 I2.4472 J-27.3909
G1 F300.0 X140.0817 Y317.1062
G2 F800.0 X146.549 Y316.4645 I0.4183 J-28.697
G3 X146.0459 Y316.2035 I2.6457 J-5.7149
G1 X140.5 Y313.0016
G1 X134.9541 Y316.2035
G3 X134.451 Y316.4645 I-3.1488 J-5.4539
G2 X140.0817 Y317.1062 I6.049 J-28.0553
G0 Z5.0
G0 X136.609 Y311.0912
G0 Z-10.0
G1 F300.0 Z-14.0
G1 F800.0 X133.1541 Y313.0858
G3 X129.4691 Y312.0984 I-1.3488 J-2.3362
G1 X114.4691 Y286.1177
G3 X115.4565 Y282.4327 I2.3362 J-1.3488
G1 X122.4012 Y278.4232
G2 X122.8024 Y277.7283 I-0.4012 J-0.6949
G1 Y269.7092
G3 X125.5 Y267.0116 I2.6976 J0.0
G1 X155.5
G3 X158.1976 Y269.7092 I0.0 J2.6976
G1 Y277.7283
G2 X158.5988 Y278.4232 I0.8024 J0.0
G1 X165.5435 Y282.4327
G3 X166.5309 Y286.1177 I-1.3488 J2.3362
G1 X151.5309 Y312.0984
G3 X147.8459 Y313.0858 I-2.3362 J-1.3488
G1 X140.9012 Y309.0763
G2 X140.0988 I-0.4012 J0.6949
G1 X136.609 Y311.0912
G1 F300.0 X136.0102 Y310.054
G1 F800.0 X132.5553 Y312.0487
G3 X130.5063 Y311.4996 I-0.75 J-1.299
G1 X115.5063 Y285.5189
G3 X116.0553 Y283.4698 I1.299 J-0.75
G1 X123.0 Y279.4603
G2 X124.0 Y277.7283 I-1.0 J-1.7321
G1 Y269.7092
G3 X125.5 Y268.2092 I1.5 J0.0
G1 X155.5
G3 X157.0 Y269.7092 I0.0 J1.5
G1 Y277.7283
G2 X158.0 Y279.4603 I2.0 J0.0
G1 X164.9447 Y283.4698
G3 X165.4937 Y285.5189 I-0.75 J1.299
G1 X150.4937 Y311.4996
G3 X148.4447 Y312.0487 I-1.299 J-0.75
G1 X141.5 Y308.0391
G2 X139.5 I-1.0 J1.7321
G1 X136.0102 Y310.054
G0 Z5.0
G0 X137.209 Y312.1304
G0 Z-10.0
G1 F300.0 Z-14.0
G1 F800.0 X140.5 Y310.2303
G1 X147.2459 Y314.125
G2 X152.5701 Y312.6984 I1.9488 J-3.3754
G1 X167.5701 Y286.7177
G2 X166.1435 Y281.3934 I-3.3754 J-1.9488
G1 X159.3976 Y277.4987
G1 Y269.7092
G2 X155.5 Y265.8116 I-3.8976 J0.0
G1 X125.5
G2 X121.6024 Y269.7092 I0.0 J3.8976
G1 Y277.4987
G1 X114.8565 Y281.3934
G2 X113.4299 Y286.7177 I1.9488 J3.3754
G1 X128.4299 Y312.6984
G2 X133.7541 Y314.125 I3.3754 J-1.9488
G1 X137.209 Y312.1304
G1 F300.0 X137.809 Y313.1696
G1 F800.0 X140.5 Y311.616
G1 X146.6459 Y315.1643
G2 X153.6093 Y313.2984 I2.5488 J-4.4147
G1 X168.6093 Y287.3177
G2 X166.7435 Y280.3542 I-4.4147 J-2.5488
G1 X160.5976 Y276.8059
G1 Y269.7092
G2 X155.5 Y264.6116 I-5.0976 J0.0
G1 X125.5
G2 X120.4024 Y269.7092 I0.0 J5.0976
G1 Y276.8059
G1 X114.2565 Y280.3542
G2 X112.3907 Y287.3177 I2.5488 J4.4147
G1 X127.3907 Y313.2984
G2 X134.3541 Y315.1643 I4.4147 J-2.5488
G1 X137.809 Y313.1696
G0 Z5.0
G0 X137.2694 Y318.1342
G0 Z-10.0
G1 F300.0 Z-14.0
G2 F800.0 X170.4 Y288.4092 I3.2306 J-29.725
G2 X125.55 Y262.5151 I-29.9 J0.0
G2 Y314.3034 I14.95 J25.8942
G2 X137.2694 Y318.1342 I14.95 J-25.8942
G1 F300.0 X137.1397 Y319.3272
G2 F800.0 X171.6 Y288.4092 I3.3603 J-30.9179
G2 X124.95 Y261.4759 I-31.1 J0.0
G2 Y315.3426 I15.55 J26.9334
G2 X137.1397 Y319.3272 I15.55 J-26.9334
G1 F300.0 X137.0101 Y320.5202
G2 F800.0 X172.8 Y288.4092 I3.4899 J-32.1109
G2 X124.35 Y260.4366 I-32.3 J0.0
G2 Y316.3819 I16.15 J27.9726
G2 X137.0101 Y320.5202 I16.15 J-27.9726
G1 F300.0 X136.8804 Y321.7131
G2 F800.0 X174.0 Y288.4092 I3.6196 J-33.3039
G2 X123.75 Y259.3974 I-33.5 J0.0
G2 Y317.4211 I16.75 J29.0119
G2 X136.8804 Y321.7131 I16.75 J-29.0119
( Profile1 plug  )
S1000
G0 Z5.0
G0 X171.9 Y288.4092
G0 Z1.0
G1 F300.0 Z0.0
G3 F800.0 X124.8 Y315.6024 Z-1.6667 I-31.4 J0.0
G3 Y261.216 Z-3.3333 I15.7 J-27.1932
G3 X171.9 Y288.4092 Z-5.0 I15.7 J27.1932
G3 X124.8 Y315.6024 Z-6.6667 I-31.4 J0.0
G3 Y261.216 Z-8.3333 I15.7 J-27.1932
G3 X171.9 Y288.4092 Z-10.0 I15.7 J27.1932
G3 X124.8 Y315.6024 Z-11.6667 I-31.4 J0.0
G3 Y261.216 Z-13.3333 I15.7 J-27.1932
G3 X171.9 Y288.4092 Z-15.0 I15.7 J27.1932
G3 X158.7263 Y313.978 Z-15.6209 I-31.4 J0.0
G3 X153.5301 Y316.978 Z-15.7458 I-18.2263 J-25.5688
G3 X124.8 Y315.6024 Z-16.3667 I-13.0301 J-28.5688
G3 X109.2436 Y291.4092 Z-16.9876 I15.7 J-27.1932
G0 Z-16.1
G3 Y285.4092 I31.2564 J-3.0
G1 F300.0 Z-17.1124
G3 F800.0 X124.8 Y261.216 Z-17.7333 I31.2564 J3.0
G3 X153.5301 Y259.8404 Z-18.3542 I15.7 J27.1932
G0 Z-16.1
G3 X158.7263 Y262.8404 I-13.0301 J28.5688
G1 F300.0 Z-18.4791
G3 F800.0 X171.9 Y288.4092 Z-19.1 I-18.2263 J25.5688
G3 X158.7263 Y313.978 I-31.4 J0.0
G0 Z-16.1
G3 X153.5301 Y316.978 I-18.2263 J-25.5688
G1 F300.0 Z-19.1
G3 F800.0 X124.8 Y315.6024 I-13.0301 J-28.5688
G3 X109.2436 Y291.4092 I15.7 J-27.1932
G0 Z-16.1
G3 Y285.4092 I31.2564 J-3.0
G0 Z-16.1124
G1 F300.0 Z-19.1
G3 F800.0 X124.8 Y261.216 I31.2564 J3.0
G3 X153.5301 Y259.8404 I15.7 J27.1932
G0 Z-16.1
G3 X158.7263 Y262.8404 I-13.0301 J28.5688
G0 Z-17.4791
G1 F300.0 Z-19.1
G3 F800.0 X171.9 Y288.4092 I-18.2263 J25.5688
( Pocket3 )
S1000
G0 Z5.0
G0 X139.9916 Y214.4994
G0 Z1.0
G1 F300.0 Z-3.0
G1 F800.0 X136.5831 Y212.9101
G1 X136.1208 Y213.9016
G1 X139.9916 Y214.4994
G1 F300.0 X140.2451 Y213.9557
G1 F800.0 X136.2929 Y212.1127
G1 X135.2391 Y214.3725
G1 X144.0612 Y215.7351
G1 X140.2451 Y213.9557
G1 F300.0 X140.7523 Y212.8681
G1 F800.0 X135.7125 Y210.518
G1 X133.4759 Y215.3144
G1 X152.2129 Y218.2084
G3 X151.3912 Y217.8291 I48.8359 J-106.8705
G1 X140.7523 Y212.8681
G1 F300.0 X141.2594 Y211.7805
G1 F800.0 X135.1321 Y208.9233
G1 X131.7126 Y216.2563
G1 X162.2384 Y220.9711
G3 X151.8983 Y216.7415 I38.8105 J-109.6332
G1 X141.2594 Y211.7805
G1 F300.0 X141.7666 Y210.693
G1 F800.0 X134.5516 Y207.3286
G1 X129.9493 Y217.1982
G1 X183.1001 Y225.4075
G1 X174.0833 Y223.2346
G3 X152.4055 Y215.654 I26.9656 J-111.8967
G1 X141.7666 Y210.693
G1 F300.0 X142.2737 Y209.6054
G1 F800.0 X133.9712 Y205.7339
G1 X128.1861 Y218.1401
G1 X211.3969 Y230.9923
G1 X174.3644 Y222.068
G3 X152.9126 Y214.5664 I26.6844 J-110.7301
G1 X142.2737 Y209.6054
G1 F300.0 X142.7808 Y208.5178
G1 F800.0 X133.3908 Y204.1392
G1 X126.4228 Y219.082
G1 X239.6938 Y236.5772
G1 X174.6455 Y220.9014
G3 X153.4198 Y213.4788 I26.4033 J-109.5635
G1 X142.7808 Y208.5178
G1 F300.0 X143.288 Y207.4302
G1 F800.0 X132.8103 Y202.5444
G1 X124.6596 Y220.0238
G1 X267.9907 Y242.162
G1 X174.9267 Y219.7348
G3 X153.9269 Y212.3913 I26.1222 J-108.3969
G1 X143.288 Y207.4302
G1 F300.0 X143.7951 Y206.3427
G1 F800.0 X132.2299 Y200.9497
G1 X122.8963 Y220.9657
G1 X296.2876 Y247.7468
G1 X175.2078 Y218.5682
G3 X154.434 Y211.3037 I25.841 J-107.2303
G1 X143.7951 Y206.3427
G1 F300.0 X144.3023 Y205.2551
G1 F800.0 X131.6495 Y199.355
G1 X121.133 Y221.9076
G1 X324.5844 Y253.3316
G1 X175.489 Y217.4016
G3 X154.9412 Y210.2161 I25.5599 J-106.0637
G1 X144.3023 Y205.2551
G1 F300.0 X144.8094 Y204.1675
G1 F800.0 X131.0691 Y197.7603
G1 X119.3698 Y222.8495
G1 X352.8813 Y258.9164
G1 X175.7701 Y216.235
G3 X155.4483 Y209.1285 I25.2788 J-104.8971
G1 X144.8094 Y204.1675
G1 F300.0 X145.3165 Y203.08
G1 F800.0 X131.2137 Y196.5037
G2 X130.1505 Y196.8906 I-0.3381 J0.725
G1 X118.057 Y222.8254
G2 X118.6599 Y223.9541 I0.725 J0.3381
G1 X358.7187 Y261.0322
G2 X359.5796 Y260.5485 I0.1221 J-0.7906
G3 X359.6768 Y260.3401 I2.4934 J1.0358
G2 X359.1543 Y259.1937 I-0.71 J-0.3687
G1 X176.0512 Y215.0684
G3 X155.9555 Y208.041 I24.9976 J-103.7305
G1 X145.3165 Y203.08
G1 F300.0 X145.8237 Y201.9924
G1 F800.0 X131.7208 Y195.4161
G2 X129.063 Y196.3835 I-0.8452 J1.8126
G1 X116.9694 Y222.3182
G2 X118.4767 Y225.14 I1.8126 J0.8452
G1 X358.5356 Y262.2182
G2 X360.6878 Y261.0089 I0.3053 J-1.9766
G3 X360.7418 Y260.8931 I1.3852 J0.5755
G2 X359.4354 Y258.0271 I-1.775 J-0.9217
G1 X176.3324 Y213.9018
G3 X156.4626 Y206.9534 I24.7165 J-102.5639
G1 X145.8237 Y201.9924
G0 Z5.0
G0 X139.9916 Y214.4994
G0 Z-2.0
G1 F300.0 Z-6.0
G1 F800.0 X136.5831 Y212.9101
G1 X136.1208 Y213.9016
G1 X139.9916 Y214.4994
G1 F300.0 X140.2451 Y213.9557
G1 F800.0 X136.2929 Y212.1127
G1 X135.2391 Y214.3725
G1 X144.0612 Y215.7351
G1 X140.2451 Y213.9557
G1 F300.0 X140.7523 Y212.8681
G1 F800.0 X135.7125 Y210.518
G1 X133.4759 Y215.3144
G1 X152.2129 Y218.2084
G3 X151.3912 Y217.8291 I48.8359 J-106.8705
G1 X140.7523 Y212.8681
G1 F300.0 X141.2594 Y211.7805
G1 F800.0 X135.1321 Y208.9233
G1 X131.7126 Y216.2563
G1 X162.2384 Y220.9711
G3 X151.8983 Y216.7415 I38.8105 J-109.6332
G1 X141.2594 Y211.7805
G1 F300.0 X141.7666 Y210.693
G1 F800.0 X134.5516 Y207.3286
G1 X129.9493 Y217.1982
G1 X183.1001 Y225.4075
G1 X174.0833 Y223.2346
G3 X152.4055 Y215.654 I26.9656 J-111.8967
G1 X141.7666 Y210.693
G1 F300.0 X142.2737 Y209.6054
G1 F800.0 X133.9712 Y205.7339
G1 X128.1861 Y218.1401
G1 X211.3969 Y230.9923
G1 X174.3644 Y222.068
G3 X152.9126 Y214.5664 I26.6844 J-110.7301
G1 X142.2737 Y209.6054
G1 F300.0 X142.7808 Y208.5178
G1 F800.0 X133.3908 Y204.1392
G1 X126.4228 Y219.082
G1 X239.6938 Y236.5772
G1 X174.6455 Y220.9014
G3 X153.4198 Y213.4788 I26.4033 J-109.5635
G1 X142.7808 Y208.5178
G1 F300.0 X143.288 Y207.4302
G1 F800.0 X132.8103 Y202.5444
G1 X124.6596 Y220.0238
G1 X267.9907 Y242.162
G1 X174.9267 Y219.7348
G3 X153.9269 Y212.3913 I26.1222 J-108.3969
G1 X143.288 Y207.4302
G1 F300.0 X143.7951 Y206.3427
G1 F800.0 X132.2299 Y200.9497
G1 X122.8963 Y220.9657
G1 X296.2876 Y247.7468
G1 X175.2078 Y218.5682
G3 X154.434 Y211.3037 I25.841 J-107.2303
G1 X143.7951 Y206.3427
G1 F300.0 X144.3023 Y205.2551
G1 F800.0 X131.6495 Y199.355
G1 X121.133 Y221.9076
G1 X324.5844 Y253.3316
G1 X175.489 Y217.4016
G3 X154.9412 Y210.2161 I25.5599 J-106.0637
G1 X144.3023 Y205.2551
G1 F300.0 X144.8094 Y204.1675
G1 F800.0 X131.0691 Y197.7603
G1 X119.3698 Y222.8495
G1 X352.8813 Y258.9164
G1 X175.7701 Y216.235
G3 X155.4483 Y209.1285 I25.2788 J-104.8971
G1 X144.8094 Y204.1675
G1 F300.0 X145.3165 Y203.08
G1 F800.0 X131.2137 Y196.5037
G2 X130.1505 Y196.8906 I-0.3381 J0.725
G1 X118.057 Y222.8254
G2 X118.6599 Y223.9541 I0.725 J0.3381
G1 X358.7187 Y261.0322
G2 X359.5796 Y260.5485 I0.1221 J-0.7906
G3 X359.6768 Y260.3401 I2.4934 J1.0358
G2 X359.1543 Y259.1937 I-0.71 J-0.3687
G1 X176.0512 Y215.0684
G3 X155.9555 Y208.041 I24.9976 J-103.7305
G1 X145.3165 Y203.08
G1 F300.0 X145.8237 Y201.9924
G1 F800.0 X131.7208 Y195.4161
G2 X129.063 Y196.3835 I-0.8452 J1.8126
G1 X116.9694 Y222.3182
G2 X118.4767 Y225.14 I1.8126 J0.8452
G1 X358.5356 Y262.2182
G2 X360.6878 Y261.0089 I0.3053 J-1.9766
G3 X360.7418 Y260.8931 I1.3852 J0.5755
G2 X359.4354 Y258.0271 I-1.775 J-0.9217
G1 X176.3324 Y213.9018
G3 X156.4626 Y206.9534 I24.7165 J-102.5639
G1 X145.8237 Y201.9924
G0 Z5.0
G0 X120.5521 Y135.3226
G0 Z1.0
G1 F300.0 Z-3.0
G1 F800.0 X117.1437 Y133.7332
G1 X116.6813 Y134.7247
G1 X120.5521 Y135.3226
G1 F300.0 X120.8057 Y134.7788
G1 F800.0 X116.8535 Y132.9359
G1 X115.7997 Y135.1957
G1 X124.6218 Y136.5583
G1 X120.8057 Y134.7788
G1 F300.0 X121.3128 Y133.6913
G1 F800.0 X116.273 Y131.3412
G1 X114.0364 Y136.1376
G1 X132.7735 Y139.0316
G3 X131.9518 Y138.6523 I48.8359 J-106.8705
G1 X121.3128 Y133.6913
G1 F300.0 X121.82 Y132.6037
G1 F800.0 X115.6926 Y129.7464
G1 X112.2732 Y137.0795
G1 X142.799 Y141.7943
G3 X132.4589 Y137.5647 I38.8105 J-109.6332
G1 X121.82 Y132.6037
G1 F300.0 X122.3271 Y131.5161
G1 F800.0 X115.1122 Y128.1517
G1 X110.5099 Y138.0213
G1 X163.6606 Y146.2307
G1 X154.6438 Y144.0578
G3 X132.966 Y136.4771 I26.9656 J-111.8967
G1 X122.3271 Y131.5161
G1 F300.0 X122.8343 Y130.4285
G1 F800.0 X114.5318 Y126.557
G1 X108.7467 Y138.9632
G1 X191.9575 Y151.8155
G1 X154.925 Y142.8912
G3 X133.4732 Y135.3896 I26.6844 J-110.7301
G1 X122.8343 Y130.4285
G1 F300.0 X123.3414 Y129.341
G1 F800.0 X113.9513 Y124.9623
G1 X106.9834 Y139.9051
G1 X220.2544 Y157.4003
G1 X155.2061 Y141.7246
G3 X133.9803 Y134.302 I26.4033 J-109.5635
G1 X123.3414 Y129.341
G1 F300.0 X123.8485 Y128.2534
G1 F800.0 X113.3709 Y123.3676
G1 X105.2201 Y140.847
G1 X248.5513 Y162.9851
G1 X155.4873 Y140.558
G3 X134.4875 Y133.2144 I26.1222 J-108.3969
G1 X123.8485 Y128.2534
G1 F300.0 X124.3557 Y127.1658
G1 F800.0 X112.7905 Y121.7729
G1 X103.4569 Y141.7889
G1 X276.8481 Y168.5699
G1 X155.7684 Y139.3914
G3 X134.9946 Y132.1268 I25.841 J-107.2303
G1 X124.3557 Y127.1658
G1 F300.0 X124.8628 Y126.0783
G1 F800.0 X112.2101 Y120.1782
G1 X101.6936 Y142.7308
G1 X305.145 Y174.1547
G1 X156.0495 Y138.2248
G3 X135.5018 Y131.0393 I25.5599 J-106.0637
G1 X124.8628 Y126.0783
G1 F300.0 X125.37 Y124.9907
G1 F800.0 X111.6296 Y118.5835
G1 X99.9303 Y143.6727
G1 X333.4419 Y179.7395
G1 X156.3307 Y137.0582
G3 X136.0089 Y129.9517 I25.2788 J-104.8971
G1 X125.37 Y124.9907
G1 F300.0 X125.8771 Y123.9031
G1 F800.0 X111.7743 Y117.3269
G2 X110.7111 Y117.7138 I-0.3381 J0.725
G1 X98.6175 Y143.6485
G2 X99.2205 Y144.7772 I0.725 J0.3381
G1 X339.2793 Y181.8554
G2 X340.1402 Y181.3717 I0.1221 J-0.7906
G3 X340.2374 Y181.1633 I2.4934 J1.0358
G2 X339.7148 Y180.0169 I-0.71 J-0.3687
G1 X156.6118 Y135.8916
G3 X136.516 Y128.8641 I24.9976 J-103.7305
G1 X125.8771 Y123.9031
G1 F300.0 X126.3843 Y122.8156
G1 F800.0 X112.2814 Y116.2393
G2 X109.6235 Y117.2067 I-0.8452 J1.8126
G1 X97.53 Y143.1414
G2 X99.0373 Y145.9632 I1.8126 J0.8452
G1 X339.0961 Y183.0413
G2 X341.2484 Y181.832 I0.3053 J-1.9766
G3 X341.3024 Y181.7163 I1.3852 J0.5755
G2 X339.996 Y178.8503 I-1.775 J-0.9217
G1 X156.8929 Y134.725
G3 X137.0232 Y127.7766 I24.7165 J-102.5639
G1 X126.3843 Y122.8156
G0 Z5.0
G0 X120.5521 Y135.3226
G0 Z-2.0
G1 F300.0 Z-6.0
G1 F800.0 X117.1437 Y133.7332
G1 X116.6813 Y134.7247
G1 X120.5521 Y135.3226
G1 F300.0 X120.8057 Y134.7788
G1 F800.0 X116.8535 Y132.9359
G1 X115.7997 Y135.1957
G1 X124.6218 Y136.5583
G1 X120.8057 Y134.7788
G1 F300.0 X121.3128 Y133.6913
G1 F800.0 X116.273 Y131.3412
G1 X114.0364 Y136.1376
G1 X132.7735 Y139.0316
G3 X131.9518 Y138.6523 I48.8359 J-106.8705
G1 X121.3128 Y133.6913
G1 F300.0 X121.82 Y132.6037
G1 F800.0 X115.6926 Y129.7464
G1 X112.2732 Y137.0795
G1 X142.799 Y141.7943
G3 X132.4589 Y137.5647 I38.8105 J-109.6332
G1 X121.82 Y132.6037
G1 F300.0 X122.3271 Y131.5161
G1 F800.0 X115.1122 Y128.1517
G1 X110.5099 Y138.0213
G1 X163.6606 Y146.2307
G1 X154.6438 Y144.0578
G3 X132.966 Y136.4771 I26.9656 J-111.8967
G1 X122.3271 Y131.5161
G1 F300.0 X122.8343 Y130.4285
G1 F800.0 X114.5318 Y126.557
G1 X108.7467 Y138.9632
G1 X191.9575 Y151.8155
G1 X154.925 Y142.8912
G3 X133.4732 Y135.3896 I26.6844 J-110.7301
G1 X122.8343 Y130.4285
G1 F300.0 X123.3414 Y129.341
G1 F800.0 X113.9513 Y124.9623
G1 X106.9834 Y139.9051
G1 X220.2544 Y157.4003
G1 X155.2061 Y141.7246
G3 X133.9803 Y134.302 I26.4033 J-109.5635
G1 X123.3414 Y129.341
G1 F300.0 X123.8485 Y128.2534
G1 F800.0 X113.3709 Y123.3676
G1 X105.2201 Y140.847
G1 X248.5513 Y162.9851
G1 X155.4873 Y140.558
G3 X134.4875 Y133.2144 I26.1222 J-108.3969
G1 X123.8485 Y128.2534
G1 F300.0 X124.3557 Y127.1658
G1 F800.0 X112.7905 Y121.7729
G1 X103.4569 Y141.7889
G1 X276.8481 Y168.5699
G1 X155.7684 Y139.3914
G3 X134.9946 Y132.1268 I25.841 J-107.2303
G1 X124.3557 Y127.1658
G1 F300.0 X124.8628 Y126.0783
G1 F800.0 X112.2101 Y120.1782
G1 X101.6936 Y142.7308
G1 X305.145 Y174.1547
G1 X156.0495 Y138.2248
G3 X135.5018 Y131.0393 I25.5599 J-106.0637
G1 X124.8628 Y126.0783
G1 F300.0 X125.37 Y124.9907
G1 F800.0 X111.6296 Y118.5835
G1 X99.9303 Y143.6727
G1 X333.4419 Y179.7395
G1 X156.3307 Y137.0582
G3 X136.0089 Y129.9517 I25.2788 J-104.8971
G1 X125.37 Y124.9907
G1 F300.0 X125.8771 Y123.9031
G1 F800.0 X111.7743 Y117.3269
G2 X110.7111 Y117.7138 I-0.3381 J0.725
G1 X98.6175 Y143.6485
G2 X99.2205 Y144.7772 I0.725 J0.3381
G1 X339.2793 Y181.8554
G2 X340.1402 Y181.3717 I0.1221 J-0.7906
G3 X340.2374 Y181.1633 I2.4934 J1.0358
G2 X339.7148 Y180.0169 I-0.71 J-0.3687
G1 X156.6118 Y135.8916
G3 X136.516 Y128.8641 I24.9976 J-103.7305
G1 X125.8771 Y123.9031
G1 F300.0 X126.3843 Y122.8156
G1 F800.0 X112.2814 Y116.2393
G2 X109.6235 Y117.2067 I-0.8452 J1.8126
G1 X97.53 Y143.1414
G2 X99.0373 Y145.9632 I1.8126 J0.8452
G1 X339.0961 Y183.0413
G2 X341.2484 Y181.832 I0.3053 J-1.9766
G3 X341.3024 Y181.7163 I1.3852 J0.5755
G2 X339.996 Y178.8503 I-1.775 J-0.9217
G1 X156.8929 Y134.725
G3 X137.0232 Y127.7766 I24.7165 J-102.5639
G1 X126.3843 Y122.8156
G0 Z5.0
G0 X99.9916 Y54.4994
G0 Z1.0
G1 F300.0 Z-3.0
G1 F800.0 X96.5831 Y52.9101
G1 X96.1208 Y53.9016
G1 X99.9916 Y54.4994
G1 F300.0 X99.9 Y55.0924
G1 F800.0 X104.0612 Y55.7351
G1 X96.2929 Y52.1127
G1 X95.2391 Y54.3725
G1 X99.9 Y55.0924
G1 F300.0 X99.7168 Y56.2784
G1 F800.0 X112.2129 Y58.2084
G3 X111.3912 Y57.8291 I48.8359 J-106.8705
G1 X95.7125 Y50.518
G1 X93.4759 Y55.3144
G1 X99.7168 Y56.2784
G1 F300.0 X99.5336 Y57.4643
G1 F800.0 X122.2384 Y60.9711
G3 X111.8983 Y56.7415 I38.8105 J-109.6332
G1 X95.1321 Y48.9233
G1 X91.7126 Y56.2563
G1 X99.5336 Y57.4643
G1 F300.0 X99.3505 Y58.6502
G1 F800.0 X143.1001 Y65.4075
G1 X134.0833 Y63.2346
G3 X112.4055 Y55.654 I26.9656 J-111.8967
G1 X94.5516 Y47.3286
G1 X89.9493 Y57.1982
G1 X99.3505 Y58.6502
G1 F300.0 X99.1673 Y59.8362
G1 F800.0 X171.3969 Y70.9923
G1 X134.3644 Y62.068
G3 X112.9126 Y54.5664 I26.6844 J-110.7301
G1 X93.9712 Y45.7339
G1 X88.1861 Y58.1401
G1 X99.1673 Y59.8362
G1 F300.0 X98.9841 Y61.0221
G1 F800.0 X199.6938 Y76.5772
G1 X134.6455 Y60.9014
G3 X113.4198 Y53.4788 I26.4033 J-109.5635
G1 X93.3908 Y44.1392
G1 X86.4228 Y59.082
G1 X98.9841 Y61.0221
G1 F300.0 X98.8009 Y62.208
G1 F800.0 X227.9907 Y82.162
G1 X134.9267 Y59.7348
G3 X113.9269 Y52.3913 I26.1222 J-108.3969
G1 X92.8103 Y42.5444
G1 X84.6596 Y60.0238
G1 X98.8009 Y62.208
G1 F300.0 X98.6178 Y63.394
G1 F800.0 X256.2876 Y87.7468
G1 X135.2078 Y58.5682
G3 X114.434 Y51.3037 I25.841 J-107.2303
G1 X92.2299 Y40.9497
G1 X82.8963 Y60.9657
G1 X98.6178 Y63.394
G1 F300.0 X98.4346 Y64.5799
G1 F800.0 X284.5844 Y93.3316
G1 X135.489 Y57.4016
G3 X114.9412 Y50.2161 I25.5599 J-106.0637
G1 X91.6495 Y39.355
G1 X81.133 Y61.9076
G1 X98.4346 Y64.5799
G1 F300.0 X98.2514 Y65.7659
G1 F800.0 X312.8813 Y98.9164
G1 X135.7701 Y56.235
G3 X115.4483 Y49.1285 I25.2788 J-104.8971
G1 X91.0691 Y37.7603
G1 X79.3698 Y62.8495
G1 X98.2514 Y65.7659
G1 F300.0 X98.0682 Y66.9518
G1 F800.0 X318.7187 Y101.0322
G2 X319.5796 Y100.5485 I0.1221 J-0.7906
G3 X319.6768 Y100.3401 I2.4934 J1.0358
G2 X319.1543 Y99.1937 I-0.71 J-0.3687
G1 X136.0512 Y55.0684
G3 X115.9555 Y48.041 I24.9976 J-103.7305
G1 X91.2137 Y36.5037
G2 X90.1505 Y36.8906 I-0.3381 J0.725
G1 X78.057 Y62.8254
G2 X78.6599 Y63.9541 I0.725 J0.3381
G1 X98.0682 Y66.9518
G1 F300.0 X97.8851 Y68.1377
G1 F800.0 X318.5356 Y102.2182
G2 X320.6878 Y101.0089 I0.3053 J-1.9766
G3 X320.7418 Y100.8931 I1.3852 J0.5755
G2 X319.4354 Y98.0271 I-1.775 J-0.9217
G1 X136.3324 Y53.9018
G3 X116.4626 Y46.9534 I24.7165 J-102.5639
G1 X91.7208 Y35.4161
G2 X89.063 Y36.3835 I-0.8452 J1.8126
G1 X76.9694 Y62.3182
G2 X78.4767 Y65.14 I1.8126 J0.8452
G1 X97.8851 Y68.1377
G0 Z5.0
G0 X99.9916 Y54.4994
G0 Z-2.0
G1 F300.0 Z-6.0
G1 F800.0 X96.5831 Y52.9101
G1 X96.1208 Y53.9016
G1 X99.9916 Y54.4994
G1 F300.0 X99.9 Y55.0924
G1 F800.0 X104.0612 Y55.7351
G1 X96.2929 Y52.1127
G1 X95.2391 Y54.3725
G1 X99.9 Y55.0924
G1 F300.0 X99.7168 Y56.2784
G1 F800.0 X112.2129 Y58.2084
G3 X111.3912 Y57.8291 I48.8359 J-106.8705
G1 X95.7125 Y50.518
G1 X93.4759 Y55.3144
G1 X99.7168 Y56.2784
G1 F300.0 X99.5336 Y57.4643
G1 F800.0 X122.2384 Y60.9711
G3 X111.8983 Y56.7415 I38.8105 J-109.6332
G1 X95.1321 Y48.9233
G1 X91.7126 Y56.2563
G1 X99.5336 Y57.4643
G1 F300.0 X99.3505 Y58.6502
G1 F800.0 X143.1001 Y65.4075
G1 X134.0833 Y63.2346
G3 X112.4055 Y55.654 I26.9656 J-111.8967
G1 X94.5516 Y47.3286
G1 X89.9493 Y57.1982
G1 X99.3505 Y58.6502
G1 F300.0 X99.1673 Y59.8362
G1 F800.0 X171.3969 Y70.9923
G1 X134.3644 Y62.068
G3 X112.9126 Y54.5664 I26.6844 J-110.7301
G1 X93.9712 Y45.7339
G1 X88.1861 Y58.1401
G1 X99.1673 Y59.8362
G1 F300.0 X98.9841 Y61.0221
G1 F800.0 X199.6938 Y76.5772
G1 X134.6455 Y60.9014
G3 X113.4198 Y53.4788 I26.4033 J-109.5635
G1 X93.3908 Y44.1392
G1 X86.4228 Y59.082
G1 X98.9841 Y61.0221
G1 F300.0 X98.8009 Y62.208
G1 F800.0 X227.9907 Y82.162
G1 X134.9267 Y59.7348
G3 X113.9269 Y52.3913 I26.1222 J-108.3969
G1 X92.8103 Y42.5444
G1 X84.6596 Y60.0238
G1 X98.8009 Y62.208
G1 F300.0 X98.6178 Y63.394
G1 F800.0 X256.2876 Y87.7468
G1 X135.2078 Y58.5682
G3 X114.434 Y51.3037 I25.841 J-107.2303
G1 X92.2299 Y40.9497
G1 X82.8963 Y60.9657
G1 X98.6178 Y63.394
G1 F300.0 X98.4346 Y64.5799
G1 F800.0 X284.5844 Y93.3316
G1 X135.489 Y57.4016
G3 X114.9412 Y50.2161 I25.5599 J-106.0637
G1 X91.6495 Y39.355
G1 X81.133 Y61.9076
G1 X98.4346 Y64.5799
G1 F300.0 X98.2514 Y65.7659
G1 F800.0 X312.8813 Y98.9164
G1 X135.7701 Y56.235
G3 X115.4483 Y49.1285 I25.2788 J-104.8971
G1 X91.0691 Y37.7603
G1 X79.3698 Y62.8495
G1 X98.2514 Y65.7659
G1 F300.0 X98.0682 Y66.9518
G1 F800.0 X318.7187 Y101.0322
G2 X319.5796 Y100.5485 I0.1221 J-0.7906
G3 X319.6768 Y100.3401 I2.4934 J1.0358
G2 X319.1543 Y99.1937 I-0.71 J-0.3687
G1 X136.0512 Y55.0684
G3 X115.9555 Y48.041 I24.9976 J-103.7305
G1 X91.2137 Y36.5037
G2 X90.1505 Y36.8906 I-0.3381 J0.725
G1 X78.057 Y62.8254
G2 X78.6599 Y63.9541 I0.725 J0.3381
G1 X98.0682 Y66.9518
G1 F300.0 X97.8851 Y68.1377
G1 F800.0 X318.5356 Y102.2182
G2 X320.6878 Y101.0089 I0.3053 J-1.9766
G3 X320.7418 Y100.8931 I1.3852 J0.5755
G2 X319.4354 Y98.0271 I-1.775 J-0.9217
G1 X136.3324 Y53.9018
G3 X116.4626 Y46.9534 I24.7165 J-102.5639
G1 X91.7208 Y35.4161
G2 X89.063 Y36.3835 I-0.8452 J1.8126
G1 X76.9694 Y62.3182
G2 X78.4767 Y65.14 I1.8126 J0.8452
G1 X97.8851 Y68.1377
( Profile3  LegB  )
S1000
G0 Z5.0
G0 X104.412 Y234.0933
G0 Z1.0
G1 F300.0 Z0.0
G2 F800.0 X102.1382 Y235.1942 Z-0.016 I-0.4612 J1.9461
G1 X80.291 Y282.0457 Z-0.3182
G3 X78.2638 Y282.755 Z-0.3322 I-1.3595 J-0.6339
G1 X69.3064 Y278.3023 Z-0.3906
G3 X68.6146 Y276.3251 Z-0.4042 I0.6677 J-1.3432
G1 X71.3609 Y270.4357 Z-0.4422
G3 X73.3543 Y269.7101 Z-0.4559 I1.3595 J0.6339
G2 X75.0448 Y266.0849 Z-0.4927 I0.8452 J-1.8126
G1 X61.4502 Y259.7456 Z-0.5803
G3 X60.7247 Y257.7523 Z-0.5941 I0.6339 J-1.3595
G1 X73.4032 Y230.563 Z-0.7695
G3 X75.3966 Y229.8375 Z-0.7833 I1.3595 J0.6339
G1 X81.7407 Y232.7958 Z-0.8242
G3 X82.4962 Y234.7205 Z-0.8375 I-0.6339 J1.3595
G1 X78.6573 Y244.157 Z-0.8971
G2 X79.6646 Y246.7233 Z-0.9148 I1.8526 J0.7537
G1 X80.1138 Y246.9327 Z-0.9177
G2 X82.7716 Y245.9654 Z-0.9361 I0.8452 J-1.8126
G1 X96.718 Y216.0572 Z-1.129
G3 X98.7114 Y215.3317 Z-1.1428 I1.3595 J0.6339
G2 X100.4019 Y211.7065 Z-1.1795 I0.8452 J-1.8126
G1 X86.8073 Y205.3672 Z-1.2672
G3 X86.0817 Y203.3738 Z-1.281 I0.6339 J-1.3595
G1 X98.7603 Y176.1846 Z-1.4563
G3 X100.7537 Y175.459 Z-1.4701 I1.3595 J0.6339
G1 X107.0978 Y178.4173 Z-1.511
G3 X107.8533 Y180.3421 Z-1.5243 I-0.6339 J1.3595
G1 X104.0144 Y189.7785 Z-1.5839
G2 X105.0217 Y192.3448 Z-1.6017 I1.8526 J0.7537
G1 X105.4709 Y192.5543 Z-1.6046
G2 X108.1287 Y191.5869 Z-1.6229 I0.8452 J-1.8126
G1 X112.3549 Y182.5238 Z-1.6814
G3 X114.3483 Y181.7983 Z-1.6952 I1.3595 J0.6339
G1 X117.0672 Y183.0662 Z-1.7127
G3 X117.7928 Y185.0595 Z-1.7265 I-0.6339 J1.3595
G2 X121.418 Y186.75 Z-1.7632 I1.8126 J0.8452
G1 X123.9537 Y181.3122 Z-1.7983
G3 X125.9471 Y180.5866 Z-1.812 I1.3595 J0.6339
G1 X161.1114 Y196.984 Z-2.0388
G2 X178.9094 Y203.2079 Z-2.1492 I39.9374 J-85.6461
G1 X368.0755 Y248.7944 Z-3.2867
G3 X373.3845 Y259.8132 Z-3.3684 I-1.8508 J7.6801
G1 X370.0202 Y267.0281 Z-3.415
G3 X358.2658 Y273.3069 Z-3.4985 I-10.06 J-4.6911
G1 X104.529 Y234.1162 Z-4.9993
G3 X104.412 Y234.0933 Z-5.0 I0.229 J-1.4824
G2 X102.1382 Y235.1942 Z-5.016 I-0.4612 J1.9461
G1 X80.291 Y282.0457 Z-5.3182
G3 X78.2638 Y282.755 Z-5.3322 I-1.3595 J-0.6339
G1 X69.3064 Y278.3023 Z-5.3906
G3 X68.6146 Y276.3251 Z-5.4042 I0.6677 J-1.3432
G1 X71.3609 Y270.4357 Z-5.4422
G3 X73.3543 Y269.7101 Z-5.4559 I1.3595 J0.6339
G2 X75.0448 Y266.0849 Z-5.4927 I0.8452 J-1.8126
G1 X61.4502 Y259.7456 Z-5.5803
G3 X60.7247 Y257.7523 Z-5.5941 I0.6339 J-1.3595
G1 X73.4032 Y230.563 Z-5.7695
G3 X75.3966 Y229.8375 Z-5.7833 I1.3595 J0.6339
G1 X81.7407 Y232.7958 Z-5.8242
G3 X82.4962 Y234.7205 Z-5.8375 I-0.6339 J1.3595
G1 X78.6573 Y244.157 Z-5.8971
G2 X79.6646 Y246.7233 Z-5.9148 I1.8526 J0.7537
G1 X80.1138 Y246.9327 Z-5.9177
G2 X82.7716 Y245.9654 Z-5.9361 I0.8452 J-1.8126
G1 X96.718 Y216.0572 Z-6.129
G3 X98.7114 Y215.3317 Z-6.1428 I1.3595 J0.6339
G2 X100.4019 Y211.7065 Z-6.1795 I0.8452 J-1.8126
G1 X86.8073 Y205.3672 Z-6.2672
G3 X86.0817 Y203.3738 Z-6.281 I0.6339 J-1.3595
G1 X98.7603 Y176.1846 Z-6.4563
G3 X100.7537 Y175.459 Z-6.4701 I1.3595 J0.6339
G1 X107.0978 Y178.4173 Z-6.511
G3 X107.8533 Y180.3421 Z-6.5243 I-0.6339 J1.3595
G1 X104.0144 Y189.7785 Z-6.5839
G2 X105.0217 Y192.3448 Z-6.6017 I1.8526 J0.7537
G1 X105.4709 Y192.5543 Z-6.6046
G2 X108.1287 Y191.5869 Z-6.6229 I0.8452 J-1.8126
G1 X112.3549 Y182.5238 Z-6.6814
G3 X114.3483 Y181.7983 Z-6.6952 I1.3595 J0.6339
G1 X117.0672 Y183.0662 Z-6.7127
G3 X117.7928 Y185.0595 Z-6.7265 I-0.6339 J1.3595
G2 X121.418 Y186.75 Z-6.7632 I1.8126 J0.8452
G1 X123.9537 Y181.3122 Z-6.7983
G3 X125.9471 Y180.5866 Z-6.812 I1.3595 J0.6339
G1 X161.1114 Y196.984 Z-7.0388
G2 X178.9094 Y203.2079 Z-7.1492 I39.9374 J-85.6461
G1 X368.0755 Y248.7944 Z-8.2867
G3 X373.3845 Y259.8132 Z-8.3684 I-1.8508 J7.6801
G1 X370.0202 Y267.0281 Z-8.415
G3 X358.2658 Y273.3069 Z-8.4985 I-10.06 J-4.6911
G1 X104.529 Y234.1162 Z-9.9993
G3 X104.412 Y234.0933 Z-10.0 I0.229 J-1.4824
G2 X102.1382 Y235.1942 Z-10.016 I-0.4612 J1.9461
G1 X80.291 Y282.0457 Z-10.3182
G3 X78.2638 Y282.755 Z-10.3322 I-1.3595 J-0.6339
G1 X69.3064 Y278.3023 Z-10.3906
G3 X68.6146 Y276.3251 Z-10.4042 I0.6677 J-1.3432
G1 X71.3609 Y270.4357 Z-10.4422
G3 X73.3543 Y269.7101 Z-10.4559 I1.3595 J0.6339
G2 X75.0448 Y266.0849 Z-10.4927 I0.8452 J-1.8126
G1 X61.4502 Y259.7456 Z-10.5803
G3 X60.7247 Y257.7523 Z-10.5941 I0.6339 J-1.3595
G1 X73.4032 Y230.563 Z-10.7695
G3 X75.3966 Y229.8375 Z-10.7833 I1.3595 J0.6339
G1 X81.7407 Y232.7958 Z-10.8242
G3 X82.4962 Y234.7205 Z-10.8375 I-0.6339 J1.3595
G1 X78.6573 Y244.157 Z-10.8971
G2 X79.6646 Y246.7233 Z-10.9148 I1.8526 J0.7537
G1 X80.1138 Y246.9327 Z-10.9177
G2 X82.7716 Y245.9654 Z-10.9361 I0.8452 J-1.8126
G1 X96.718 Y216.0572 Z-11.129
G3 X98.7114 Y215.3317 Z-11.1428 I1.3595 J0.6339
G2 X100.4019 Y211.7065 Z-11.1795 I0.8452 J-1.8126
G1 X86.8073 Y205.3672 Z-11.2672
G3 X86.0817 Y203.3738 Z-11.281 I0.6339 J-1.3595
G1 X98.7603 Y176.1846 Z-11.4563
G3 X100.7537 Y175.459 Z-11.4701 I1.3595 J0.6339
G1 X107.0978 Y178.4173 Z-11.511
G3 X107.8533 Y180.3421 Z-11.5243 I-0.6339 J1.3595
G1 X104.0144 Y189.7785 Z-11.5839
G2 X105.0217 Y192.3448 Z-11.6017 I1.8526 J0.7537
G1 X105.4709 Y192.5543 Z-11.6046
G2 X108.1287 Y191.5869 Z-11.6229 I0.8452 J-1.8126
G1 X112.3549 Y182.5238 Z-11.6814
G3 X114.3483 Y181.7983 Z-11.6952 I1.3595 J0.6339
G1 X117.0672 Y183.0662 Z-11.7127
G3 X117.7928 Y185.0595 Z-11.7265 I-0.6339 J1.3595
G2 X121.418 Y186.75 Z-11.7632 I1.8126 J0.8452
G1 X123.9537 Y181.3122 Z-11.7983
G3 X125.9471 Y180.5866 Z-11.812 I1.3595 J0.6339
G1 X161.1114 Y196.984 Z-12.0388
G2 X178.9094 Y203.2079 Z-12.1492 I39.9374 J-85.6461
G1 X368.0755 Y248.7944 Z-13.2867
G3 X373.3845 Y259.8132 Z-13.3684 I-1.8508 J7.6801
G1 X370.0202 Y267.0281 Z-13.415
G3 X358.2658 Y273.3069 Z-13.4985 I-10.06 J-4.6911
G1 X104.529 Y234.1162 Z-14.9993
G3 X104.412 Y234.0933 Z-15.0 I0.229 J-1.4824
G2 X102.1382 Y235.1942 Z-15.0131 I-0.4612 J1.9461
G1 X80.291 Y282.0457 Z-15.2609
G3 X78.2638 Y282.755 Z-15.2724 I-1.3595 J-0.6339
G1 X69.3064 Y278.3023 Z-15.3203
G3 X68.6146 Y276.3251 Z-15.3314 I0.6677 J-1.3432
G1 X69.0424 Y275.4078 Z-15.3363
G1 X71.3609 Y270.4357 Z-15.3626
G3 X71.6604 Y270.0083 Z-15.3651 I1.3595 J0.6339
G3 X73.3543 Y269.7101 Z-15.3739 I1.06 J1.0613
G2 X75.0448 Y266.0849 Z-15.404 I0.8452 J-1.8126
G1 X61.4502 Y259.7456 Z-15.4759
G3 X60.7247 Y257.7523 Z-15.4872 I0.6339 J-1.3595
G1 X73.4032 Y230.563 Z-15.631
G3 X75.3966 Y229.8375 Z-15.6423 I1.3595 J0.6339
G1 X81.7407 Y232.7958 Z-15.6758
G3 X82.4962 Y234.7205 Z-15.6868 I-0.6339 J1.3595
G1 X78.6573 Y244.157 Z-15.7356
G2 X79.6646 Y246.7233 Z-15.7502 I1.8526 J0.7537
G1 X80.1138 Y246.9327 Z-15.7525
G2 X82.7716 Y245.9654 Z-15.7676 I0.8452 J-1.8126
G1 X96.718 Y216.0572 Z-15.9258
G3 X98.7114 Y215.3317 Z-15.9371 I1.3595 J0.6339
G2 X100.4019 Y211.7065 Z-15.9672 I0.8452 J-1.8126
G1 X94.0492 Y208.7441 Z-16.0008
G1 X88.6113 Y206.2084 Z-16.0296
G1 X86.8073 Y205.3672 Z-16.0391
G3 X86.0817 Y203.3738 Z-16.0504 I0.6339 J-1.3595
G1 X98.7603 Y176.1846 Z-16.1942
G3 X100.7537 Y175.459 Z-16.2055 I1.3595 J0.6339
G1 X107.0978 Y178.4173 Z-16.239
G3 X107.8533 Y180.3421 Z-16.25 I-0.6339 J1.3595
G1 X104.0144 Y189.7785 Z-16.2988
G2 X105.0217 Y192.3448 Z-16.3134 I1.8526 J0.7537
G1 X105.4709 Y192.5543 Z-16.3158
G2 X108.1287 Y191.5869 Z-16.3308 I0.8452 J-1.8126
G1 X112.3549 Y182.5238 Z-16.3787
G3 X114.3483 Y181.7983 Z-16.39 I1.3595 J0.6339
G1 X117.0672 Y183.0662 Z-16.4044
G3 X117.7928 Y185.0595 Z-16.4157 I-0.6339 J1.3595
G2 X121.418 Y186.75 Z-16.4458 I1.8126 J0.8452
G1 X123.9537 Y181.3122 Z-16.4746
G3 X125.9471 Y180.5866 Z-16.4859 I1.3595 J0.6339
G1 X161.1114 Y196.984 Z-16.6719
G2 X166.221 Y199.1859 Z-16.6985 I39.9374 J-85.6461
G0 Z-16.1
G2 X171.866 Y201.219 I34.8279 J-87.848
G1 F300.0 Z-16.7273
G2 F800.0 X178.9094 Y203.2079 Z-16.7624 I29.1828 J-89.8811
G1 X302.8664 Y233.0799 Z-17.3735
G0 Z-16.1
G1 X308.6994 Y234.4855
G1 F300.0 Z-17.4023
G1 F800.0 X368.0755 Y248.7944 Z-17.6951
G3 X373.3845 Y259.8132 Z-17.7621 I-1.8508 J7.6801
G1 X370.0202 Y267.0281 Z-17.8003
G3 X358.2658 Y273.3069 Z-17.8688 I-10.06 J-4.6911
G1 X316.5013 Y266.8562 Z-18.0713
G0 Z-16.1
G1 X310.5716 Y265.9403
G1 F300.0 Z-18.1001
G1 F800.0 X177.163 Y245.3348 Z-18.7471
G0 Z-16.1
G1 X171.2333 Y244.4189
G1 F300.0 Z-18.7759
G1 F800.0 X104.529 Y234.1162 Z-19.0994
G3 X104.412 Y234.0933 Z-19.1 I0.229 J-1.4824
G2 X102.1382 Y235.1942 I-0.4612 J1.9461
G1 X80.291 Y282.0457
G3 X78.2638 Y282.755 I-1.3595 J-0.6339
G1 X69.3064 Y278.3023
G3 X68.6146 Y276.3251 I0.6677 J-1.3432
G1 X69.0424 Y275.4078
G0 Z-16.1
G1 X71.3609 Y270.4357
G3 X71.6604 Y270.0083 I1.3595 J0.6339
G1 F300.0 Z-19.1
G3 F800.0 X73.3543 Y269.7101 I1.06 J1.0613
G2 X75.0448 Y266.0849 I0.8452 J-1.8126
G1 X61.4502 Y259.7456
G3 X60.7247 Y257.7523 I0.6339 J-1.3595
G1 X73.4032 Y230.563
G3 X75.3966 Y229.8375 I1.3595 J0.6339
G1 X81.7407 Y232.7958
G3 X82.4962 Y234.7205 I-0.6339 J1.3595
G1 X78.6573 Y244.157
G2 X79.6646 Y246.7233 I1.8526 J0.7537
G1 X80.1138 Y246.9327
G2 X82.7716 Y245.9654 I0.8452 J-1.8126
G1 X96.718 Y216.0572
G3 X98.7114 Y215.3317 I1.3595 J0.6339
G2 X100.4019 Y211.7065 I0.8452 J-1.8126
G1 X94.0492 Y208.7441
G0 Z-16.1
G1 X88.6113 Y206.2084
G1 F300.0 Z-19.1
G1 F800.0 X86.8073 Y205.3672
G3 X86.0817 Y203.3738 I0.6339 J-1.3595
G1 X98.7603 Y176.1846
G3 X100.7537 Y175.459 I1.3595 J0.6339
G1 X107.0978 Y178.4173
G3 X107.8533 Y180.3421 I-0.6339 J1.3595
G1 X104.0144 Y189.7785
G2 X105.0217 Y192.3448 I1.8526 J0.7537
G1 X105.4709 Y192.5543
G2 X108.1287 Y191.5869 I0.8452 J-1.8126
G1 X112.3549 Y182.5238
G3 X114.3483 Y181.7983 I1.3595 J0.6339
G1 X117.0672 Y183.0662
G3 X117.7928 Y185.0595 I-0.6339 J1.3595
G2 X121.418 Y186.75 I1.8126 J0.8452
G1 X123.9537 Y181.3122
G3 X125.9471 Y180.5866 I1.3595 J0.6339
G1 X161.1114 Y196.984
G2 X166.221 Y199.1859 I39.9374 J-85.6461
G0 Z-16.1
G2 X171.866 Y201.219 I34.8279 J-87.848
G1 F300.0 Z-19.1
G2 F800.0 X178.9094 Y203.2079 I29.1828 J-89.8811
G1 X302.8664 Y233.0799
G0 Z-16.1
G1 X308.6994 Y234.4855
G0 Z-16.4023
G1 F300.0 Z-19.1
G1 F800.0 X368.0755 Y248.7944
G3 X373.3845 Y259.8132 I-1.8508 J7.6801
G1 X370.0202 Y267.0281
G3 X358.2658 Y273.3069 I-10.06 J-4.6911
G1 X316.5013 Y266.8562
G0 Z-16.1
G1 X310.5716 Y265.9403
G0 Z-17.1001
G1 F300.0 Z-19.1
G1 F800.0 X177.163 Y245.3348
G0 Z-16.1
G1 X171.2333 Y244.4189
G0 Z-17.7759
G1 F300.0 Z-19.1
G1 F800.0 X104.529 Y234.1162
G3 X104.412 Y234.0933 I0.229 J-1.4824
G0 Z5.0
G0 X60.7156 Y203.1027
G0 Z1.0
G1 F300.0 Z0.0
G3 F800.0 X58.8244 Y203.5782 Z-0.0124 I-1.2235 J-0.8678
G1 X49.867 Y199.1254 Z-0.0709
G3 X49.1752 Y197.1483 Z-0.0844 I0.6677 J-1.3432
G1 X51.9215 Y191.2588 Z-0.1224
G3 X53.9149 Y190.5333 Z-0.1362 I1.3595 J0.6339
G2 X55.6054 Y186.9081 Z-0.1729 I0.8452 J-1.8126
G1 X42.0108 Y180.5688 Z-0.2606
G3 X41.2852 Y178.5754 Z-0.2744 I0.6339 J-1.3595
G1 X53.9638 Y151.3862 Z-0.4497
G3 X55.9572 Y150.6606 Z-0.4635 I1.3595 J0.6339
G1 X62.3013 Y153.619 Z-0.5044
G3 X63.0568 Y155.5437 Z-0.5178 I-0.6339 J1.3595
G1 X59.2178 Y164.9802 Z-0.5773
G2 X60.2252 Y167.5464 Z-0.5951 I1.8526 J0.7537
G1 X60.6744 Y167.7559 Z-0.598
G2 X63.3322 Y166.7885 Z-0.6164 I0.8452 J-1.8126
G1 X77.2786 Y136.8804 Z-0.8093
G3 X79.272 Y136.1548 Z-0.823 I1.3595 J0.6339
G2 X80.9625 Y132.5296 Z-0.8598 I0.8452 J-1.8126
G1 X67.3679 Y126.1903 Z-0.9474
G3 X66.6423 Y124.1969 Z-0.9612 I0.6339 J-1.3595
G1 X79.3209 Y97.0077 Z-1.1366
G3 X81.3143 Y96.2822 Z-1.1503 I1.3595 J0.6339
G1 X87.6584 Y99.2405 Z-1.1913
G3 X88.4139 Y101.1652 Z-1.2046 I-0.6339 J1.3595
G1 X84.5749 Y110.6017 Z-1.2642
G2 X85.5823 Y113.168 Z-1.2819 I1.8526 J0.7537
G1 X86.0314 Y113.3774 Z-1.2848
G2 X88.6893 Y112.4101 Z-1.3032 I0.8452 J-1.8126
G1 X92.9155 Y103.347 Z-1.3616
G3 X94.9089 Y102.6215 Z-1.3754 I1.3595 J0.6339
G1 X97.6278 Y103.8893 Z-1.393
G3 X98.3533 Y105.8827 Z-1.4067 I-0.6339 J1.3595
G2 X101.9786 Y107.5732 Z-1.4435 I1.8126 J0.8452
G1 X104.5143 Y102.1353 Z-1.4785
G3 X106.5077 Y101.4098 Z-1.4923 I1.3595 J0.6339
G1 X141.672 Y117.8072 Z-1.7191
G2 X159.47 Y124.0311 Z-1.8295 I39.9374 J-85.6461
G1 X348.6361 Y169.6175 Z-2.9669
G3 X353.9451 Y180.6363 Z-3.0487 I-1.8508 J7.6801
G1 X350.5808 Y187.8512 Z-3.0952
G3 X338.8264 Y194.1301 Z-3.1788 I-10.06 J-4.6911
G1 X85.0895 Y154.9393 Z-4.6796
G3 X84.9726 Y154.9165 Z-4.6803 I0.229 J-1.4824
G2 X82.6988 Y156.0173 Z-4.6962 I-0.4612 J1.9461
G1 X60.8516 Y202.8689 Z-4.9984
G3 X60.7156 Y203.1027 Z-5.0 I-1.3595 J-0.6339
G3 X58.8244 Y203.5782 Z-5.0124 I-1.2235 J-0.8678
G1 X49.867 Y199.1254 Z-5.0709
G3 X49.1752 Y197.1483 Z-5.0844 I0.6677 J-1.3432
G1 X51.9215 Y191.2588 Z-5.1224
G3 X53.9149 Y190.5333 Z-5.1362 I1.3595 J0.6339
G2 X55.6054 Y186.9081 Z-5.1729 I0.8452 J-1.8126
G1 X42.0108 Y180.5688 Z-5.2606
G3 X41.2852 Y178.5754 Z-5.2744 I0.6339 J-1.3595
G1 X53.9638 Y151.3862 Z-5.4497
G3 X55.9572 Y150.6606 Z-5.4635 I1.3595 J0.6339
G1 X62.3013 Y153.619 Z-5.5044
G3 X63.0568 Y155.5437 Z-5.5178 I-0.6339 J1.3595
G1 X59.2178 Y164.9802 Z-5.5773
G2 X60.2252 Y167.5464 Z-5.5951 I1.8526 J0.7537
G1 X60.6744 Y167.7559 Z-5.598
G2 X63.3322 Y166.7885 Z-5.6164 I0.8452 J-1.8126
G1 X77.2786 Y136.8804 Z-5.8093
G3 X79.272 Y136.1548 Z-5.823 I1.3595 J0.6339
G2 X80.9625 Y132.5296 Z-5.8598 I0.8452 J-1.8126
G1 X67.3679 Y126.1903 Z-5.9474
G3 X66.6423 Y124.1969 Z-5.9612 I0.6339 J-1.3595
G1 X79.3209 Y97.0077 Z-6.1366
G3 X81.3143 Y96.2822 Z-6.1503 I1.3595 J0.6339
G1 X87.6584 Y99.2405 Z-6.1913
G3 X88.4139 Y101.1652 Z-6.2046 I-0.6339 J1.3595
G1 X84.5749 Y110.6017 Z-6.2642
G2 X85.5823 Y113.168 Z-6.2819 I1.8526 J0.7537
G1 X86.0314 Y113.3774 Z-6.2848
G2 X88.6893 Y112.4101 Z-6.3032 I0.8452 J-1.8126
G1 X92.9155 Y103.347 Z-6.3616
G3 X94.9089 Y102.6215 Z-6.3754 I1.3595 J0.6339
G1 X97.6278 Y103.8893 Z-6.393
G3 X98.3533 Y105.8827 Z-6.4067 I-0.6339 J1.3595
G2 X101.9786 Y107.5732 Z-6.4435 I1.8126 J0.8452
G1 X104.5143 Y102.1353 Z-6.4785
G3 X106.5077 Y101.4098 Z-6.4923 I1.3595 J0.6339
G1 X141.672 Y117.8072 Z-6.7191
G2 X159.47 Y124.0311 Z-6.8295 I39.9374 J-85.6461
G1 X348.6361 Y169.6175 Z-7.9669
G3 X353.9451 Y180.6363 Z-8.0487 I-1.8508 J7.6801
G1 X350.5808 Y187.8512 Z-8.0952
G3 X338.8264 Y194.1301 Z-8.1788 I-10.06 J-4.6911
G1 X85.0895 Y154.9393 Z-9.6796
G3 X84.9726 Y154.9165 Z-9.6803 I0.229 J-1.4824
G2 X82.6988 Y156.0173 Z-9.6962 I-0.4612 J1.9461
G1 X60.8516 Y202.8689 Z-9.9984
G3 X60.7156 Y203.1027 Z-10.0 I-1.3595 J-0.6339
G3 X58.8244 Y203.5782 Z-10.0124 I-1.2235 J-0.8678
G1 X49.867 Y199.1254 Z-10.0709
G3 X49.1752 Y197.1483 Z-10.0844 I0.6677 J-1.3432
G1 X51.9215 Y191.2588 Z-10.1224
G3 X53.9149 Y190.5333 Z-10.1362 I1.3595 J0.6339
G2 X55.6054 Y186.9081 Z-10.1729 I0.8452 J-1.8126
G1 X42.0108 Y180.5688 Z-10.2606
G3 X41.2852 Y178.5754 Z-10.2744 I0.6339 J-1.3595
G1 X53.9638 Y151.3862 Z-10.4497
G3 X55.9572 Y150.6606 Z-10.4635 I1.3595 J0.6339
G1 X62.3013 Y153.619 Z-10.5044
G3 X63.0568 Y155.5437 Z-10.5178 I-0.6339 J1.3595
G1 X59.2178 Y164.9802 Z-10.5773
G2 X60.2252 Y167.5464 Z-10.5951 I1.8526 J0.7537
G1 X60.6744 Y167.7559 Z-10.598
G2 X63.3322 Y166.7885 Z-10.6164 I0.8452 J-1.8126
G1 X77.2786 Y136.8804 Z-10.8093
G3 X79.272 Y136.1548 Z-10.823 I1.3595 J0.6339
G2 X80.9625 Y132.5296 Z-10.8598 I0.8452 J-1.8126
G1 X67.3679 Y126.1903 Z-10.9474
G3 X66.6423 Y124.1969 Z-10.9612 I0.6339 J-1.3595
G1 X79.3209 Y97.0077 Z-11.1366
G3 X81.3143 Y96.2822 Z-11.1503 I1.3595 J0.6339
G1 X87.6584 Y99.2405 Z-11.1913
G3 X88.4139 Y101.1652 Z-11.2046 I-0.6339 J1.3595
G1 X84.5749 Y110.6017 Z-11.2642
G2 X85.5823 Y113.168 Z-11.2819 I1.8526 J0.7537
G1 X86.0314 Y113.3774 Z-11.2848
G2 X88.6893 Y112.4101 Z-11.3032 I0.8452 J-1.8126
G1 X92.9155 Y103.347 Z-11.3616
G3 X94.9089 Y102.6215 Z-11.3754 I1.3595 J0.6339
G1 X97.6278 Y103.8893 Z-11.393
G3 X98.3533 Y105.8827 Z-11.4067 I-0.6339 J1.3595
G2 X101.9786 Y107.5732 Z-11.4435 I1.8126 J0.8452
G1 X104.5143 Y102.1353 Z-11.4785
G3 X106.5077 Y101.4098 Z-11.4923 I1.3595 J0.6339
G1 X141.672 Y117.8072 Z-11.7191
G2 X159.47 Y124.0311 Z-11.8295 I39.9374 J-85.6461
G1 X348.6361 Y169.6175 Z-12.9669
G3 X353.9451 Y180.6363 Z-13.0487 I-1.8508 J7.6801
G1 X350.5808 Y187.8512 Z-13.0952
G3 X338.8264 Y194.1301 Z-13.1788 I-10.06 J-4.6911
G1 X85.0895 Y154.9393 Z-14.6796
G3 X84.9726 Y154.9165 Z-14.6803 I0.229 J-1.4824
G2 X82.6988 Y156.0173 Z-14.6962 I-0.4612 J1.9461
G1 X60.8516 Y202.8689 Z-14.9984
G3 X60.7156 Y203.1027 Z-15.0 I-1.3595 J-0.6339
G3 X58.8244 Y203.5782 Z-15.0102 I-1.2235 J-0.8678
G1 X49.867 Y199.1254 Z-15.0581
G3 X49.1752 Y197.1483 Z-15.0692 I0.6677 J-1.3432
G1 X49.603 Y196.231 Z-15.0741
G1 X51.9215 Y191.2588 Z-15.1004
G3 X52.2209 Y190.8315 Z-15.1029 I1.3595 J0.6339
G3 X53.9149 Y190.5333 Z-15.1117 I1.06 J1.0613
G2 X55.6054 Y186.9081 Z-15.1418 I0.8452 J-1.8126
G1 X42.0108 Y180.5688 Z-15.2137
G3 X41.2852 Y178.5754 Z-15.225 I0.6339 J-1.3595
G1 X53.9638 Y151.3862 Z-15.3688
G3 X55.9572 Y150.6606 Z-15.3801 I1.3595 J0.6339
G1 X62.3013 Y153.619 Z-15.4136
G3 X63.0568 Y155.5437 Z-15.4246 I-0.6339 J1.3595
G1 X59.2178 Y164.9802 Z-15.4734
G2 X60.2252 Y167.5464 Z-15.488 I1.8526 J0.7537
G1 X60.6744 Y167.7559 Z-15.4904
G2 X63.3322 Y166.7885 Z-15.5054 I0.8452 J-1.8126
G1 X77.2786 Y136.8804 Z-15.6636
G3 X79.272 Y136.1548 Z-15.6749 I1.3595 J0.6339
G2 X80.9625 Y132.5296 Z-15.705 I0.8452 J-1.8126
G1 X74.6097 Y129.5673 Z-15.7386
G1 X69.1719 Y127.0316 Z-15.7674
G1 X67.3679 Y126.1903 Z-15.7769
G3 X66.6423 Y124.1969 Z-15.7882 I0.6339 J-1.3595
G1 X79.3209 Y97.0077 Z-15.932
G3 X81.3143 Y96.2822 Z-15.9433 I1.3595 J0.6339
G1 X87.6584 Y99.2405 Z-15.9768
G3 X88.4139 Y101.1652 Z-15.9878 I-0.6339 J1.3595
G1 X84.5749 Y110.6017 Z-16.0366
G2 X85.5823 Y113.168 Z-16.0512 I1.8526 J0.7537
G1 X86.0314 Y113.3774 Z-16.0536
G2 X88.6893 Y112.4101 Z-16.0686 I0.8452 J-1.8126
G1 X92.9155 Y103.347 Z-16.1165
G3 X94.9089 Y102.6215 Z-16.1278 I1.3595 J0.6339
G1 X97.6278 Y103.8893 Z-16.1422
G3 X98.3533 Y105.8827 Z-16.1535 I-0.6339 J1.3595
G2 X101.9786 Y107.5732 Z-16.1836 I1.8126 J0.8452
G1 X104.5143 Y102.1353 Z-16.2124
G3 X106.5077 Y101.4098 Z-16.2237 I1.3595 J0.6339
G1 X141.672 Y117.8072 Z-16.4097
G2 X146.7815 Y120.0091 Z-16.4363 I39.9374 J-85.6461
G0 Z-16.1
G2 X152.4266 Y122.0422 I34.8279 J-87.848
G1 F300.0 Z-16.4651
G2 F800.0 X159.47 Y124.0311 Z-16.5002 I29.1828 J-89.8811
G1 X283.427 Y153.903 Z-17.1114
G0 Z-16.1
G1 X289.26 Y155.3087
G1 F300.0 Z-17.1401
G1 F800.0 X348.6361 Y169.6175 Z-17.4329
G3 X353.9451 Y180.6363 Z-17.4999 I-1.8508 J7.6801
G1 X350.5808 Y187.8512 Z-17.5381
G3 X338.8264 Y194.1301 Z-17.6066 I-10.06 J-4.6911
G1 X297.0618 Y187.6794 Z-17.8092
G0 Z-16.1
G1 X291.1322 Y186.7635
G1 F300.0 Z-17.8379
G1 F800.0 X157.7235 Y166.158 Z-18.485
G0 Z-16.1
G1 X151.7938 Y165.2421
G1 F300.0 Z-18.5137
G1 F800.0 X85.0895 Y154.9393 Z-18.8372
G3 X84.9726 Y154.9165 Z-18.8378 I0.229 J-1.4824
G2 X82.6988 Y156.0173 Z-18.8509 I-0.4612 J1.9461
G1 X60.8516 Y202.8689 Z-19.0987
G3 X60.7156 Y203.1027 Z-19.1 I-1.3595 J-0.6339
G3 X58.8244 Y203.5782 I-1.2235 J-0.8678
G1 X49.867 Y199.1254
G3 X49.1752 Y197.1483 I0.6677 J-1.3432
G1 X49.603 Y196.231
G0 Z-16.1
G1 X51.9215 Y191.2588
G3 X52.2209 Y190.8315 I1.3595 J0.6339
G1 F300.0 Z-19.1
G3 F800.0 X53.9149 Y190.5333 I1.06 J1.0613
G2 X55.6054 Y186.9081 I0.8452 J-1.8126
G1 X42.0108 Y180.5688
G3 X41.2852 Y178.5754 I0.6339 J-1.3595
G1 X53.9638 Y151.3862
G3 X55.9572 Y150.6606 I1.3595 J0.6339
G1 X62.3013 Y153.619
G3 X63.0568 Y155.5437 I-0.6339 J1.3595
G1 X59.2178 Y164.9802
G2 X60.2252 Y167.5464 I1.8526 J0.7537
G1 X60.6744 Y167.7559
G2 X63.3322 Y166.7885 I0.8452 J-1.8126
G1 X77.2786 Y136.8804
G3 X79.272 Y136.1548 I1.3595 J0.6339
G2 X80.9625 Y132.5296 I0.8452 J-1.8126
G1 X74.6097 Y129.5673
G0 Z-16.1
G1 X69.1719 Y127.0316
G1 F300.0 Z-19.1
G1 F800.0 X67.3679 Y126.1903
G3 X66.6423 Y124.1969 I0.6339 J-1.3595
G1 X79.3209 Y97.0077
G3 X81.3143 Y96.2822 I1.3595 J0.6339
G1 X87.6584 Y99.2405
G3 X88.4139 Y101.1652 I-0.6339 J1.3595
G1 X84.5749 Y110.6017
G2 X85.5823 Y113.168 I1.8526 J0.7537
G1 X86.0314 Y113.3774
G2 X88.6893 Y112.4101 I0.8452 J-1.8126
G1 X92.9155 Y103.347
G3 X94.9089 Y102.6215 I1.3595 J0.6339
G1 X97.6278 Y103.8893
G3 X98.3533 Y105.8827 I-0.6339 J1.3595
G2 X101.9786 Y107.5732 I1.8126 J0.8452
G1 X104.5143 Y102.1353
G3 X106.5077 Y101.4098 I1.3595 J0.6339
G1 X141.672 Y117.8072
G2 X146.7815 Y120.0091 I39.9374 J-85.6461
G0 Z-16.1
G2 X152.4266 Y122.0422 I34.8279 J-87.848
G1 F300.0 Z-19.1
G2 F800.0 X159.47 Y124.0311 I29.1828 J-89.8811
G1 X283.427 Y153.903
G0 Z-16.1
G1 X289.26 Y155.3087
G0 Z-16.1401
G1 F300.0 Z-19.1
G1 F800.0 X348.6361 Y169.6175
G3 X353.9451 Y180.6363 I-1.8508 J7.6801
G1 X350.5808 Y187.8512
G3 X338.8264 Y194.1301 I-10.06 J-4.6911
G1 X297.0618 Y187.6794
G0 Z-16.1
G1 X291.1322 Y186.7635
G0 Z-16.8379
G1 F300.0 Z-19.1
G1 F800.0 X157.7235 Y166.158
G0 Z-16.1
G1 X151.7938 Y165.2421
G0 Z-17.5137
G1 F300.0 Z-19.1
G1 F800.0 X85.0895 Y154.9393
G3 X84.9726 Y154.9165 I0.229 J-1.4824
G2 X82.6988 Y156.0173 I-0.4612 J1.9461
G1 X60.8516 Y202.8689
G3 X60.7156 Y203.1027 I-1.3595 J-0.6339
G0 Z5.0
G0 X39.318 Y122.8612
G0 Z1.0
G1 F300.0 Z0.0
G3 F800.0 X38.2638 Y122.755 Z-0.0063 I-0.3865 J-1.4494
G1 X29.3064 Y118.3023 Z-0.0648
G3 X28.6146 Y116.3251 Z-0.0784 I0.6677 J-1.3432
G1 X31.3609 Y110.4357 Z-0.1163
G3 X33.3543 Y109.7101 Z-0.1301 I1.3595 J0.6339
G2 X35.0448 Y106.0849 Z-0.1668 I0.8452 J-1.8126
G1 X21.4502 Y99.7456 Z-0.2545
G3 X20.7247 Y97.7523 Z-0.2683 I0.6339 J-1.3595
G1 X33.4032 Y70.563 Z-0.4437
G3 X35.3966 Y69.8375 Z-0.4574 I1.3595 J0.6339
G1 X41.7407 Y72.7958 Z-0.4984
G3 X42.4962 Y74.7205 Z-0.5117 I-0.6339 J1.3595
G1 X38.6573 Y84.157 Z-0.5712
G2 X39.6646 Y86.7233 Z-0.589 I1.8526 J0.7537
G1 X40.1138 Y86.9327 Z-0.5919
G2 X42.7716 Y85.9654 Z-0.6103 I0.8452 J-1.8126
G1 X56.718 Y56.0572 Z-0.8032
G3 X58.7114 Y55.3317 Z-0.8169 I1.3595 J0.6339
G2 X60.4019 Y51.7065 Z-0.8537 I0.8452 J-1.8126
G1 X46.8073 Y45.3672 Z-0.9414
G3 X46.0817 Y43.3738 Z-0.9551 I0.6339 J-1.3595
G1 X58.7603 Y16.1846 Z-1.1305
G3 X60.7537 Y15.459 Z-1.1443 I1.3595 J0.6339
G1 X67.0978 Y18.4173 Z-1.1852
G3 X67.8533 Y20.3421 Z-1.1985 I-0.6339 J1.3595
G1 X64.0144 Y29.7785 Z-1.2581
G2 X65.0217 Y32.3448 Z-1.2759 I1.8526 J0.7537
G1 X65.4709 Y32.5543 Z-1.2787
G2 X68.1287 Y31.5869 Z-1.2971 I0.8452 J-1.8126
G1 X72.3549 Y22.5238 Z-1.3556
G3 X74.3483 Y21.7983 Z-1.3693 I1.3595 J0.6339
G1 X77.0672 Y23.0662 Z-1.3869
G3 X77.7928 Y25.0595 Z-1.4006 I-0.6339 J1.3595
G2 X81.418 Y26.75 Z-1.4374 I1.8126 J0.8452
G1 X83.9537 Y21.3122 Z-1.4725
G3 X85.9471 Y20.5866 Z-1.4862 I1.3595 J0.6339
G1 X121.1114 Y36.984 Z-1.713
G2 X138.9094 Y43.2079 Z-1.8234 I39.9374 J-85.6461
G1 X328.0755 Y88.7944 Z-2.9608
G3 X333.3845 Y99.8132 Z-3.0426 I-1.8508 J7.6801
G1 X330.0202 Y107.0281 Z-3.0891
G3 X318.2658 Y113.3069 Z-3.1727 I-10.06 J-4.6911
G1 X64.529 Y74.1162 Z-4.6735
G3 X64.412 Y74.0933 Z-4.6742 I0.229 J-1.4824
G2 X62.1382 Y75.1942 Z-4.6902 I-0.4612 J1.9461
G1 X40.291 Y122.0457 Z-4.9923
G3 X39.318 Y122.8612 Z-5.0 I-1.3595 J-0.6339
G3 X38.2638 Y122.755 Z-5.0063 I-0.3865 J-1.4494
G1 X29.3064 Y118.3023 Z-5.0648
G3 X28.6146 Y116.3251 Z-5.0784 I0.6677 J-1.3432
G1 X31.3609 Y110.4357 Z-5.1163
G3 X33.3543 Y109.7101 Z-5.1301 I1.3595 J0.6339
G2 X35.0448 Y106.0849 Z-5.1668 I0.8452 J-1.8126
G1 X21.4502 Y99.7456 Z-5.2545
G3 X20.7247 Y97.7523 Z-5.2683 I0.6339 J-1.3595
G1 X33.4032 Y70.563 Z-5.4437
G3 X35.3966 Y69.8375 Z-5.4574 I1.3595 J0.6339
G1 X41.7407 Y72.7958 Z-5.4984
G3 X42.4962 Y74.7205 Z-5.5117 I-0.6339 J1.3595
G1 X38.6573 Y84.157 Z-5.5712
G2 X39.6646 Y86.7233 Z-5.589 I1.8526 J0.7537
G1 X40.1138 Y86.9327 Z-5.5919
G2 X42.7716 Y85.9654 Z-5.6103 I0.8452 J-1.8126
G1 X56.718 Y56.0572 Z-5.8032
G3 X58.7114 Y55.3317 Z-5.8169 I1.3595 J0.6339
G2 X60.4019 Y51.7065 Z-5.8537 I0.8452 J-1.8126
G1 X46.8073 Y45.3672 Z-5.9414
G3 X46.0817 Y43.3738 Z-5.9551 I0.6339 J-1.3595
G1 X58.7603 Y16.1846 Z-6.1305
G3 X60.7537 Y15.459 Z-6.1443 I1.3595 J0.6339
G1 X67.0978 Y18.4173 Z-6.1852
G3 X67.8533 Y20.3421 Z-6.1985 I-0.6339 J1.3595
G1 X64.0144 Y29.7785 Z-6.2581
G2 X65.0217 Y32.3448 Z-6.2759 I1.8526 J0.7537
G1 X65.4709 Y32.5543 Z-6.2787
G2 X68.1287 Y31.5869 Z-6.2971 I0.8452 J-1.8126
G1 X72.3549 Y22.5238 Z-6.3556
G3 X74.3483 Y21.7983 Z-6.3693 I1.3595 J0.6339
G1 X77.0672 Y23.0662 Z-6.3869
G3 X77.7928 Y25.0595 Z-6.4006 I-0.6339 J1.3595
G2 X81.418 Y26.75 Z-6.4374 I1.8126 J0.8452
G1 X83.9537 Y21.3122 Z-6.4725
G3 X85.9471 Y20.5866 Z-6.4862 I1.3595 J0.6339
G1 X121.1114 Y36.984 Z-6.713
G2 X138.9094 Y43.2079 Z-6.8234 I39.9374 J-85.6461
G1 X328.0755 Y88.7944 Z-7.9608
G3 X333.3845 Y99.8132 Z-8.0426 I-1.8508 J7.6801
G1 X330.0202 Y107.0281 Z-8.0891
G3 X318.2658 Y113.3069 Z-8.1727 I-10.06 J-4.6911
G1 X64.529 Y74.1162 Z-9.6735
G3 X64.412 Y74.0933 Z-9.6742 I0.229 J-1.4824
G2 X62.1382 Y75.1942 Z-9.6902 I-0.4612 J1.9461
G1 X40.291 Y122.0457 Z-9.9923
G3 X39.318 Y122.8612 Z-10.0 I-1.3595 J-0.6339
G3 X38.2638 Y122.755 Z-10.0063 I-0.3865 J-1.4494
G1 X29.3064 Y118.3023 Z-10.0648
G3 X28.6146 Y116.3251 Z-10.0784 I0.6677 J-1.3432
G1 X31.3609 Y110.4357 Z-10.1163
G3 X33.3543 Y109.7101 Z-10.1301 I1.3595 J0.6339
G2 X35.0448 Y106.0849 Z-10.1668 I0.8452 J-1.8126
G1 X21.4502 Y99.7456 Z-10.2545
G3 X20.7247 Y97.7523 Z-10.2683 I0.6339 J-1.3595
G1 X33.4032 Y70.563 Z-10.4437
G3 X35.3966 Y69.8375 Z-10.4574 I1.3595 J0.6339
G1 X41.7407 Y72.7958 Z-10.4984
G3 X42.4962 Y74.7205 Z-10.5117 I-0.6339 J1.3595
G1 X38.6573 Y84.157 Z-10.5712
G2 X39.6646 Y86.7233 Z-10.589 I1.8526 J0.7537
G1 X40.1138 Y86.9327 Z-10.5919
G2 X42.7716 Y85.9654 Z-10.6103 I0.8452 J-1.8126
G1 X56.718 Y56.0572 Z-10.8032
G3 X58.7114 Y55.3317 Z-10.8169 I1.3595 J0.6339
G2 X60.4019 Y51.7065 Z-10.8537 I0.8452 J-1.8126
G1 X46.8073 Y45.3672 Z-10.9414
G3 X46.0817 Y43.3738 Z-10.9551 I0.6339 J-1.3595
G1 X58.7603 Y16.1846 Z-11.1305
G3 X60.7537 Y15.459 Z-11.1443 I1.3595 J0.6339
G1 X67.0978 Y18.4173 Z-11.1852
G3 X67.8533 Y20.3421 Z-11.1985 I-0.6339 J1.3595
G1 X64.0144 Y29.7785 Z-11.2581
G2 X65.0217 Y32.3448 Z-11.2759 I1.8526 J0.7537
G1 X65.4709 Y32.5543 Z-11.2787
G2 X68.1287 Y31.5869 Z-11.2971 I0.8452 J-1.8126
G1 X72.3549 Y22.5238 Z-11.3556
G3 X74.3483 Y21.7983 Z-11.3693 I1.3595 J0.6339
G1 X77.0672 Y23.0662 Z-11.3869
G3 X77.7928 Y25.0595 Z-11.4006 I-0.6339 J1.3595
G2 X81.418 Y26.75 Z-11.4374 I1.8126 J0.8452
G1 X83.9537 Y21.3122 Z-11.4725
G3 X85.9471 Y20.5866 Z-11.4862 I1.3595 J0.6339
G1 X121.1114 Y36.984 Z-11.713
G2 X138.9094 Y43.2079 Z-11.8234 I39.9374 J-85.6461
G1 X328.0755 Y88.7944 Z-12.9608
G3 X333.3845 Y99.8132 Z-13.0426 I-1.8508 J7.6801
G1 X330.0202 Y107.0281 Z-13.0891
G3 X318.2658 Y113.3069 Z-13.1727 I-10.06 J-4.6911
G1 X64.529 Y74.1162 Z-14.6735
G3 X64.412 Y74.0933 Z-14.6742 I0.229 J-1.4824
G2 X62.1382 Y75.1942 Z-14.6902 I-0.4612 J1.9461
G1 X40.291 Y122.0457 Z-14.9923
G3 X39.318 Y122.8612 Z-15.0 I-1.3595 J-0.6339
G3 X38.2638 Y122.755 Z-15.0052 I-0.3865 J-1.4494
G1 X29.3064 Y118.3023 Z-15.0531
G3 X28.6146 Y116.3251 Z-15.0643 I0.6677 J-1.3432
G1 X29.0424 Y115.4078 Z-15.0691
G1 X31.3609 Y110.4357 Z-15.0954
G3 X31.6604 Y110.0083 Z-15.0979 I1.3595 J0.6339
G3 X33.3543 Y109.7101 Z-15.1067 I1.06 J1.0613
G2 X35.0448 Y106.0849 Z-15.1368 I0.8452 J-1.8126
G1 X21.4502 Y99.7456 Z-15.2087
G3 X20.7247 Y97.7523 Z-15.22 I0.6339 J-1.3595
G1 X33.4032 Y70.563 Z-15.3638
G3 X35.3966 Y69.8375 Z-15.3751 I1.3595 J0.6339
G1 X41.7407 Y72.7958 Z-15.4086
G3 X42.4962 Y74.7205 Z-15.4196 I-0.6339 J1.3595
G1 X38.6573 Y84.157 Z-15.4684
G2 X39.6646 Y86.7233 Z-15.483 I1.8526 J0.7537
G1 X40.1138 Y86.9327 Z-15.4854
G2 X42.7716 Y85.9654 Z-15.5004 I0.8452 J-1.8126
G1 X56.718 Y56.0572 Z-15.6586
G3 X58.7114 Y55.3317 Z-15.6699 I1.3595 J0.6339
G2 X60.4019 Y51.7065 Z-15.7 I0.8452 J-1.8126
G1 X54.0492 Y48.7441 Z-15.7336
G1 X48.6113 Y46.2084 Z-15.7624
G1 X46.8073 Y45.3672 Z-15.7719
G3 X46.0817 Y43.3738 Z-15.7832 I0.6339 J-1.3595
G1 X58.7603 Y16.1846 Z-15.927
G3 X60.7537 Y15.459 Z-15.9383 I1.3595 J0.6339
G1 X67.0978 Y18.4173 Z-15.9719
G3 X67.8533 Y20.3421 Z-15.9828 I-0.6339 J1.3595
G1 X64.0144 Y29.7785 Z-16.0316
G2 X65.0217 Y32.3448 Z-16.0462 I1.8526 J0.7537
G1 X65.4709 Y32.5543 Z-16.0486
G2 X68.1287 Y31.5869 Z-16.0636 I0.8452 J-1.8126
G1 X72.3549 Y22.5238 Z-16.1116
G3 X74.3483 Y21.7983 Z-16.1229 I1.3595 J0.6339
G1 X77.0672 Y23.0662 Z-16.1372
G3 X77.7928 Y25.0595 Z-16.1485 I-0.6339 J1.3595
G2 X81.418 Y26.75 Z-16.1786 I1.8126 J0.8452
G1 X83.9537 Y21.3122 Z-16.2074
G3 X85.9471 Y20.5866 Z-16.2187 I1.3595 J0.6339
G1 X121.1114 Y36.984 Z-16.4047
G2 X126.221 Y39.1859 Z-16.4314 I39.9374 J-85.6461
G0 Z-16.1
G2 X131.866 Y41.219 I34.8279 J-87.848
G1 F300.0 Z-16.4601
G2 F800.0 X138.9094 Y43.2079 Z-16.4952 I29.1828 J-89.8811
G1 X262.8664 Y73.0799 Z-17.1064
G0 Z-16.1
G1 X268.6994 Y74.4855
G1 F300.0 Z-17.1351
G1 F800.0 X328.0755 Y88.7944 Z-17.4279
G3 X333.3845 Y99.8132 Z-17.4949 I-1.8508 J7.6801
G1 X330.0202 Y107.0281 Z-17.5331
G3 X318.2658 Y113.3069 Z-17.6016 I-10.06 J-4.6911
G1 X276.5013 Y106.8562 Z-17.8042
G0 Z-16.1
G1 X270.5716 Y105.9403
G1 F300.0 Z-17.8329
G1 F800.0 X137.163 Y85.3348 Z-18.48
G0 Z-16.1
G1 X131.2333 Y84.4189
G1 F300.0 Z-18.5087
G1 F800.0 X64.529 Y74.1162 Z-18.8323
G3 X64.412 Y74.0933 Z-18.8328 I0.229 J-1.4824
G2 X62.1382 Y75.1942 Z-18.8459 I-0.4612 J1.9461
G1 X40.291 Y122.0457 Z-19.0937
G3 X39.318 Y122.8612 Z-19.1 I-1.3595 J-0.6339
G3 X38.2638 Y122.755 I-0.3865 J-1.4494
G1 X29.3064 Y118.3023
G3 X28.6146 Y116.3251 I0.6677 J-1.3432
G1 X29.0424 Y115.4078
G0 Z-16.1
G1 X31.3609 Y110.4357
G3 X31.6604 Y110.0083 I1.3595 J0.6339
G1 F300.0 Z-19.1
G3 F800.0 X33.3543 Y109.7101 I1.06 J1.0613
G2 X35.0448 Y106.0849 I0.8452 J-1.8126
G1 X21.4502 Y99.7456
G3 X20.7247 Y97.7523 I0.6339 J-1.3595
G1 X33.4032 Y70.563
G3 X35.3966 Y69.8375 I1.3595 J0.6339
G1 X41.7407 Y72.7958
G3 X42.4962 Y74.7205 I-0.6339 J1.3595
G1 X38.6573 Y84.157
G2 X39.6646 Y86.7233 I1.8526 J0.7537
G1 X40.1138 Y86.9327
G2 X42.7716 Y85.9654 I0.8452 J-1.8126
G1 X56.718 Y56.0572
G3 X58.7114 Y55.3317 I1.3595 J0.6339
G2 X60.4019 Y51.7065 I0.8452 J-1.8126
G1 X54.0492 Y48.7441
G0 Z-16.1
G1 X48.6113 Y46.2084
G1 F300.0 Z-19.1
G1 F800.0 X46.8073 Y45.3672
G3 X46.0817 Y43.3738 I0.6339 J-1.3595
G1 X58.7603 Y16.1846
G3 X60.7537 Y15.459 I1.3595 J0.6339
G1 X67.0978 Y18.4173
G3 X67.8533 Y20.3421 I-0.6339 J1.3595
G1 X64.0144 Y29.7785
G2 X65.0217 Y32.3448 I1.8526 J0.7537
G1 X65.4709 Y32.5543
G2 X68.1287 Y31.5869 I0.8452 J-1.8126
G1 X72.3549 Y22.5238
G3 X74.3483 Y21.7983 I1.3595 J0.6339
G1 X77.0672 Y23.0662
G3 X77.7928 Y25.0595 I-0.6339 J1.3595
G2 X81.418 Y26.75 I1.8126 J0.8452
G1 X83.9537 Y21.3122
G3 X85.9471 Y20.5866 I1.3595 J0.6339
G1 X121.1114 Y36.984
G2 X126.221 Y39.1859 I39.9374 J-85.6461
G0 Z-16.1
G2 X131.866 Y41.219 I34.8279 J-87.848
G1 F300.0 Z-19.1
G2 F800.0 X138.9094 Y43.2079 I29.1828 J-89.8811
G1 X262.8664 Y73.0799
G0 Z-16.1
G1 X268.6994 Y74.4855
G0 Z-16.1351
G1 F300.0 Z-19.1
G1 F800.0 X328.0755 Y88.7944
G3 X333.3845 Y99.8132 I-1.8508 J7.6801
G1 X330.0202 Y107.0281
G3 X318.2658 Y113.3069 I-10.06 J-4.6911
G1 X276.5013 Y106.8562
G0 Z-16.1
G1 X270.5716 Y105.9403
G0 Z-16.8329
G1 F300.0 Z-19.1
G1 F800.0 X137.163 Y85.3348
G0 Z-16.1
G1 X131.2333 Y84.4189
G0 Z-17.5087
G1 F300.0 Z-19.1
G1 F800.0 X64.529 Y74.1162
G3 X64.412 Y74.0933 I0.229 J-1.4824
G2 X62.1382 Y75.1942 I-0.4612 J1.9461
G1 X40.291 Y122.0457
G3 X39.318 Y122.8612 I-1.3595 J-0.6339
G0 Z5.0
M5
M30
