( Made using CamBam - http://www.cambam.co.uk )
( Ken-Stool.Cutting-Files 9/4/2015 11:40:31 AM )
( T3 : 3.0 )
G21 G90 G64 G40
G0 Z5.0
( T3 : 3.0 )
T3 M6
( Pocket1 )
G17
M3 S1000
G0 X434.4053 Y270.3223
G0 Z1.0
G1 F300.0 Z-3.0
G3 F800.0 X434.1668 Y271.0965 I-22.0968 J-6.3823
G1 X435.784 Y269.8525
G3 X434.4053 Y270.3223 I-8.1037 J-21.5225
G1 F300.0 X433.2524 Y269.9893
G3 F800.0 X431.1226 Y274.9523 I-20.9439 J-6.0493
G1 X463.0805 Y250.3679
G1 X462.2254 Y249.2563
G1 X440.971 Y265.6068
G3 X433.4248 Y269.357 I-13.2907 J-17.2769
G3 X433.2524 Y269.9893 I-21.1163 J-5.4169
G1 F300.0 X432.0995 Y269.6563
G3 F800.0 X424.8691 Y280.2677 I-19.791 J-5.7163
G1 X396.4428 Y302.1354
G1 X396.9306 Y302.7695
G1 X464.7633 Y250.5873
G1 X462.4448 Y247.5735
G1 X440.2393 Y264.6557
G3 X432.4258 Y268.3734 I-12.5591 J-16.3258
G3 X432.0995 Y269.6563 I-20.1173 J-4.4334
G1 F300.0 X430.9467 Y269.3233
G3 F800.0 X424.1374 Y279.3166 I-18.6381 J-5.3833
G1 X394.76 Y301.916
G1 X396.7111 Y304.4523
G1 X466.4461 Y250.8068
G1 X462.6586 Y245.8834
G3 X462.1887 Y246.2565 I-12.2973 J-15.0015
G1 X439.5077 Y263.7046
G3 X431.4035 Y267.3669 I-11.8274 J-15.3747
G3 X430.9467 Y269.3233 I-19.0949 J-3.4268
G1 F300.0 X429.7938 Y268.9903
G3 F800.0 X423.4057 Y278.3655 I-17.4853 J-5.0503
G1 X393.0772 Y301.6965
G1 X396.4917 Y306.1351
G1 X468.1289 Y251.0262
G1 X462.8293 Y244.1372
G3 X461.457 Y245.3054 I-12.468 J-13.2553
G1 X438.776 Y262.7535
G3 X430.3509 Y266.3305 I-11.0957 J-14.4235
G3 X429.7938 Y268.9903 I-18.0423 J-2.3905
G1 F300.0 X428.6409 Y268.6574
G3 F800.0 X422.674 Y277.4143 I-16.3324 J-4.7173
G1 X391.3944 Y301.4771
G1 X396.2722 Y307.8179
G1 X469.8117 Y251.2457
G1 X462.9405 Y242.3136
G3 X460.7254 Y244.3543 I-12.5791 J-11.4317
G1 X438.0443 Y261.8023
G3 X429.2577 Y265.2542 I-10.364 J-13.4724
G3 X428.6409 Y268.6574 I-16.9491 J-1.3141
G1 F300.0 X427.4881 Y268.3244
G3 F800.0 X421.9423 Y276.4632 I-15.1795 J-4.3843
G1 X389.7116 Y301.2576
G1 X396.0528 Y309.5007
G1 X471.4945 Y251.4651
G1 X462.976 Y240.3917
G3 X459.9937 Y243.4032 I-12.6146 J-9.5098
G1 X437.3126 Y260.8512
G3 X428.1075 Y264.1217 I-9.6323 J-12.5213
G3 X427.4881 Y268.3244 I-15.799 J-0.1817
G1 F300.0 X426.3352 Y267.9914
G3 F800.0 X421.2107 Y275.5121 I-14.0266 J-4.0513
G1 X388.0287 Y301.0382
G1 X395.8333 Y311.1835
G1 X473.1773 Y251.6846
G1 X462.9107 Y238.3387
G3 X459.262 Y242.452 I-12.5493 J-7.4568
G1 X436.5809 Y259.9001
G3 X426.8718 Y262.9051 I-8.9007 J-11.5701
G3 X426.3352 Y267.9914 I-14.5633 J1.0349
G1 F300.0 X425.1823 Y267.6584
G3 F800.0 X420.479 Y274.561 I-12.8738 J-3.7184
G1 X386.3459 Y300.8187
G1 X395.6139 Y312.8663
G1 X474.8601 Y251.904
G1 X462.7015 Y236.0988
G3 X458.5303 Y241.5009 I-12.3402 J-5.2169
G1 X435.8493 Y258.9489
G3 X425.4933 Y261.5478 I-8.169 J-10.619
G3 X425.1823 Y267.6584 I-13.1847 J2.3922
G1 F300.0 X424.0294 Y267.3254
G3 F800.0 X419.7473 Y273.6098 I-11.7209 J-3.3854
G1 X384.6631 Y300.5993
G1 X395.3945 Y314.5491
G1 X476.5429 Y252.1234
G1 X462.2616 Y233.5588
G3 X457.7986 Y240.5498 I-11.9002 J-2.6769
G1 X435.1176 Y257.9978
G3 X423.8204 Y259.9007 I-7.4373 J-9.6679
G3 X424.0294 Y267.3254 I-11.5119 J4.0393
G1 F300.0 X422.8766 Y266.9924
G3 F800.0 X419.0156 Y272.6587 I-10.568 J-3.0524
G1 X382.9803 Y300.3798
G1 X395.175 Y316.232
G1 X478.2257 Y252.3429
G1 X461.3485 Y230.4039
G3 X457.067 Y239.5987 I-10.9872 J0.478
G1 X434.3859 Y257.0467
G3 X421.599 Y257.4932 I-6.7056 J-8.7168
G1 X422.5536 Y259.9352
G3 X422.8766 Y266.9924 I-10.2451 J4.0048
G0 Z5.0
G0 X344.7785 Y12.2753
G0 Z1.0
G1 F300.0 Z-3.0
G2 F800.0 X339.0051 Y10.9259 I-3.4634 J1.7929
G3 X344.7785 Y12.2753 I0.4764 J10.9873
G0 Z5.0
G0 X342.4666 Y16.4818
G0 Z1.0
G1 F300.0 Z-3.0
G3 F800.0 X345.0462 Y19.1847 I-2.9851 J5.4314
G1 X427.9638 Y188.2954
G2 X438.6281 Y205.4652 I90.9572 J-44.5977
G1 X455.2736 Y227.103
G3 X454.1402 Y235.7941 I-4.9123 J3.7789
G1 X431.4592 Y253.2422
G3 X421.908 Y250.5863 I-3.7789 J-4.9123
G1 X333.473 Y24.3513
G3 X335.5856 Y17.0932 I5.7723 J-2.2564
G3 X342.4666 Y16.4818 I3.8959 J4.82
G1 F300.0 X341.8898 Y17.5313
G3 F800.0 X343.9709 Y19.7119 I-2.4082 J4.3818
G1 X426.8885 Y188.8227
G2 X437.6789 Y206.1954 I92.0325 J-45.125
G1 X454.3244 Y227.8332
G3 X453.41 Y234.8449 I-3.963 J3.0487
G1 X430.729 Y252.293
G3 X423.0234 Y250.1503 I-3.0487 J-3.963
G1 X334.5884 Y23.9153
G3 X336.3161 Y18.0428 I4.6569 J-1.8204
G3 X341.8898 Y17.5313 I3.1654 J3.8704
G0 Z5.0
G0 X343.0446 Y15.4302
G0 Z1.0
G1 F300.0 Z-3.0
G2 F800.0 X334.8537 Y16.1418 I-3.563 J6.483
G2 X332.3554 Y24.7882 I4.3915 J5.9531
G1 X420.7904 Y251.0232
G2 X432.1909 Y254.1933 I6.8899 J-2.6933
G1 X454.8719 Y236.7453
G2 X456.2247 Y226.3713 I-4.5106 J-5.8634
G1 X439.5793 Y204.7335
G3 X429.0413 Y187.7671 I79.3418 J-61.0358
G1 X346.1237 Y18.6564
G2 X343.0446 Y15.4302 I-6.6421 J3.2567
G1 F300.0 X343.6226 Y14.3785
G2 F800.0 X334.1219 Y15.1905 I-4.141 J7.5346
G2 X331.2377 Y25.2251 I5.1233 J6.9044
G1 X419.6727 Y251.4601
G2 X432.9225 Y255.1444 I8.0076 J-3.1301
G1 X455.6036 Y237.6964
G2 X457.1759 Y225.6396 I-5.2423 J-6.8145
G1 X440.5304 Y204.0019
G3 X430.1187 Y187.2388 I78.3906 J-60.3042
G1 X347.2011 Y18.1281
G2 X343.6226 Y14.3785 I-7.7196 J3.785
G1 F300.0 X344.2005 Y13.3269
G2 F800.0 X333.3902 Y14.2393 I-4.719 J8.5863
G2 X330.1201 Y25.6619 I5.8551 J7.8556
G1 X418.5551 Y251.897
G2 X433.6542 Y256.0956 I9.1252 J-3.567
G1 X456.3353 Y238.6475
G2 X458.127 Y224.908 I-5.9739 J-7.7656
G1 X441.4815 Y203.2702
G3 X431.1962 Y186.7106 I77.4395 J-59.5725
G1 X348.2786 Y17.5998
G2 X344.2005 Y13.3269 I-8.7971 J4.3133
G0 Z5.0
G0 X346.1605 Y12.3659
G0 Z1.0
G1 F300.0 Z-3.0
G1 F800.0 X345.8942 Y11.8229
G2 X338.2054 Y10.0259 I-4.5792 J2.2452
G1 X331.9227 Y14.859
G2 X329.3064 Y24.6865 I5.2595 J6.6622
G3 X329.3285 Y24.7422 I-5.8456 J2.3494
G1 X421.436 Y260.3721
G3 X418.2839 Y271.7076 I-9.1274 J3.5679
G1 X381.2975 Y300.1604
G1 X394.9556 Y317.9148
G1 X479.9086 Y252.5623
G1 X441.8005 Y203.0248
G3 X431.5575 Y186.5334 I77.1206 J-59.3271
G1 X346.1605 Y12.3659
G1 F300.0 X347.2379 Y11.8376
G1 F800.0 X346.9717 Y11.2947
G2 X337.4737 Y9.0748 I-5.6566 J2.7735
G1 X331.1853 Y13.9124
G2 X328.193 Y25.134 I5.997 J7.6089
G3 X328.2109 Y25.1791 I-4.7321 J1.9019
G1 X420.3183 Y260.809
G3 X417.5522 Y270.7564 I-8.0098 J3.131
G1 X379.6147 Y299.9409
G1 X394.7361 Y319.5976
G1 X481.5914 Y252.7818
G1 X442.7516 Y202.2931
G3 X432.6349 Y186.0051 I76.1694 J-58.5954
G1 X347.2379 Y11.8376
G1 F300.0 X348.3154 Y11.3093
G1 F800.0 X348.0492 Y10.7664
G2 X336.7421 Y8.1236 I-6.7341 J3.3018
G1 X330.4482 Y12.9654
G2 X327.0796 Y25.5815 I6.7341 J8.5558
G3 X327.0932 Y25.616 I-3.6187 J1.4544
G1 X419.2007 Y261.2459
G3 X416.8206 Y269.8053 I-6.8921 J2.6941
G1 X377.9319 Y299.7215
G1 X394.5167 Y321.2804
G1 X483.2742 Y253.0012
G1 X443.7027 Y201.5615
G3 X433.7124 Y185.4768 I75.2183 J-57.8638
G1 X348.3154 Y11.3093
G1 F300.0 X349.3928 Y10.781
G1 F800.0 X349.1266 Y10.2381
G2 X336.0104 Y7.1725 I-7.8115 J3.8301
G1 X329.7113 Y12.0182
G2 X325.9661 Y26.029 I7.4709 J9.503
G3 X325.9756 Y26.0529 I-2.5052 J1.0069
G1 X418.083 Y261.6828
G3 X416.0889 Y268.8542 I-5.7745 J2.2572
G1 X376.8825 Y299.0148
G2 X376.7474 Y300.151 I0.4878 J0.6341
G3 X376.7854 Y300.1992 I-2.1021 J1.6945
G1 X393.8094 Y322.3291
G2 X394.9313 Y322.4754 I0.6341 J-0.4878
G1 X484.3229 Y253.7085
G2 X484.4692 Y252.5866 I-0.4878 J-0.6341
G1 X444.6538 Y200.8298
G3 X434.7898 Y184.9485 I74.2672 J-57.1321
G1 X349.3928 Y10.781
G1 F300.0 X350.4703 Y10.2527
G1 F800.0 X350.2041 Y9.7098
G2 X335.2787 Y6.2214 I-8.889 J4.3584
G1 X328.9748 Y11.0709
G2 X324.8527 Y26.4765 I8.2074 J10.4504
G3 X324.8579 Y26.4898 I-1.3918 J0.5594
G1 X416.9654 Y262.1197
G3 X415.3572 Y267.9031 I-4.6569 J1.8204
G1 X376.1508 Y298.0637
G2 X375.8132 Y300.9041 I1.2195 J1.5852
G3 X375.8342 Y300.9308 I-1.1678 J0.9414
G1 X392.8583 Y323.0608
G2 X395.663 Y323.4265 I1.5852 J-1.2195
G1 X485.0546 Y254.6596
G2 X485.4203 Y251.8549 I-1.2195 J-1.5852
G1 X445.605 Y200.0981
G3 X435.8673 Y184.4202 I73.3161 J-56.4004
G1 X350.4703 Y10.2527
G0 Z5.0
G0 X344.7785 Y12.2753
G0 Z-2.0
G1 F300.0 Z-6.0
G2 F800.0 X339.0051 Y10.9259 I-3.4634 J1.7929
G3 X344.7785 Y12.2753 I0.4764 J10.9873
G0 Z5.0
G0 X434.4053 Y270.3223
G0 Z-2.0
G1 F300.0 Z-6.0
G3 F800.0 X434.1668 Y271.0965 I-22.0968 J-6.3823
G1 X435.784 Y269.8525
G3 X434.4053 Y270.3223 I-8.1037 J-21.5225
G1 F300.0 X433.2524 Y269.9893
G3 F800.0 X431.1226 Y274.9523 I-20.9439 J-6.0493
G1 X463.0805 Y250.3679
G1 X462.2254 Y249.2563
G1 X440.971 Y265.6068
G3 X433.4248 Y269.357 I-13.2907 J-17.2769
G3 X433.2524 Y269.9893 I-21.1163 J-5.4169
G1 F300.0 X432.0995 Y269.6563
G3 F800.0 X424.8691 Y280.2677 I-19.791 J-5.7163
G1 X396.4428 Y302.1354
G1 X396.9306 Y302.7695
G1 X464.7633 Y250.5873
G1 X462.4448 Y247.5735
G1 X440.2393 Y264.6557
G3 X432.4258 Y268.3734 I-12.5591 J-16.3258
G3 X432.0995 Y269.6563 I-20.1173 J-4.4334
G1 F300.0 X430.9467 Y269.3233
G3 F800.0 X424.1374 Y279.3166 I-18.6381 J-5.3833
G1 X394.76 Y301.916
G1 X396.7111 Y304.4523
G1 X466.4461 Y250.8068
G1 X462.6586 Y245.8834
G3 X462.1887 Y246.2565 I-12.2973 J-15.0015
G1 X439.5077 Y263.7046
G3 X431.4035 Y267.3669 I-11.8274 J-15.3747
G3 X430.9467 Y269.3233 I-19.0949 J-3.4268
G1 F300.0 X429.7938 Y268.9903
G3 F800.0 X423.4057 Y278.3655 I-17.4853 J-5.0503
G1 X393.0772 Y301.6965
G1 X396.4917 Y306.1351
G1 X468.1289 Y251.0262
G1 X462.8293 Y244.1372
G3 X461.457 Y245.3054 I-12.468 J-13.2553
G1 X438.776 Y262.7535
G3 X430.3509 Y266.3305 I-11.0957 J-14.4235
G3 X429.7938 Y268.9903 I-18.0423 J-2.3905
G1 F300.0 X428.6409 Y268.6574
G3 F800.0 X422.674 Y277.4143 I-16.3324 J-4.7173
G1 X391.3944 Y301.4771
G1 X396.2722 Y307.8179
G1 X469.8117 Y251.2457
G1 X462.9405 Y242.3136
G3 X460.7254 Y244.3543 I-12.5791 J-11.4317
G1 X438.0443 Y261.8023
G3 X429.2577 Y265.2542 I-10.364 J-13.4724
G3 X428.6409 Y268.6574 I-16.9491 J-1.3141
G1 F300.0 X427.4881 Y268.3244
G3 F800.0 X421.9423 Y276.4632 I-15.1795 J-4.3843
G1 X389.7116 Y301.2576
G1 X396.0528 Y309.5007
G1 X471.4945 Y251.4651
G1 X462.976 Y240.3917
G3 X459.9937 Y243.4032 I-12.6146 J-9.5098
G1 X437.3126 Y260.8512
G3 X428.1075 Y264.1217 I-9.6323 J-12.5213
G3 X427.4881 Y268.3244 I-15.799 J-0.1817
G1 F300.0 X426.3352 Y267.9914
G3 F800.0 X421.2107 Y275.5121 I-14.0266 J-4.0513
G1 X388.0287 Y301.0382
G1 X395.8333 Y311.1835
G1 X473.1773 Y251.6846
G1 X462.9107 Y238.3387
G3 X459.262 Y242.452 I-12.5493 J-7.4568
G1 X436.5809 Y259.9001
G3 X426.8718 Y262.9051 I-8.9007 J-11.5701
G3 X426.3352 Y267.9914 I-14.5633 J1.0349
G1 F300.0 X425.1823 Y267.6584
G3 F800.0 X420.479 Y274.561 I-12.8738 J-3.7184
G1 X386.3459 Y300.8187
G1 X395.6139 Y312.8663
G1 X474.8601 Y251.904
G1 X462.7015 Y236.0988
G3 X458.5303 Y241.5009 I-12.3402 J-5.2169
G1 X435.8493 Y258.9489
G3 X425.4933 Y261.5478 I-8.169 J-10.619
G3 X425.1823 Y267.6584 I-13.1847 J2.3922
G1 F300.0 X424.0294 Y267.3254
G3 F800.0 X419.7473 Y273.6098 I-11.7209 J-3.3854
G1 X384.6631 Y300.5993
G1 X395.3945 Y314.5491
G1 X476.5429 Y252.1234
G1 X462.2616 Y233.5588
G3 X457.7986 Y240.5498 I-11.9002 J-2.6769
G1 X435.1176 Y257.9978
G3 X423.8204 Y259.9007 I-7.4373 J-9.6679
G3 X424.0294 Y267.3254 I-11.5119 J4.0393
G1 F300.0 X422.8766 Y266.9924
G3 F800.0 X419.0156 Y272.6587 I-10.568 J-3.0524
G1 X382.9803 Y300.3798
G1 X395.175 Y316.232
G1 X478.2257 Y252.3429
G1 X461.3485 Y230.4039
G3 X457.067 Y239.5987 I-10.9872 J0.478
G1 X434.3859 Y257.0467
G3 X421.599 Y257.4932 I-6.7056 J-8.7168
G1 X422.5536 Y259.9352
G3 X422.8766 Y266.9924 I-10.2451 J4.0048
G0 Z5.0
G0 X426.1354 Y254.3319
G0 Z-2.0
G1 F300.0 Z-6.0
G3 F800.0 X421.908 Y250.5863 I1.5449 J-6.002
G1 X333.473 Y24.3513
G3 X335.5856 Y17.0932 I5.7723 J-2.2564
G3 X345.0462 Y19.1847 I3.8959 J4.82
G1 X427.9638 Y188.2954
G2 X438.6281 Y205.4652 I90.9572 J-44.5977
G1 X455.2736 Y227.103
G3 X454.1402 Y235.7941 I-4.9123 J3.7789
G1 X431.4592 Y253.2422
G3 X426.1354 Y254.3319 I-3.7789 J-4.9123
G1 F300.0 X426.4339 Y253.1721
G3 F800.0 X423.0234 Y250.1503 I1.2464 J-4.8422
G1 X334.5884 Y23.9153
G3 X336.3161 Y18.0428 I4.6569 J-1.8204
G3 X343.9709 Y19.7119 I3.1654 J3.8704
G1 X426.8885 Y188.8227
G2 X437.6789 Y206.1954 I92.0325 J-45.125
G1 X454.3244 Y227.8332
G3 X453.41 Y234.8449 I-3.963 J3.0487
G1 X430.729 Y252.293
G3 X426.4339 Y253.1721 I-3.0487 J-3.963
G0 Z5.0
G0 X425.8362 Y255.494
G0 Z-2.0
G1 F300.0 Z-6.0
G2 F800.0 X432.1909 Y254.1933 I1.844 J-7.1641
G1 X454.8719 Y236.7453
G2 X456.2247 Y226.3713 I-4.5106 J-5.8634
G1 X439.5793 Y204.7335
G3 X429.0413 Y187.7671 I79.3418 J-61.0358
G1 X346.1237 Y18.6564
G2 X334.8537 Y16.1418 I-6.6421 J3.2567
G2 X332.3554 Y24.7882 I4.3915 J5.9531
G1 X420.7904 Y251.0232
G2 X425.8362 Y255.494 I6.8899 J-2.6933
G1 F300.0 X425.5371 Y256.6561
G2 F800.0 X432.9225 Y255.1444 I2.1432 J-8.3262
G1 X455.6036 Y237.6964
G2 X457.1759 Y225.6396 I-5.2423 J-6.8145
G1 X440.5304 Y204.0019
G3 X430.1187 Y187.2388 I78.3906 J-60.3042
G1 X347.2011 Y18.1281
G2 X334.1219 Y15.1905 I-7.7196 J3.785
G2 X331.2377 Y25.2251 I5.1233 J6.9044
G1 X419.6727 Y251.4601
G2 X425.5371 Y256.6561 I8.0076 J-3.1301
G1 F300.0 X425.238 Y257.8182
G2 F800.0 X433.6542 Y256.0956 I2.4423 J-9.4883
G1 X456.3353 Y238.6475
G2 X458.127 Y224.908 I-5.9739 J-7.7656
G1 X441.4815 Y203.2702
G3 X431.1962 Y186.7106 I77.4395 J-59.5725
G1 X348.2786 Y17.5998
G2 X333.3902 Y14.2393 I-8.7971 J4.3133
G2 X330.1201 Y25.6619 I5.8551 J7.8556
G1 X418.5551 Y251.897
G2 X425.238 Y257.8182 I9.1252 J-3.567
G0 Z5.0
G0 X421.0739 Y259.446
G0 Z-2.0
G1 F300.0 Z-6.0
G1 F800.0 X421.436 Y260.3721
G3 X418.2839 Y271.7076 I-9.1274 J3.5679
G1 X381.2975 Y300.1604
G1 X394.9556 Y317.9148
G1 X479.9086 Y252.5623
G1 X441.8005 Y203.0248
G3 X431.5575 Y186.5334 I77.1206 J-59.3271
G1 X345.8942 Y11.8229
G2 X338.2054 Y10.0259 I-4.5792 J2.2452
G1 X331.9227 Y14.859
G2 X329.3064 Y24.6865 I5.2595 J6.6622
G3 X329.3285 Y24.7422 I-5.8456 J2.3494
G1 X421.0739 Y259.446
G1 F300.0 X419.9563 Y259.8829
G1 F800.0 X420.3183 Y260.809
G3 X417.5522 Y270.7564 I-8.0098 J3.131
G1 X379.6147 Y299.9409
G1 X394.7361 Y319.5976
G1 X481.5914 Y252.7818
G1 X442.7516 Y202.2931
G3 X432.6349 Y186.0051 I76.1694 J-58.5954
G1 X346.9717 Y11.2947
G2 X337.4737 Y9.0748 I-5.6566 J2.7735
G1 X331.1853 Y13.9124
G2 X328.193 Y25.134 I5.997 J7.6089
G3 X328.2109 Y25.1791 I-4.7321 J1.9019
G1 X419.9563 Y259.8829
G1 F300.0 X418.8386 Y260.3197
G1 F800.0 X419.2007 Y261.2459
G3 X416.8206 Y269.8053 I-6.8921 J2.6941
G1 X377.9319 Y299.7215
G1 X394.5167 Y321.2804
G1 X483.2742 Y253.0012
G1 X443.7027 Y201.5615
G3 X433.7124 Y185.4768 I75.2183 J-57.8638
G1 X348.0492 Y10.7664
G2 X336.7421 Y8.1236 I-6.7341 J3.3018
G1 X330.4482 Y12.9654
G2 X327.0796 Y25.5815 I6.7341 J8.5558
G3 X327.0932 Y25.616 I-3.6187 J1.4544
G1 X418.8386 Y260.3197
G1 F300.0 X417.721 Y260.7566
G1 F800.0 X418.083 Y261.6828
G3 X416.0889 Y268.8542 I-5.7745 J2.2572
G1 X376.8825 Y299.0148
G2 X376.7474 Y300.151 I0.4878 J0.6341
G3 X376.7854 Y300.1992 I-2.1021 J1.6945
G1 X393.8094 Y322.3291
G2 X394.9313 Y322.4754 I0.6341 J-0.4878
G1 X484.3229 Y253.7085
G2 X484.4692 Y252.5866 I-0.4878 J-0.6341
G1 X444.6538 Y200.8298
G3 X434.7898 Y184.9485 I74.2672 J-57.1321
G1 X349.1266 Y10.2381
G2 X336.0104 Y7.1725 I-7.8115 J3.8301
G1 X329.7113 Y12.0182
G2 X325.9661 Y26.029 I7.4709 J9.503
G3 X325.9756 Y26.0529 I-2.5052 J1.0069
G1 X417.721 Y260.7566
G1 F300.0 X416.6034 Y261.1935
G1 F800.0 X416.9654 Y262.1197
G3 X415.3572 Y267.9031 I-4.6569 J1.8204
G1 X376.1508 Y298.0637
G2 X375.8132 Y300.9041 I1.2195 J1.5852
G3 X375.8342 Y300.9308 I-1.1678 J0.9414
G1 X392.8583 Y323.0608
G2 X395.663 Y323.4265 I1.5852 J-1.2195
G1 X485.0546 Y254.6596
G2 X485.4203 Y251.8549 I-1.2195 J-1.5852
G1 X445.605 Y200.0981
G3 X435.8673 Y184.4202 I73.3161 J-56.4004
G1 X350.2041 Y9.7098
G2 X335.2787 Y6.2214 I-8.889 J4.3584
G1 X328.9748 Y11.0709
G2 X324.8527 Y26.4765 I8.2074 J10.4504
G3 X324.8579 Y26.4898 I-1.3918 J0.5594
G1 X416.6034 Y261.1935
( Profile1 )
S1000
G0 Z5.0
G0 X325.8789 Y20.753
G0 Z1.0
G1 F300.0 Z0.0
G3 F800.0 X330.1884 Y12.6605 Z-0.0552 I11.0776 J0.7055
G1 X336.4982 Y7.8066 Z-0.1018
G3 X348.4083 Y10.5903 Z-0.1835 I4.8169 J6.2616
G1 X434.0715 Y185.3007 Z-1.321
G2 X444.0198 Y201.3176 Z-1.4314 I84.8495 J-41.603
G1 X467.6772 Y232.0703 Z-1.6582
G3 X467.4029 Y234.1738 Z-1.6719 I-1.1889 J0.9146
G1 X462.6472 Y237.8322 Z-1.707
G2 X465.0861 Y241.0027 Z-1.7437 I1.2195 J1.5852
G3 X467.1897 Y241.277 Z-1.7575 I0.9146 J1.1889
G1 X469.0189 Y243.6548 Z-1.775
G3 X468.7446 Y245.7583 Z-1.7888 I-1.1889 J0.9146
G1 X460.8185 Y251.8556 Z-1.8473
G2 X460.4528 Y254.6603 Z-1.8656 I1.2195 J1.5852
G1 X460.755 Y255.0531 Z-1.8685
G2 X463.479 Y255.4778 Z-1.8863 I1.5852 J-1.2195
G1 X471.8537 Y249.6771 Z-1.9459
G3 X473.8967 Y249.9956 Z-1.9592 I0.8541 J1.2331
G1 X478.1649 Y255.5439 Z-2.0001
G3 X477.8906 Y257.6474 Z-2.0139 I-1.1889 J0.9146
G1 X454.1124 Y275.9394 Z-2.1893
G3 X452.0089 Y275.6651 Z-2.203 I-0.9146 J-1.1889
G1 X442.8629 Y263.776 Z-2.2907
G2 X439.6924 Y266.2149 Z-2.3274 I-1.5852 J1.2195
G3 X439.4181 Y268.3184 Z-2.3412 I-1.1889 J0.9146
G1 X413.2621 Y288.4397 Z-2.5341
G2 X412.8964 Y291.2443 Z-2.5525 I1.2195 J1.5852
G1 X413.1986 Y291.6372 Z-2.5554
G2 X415.9226 Y292.0618 Z-2.5731 I1.5852 J-1.2195
G1 X424.2974 Y286.2612 Z-2.6327
G3 X426.3404 Y286.5797 Z-2.646 I0.8541 J1.2331
G1 X430.6085 Y292.1279 Z-2.687
G3 X430.3342 Y294.2314 Z-2.7007 I-1.1889 J0.9146
G1 X406.556 Y312.5234 Z-2.8761
G3 X404.4525 Y312.2491 Z-2.8899 I-0.9146 J-1.1889
G1 X395.3065 Y300.36 Z-2.9775
G2 X392.1361 Y302.799 Z-3.0143 I-1.5852 J1.2195
G3 X391.8618 Y304.9025 Z-3.028 I-1.1889 J0.9146
G1 X386.7112 Y308.8647 Z-3.066
G3 X384.6309 Y308.6198 Z-3.0796 I-0.9146 J-1.1889
G1 X378.3354 Y300.8462 Z-3.1381
G3 X378.5865 Y298.7133 Z-3.152 I1.1657 J-0.944
G1 X419.5602 Y267.1931 Z-3.4542
G2 X420.1399 Y264.7342 Z-3.4702 I-1.2195 J-1.5852
G3 X420.0921 Y264.6251 Z-3.4709 I1.3493 J-0.6553
G1 X326.6183 Y25.4997 Z-4.9717
G3 X325.8789 Y20.753 Z-5.0 I10.3382 J-4.0412
G3 X330.1884 Y12.6605 Z-5.0552 I11.0776 J0.7055
G1 X336.4982 Y7.8066 Z-5.1018
G3 X348.4083 Y10.5903 Z-5.1835 I4.8169 J6.2616
G1 X434.0715 Y185.3007 Z-6.321
G2 X444.0198 Y201.3176 Z-6.4314 I84.8495 J-41.603
G1 X467.6772 Y232.0703 Z-6.6582
G3 X467.4029 Y234.1738 Z-6.6719 I-1.1889 J0.9146
G1 X462.6472 Y237.8322 Z-6.707
G2 X465.0861 Y241.0027 Z-6.7437 I1.2195 J1.5852
G3 X467.1897 Y241.277 Z-6.7575 I0.9146 J1.1889
G1 X469.0189 Y243.6548 Z-6.775
G3 X468.7446 Y245.7583 Z-6.7888 I-1.1889 J0.9146
G1 X460.8185 Y251.8556 Z-6.8473
G2 X460.4528 Y254.6603 Z-6.8656 I1.2195 J1.5852
G1 X460.755 Y255.0531 Z-6.8685
G2 X463.479 Y255.4778 Z-6.8863 I1.5852 J-1.2195
G1 X471.8537 Y249.6771 Z-6.9459
G3 X473.8967 Y249.9956 Z-6.9592 I0.8541 J1.2331
G1 X478.1649 Y255.5439 Z-7.0001
G3 X477.8906 Y257.6474 Z-7.0139 I-1.1889 J0.9146
G1 X454.1124 Y275.9394 Z-7.1893
G3 X452.0089 Y275.6651 Z-7.203 I-0.9146 J-1.1889
G1 X442.8629 Y263.776 Z-7.2907
G2 X439.6924 Y266.2149 Z-7.3274 I-1.5852 J1.2195
G3 X439.4181 Y268.3184 Z-7.3412 I-1.1889 J0.9146
G1 X413.2621 Y288.4397 Z-7.5341
G2 X412.8964 Y291.2443 Z-7.5525 I1.2195 J1.5852
G1 X413.1986 Y291.6372 Z-7.5554
G2 X415.9226 Y292.0618 Z-7.5731 I1.5852 J-1.2195
G1 X424.2974 Y286.2612 Z-7.6327
G3 X426.3404 Y286.5797 Z-7.646 I0.8541 J1.2331
G1 X430.6085 Y292.1279 Z-7.687
G3 X430.3342 Y294.2314 Z-7.7007 I-1.1889 J0.9146
G1 X406.556 Y312.5234 Z-7.8761
G3 X404.4525 Y312.2491 Z-7.8899 I-0.9146 J-1.1889
G1 X395.3065 Y300.36 Z-7.9775
G2 X392.1361 Y302.799 Z-8.0143 I-1.5852 J1.2195
G3 X391.8618 Y304.9025 Z-8.028 I-1.1889 J0.9146
G1 X386.7112 Y308.8647 Z-8.066
G3 X384.6309 Y308.6198 Z-8.0796 I-0.9146 J-1.1889
G1 X378.3354 Y300.8462 Z-8.1381
G3 X378.5865 Y298.7133 Z-8.152 I1.1657 J-0.944
G1 X419.5602 Y267.1931 Z-8.4542
G2 X420.1399 Y264.7342 Z-8.4702 I-1.2195 J-1.5852
G3 X420.0921 Y264.6251 Z-8.4709 I1.3493 J-0.6553
G1 X326.6183 Y25.4997 Z-9.9717
G3 X325.8789 Y20.753 Z-10.0 I10.3382 J-4.0412
G3 X330.1884 Y12.6605 Z-10.0552 I11.0776 J0.7055
G1 X336.4982 Y7.8066 Z-10.1018
G3 X348.4083 Y10.5903 Z-10.1835 I4.8169 J6.2616
G1 X434.0715 Y185.3007 Z-11.321
G2 X444.0198 Y201.3176 Z-11.4314 I84.8495 J-41.603
G1 X467.6772 Y232.0703 Z-11.6582
G3 X467.4029 Y234.1738 Z-11.6719 I-1.1889 J0.9146
G1 X462.6472 Y237.8322 Z-11.707
G2 X465.0861 Y241.0027 Z-11.7437 I1.2195 J1.5852
G3 X467.1897 Y241.277 Z-11.7575 I0.9146 J1.1889
G1 X469.0189 Y243.6548 Z-11.775
G3 X468.7446 Y245.7583 Z-11.7888 I-1.1889 J0.9146
G1 X460.8185 Y251.8556 Z-11.8473
G2 X460.4528 Y254.6603 Z-11.8656 I1.2195 J1.5852
G1 X460.755 Y255.0531 Z-11.8685
G2 X463.479 Y255.4778 Z-11.8863 I1.5852 J-1.2195
G1 X471.8537 Y249.6771 Z-11.9459
G3 X473.8967 Y249.9956 Z-11.9592 I0.8541 J1.2331
G1 X478.1649 Y255.5439 Z-12.0001
G3 X477.8906 Y257.6474 Z-12.0139 I-1.1889 J0.9146
G1 X454.1124 Y275.9394 Z-12.1893
G3 X452.0089 Y275.6651 Z-12.203 I-0.9146 J-1.1889
G1 X442.8629 Y263.776 Z-12.2907
G2 X439.6924 Y266.2149 Z-12.3274 I-1.5852 J1.2195
G3 X439.4181 Y268.3184 Z-12.3412 I-1.1889 J0.9146
G1 X413.2621 Y288.4397 Z-12.5341
G2 X412.8964 Y291.2443 Z-12.5525 I1.2195 J1.5852
G1 X413.1986 Y291.6372 Z-12.5554
G2 X415.9226 Y292.0618 Z-12.5731 I1.5852 J-1.2195
G1 X424.2974 Y286.2612 Z-12.6327
G3 X426.3404 Y286.5797 Z-12.646 I0.8541 J1.2331
G1 X430.6085 Y292.1279 Z-12.687
G3 X430.3342 Y294.2314 Z-12.7007 I-1.1889 J0.9146
G1 X406.556 Y312.5234 Z-12.8761
G3 X404.4525 Y312.2491 Z-12.8899 I-0.9146 J-1.1889
G1 X395.3065 Y300.36 Z-12.9775
G2 X392.1361 Y302.799 Z-13.0143 I-1.5852 J1.2195
G3 X391.8618 Y304.9025 Z-13.028 I-1.1889 J0.9146
G1 X386.7112 Y308.8647 Z-13.066
G3 X384.6309 Y308.6198 Z-13.0796 I-0.9146 J-1.1889
G1 X378.3354 Y300.8462 Z-13.1381
G3 X378.5865 Y298.7133 Z-13.152 I1.1657 J-0.944
G1 X419.5602 Y267.1931 Z-13.4542
G2 X420.1399 Y264.7342 Z-13.4702 I-1.2195 J-1.5852
G3 X420.0921 Y264.6251 Z-13.4709 I1.3493 J-0.6553
G1 X326.6183 Y25.4997 Z-14.9717
G3 X325.8789 Y20.753 Z-15.0 I10.3382 J-4.0412
G3 X330.1884 Y12.6605 Z-15.0453 I11.0776 J0.7055
G1 X336.4982 Y7.8066 Z-15.0835
G3 X348.4083 Y10.5903 Z-15.1505 I4.8169 J6.2616
G1 X364.1868 Y42.7706 Z-15.3223
G1 X366.8283 Y48.1578 Z-15.3511
G1 X426.257 Y169.3629 Z-15.9981
G1 X428.8985 Y174.7502 Z-16.0269
G1 X434.0715 Y185.3007 Z-16.0832
G2 X444.0198 Y201.3176 Z-16.1737 I84.8495 J-41.603
G1 X467.6772 Y232.0703 Z-16.3597
G3 X467.4029 Y234.1738 Z-16.371 I-1.1889 J0.9146
G1 X462.6472 Y237.8322 Z-16.3997
G2 X465.0861 Y241.0027 Z-16.4299 I1.2195 J1.5852
G3 X467.1897 Y241.277 Z-16.4412 I0.9146 J1.1889
G1 X469.0189 Y243.6548 Z-16.4555
G3 X468.7446 Y245.7583 Z-16.4668 I-1.1889 J0.9146
G1 X460.8185 Y251.8556 Z-16.5148
G2 X460.4528 Y254.6603 Z-16.5298 I1.2195 J1.5852
G1 X460.755 Y255.0531 Z-16.5322
G2 X463.479 Y255.4778 Z-16.5468 I1.5852 J-1.2195
G1 X471.8537 Y249.6771 Z-16.5956
G3 X473.8967 Y249.9956 Z-16.6065 I0.8541 J1.2331
G1 X478.1649 Y255.5439 Z-16.6401
G3 X477.8906 Y257.6474 Z-16.6514 I-1.1889 J0.9146
G1 X472.5365 Y261.7662 Z-16.6838
G0 Z-16.1
G1 X467.7808 Y265.4246
G1 F300.0 Z-16.7125
G1 F800.0 X454.1124 Y275.9394 Z-16.7952
G3 X452.0089 Y275.6651 Z-16.8065 I-0.9146 J-1.1889
G1 X442.8629 Y263.776 Z-16.8784
G2 X439.6924 Y266.2149 Z-16.9085 I-1.5852 J1.2195
G3 X439.4181 Y268.3184 Z-16.9198 I-1.1889 J0.9146
G1 X413.2621 Y288.4397 Z-17.078
G2 X412.8964 Y291.2443 Z-17.093 I1.2195 J1.5852
G1 X413.1986 Y291.6372 Z-17.0954
G2 X415.9226 Y292.0618 Z-17.11 I1.5852 J-1.2195
G1 X424.2974 Y286.2612 Z-17.1588
G3 X426.3404 Y286.5797 Z-17.1697 I0.8541 J1.2331
G1 X430.6085 Y292.1279 Z-17.2033
G3 X430.3342 Y294.2314 Z-17.2146 I-1.1889 J0.9146
G1 X406.556 Y312.5234 Z-17.3584
G3 X404.4525 Y312.2491 Z-17.3697 I-0.9146 J-1.1889
G1 X404.3024 Y312.054 Z-17.3709
G0 Z-16.1
G1 X400.644 Y307.2983
G1 F300.0 Z-17.3996
G1 F800.0 X395.3065 Y300.36 Z-17.4416
G2 X392.1361 Y302.799 Z-17.4717 I-1.5852 J1.2195
G3 X391.8618 Y304.9025 Z-17.483 I-1.1889 J0.9146
G1 X386.7112 Y308.8647 Z-17.5141
G3 X384.6309 Y308.6198 Z-17.5253 I-0.9146 J-1.1889
G1 X378.3354 Y300.8462 Z-17.5732
G3 X378.5865 Y298.7133 Z-17.5847 I1.1657 J-0.944
G1 X419.5602 Y267.1931 Z-17.8325
G2 X420.1399 Y264.7342 Z-17.8456 I-1.2195 J-1.5852
G3 X420.0921 Y264.6251 Z-17.8461 I1.3493 J-0.6553
G1 X404.7065 Y225.2655 Z-18.0487
G0 Z-16.1
G1 X402.5221 Y219.6773
G1 F300.0 Z-18.0775
G1 F800.0 X353.3758 Y93.951 Z-18.7245
G0 Z-16.1
G1 X351.1914 Y88.3628
G1 F300.0 Z-18.7533
G1 F800.0 X326.6183 Y25.4997 Z-19.0768
G3 X325.8789 Y20.753 Z-19.1 I10.3382 J-4.0412
G3 X330.1884 Y12.6605 I11.0776 J0.7055
G1 X336.4982 Y7.8066
G3 X348.4083 Y10.5903 I4.8169 J6.2616
G1 X364.1868 Y42.7706
G0 Z-16.1
G1 X366.8283 Y48.1578
G1 F300.0 Z-19.1
G1 F800.0 X426.257 Y169.3629
G0 Z-16.1
G1 X428.8985 Y174.7502
G1 F300.0 Z-19.1
G1 F800.0 X434.0715 Y185.3007
G2 X444.0198 Y201.3176 I84.8495 J-41.603
G1 X467.6772 Y232.0703
G3 X467.4029 Y234.1738 I-1.1889 J0.9146
G1 X462.6472 Y237.8322
G2 X465.0861 Y241.0027 I1.2195 J1.5852
G3 X467.1897 Y241.277 I0.9146 J1.1889
G1 X469.0189 Y243.6548
G3 X468.7446 Y245.7583 I-1.1889 J0.9146
G1 X460.8185 Y251.8556
G2 X460.4528 Y254.6603 I1.2195 J1.5852
G1 X460.755 Y255.0531
G2 X463.479 Y255.4778 I1.5852 J-1.2195
G1 X471.8537 Y249.6771
G3 X473.8967 Y249.9956 I0.8541 J1.2331
G1 X478.1649 Y255.5439
G3 X477.8906 Y257.6474 I-1.1889 J0.9146
G1 X472.5365 Y261.7662
G0 Z-16.1
G1 X467.7808 Y265.4246
G1 F300.0 Z-19.1
G1 F800.0 X454.1124 Y275.9394
G3 X452.0089 Y275.6651 I-0.9146 J-1.1889
G1 X442.8629 Y263.776
G2 X439.6924 Y266.2149 I-1.5852 J1.2195
G3 X439.4181 Y268.3184 I-1.1889 J0.9146
G1 X413.2621 Y288.4397
G2 X412.8964 Y291.2443 I1.2195 J1.5852
G1 X413.1986 Y291.6372
G2 X415.9226 Y292.0618 I1.5852 J-1.2195
G1 X424.2974 Y286.2612
G3 X426.3404 Y286.5797 I0.8541 J1.2331
G1 X430.6085 Y292.1279
G3 X430.3342 Y294.2314 I-1.1889 J0.9146
G1 X406.556 Y312.5234
G3 X404.4525 Y312.2491 I-0.9146 J-1.1889
G1 X404.3024 Y312.054
G0 Z-16.1
G1 X400.644 Y307.2983
G0 Z-16.3996
G1 F300.0 Z-19.1
G1 F800.0 X395.3065 Y300.36
G2 X392.1361 Y302.799 I-1.5852 J1.2195
G3 X391.8618 Y304.9025 I-1.1889 J0.9146
G1 X386.7112 Y308.8647
G3 X384.6309 Y308.6198 I-0.9146 J-1.1889
G1 X378.3354 Y300.8462
G3 X378.5865 Y298.7133 I1.1657 J-0.944
G1 X419.5602 Y267.1931
G2 X420.1399 Y264.7342 I-1.2195 J-1.5852
G3 X420.0921 Y264.6251 I1.3493 J-0.6553
G1 X404.7065 Y225.2655
G0 Z-16.1
G1 X402.5221 Y219.6773
G0 Z-17.0775
G1 F300.0 Z-19.1
G1 F800.0 X353.3758 Y93.951
G0 Z-16.1
G1 X351.1914 Y88.3628
G0 Z-17.7533
G1 F300.0 Z-19.1
G1 F800.0 X326.6183 Y25.4997
G3 X325.8789 Y20.753 I10.3382 J-4.0412
( Pocket2 )
S1000
G0 Z5.0
G0 X475.8799 Y69.7773
G0 Z1.0
G1 F300.0 Z-3.0
G1 F800.0 X473.5349 Y73.8388
G2 X475.8799 Y69.7773 I-22.0349 J-15.4296
G1 F300.0 X476.4236 Y70.0308
G2 F800.0 X478.3692 Y64.2657 I-24.9236 J-11.6216
G1 X470.0064 Y78.7504
G2 X476.4236 Y70.0308 I-18.5064 J-20.3412
G1 F300.0 X477.5112 Y70.538
G2 F800.0 X480.1986 Y58.6971 I-26.0112 J-12.1287
G1 X466.0986 Y83.119
G2 X477.5112 Y70.538 I-14.5986 J-24.7098
G0 Z5.0
G0 X474.9896 Y45.3002
G0 Z1.0
G1 F300.0 Z-3.0
G2 F800.0 X474.5976 Y44.6212 I-23.4896 J13.1091
G1 Y45.0738
G1 X474.9896 Y45.3002
G1 F300.0 X475.5136 Y45.0078
G2 F800.0 X473.9976 Y42.5944 I-24.0136 J13.4015
G1 Y45.4202
G1 X476.4448 Y46.8331
G2 X475.5136 Y45.0078 I-24.9448 J11.5761
G1 F300.0 X476.5614 Y44.423
G2 F800.0 X472.7721 Y39.143 I-25.0614 J13.9863
G3 X472.7976 Y39.7092 I-6.2721 J0.5662
G1 Y46.1131
G1 X478.3435 Y49.315
G3 X478.8211 Y49.6202 I-3.1488 J5.4539
G2 X476.5614 Y44.423 I-27.3211 J8.7891
G0 Z5.0
G0 X453.8449 Y31.6116
G0 Z1.0
G1 F300.0 Z-3.0
G2 F800.0 X449.1551 I-2.3449 J26.7976
G1 X453.8449
G1 F300.0 X453.8972 Y31.0139
G2 F800.0 X443.1372 Y32.2116 I-2.3972 J27.3953
G1 X459.8628
G2 X453.8972 Y31.0139 I-8.3628 J26.1976
G1 F300.0 X454.0018 Y29.8185
G2 F800.0 X437.4 Y33.4116 I-2.5018 J28.5907
G1 X465.6
G2 X454.0018 Y29.8185 I-14.1 J24.9976
G0 Z5.0
G0 X428.4024 Y44.6212
G0 Z1.0
G1 F300.0 Z-3.0
G2 F800.0 X428.0104 Y45.3002 I23.0976 J13.7881
G1 X428.4024 Y45.0738
G1 Y44.6212
G1 F300.0 X427.8872 Y44.3136
G2 F800.0 X426.5552 Y46.8331 I23.6128 J14.0956
G1 X429.0024 Y45.4202
G1 Y42.5944
G2 X427.8872 Y44.3136 I22.4976 J15.8148
G1 F300.0 X426.8568 Y43.6985
G2 F800.0 X424.1789 Y49.6202 I24.6432 J14.7107
G3 X424.6565 Y49.315 I3.6264 J5.1487
G1 X430.2024 Y46.1131
G1 Y39.7092
G3 X430.2279 Y39.143 I6.2976 J0.0
G2 X426.8568 Y43.6985 I21.2721 J19.2662
G0 Z5.0
G0 X427.1201 Y69.7773
G0 Z1.0
G1 F300.0 Z-3.0
G2 F800.0 X429.4651 Y73.8388 I24.3799 J-11.368
G1 X427.1201 Y69.7773
G1 F300.0 X427.6398 Y69.4773
G1 F800.0 X424.6308 Y64.2657
G2 X432.9936 Y78.7504 I26.8692 J-5.8564
G1 X427.6398 Y69.4773
G1 F300.0 X428.679 Y68.8773
G1 F800.0 X422.8014 Y58.6971
G2 X436.9014 Y83.119 I28.6986 J-0.2878
G1 X428.679 Y68.8773
G0 Z5.0
G0 X451.108 Y85.3064
G0 Z1.0
G1 F300.0 Z-3.0
G2 F800.0 X451.892 I0.392 J-26.8971
G1 X451.5 Y85.0801
G1 X451.108 Y85.3064
G1 F300.0 X451.0992 Y85.9063
G2 F800.0 X453.9472 Y85.8001 I0.4008 J-27.4971
G1 X451.5 Y84.3872
G1 X449.0528 Y85.8001
G2 X451.0992 Y85.9063 I2.4472 J-27.3909
G1 F300.0 X451.0817 Y87.1062
G2 F800.0 X457.549 Y86.4645 I0.4183 J-28.697
G3 X457.0459 Y86.2035 I2.6457 J-5.7149
G1 X451.5 Y83.0016
G1 X445.9541 Y86.2035
G3 X445.451 Y86.4645 I-3.1488 J-5.4539
G2 X451.0817 Y87.1062 I6.049 J-28.0553
G0 Z5.0
G0 X447.609 Y81.0912
G0 Z1.0
G1 F300.0 Z-3.0
G1 F800.0 X444.1541 Y83.0858
G3 X440.4691 Y82.0984 I-1.3488 J-2.3362
G1 X425.4691 Y56.1177
G3 X426.4565 Y52.4327 I2.3362 J-1.3488
G1 X433.4012 Y48.4232
G2 X433.8024 Y47.7283 I-0.4012 J-0.6949
G1 Y39.7092
G3 X436.5 Y37.0116 I2.6976 J0.0
G1 X466.5
G3 X469.1976 Y39.7092 I0.0 J2.6976
G1 Y47.7283
G2 X469.5988 Y48.4232 I0.8024 J0.0
G1 X476.5435 Y52.4327
G3 X477.5309 Y56.1177 I-1.3488 J2.3362
G1 X462.5309 Y82.0984
G3 X458.8459 Y83.0858 I-2.3362 J-1.3488
G1 X451.9012 Y79.0763
G2 X451.0988 I-0.4012 J0.6949
G1 X447.609 Y81.0912
G1 F300.0 X447.0102 Y80.054
G1 F800.0 X443.5553 Y82.0487
G3 X441.5063 Y81.4996 I-0.75 J-1.299
G1 X426.5063 Y55.5189
G3 X427.0553 Y53.4698 I1.299 J-0.75
G1 X434.0 Y49.4603
G2 X435.0 Y47.7283 I-1.0 J-1.7321
G1 Y39.7092
G3 X436.5 Y38.2092 I1.5 J0.0
G1 X466.5
G3 X468.0 Y39.7092 I0.0 J1.5
G1 Y47.7283
G2 X469.0 Y49.4603 I2.0 J0.0
G1 X475.9447 Y53.4698
G3 X476.4937 Y55.5189 I-0.75 J1.299
G1 X461.4937 Y81.4996
G3 X459.4447 Y82.0487 I-1.299 J-0.75
G1 X452.5 Y78.0391
G2 X450.5 I-1.0 J1.7321
G1 X447.0102 Y80.054
G0 Z5.0
G0 X448.209 Y82.1304
G0 Z1.0
G1 F300.0 Z-3.0
G1 F800.0 X451.5 Y80.2303
G1 X458.2459 Y84.125
G2 X463.5701 Y82.6984 I1.9488 J-3.3754
G1 X478.5701 Y56.7177
G2 X477.1435 Y51.3934 I-3.3754 J-1.9488
G1 X470.3976 Y47.4987
G1 Y39.7092
G2 X466.5 Y35.8116 I-3.8976 J0.0
G1 X436.5
G2 X432.6024 Y39.7092 I0.0 J3.8976
G1 Y47.4987
G1 X425.8565 Y51.3934
G2 X424.4299 Y56.7177 I1.9488 J3.3754
G1 X439.4299 Y82.6984
G2 X444.7541 Y84.125 I3.3754 J-1.9488
G1 X448.209 Y82.1304
G1 F300.0 X448.809 Y83.1696
G1 F800.0 X451.5 Y81.616
G1 X457.6459 Y85.1643
G2 X464.6093 Y83.2984 I2.5488 J-4.4147
G1 X479.6093 Y57.3177
G2 X477.7435 Y50.3542 I-4.4147 J-2.5488
G1 X471.5976 Y46.8059
G1 Y39.7092
G2 X466.5 Y34.6116 I-5.0976 J0.0
G1 X436.5
G2 X431.4024 Y39.7092 I0.0 J5.0976
G1 Y46.8059
G1 X425.2565 Y50.3542
G2 X423.3907 Y57.3177 I2.5488 J4.4147
G1 X438.3907 Y83.2984
G2 X445.3541 Y85.1643 I4.4147 J-2.5488
G1 X448.809 Y83.1696
G0 Z5.0
G0 X448.2694 Y88.1342
G0 Z1.0
G1 F300.0 Z-3.0
G2 F800.0 X481.4 Y58.4092 I3.2306 J-29.725
G2 X436.55 Y32.5151 I-29.9 J0.0
G2 Y84.3034 I14.95 J25.8942
G2 X448.2694 Y88.1342 I14.95 J-25.8942
G1 F300.0 X448.1397 Y89.3272
G2 F800.0 X482.6 Y58.4092 I3.3603 J-30.9179
G2 X435.95 Y31.4759 I-31.1 J0.0
G2 Y85.3426 I15.55 J26.9334
G2 X448.1397 Y89.3272 I15.55 J-26.9334
G1 F300.0 X448.0101 Y90.5202
G2 F800.0 X483.8 Y58.4092 I3.4899 J-32.1109
G2 X435.35 Y30.4366 I-32.3 J0.0
G2 Y86.3819 I16.15 J27.9726
G2 X448.0101 Y90.5202 I16.15 J-27.9726
G1 F300.0 X447.8804 Y91.7131
G2 F800.0 X485.0 Y58.4092 I3.6196 J-33.3039
G2 X434.75 Y29.3974 I-33.5 J0.0
G2 Y87.4211 I16.75 J29.0119
G2 X447.8804 Y91.7131 I16.75 J-29.0119
G0 Z5.0
G0 X451.108 Y85.3064
G0 Z-2.0
G1 F300.0 Z-6.0
G2 F800.0 X451.892 I0.392 J-26.8971
G1 X451.5 Y85.0801
G1 X451.108 Y85.3064
G1 F300.0 X451.0992 Y85.9063
G2 F800.0 X453.9472 Y85.8001 I0.4008 J-27.4971
G1 X451.5 Y84.3872
G1 X449.0528 Y85.8001
G2 X451.0992 Y85.9063 I2.4472 J-27.3909
G1 F300.0 X451.0817 Y87.1062
G2 F800.0 X457.549 Y86.4645 I0.4183 J-28.697
G3 X457.0459 Y86.2035 I2.6457 J-5.7149
G1 X451.5 Y83.0016
G1 X445.9541 Y86.2035
G3 X445.451 Y86.4645 I-3.1488 J-5.4539
G2 X451.0817 Y87.1062 I6.049 J-28.0553
G0 Z5.0
G0 X429.4651 Y73.8388
G0 Z-2.0
G1 F300.0 Z-6.0
G1 F800.0 X427.1201 Y69.7773
G2 X429.4651 Y73.8388 I24.3799 J-11.368
G1 F300.0 X429.9847 Y73.5388
G1 F800.0 X424.6308 Y64.2657
G2 X432.9936 Y78.7504 I26.8692 J-5.8564
G1 X429.9847 Y73.5388
G1 F300.0 X431.0239 Y72.9388
G1 F800.0 X422.8014 Y58.6971
G2 X436.9014 Y83.119 I28.6986 J-0.2878
G1 X431.0239 Y72.9388
G0 Z5.0
G0 X428.0104 Y45.3002
G0 Z-2.0
G1 F300.0 Z-6.0
G1 F800.0 X428.4024 Y45.0738
G1 Y44.6212
G2 X428.0104 Y45.3002 I23.0976 J13.7881
G1 F300.0 X428.3104 Y45.8198
G1 F800.0 X429.0024 Y45.4202
G1 Y42.5944
G2 X426.5552 Y46.8331 I22.4976 J15.8148
G1 X428.3104 Y45.8198
G1 F300.0 X428.9104 Y46.859
G1 F800.0 X430.2024 Y46.1131
G1 Y39.7092
G3 X430.2279 Y39.143 I6.2976 J0.0
G2 X424.1789 Y49.6202 I21.2721 J19.2662
G3 X424.6565 Y49.315 I3.6264 J5.1487
G1 X428.9104 Y46.859
G0 Z5.0
G0 X449.1551 Y31.6116
G0 Z-2.0
G1 F300.0 Z-6.0
G1 F800.0 X453.8449
G2 X449.1551 I-2.3449 J26.7976
G1 F300.0 X449.1028 Y31.0139
G2 F800.0 X443.1372 Y32.2116 I2.3972 J27.3953
G1 X459.8628
G2 X449.1028 Y31.0139 I-8.3628 J26.1976
G1 F300.0 X448.9982 Y29.8185
G2 F800.0 X437.4 Y33.4116 I2.5018 J28.5907
G1 X465.6
G2 X448.9982 Y29.8185 I-14.1 J24.9976
G0 Z5.0
G0 X474.5976 Y44.6212
G0 Z-2.0
G1 F300.0 Z-6.0
G1 F800.0 Y45.0738
G1 X474.9896 Y45.3002
G2 X474.5976 Y44.6212 I-23.4896 J13.1091
G1 F300.0 X475.1128 Y44.3136
G2 F800.0 X473.9976 Y42.5944 I-23.6128 J14.0956
G1 Y45.4202
G1 X476.4448 Y46.8331
G2 X475.1128 Y44.3136 I-24.9448 J11.5761
G1 F300.0 X476.1432 Y43.6985
G2 F800.0 X472.7721 Y39.143 I-24.6432 J14.7107
G3 X472.7976 Y39.7092 I-6.2721 J0.5662
G1 Y46.1131
G1 X478.3435 Y49.315
G3 X478.8211 Y49.6202 I-3.1488 J5.4539
G2 X476.1432 Y43.6985 I-27.3211 J8.7891
G0 Z5.0
G0 X475.8799 Y69.7773
G0 Z-2.0
G1 F300.0 Z-6.0
G1 F800.0 X473.5349 Y73.8388
G2 X475.8799 Y69.7773 I-22.0349 J-15.4296
G1 F300.0 X476.4236 Y70.0308
G2 F800.0 X478.3692 Y64.2657 I-24.9236 J-11.6216
G1 X470.0064 Y78.7504
G2 X476.4236 Y70.0308 I-18.5064 J-20.3412
G1 F300.0 X477.5112 Y70.538
G2 F800.0 X480.1986 Y58.6971 I-26.0112 J-12.1287
G1 X466.0986 Y83.119
G2 X477.5112 Y70.538 I-14.5986 J-24.7098
G0 Z5.0
G0 X471.2818 Y66.9414
G0 Z-2.0
G1 F300.0 Z-6.0
G1 F800.0 X462.5309 Y82.0984
G3 X458.8459 Y83.0858 I-2.3362 J-1.3488
G1 X451.9012 Y79.0763
G2 X451.0988 I-0.4012 J0.6949
G1 X444.1541 Y83.0858
G3 X440.4691 Y82.0984 I-1.3488 J-2.3362
G1 X425.4691 Y56.1177
G3 X426.4565 Y52.4327 I2.3362 J-1.3488
G1 X433.4012 Y48.4232
G2 X433.8024 Y47.7283 I-0.4012 J-0.6949
G1 Y39.7092
G3 X436.5 Y37.0116 I2.6976 J0.0
G1 X466.5
G3 X469.1976 Y39.7092 I0.0 J2.6976
G1 Y47.7283
G2 X469.5988 Y48.4232 I0.8024 J0.0
G1 X476.5435 Y52.4327
G3 X477.5309 Y56.1177 I-1.3488 J2.3362
G1 X471.2818 Y66.9414
G1 F300.0 X470.2446 Y66.3426
G1 F800.0 X461.4937 Y81.4996
G3 X459.4447 Y82.0487 I-1.299 J-0.75
G1 X452.5 Y78.0391
G2 X450.5 I-1.0 J1.7321
G1 X443.5553 Y82.0487
G3 X441.5063 Y81.4996 I-0.75 J-1.299
G1 X426.5063 Y55.5189
G3 X427.0553 Y53.4698 I1.299 J-0.75
G1 X434.0 Y49.4603
G2 X435.0 Y47.7283 I-1.0 J-1.7321
G1 Y39.7092
G3 X436.5 Y38.2092 I1.5 J0.0
G1 X466.5
G3 X468.0 Y39.7092 I0.0 J1.5
G1 Y47.7283
G2 X469.0 Y49.4603 I2.0 J0.0
G1 X475.9447 Y53.4698
G3 X476.4937 Y55.5189 I-0.75 J1.299
G1 X470.2446 Y66.3426
G0 Z5.0
G0 X472.321 Y67.5414
G0 Z-2.0
G1 F300.0 Z-6.0
G1 F800.0 X478.5701 Y56.7177
G2 X477.1435 Y51.3934 I-3.3754 J-1.9488
G1 X470.3976 Y47.4987
G1 Y39.7092
G2 X466.5 Y35.8116 I-3.8976 J0.0
G1 X436.5
G2 X432.6024 Y39.7092 I0.0 J3.8976
G1 Y47.4987
G1 X425.8565 Y51.3934
G2 X424.4299 Y56.7177 I1.9488 J3.3754
G1 X439.4299 Y82.6984
G2 X444.7541 Y84.125 I3.3754 J-1.9488
G1 X451.5 Y80.2303
G1 X458.2459 Y84.125
G2 X463.5701 Y82.6984 I1.9488 J-3.3754
G1 X472.321 Y67.5414
G1 F300.0 X473.3602 Y68.1414
G1 F800.0 X479.6093 Y57.3177
G2 X477.7435 Y50.3542 I-4.4147 J-2.5488
G1 X471.5976 Y46.8059
G1 Y39.7092
G2 X466.5 Y34.6116 I-5.0976 J0.0
G1 X436.5
G2 X431.4024 Y39.7092 I0.0 J5.0976
G1 Y46.8059
G1 X425.2565 Y50.3542
G2 X423.3907 Y57.3177 I2.5488 J4.4147
G1 X438.3907 Y83.2984
G2 X445.3541 Y85.1643 I4.4147 J-2.5488
G1 X451.5 Y81.616
G1 X457.6459 Y85.1643
G2 X464.6093 Y83.2984 I2.5488 J-4.4147
G1 X473.3602 Y68.1414
G0 Z5.0
G0 X478.8153 Y70.57
G0 Z-2.0
G1 F300.0 Z-6.0
G2 F800.0 X481.4 Y58.4092 I-27.3153 J-12.1607
G2 X436.55 Y32.5151 I-29.9 J0.0
G2 Y84.3034 I14.95 J25.8942
G2 X478.8153 Y70.57 I14.95 J-25.8942
G1 F300.0 X479.9116 Y71.058
G2 F800.0 X482.6 Y58.4092 I-28.4116 J-12.6488
G2 X435.95 Y31.4759 I-31.1 J0.0
G2 Y85.3426 I15.55 J26.9334
G2 X479.9116 Y71.058 I15.55 J-26.9334
G1 F300.0 X481.0078 Y71.5461
G2 F800.0 X483.8 Y58.4092 I-29.5078 J-13.1369
G2 X435.35 Y30.4366 I-32.3 J0.0
G2 Y86.3819 I16.15 J27.9726
G2 X481.0078 Y71.5461 I16.15 J-27.9726
G1 F300.0 X482.1041 Y72.0342
G2 F800.0 X485.0 Y58.4092 I-30.6041 J-13.6249
G2 X434.75 Y29.3974 I-33.5 J0.0
G2 Y87.4211 I16.75 J29.0119
G2 X482.1041 Y72.0342 I16.75 J-29.0119
G0 Z5.0
G0 X475.8799 Y69.7773
G0 Z-5.0
G1 F300.0 Z-9.0
G1 F800.0 X473.5349 Y73.8388
G2 X475.8799 Y69.7773 I-22.0349 J-15.4296
G1 F300.0 X476.4236 Y70.0308
G2 F800.0 X478.3692 Y64.2657 I-24.9236 J-11.6216
G1 X470.0064 Y78.7504
G2 X476.4236 Y70.0308 I-18.5064 J-20.3412
G1 F300.0 X477.5112 Y70.538
G2 F800.0 X480.1986 Y58.6971 I-26.0112 J-12.1287
G1 X466.0986 Y83.119
G2 X477.5112 Y70.538 I-14.5986 J-24.7098
G0 Z5.0
G0 X474.9896 Y45.3002
G0 Z-5.0
G1 F300.0 Z-9.0
G2 F800.0 X474.5976 Y44.6212 I-23.4896 J13.1091
G1 Y45.0738
G1 X474.9896 Y45.3002
G1 F300.0 X475.5136 Y45.0078
G2 F800.0 X473.9976 Y42.5944 I-24.0136 J13.4015
G1 Y45.4202
G1 X476.4448 Y46.8331
G2 X475.5136 Y45.0078 I-24.9448 J11.5761
G1 F300.0 X476.5614 Y44.423
G2 F800.0 X472.7721 Y39.143 I-25.0614 J13.9863
G3 X472.7976 Y39.7092 I-6.2721 J0.5662
G1 Y46.1131
G1 X478.3435 Y49.315
G3 X478.8211 Y49.6202 I-3.1488 J5.4539
G2 X476.5614 Y44.423 I-27.3211 J8.7891
G0 Z5.0
G0 X453.8449 Y31.6116
G0 Z-5.0
G1 F300.0 Z-9.0
G2 F800.0 X449.1551 I-2.3449 J26.7976
G1 X453.8449
G1 F300.0 X453.8972 Y31.0139
G2 F800.0 X443.1372 Y32.2116 I-2.3972 J27.3953
G1 X459.8628
G2 X453.8972 Y31.0139 I-8.3628 J26.1976
G1 F300.0 X454.0018 Y29.8185
G2 F800.0 X437.4 Y33.4116 I-2.5018 J28.5907
G1 X465.6
G2 X454.0018 Y29.8185 I-14.1 J24.9976
G0 Z5.0
G0 X428.4024 Y44.6212
G0 Z-5.0
G1 F300.0 Z-9.0
G2 F800.0 X428.0104 Y45.3002 I23.0976 J13.7881
G1 X428.4024 Y45.0738
G1 Y44.6212
G1 F300.0 X427.8872 Y44.3136
G2 F800.0 X426.5552 Y46.8331 I23.6128 J14.0956
G1 X429.0024 Y45.4202
G1 Y42.5944
G2 X427.8872 Y44.3136 I22.4976 J15.8148
G1 F300.0 X426.8568 Y43.6985
G2 F800.0 X424.1789 Y49.6202 I24.6432 J14.7107
G3 X424.6565 Y49.315 I3.6264 J5.1487
G1 X430.2024 Y46.1131
G1 Y39.7092
G3 X430.2279 Y39.143 I6.2976 J0.0
G2 X426.8568 Y43.6985 I21.2721 J19.2662
G0 Z5.0
G0 X427.1201 Y69.7773
G0 Z-5.0
G1 F300.0 Z-9.0
G2 F800.0 X429.4651 Y73.8388 I24.3799 J-11.368
G1 X427.1201 Y69.7773
G1 F300.0 X427.6398 Y69.4773
G1 F800.0 X424.6308 Y64.2657
G2 X432.9936 Y78.7504 I26.8692 J-5.8564
G1 X427.6398 Y69.4773
G1 F300.0 X428.679 Y68.8773
G1 F800.0 X422.8014 Y58.6971
G2 X436.9014 Y83.119 I28.6986 J-0.2878
G1 X428.679 Y68.8773
G0 Z5.0
G0 X451.108 Y85.3064
G0 Z-5.0
G1 F300.0 Z-9.0
G2 F800.0 X451.892 I0.392 J-26.8971
G1 X451.5 Y85.0801
G1 X451.108 Y85.3064
G1 F300.0 X451.0992 Y85.9063
G2 F800.0 X453.9472 Y85.8001 I0.4008 J-27.4971
G1 X451.5 Y84.3872
G1 X449.0528 Y85.8001
G2 X451.0992 Y85.9063 I2.4472 J-27.3909
G1 F300.0 X451.0817 Y87.1062
G2 F800.0 X457.549 Y86.4645 I0.4183 J-28.697
G3 X457.0459 Y86.2035 I2.6457 J-5.7149
G1 X451.5 Y83.0016
G1 X445.9541 Y86.2035
G3 X445.451 Y86.4645 I-3.1488 J-5.4539
G2 X451.0817 Y87.1062 I6.049 J-28.0553
G0 Z5.0
G0 X447.609 Y81.0912
G0 Z-5.0
G1 F300.0 Z-9.0
G1 F800.0 X444.1541 Y83.0858
G3 X440.4691 Y82.0984 I-1.3488 J-2.3362
G1 X425.4691 Y56.1177
G3 X426.4565 Y52.4327 I2.3362 J-1.3488
G1 X433.4012 Y48.4232
G2 X433.8024 Y47.7283 I-0.4012 J-0.6949
G1 Y39.7092
G3 X436.5 Y37.0116 I2.6976 J0.0
G1 X466.5
G3 X469.1976 Y39.7092 I0.0 J2.6976
G1 Y47.7283
G2 X469.5988 Y48.4232 I0.8024 J0.0
G1 X476.5435 Y52.4327
G3 X477.5309 Y56.1177 I-1.3488 J2.3362
G1 X462.5309 Y82.0984
G3 X458.8459 Y83.0858 I-2.3362 J-1.3488
G1 X451.9012 Y79.0763
G2 X451.0988 I-0.4012 J0.6949
G1 X447.609 Y81.0912
G1 F300.0 X447.0102 Y80.054
G1 F800.0 X443.5553 Y82.0487
G3 X441.5063 Y81.4996 I-0.75 J-1.299
G1 X426.5063 Y55.5189
G3 X427.0553 Y53.4698 I1.299 J-0.75
G1 X434.0 Y49.4603
G2 X435.0 Y47.7283 I-1.0 J-1.7321
G1 Y39.7092
G3 X436.5 Y38.2092 I1.5 J0.0
G1 X466.5
G3 X468.0 Y39.7092 I0.0 J1.5
G1 Y47.7283
G2 X469.0 Y49.4603 I2.0 J0.0
G1 X475.9447 Y53.4698
G3 X476.4937 Y55.5189 I-0.75 J1.299
G1 X461.4937 Y81.4996
G3 X459.4447 Y82.0487 I-1.299 J-0.75
G1 X452.5 Y78.0391
G2 X450.5 I-1.0 J1.7321
G1 X447.0102 Y80.054
G0 Z5.0
G0 X448.209 Y82.1304
G0 Z-5.0
G1 F300.0 Z-9.0
G1 F800.0 X451.5 Y80.2303
G1 X458.2459 Y84.125
G2 X463.5701 Y82.6984 I1.9488 J-3.3754
G1 X478.5701 Y56.7177
G2 X477.1435 Y51.3934 I-3.3754 J-1.9488
G1 X470.3976 Y47.4987
G1 Y39.7092
G2 X466.5 Y35.8116 I-3.8976 J0.0
G1 X436.5
G2 X432.6024 Y39.7092 I0.0 J3.8976
G1 Y47.4987
G1 X425.8565 Y51.3934
G2 X424.4299 Y56.7177 I1.9488 J3.3754
G1 X439.4299 Y82.6984
G2 X444.7541 Y84.125 I3.3754 J-1.9488
G1 X448.209 Y82.1304
G1 F300.0 X448.809 Y83.1696
G1 F800.0 X451.5 Y81.616
G1 X457.6459 Y85.1643
G2 X464.6093 Y83.2984 I2.5488 J-4.4147
G1 X479.6093 Y57.3177
G2 X477.7435 Y50.3542 I-4.4147 J-2.5488
G1 X471.5976 Y46.8059
G1 Y39.7092
G2 X466.5 Y34.6116 I-5.0976 J0.0
G1 X436.5
G2 X431.4024 Y39.7092 I0.0 J5.0976
G1 Y46.8059
G1 X425.2565 Y50.3542
G2 X423.3907 Y57.3177 I2.5488 J4.4147
G1 X438.3907 Y83.2984
G2 X445.3541 Y85.1643 I4.4147 J-2.5488
G1 X448.809 Y83.1696
G0 Z5.0
G0 X448.2694 Y88.1342
G0 Z-5.0
G1 F300.0 Z-9.0
G2 F800.0 X481.4 Y58.4092 I3.2306 J-29.725
G2 X436.55 Y32.5151 I-29.9 J0.0
G2 Y84.3034 I14.95 J25.8942
G2 X448.2694 Y88.1342 I14.95 J-25.8942
G1 F300.0 X448.1397 Y89.3272
G2 F800.0 X482.6 Y58.4092 I3.3603 J-30.9179
G2 X435.95 Y31.4759 I-31.1 J0.0
G2 Y85.3426 I15.55 J26.9334
G2 X448.1397 Y89.3272 I15.55 J-26.9334
G1 F300.0 X448.0101 Y90.5202
G2 F800.0 X483.8 Y58.4092 I3.4899 J-32.1109
G2 X435.35 Y30.4366 I-32.3 J0.0
G2 Y86.3819 I16.15 J27.9726
G2 X448.0101 Y90.5202 I16.15 J-27.9726
G1 F300.0 X447.8804 Y91.7131
G2 F800.0 X485.0 Y58.4092 I3.6196 J-33.3039
G2 X434.75 Y29.3974 I-33.5 J0.0
G2 Y87.4211 I16.75 J29.0119
G2 X447.8804 Y91.7131 I16.75 J-29.0119
G0 Z5.0
G0 X451.108 Y85.3064
G0 Z-8.0
G1 F300.0 Z-12.0
G2 F800.0 X451.892 I0.392 J-26.8971
G1 X451.5 Y85.0801
G1 X451.108 Y85.3064
G1 F300.0 X451.0992 Y85.9063
G2 F800.0 X453.9472 Y85.8001 I0.4008 J-27.4971
G1 X451.5 Y84.3872
G1 X449.0528 Y85.8001
G2 X451.0992 Y85.9063 I2.4472 J-27.3909
G1 F300.0 X451.0817 Y87.1062
G2 F800.0 X457.549 Y86.4645 I0.4183 J-28.697
G3 X457.0459 Y86.2035 I2.6457 J-5.7149
G1 X451.5 Y83.0016
G1 X445.9541 Y86.2035
G3 X445.451 Y86.4645 I-3.1488 J-5.4539
G2 X451.0817 Y87.1062 I6.049 J-28.0553
G0 Z5.0
G0 X429.4651 Y73.8388
G0 Z-8.0
G1 F300.0 Z-12.0
G1 F800.0 X427.1201 Y69.7773
G2 X429.4651 Y73.8388 I24.3799 J-11.368
G1 F300.0 X429.9847 Y73.5388
G1 F800.0 X424.6308 Y64.2657
G2 X432.9936 Y78.7504 I26.8692 J-5.8564
G1 X429.9847 Y73.5388
G1 F300.0 X431.0239 Y72.9388
G1 F800.0 X422.8014 Y58.6971
G2 X436.9014 Y83.119 I28.6986 J-0.2878
G1 X431.0239 Y72.9388
G0 Z5.0
G0 X428.0104 Y45.3002
G0 Z-8.0
G1 F300.0 Z-12.0
G1 F800.0 X428.4024 Y45.0738
G1 Y44.6212
G2 X428.0104 Y45.3002 I23.0976 J13.7881
G1 F300.0 X428.3104 Y45.8198
G1 F800.0 X429.0024 Y45.4202
G1 Y42.5944
G2 X426.5552 Y46.8331 I22.4976 J15.8148
G1 X428.3104 Y45.8198
G1 F300.0 X428.9104 Y46.859
G1 F800.0 X430.2024 Y46.1131
G1 Y39.7092
G3 X430.2279 Y39.143 I6.2976 J0.0
G2 X424.1789 Y49.6202 I21.2721 J19.2662
G3 X424.6565 Y49.315 I3.6264 J5.1487
G1 X428.9104 Y46.859
G0 Z5.0
G0 X449.1551 Y31.6116
G0 Z-8.0
G1 F300.0 Z-12.0
G1 F800.0 X453.8449
G2 X449.1551 I-2.3449 J26.7976
G1 F300.0 X449.1028 Y31.0139
G2 F800.0 X443.1372 Y32.2116 I2.3972 J27.3953
G1 X459.8628
G2 X449.1028 Y31.0139 I-8.3628 J26.1976
G1 F300.0 X448.9982 Y29.8185
G2 F800.0 X437.4 Y33.4116 I2.5018 J28.5907
G1 X465.6
G2 X448.9982 Y29.8185 I-14.1 J24.9976
G0 Z5.0
G0 X474.5976 Y44.6212
G0 Z-8.0
G1 F300.0 Z-12.0
G1 F800.0 Y45.0738
G1 X474.9896 Y45.3002
G2 X474.5976 Y44.6212 I-23.4896 J13.1091
G1 F300.0 X475.1128 Y44.3136
G2 F800.0 X473.9976 Y42.5944 I-23.6128 J14.0956
G1 Y45.4202
G1 X476.4448 Y46.8331
G2 X475.1128 Y44.3136 I-24.9448 J11.5761
G1 F300.0 X476.1432 Y43.6985
G2 F800.0 X472.7721 Y39.143 I-24.6432 J14.7107
G3 X472.7976 Y39.7092 I-6.2721 J0.5662
G1 Y46.1131
G1 X478.3435 Y49.315
G3 X478.8211 Y49.6202 I-3.1488 J5.4539
G2 X476.1432 Y43.6985 I-27.3211 J8.7891
G0 Z5.0
G0 X475.8799 Y69.7773
G0 Z-8.0
G1 F300.0 Z-12.0
G1 F800.0 X473.5349 Y73.8388
G2 X475.8799 Y69.7773 I-22.0349 J-15.4296
G1 F300.0 X476.4236 Y70.0308
G2 F800.0 X478.3692 Y64.2657 I-24.9236 J-11.6216
G1 X470.0064 Y78.7504
G2 X476.4236 Y70.0308 I-18.5064 J-20.3412
G1 F300.0 X477.5112 Y70.538
G2 F800.0 X480.1986 Y58.6971 I-26.0112 J-12.1287
G1 X466.0986 Y83.119
G2 X477.5112 Y70.538 I-14.5986 J-24.7098
G0 Z5.0
G0 X471.2818 Y66.9414
G0 Z-8.0
G1 F300.0 Z-12.0
G1 F800.0 X462.5309 Y82.0984
G3 X458.8459 Y83.0858 I-2.3362 J-1.3488
G1 X451.9012 Y79.0763
G2 X451.0988 I-0.4012 J0.6949
G1 X444.1541 Y83.0858
G3 X440.4691 Y82.0984 I-1.3488 J-2.3362
G1 X425.4691 Y56.1177
G3 X426.4565 Y52.4327 I2.3362 J-1.3488
G1 X433.4012 Y48.4232
G2 X433.8024 Y47.7283 I-0.4012 J-0.6949
G1 Y39.7092
G3 X436.5 Y37.0116 I2.6976 J0.0
G1 X466.5
G3 X469.1976 Y39.7092 I0.0 J2.6976
G1 Y47.7283
G2 X469.5988 Y48.4232 I0.8024 J0.0
G1 X476.5435 Y52.4327
G3 X477.5309 Y56.1177 I-1.3488 J2.3362
G1 X471.2818 Y66.9414
G1 F300.0 X470.2446 Y66.3426
G1 F800.0 X461.4937 Y81.4996
G3 X459.4447 Y82.0487 I-1.299 J-0.75
G1 X452.5 Y78.0391
G2 X450.5 I-1.0 J1.7321
G1 X443.5553 Y82.0487
G3 X441.5063 Y81.4996 I-0.75 J-1.299
G1 X426.5063 Y55.5189
G3 X427.0553 Y53.4698 I1.299 J-0.75
G1 X434.0 Y49.4603
G2 X435.0 Y47.7283 I-1.0 J-1.7321
G1 Y39.7092
G3 X436.5 Y38.2092 I1.5 J0.0
G1 X466.5
G3 X468.0 Y39.7092 I0.0 J1.5
G1 Y47.7283
G2 X469.0 Y49.4603 I2.0 J0.0
G1 X475.9447 Y53.4698
G3 X476.4937 Y55.5189 I-0.75 J1.299
G1 X470.2446 Y66.3426
G0 Z5.0
G0 X472.321 Y67.5414
G0 Z-8.0
G1 F300.0 Z-12.0
G1 F800.0 X478.5701 Y56.7177
G2 X477.1435 Y51.3934 I-3.3754 J-1.9488
G1 X470.3976 Y47.4987
G1 Y39.7092
G2 X466.5 Y35.8116 I-3.8976 J0.0
G1 X436.5
G2 X432.6024 Y39.7092 I0.0 J3.8976
G1 Y47.4987
G1 X425.8565 Y51.3934
G2 X424.4299 Y56.7177 I1.9488 J3.3754
G1 X439.4299 Y82.6984
G2 X444.7541 Y84.125 I3.3754 J-1.9488
G1 X451.5 Y80.2303
G1 X458.2459 Y84.125
G2 X463.5701 Y82.6984 I1.9488 J-3.3754
G1 X472.321 Y67.5414
G1 F300.0 X473.3602 Y68.1414
G1 F800.0 X479.6093 Y57.3177
G2 X477.7435 Y50.3542 I-4.4147 J-2.5488
G1 X471.5976 Y46.8059
G1 Y39.7092
G2 X466.5 Y34.6116 I-5.0976 J0.0
G1 X436.5
G2 X431.4024 Y39.7092 I0.0 J5.0976
G1 Y46.8059
G1 X425.2565 Y50.3542
G2 X423.3907 Y57.3177 I2.5488 J4.4147
G1 X438.3907 Y83.2984
G2 X445.3541 Y85.1643 I4.4147 J-2.5488
G1 X451.5 Y81.616
G1 X457.6459 Y85.1643
G2 X464.6093 Y83.2984 I2.5488 J-4.4147
G1 X473.3602 Y68.1414
G0 Z5.0
G0 X478.8153 Y70.57
G0 Z-8.0
G1 F300.0 Z-12.0
G2 F800.0 X481.4 Y58.4092 I-27.3153 J-12.1607
G2 X436.55 Y32.5151 I-29.9 J0.0
G2 Y84.3034 I14.95 J25.8942
G2 X478.8153 Y70.57 I14.95 J-25.8942
G1 F300.0 X479.9116 Y71.058
G2 F800.0 X482.6 Y58.4092 I-28.4116 J-12.6488
G2 X435.95 Y31.4759 I-31.1 J0.0
G2 Y85.3426 I15.55 J26.9334
G2 X479.9116 Y71.058 I15.55 J-26.9334
G1 F300.0 X481.0078 Y71.5461
G2 F800.0 X483.8 Y58.4092 I-29.5078 J-13.1369
G2 X435.35 Y30.4366 I-32.3 J0.0
G2 Y86.3819 I16.15 J27.9726
G2 X481.0078 Y71.5461 I16.15 J-27.9726
G1 F300.0 X482.1041 Y72.0342
G2 F800.0 X485.0 Y58.4092 I-30.6041 J-13.6249
G2 X434.75 Y29.3974 I-33.5 J0.0
G2 Y87.4211 I16.75 J29.0119
G2 X482.1041 Y72.0342 I16.75 J-29.0119
G0 Z5.0
G0 X475.8799 Y69.7773
G0 Z-11.0
G1 F300.0 Z-14.0
G1 F800.0 X473.5349 Y73.8388
G2 X475.8799 Y69.7773 I-22.0349 J-15.4296
G1 F300.0 X476.4236 Y70.0308
G2 F800.0 X478.3692 Y64.2657 I-24.9236 J-11.6216
G1 X470.0064 Y78.7504
G2 X476.4236 Y70.0308 I-18.5064 J-20.3412
G1 F300.0 X477.5112 Y70.538
G2 F800.0 X480.1986 Y58.6971 I-26.0112 J-12.1287
G1 X466.0986 Y83.119
G2 X477.5112 Y70.538 I-14.5986 J-24.7098
G0 Z5.0
G0 X474.9896 Y45.3002
G0 Z-11.0
G1 F300.0 Z-14.0
G2 F800.0 X474.5976 Y44.6212 I-23.4896 J13.1091
G1 Y45.0738
G1 X474.9896 Y45.3002
G1 F300.0 X475.5136 Y45.0078
G2 F800.0 X473.9976 Y42.5944 I-24.0136 J13.4015
G1 Y45.4202
G1 X476.4448 Y46.8331
G2 X475.5136 Y45.0078 I-24.9448 J11.5761
G1 F300.0 X476.5614 Y44.423
G2 F800.0 X472.7721 Y39.143 I-25.0614 J13.9863
G3 X472.7976 Y39.7092 I-6.2721 J0.5662
G1 Y46.1131
G1 X478.3435 Y49.315
G3 X478.8211 Y49.6202 I-3.1488 J5.4539
G2 X476.5614 Y44.423 I-27.3211 J8.7891
G0 Z5.0
G0 X453.8449 Y31.6116
G0 Z-11.0
G1 F300.0 Z-14.0
G2 F800.0 X449.1551 I-2.3449 J26.7976
G1 X453.8449
G1 F300.0 X453.8972 Y31.0139
G2 F800.0 X443.1372 Y32.2116 I-2.3972 J27.3953
G1 X459.8628
G2 X453.8972 Y31.0139 I-8.3628 J26.1976
G1 F300.0 X454.0018 Y29.8185
G2 F800.0 X437.4 Y33.4116 I-2.5018 J28.5907
G1 X465.6
G2 X454.0018 Y29.8185 I-14.1 J24.9976
G0 Z5.0
G0 X428.4024 Y44.6212
G0 Z-11.0
G1 F300.0 Z-14.0
G2 F800.0 X428.0104 Y45.3002 I23.0976 J13.7881
G1 X428.4024 Y45.0738
G1 Y44.6212
G1 F300.0 X427.8872 Y44.3136
G2 F800.0 X426.5552 Y46.8331 I23.6128 J14.0956
G1 X429.0024 Y45.4202
G1 Y42.5944
G2 X427.8872 Y44.3136 I22.4976 J15.8148
G1 F300.0 X426.8568 Y43.6985
G2 F800.0 X424.1789 Y49.6202 I24.6432 J14.7107
G3 X424.6565 Y49.315 I3.6264 J5.1487
G1 X430.2024 Y46.1131
G1 Y39.7092
G3 X430.2279 Y39.143 I6.2976 J0.0
G2 X426.8568 Y43.6985 I21.2721 J19.2662
G0 Z5.0
G0 X427.1201 Y69.7773
G0 Z-11.0
G1 F300.0 Z-14.0
G2 F800.0 X429.4651 Y73.8388 I24.3799 J-11.368
G1 X427.1201 Y69.7773
G1 F300.0 X427.6398 Y69.4773
G1 F800.0 X424.6308 Y64.2657
G2 X432.9936 Y78.7504 I26.8692 J-5.8564
G1 X427.6398 Y69.4773
G1 F300.0 X428.679 Y68.8773
G1 F800.0 X422.8014 Y58.6971
G2 X436.9014 Y83.119 I28.6986 J-0.2878
G1 X428.679 Y68.8773
G0 Z5.0
G0 X451.108 Y85.3064
G0 Z-11.0
G1 F300.0 Z-14.0
G2 F800.0 X451.892 I0.392 J-26.8971
G1 X451.5 Y85.0801
G1 X451.108 Y85.3064
G1 F300.0 X451.0992 Y85.9063
G2 F800.0 X453.9472 Y85.8001 I0.4008 J-27.4971
G1 X451.5 Y84.3872
G1 X449.0528 Y85.8001
G2 X451.0992 Y85.9063 I2.4472 J-27.3909
G1 F300.0 X451.0817 Y87.1062
G2 F800.0 X457.549 Y86.4645 I0.4183 J-28.697
G3 X457.0459 Y86.2035 I2.6457 J-5.7149
G1 X451.5 Y83.0016
G1 X445.9541 Y86.2035
G3 X445.451 Y86.4645 I-3.1488 J-5.4539
G2 X451.0817 Y87.1062 I6.049 J-28.0553
G0 Z5.0
G0 X447.609 Y81.0912
G0 Z-10.0
G1 F300.0 Z-14.0
G1 F800.0 X444.1541 Y83.0858
G3 X440.4691 Y82.0984 I-1.3488 J-2.3362
G1 X425.4691 Y56.1177
G3 X426.4565 Y52.4327 I2.3362 J-1.3488
G1 X433.4012 Y48.4232
G2 X433.8024 Y47.7283 I-0.4012 J-0.6949
G1 Y39.7092
G3 X436.5 Y37.0116 I2.6976 J0.0
G1 X466.5
G3 X469.1976 Y39.7092 I0.0 J2.6976
G1 Y47.7283
G2 X469.5988 Y48.4232 I0.8024 J0.0
G1 X476.5435 Y52.4327
G3 X477.5309 Y56.1177 I-1.3488 J2.3362
G1 X462.5309 Y82.0984
G3 X458.8459 Y83.0858 I-2.3362 J-1.3488
G1 X451.9012 Y79.0763
G2 X451.0988 I-0.4012 J0.6949
G1 X447.609 Y81.0912
G1 F300.0 X447.0102 Y80.054
G1 F800.0 X443.5553 Y82.0487
G3 X441.5063 Y81.4996 I-0.75 J-1.299
G1 X426.5063 Y55.5189
G3 X427.0553 Y53.4698 I1.299 J-0.75
G1 X434.0 Y49.4603
G2 X435.0 Y47.7283 I-1.0 J-1.7321
G1 Y39.7092
G3 X436.5 Y38.2092 I1.5 J0.0
G1 X466.5
G3 X468.0 Y39.7092 I0.0 J1.5
G1 Y47.7283
G2 X469.0 Y49.4603 I2.0 J0.0
G1 X475.9447 Y53.4698
G3 X476.4937 Y55.5189 I-0.75 J1.299
G1 X461.4937 Y81.4996
G3 X459.4447 Y82.0487 I-1.299 J-0.75
G1 X452.5 Y78.0391
G2 X450.5 I-1.0 J1.7321
G1 X447.0102 Y80.054
G0 Z5.0
G0 X448.209 Y82.1304
G0 Z-10.0
G1 F300.0 Z-14.0
G1 F800.0 X451.5 Y80.2303
G1 X458.2459 Y84.125
G2 X463.5701 Y82.6984 I1.9488 J-3.3754
G1 X478.5701 Y56.7177
G2 X477.1435 Y51.3934 I-3.3754 J-1.9488
G1 X470.3976 Y47.4987
G1 Y39.7092
G2 X466.5 Y35.8116 I-3.8976 J0.0
G1 X436.5
G2 X432.6024 Y39.7092 I0.0 J3.8976
G1 Y47.4987
G1 X425.8565 Y51.3934
G2 X424.4299 Y56.7177 I1.9488 J3.3754
G1 X439.4299 Y82.6984
G2 X444.7541 Y84.125 I3.3754 J-1.9488
G1 X448.209 Y82.1304
G1 F300.0 X448.809 Y83.1696
G1 F800.0 X451.5 Y81.616
G1 X457.6459 Y85.1643
G2 X464.6093 Y83.2984 I2.5488 J-4.4147
G1 X479.6093 Y57.3177
G2 X477.7435 Y50.3542 I-4.4147 J-2.5488
G1 X471.5976 Y46.8059
G1 Y39.7092
G2 X466.5 Y34.6116 I-5.0976 J0.0
G1 X436.5
G2 X431.4024 Y39.7092 I0.0 J5.0976
G1 Y46.8059
G1 X425.2565 Y50.3542
G2 X423.3907 Y57.3177 I2.5488 J4.4147
G1 X438.3907 Y83.2984
G2 X445.3541 Y85.1643 I4.4147 J-2.5488
G1 X448.809 Y83.1696
G0 Z5.0
G0 X448.2694 Y88.1342
G0 Z-10.0
G1 F300.0 Z-14.0
G2 F800.0 X481.4 Y58.4092 I3.2306 J-29.725
G2 X436.55 Y32.5151 I-29.9 J0.0
G2 Y84.3034 I14.95 J25.8942
G2 X448.2694 Y88.1342 I14.95 J-25.8942
G1 F300.0 X448.1397 Y89.3272
G2 F800.0 X482.6 Y58.4092 I3.3603 J-30.9179
G2 X435.95 Y31.4759 I-31.1 J0.0
G2 Y85.3426 I15.55 J26.9334
G2 X448.1397 Y89.3272 I15.55 J-26.9334
G1 F300.0 X448.0101 Y90.5202
G2 F800.0 X483.8 Y58.4092 I3.4899 J-32.1109
G2 X435.35 Y30.4366 I-32.3 J0.0
G2 Y86.3819 I16.15 J27.9726
G2 X448.0101 Y90.5202 I16.15 J-27.9726
G1 F300.0 X447.8804 Y91.7131
G2 F800.0 X485.0 Y58.4092 I3.6196 J-33.3039
G2 X434.75 Y29.3974 I-33.5 J0.0
G2 Y87.4211 I16.75 J29.0119
G2 X447.8804 Y91.7131 I16.75 J-29.0119
( Profile1 plug  )
S1000
G0 Z5.0
G0 X482.9 Y58.4092
G0 Z1.0
G1 F300.0 Z0.0
G3 F800.0 X435.8 Y85.6024 Z-1.6667 I-31.4 J0.0
G3 Y31.216 Z-3.3333 I15.7 J-27.1932
G3 X482.9 Y58.4092 Z-5.0 I15.7 J27.1932
G3 X435.8 Y85.6024 Z-6.6667 I-31.4 J0.0
G3 Y31.216 Z-8.3333 I15.7 J-27.1932
G3 X482.9 Y58.4092 Z-10.0 I15.7 J27.1932
G3 X435.8 Y85.6024 Z-11.6667 I-31.4 J0.0
G3 Y31.216 Z-13.3333 I15.7 J-27.1932
G3 X482.9 Y58.4092 Z-15.0 I15.7 J27.1932
G3 X469.7263 Y83.978 Z-15.6209 I-31.4 J0.0
G3 X464.5301 Y86.978 Z-15.7458 I-18.2263 J-25.5688
G3 X435.8 Y85.6024 Z-16.3667 I-13.0301 J-28.5688
G3 X420.2436 Y61.4092 Z-16.9876 I15.7 J-27.1932
G0 Z-16.1
G3 Y55.4092 I31.2564 J-3.0
G1 F300.0 Z-17.1124
G3 F800.0 X435.8 Y31.216 Z-17.7333 I31.2564 J3.0
G3 X464.5301 Y29.8404 Z-18.3542 I15.7 J27.1932
G0 Z-16.1
G3 X469.7263 Y32.8404 I-13.0301 J28.5688
G1 F300.0 Z-18.4791
G3 F800.0 X482.9 Y58.4092 Z-19.1 I-18.2263 J25.5688
G3 X469.7263 Y83.978 I-31.4 J0.0
G0 Z-16.1
G3 X464.5301 Y86.978 I-18.2263 J-25.5688
G1 F300.0 Z-19.1
G3 F800.0 X435.8 Y85.6024 I-13.0301 J-28.5688
G3 X420.2436 Y61.4092 I15.7 J-27.1932
G0 Z-16.1
G3 Y55.4092 I31.2564 J-3.0
G0 Z-16.1124
G1 F300.0 Z-19.1
G3 F800.0 X435.8 Y31.216 I31.2564 J3.0
G3 X464.5301 Y29.8404 I15.7 J27.1932
G0 Z-16.1
G3 X469.7263 Y32.8404 I-13.0301 J28.5688
G0 Z-17.4791
G1 F300.0 Z-19.1
G3 F800.0 X482.9 Y58.4092 I-18.2263 J25.5688
( Pocket3 )
S1000
G0 Z5.0
G0 X139.9916 Y214.4994
G0 Z1.0
G1 F300.0 Z-3.0
G1 F800.0 X136.5831 Y212.9101
G1 X136.1208 Y213.9016
G1 X139.9916 Y214.4994
G1 F300.0 X140.2451 Y213.9557
G1 F800.0 X136.2929 Y212.1127
G1 X135.2391 Y214.3725
G1 X144.0612 Y215.7351
G1 X140.2451 Y213.9557
G1 F300.0 X140.7523 Y212.8681
G1 F800.0 X135.7125 Y210.518
G1 X133.4759 Y215.3144
G1 X152.2129 Y218.2084
G3 X151.3912 Y217.8291 I48.8359 J-106.8705
G1 X140.7523 Y212.8681
G1 F300.0 X141.2594 Y211.7805
G1 F800.0 X135.1321 Y208.9233
G1 X131.7126 Y216.2563
G1 X162.2384 Y220.9711
G3 X151.8983 Y216.7415 I38.8105 J-109.6332
G1 X141.2594 Y211.7805
G1 F300.0 X141.7666 Y210.693
G1 F800.0 X134.5516 Y207.3286
G1 X129.9493 Y217.1982
G1 X183.1001 Y225.4075
G1 X174.0833 Y223.2346
G3 X152.4055 Y215.654 I26.9656 J-111.8967
G1 X141.7666 Y210.693
G1 F300.0 X142.2737 Y209.6054
G1 F800.0 X133.9712 Y205.7339
G1 X128.1861 Y218.1401
G1 X211.3969 Y230.9923
G1 X174.3644 Y222.068
G3 X152.9126 Y214.5664 I26.6844 J-110.7301
G1 X142.2737 Y209.6054
G1 F300.0 X142.7808 Y208.5178
G1 F800.0 X133.3908 Y204.1392
G1 X126.4228 Y219.082
G1 X239.6938 Y236.5772
G1 X174.6455 Y220.9014
G3 X153.4198 Y213.4788 I26.4033 J-109.5635
G1 X142.7808 Y208.5178
G1 F300.0 X143.288 Y207.4302
G1 F800.0 X132.8103 Y202.5444
G1 X124.6596 Y220.0238
G1 X267.9907 Y242.162
G1 X174.9267 Y219.7348
G3 X153.9269 Y212.3913 I26.1222 J-108.3969
G1 X143.288 Y207.4302
G1 F300.0 X143.7951 Y206.3427
G1 F800.0 X132.2299 Y200.9497
G1 X122.8963 Y220.9657
G1 X296.2876 Y247.7468
G1 X175.2078 Y218.5682
G3 X154.434 Y211.3037 I25.841 J-107.2303
G1 X143.7951 Y206.3427
G1 F300.0 X144.3023 Y205.2551
G1 F800.0 X131.6495 Y199.355
G1 X121.133 Y221.9076
G1 X324.5844 Y253.3316
G1 X175.489 Y217.4016
G3 X154.9412 Y210.2161 I25.5599 J-106.0637
G1 X144.3023 Y205.2551
G1 F300.0 X144.8094 Y204.1675
G1 F800.0 X131.0691 Y197.7603
G1 X119.3698 Y222.8495
G1 X352.8813 Y258.9164
G1 X175.7701 Y216.235
G3 X155.4483 Y209.1285 I25.2788 J-104.8971
G1 X144.8094 Y204.1675
G1 F300.0 X145.3165 Y203.08
G1 F800.0 X131.2137 Y196.5037
G2 X130.1505 Y196.8906 I-0.3381 J0.725
G1 X118.057 Y222.8254
G2 X118.6599 Y223.9541 I0.725 J0.3381
G1 X358.7187 Y261.0322
G2 X359.5796 Y260.5485 I0.1221 J-0.7906
G3 X359.6768 Y260.3401 I2.4934 J1.0358
G2 X359.1543 Y259.1937 I-0.71 J-0.3687
G1 X176.0512 Y215.0684
G3 X155.9555 Y208.041 I24.9976 J-103.7305
G1 X145.3165 Y203.08
G1 F300.0 X145.8237 Y201.9924
G1 F800.0 X131.7208 Y195.4161
G2 X129.063 Y196.3835 I-0.8452 J1.8126
G1 X116.9694 Y222.3182
G2 X118.4767 Y225.14 I1.8126 J0.8452
G1 X358.5356 Y262.2182
G2 X360.6878 Y261.0089 I0.3053 J-1.9766
G3 X360.7418 Y260.8931 I1.3852 J0.5755
G2 X359.4354 Y258.0271 I-1.775 J-0.9217
G1 X176.3324 Y213.9018
G3 X156.4626 Y206.9534 I24.7165 J-102.5639
G1 X145.8237 Y201.9924
G0 Z5.0
G0 X139.9916 Y214.4994
G0 Z-2.0
G1 F300.0 Z-6.0
G1 F800.0 X136.5831 Y212.9101
G1 X136.1208 Y213.9016
G1 X139.9916 Y214.4994
G1 F300.0 X140.2451 Y213.9557
G1 F800.0 X136.2929 Y212.1127
G1 X135.2391 Y214.3725
G1 X144.0612 Y215.7351
G1 X140.2451 Y213.9557
G1 F300.0 X140.7523 Y212.8681
G1 F800.0 X135.7125 Y210.518
G1 X133.4759 Y215.3144
G1 X152.2129 Y218.2084
G3 X151.3912 Y217.8291 I48.8359 J-106.8705
G1 X140.7523 Y212.8681
G1 F300.0 X141.2594 Y211.7805
G1 F800.0 X135.1321 Y208.9233
G1 X131.7126 Y216.2563
G1 X162.2384 Y220.9711
G3 X151.8983 Y216.7415 I38.8105 J-109.6332
G1 X141.2594 Y211.7805
G1 F300.0 X141.7666 Y210.693
G1 F800.0 X134.5516 Y207.3286
G1 X129.9493 Y217.1982
G1 X183.1001 Y225.4075
G1 X174.0833 Y223.2346
G3 X152.4055 Y215.654 I26.9656 J-111.8967
G1 X141.7666 Y210.693
G1 F300.0 X142.2737 Y209.6054
G1 F800.0 X133.9712 Y205.7339
G1 X128.1861 Y218.1401
G1 X211.3969 Y230.9923
G1 X174.3644 Y222.068
G3 X152.9126 Y214.5664 I26.6844 J-110.7301
G1 X142.2737 Y209.6054
G1 F300.0 X142.7808 Y208.5178
G1 F800.0 X133.3908 Y204.1392
G1 X126.4228 Y219.082
G1 X239.6938 Y236.5772
G1 X174.6455 Y220.9014
G3 X153.4198 Y213.4788 I26.4033 J-109.5635
G1 X142.7808 Y208.5178
G1 F300.0 X143.288 Y207.4302
G1 F800.0 X132.8103 Y202.5444
G1 X124.6596 Y220.0238
G1 X267.9907 Y242.162
G1 X174.9267 Y219.7348
G3 X153.9269 Y212.3913 I26.1222 J-108.3969
G1 X143.288 Y207.4302
G1 F300.0 X143.7951 Y206.3427
G1 F800.0 X132.2299 Y200.9497
G1 X122.8963 Y220.9657
G1 X296.2876 Y247.7468
G1 X175.2078 Y218.5682
G3 X154.434 Y211.3037 I25.841 J-107.2303
G1 X143.7951 Y206.3427
G1 F300.0 X144.3023 Y205.2551
G1 F800.0 X131.6495 Y199.355
G1 X121.133 Y221.9076
G1 X324.5844 Y253.3316
G1 X175.489 Y217.4016
G3 X154.9412 Y210.2161 I25.5599 J-106.0637
G1 X144.3023 Y205.2551
G1 F300.0 X144.8094 Y204.1675
G1 F800.0 X131.0691 Y197.7603
G1 X119.3698 Y222.8495
G1 X352.8813 Y258.9164
G1 X175.7701 Y216.235
G3 X155.4483 Y209.1285 I25.2788 J-104.8971
G1 X144.8094 Y204.1675
G1 F300.0 X145.3165 Y203.08
G1 F800.0 X131.2137 Y196.5037
G2 X130.1505 Y196.8906 I-0.3381 J0.725
G1 X118.057 Y222.8254
G2 X118.6599 Y223.9541 I0.725 J0.3381
G1 X358.7187 Y261.0322
G2 X359.5796 Y260.5485 I0.1221 J-0.7906
G3 X359.6768 Y260.3401 I2.4934 J1.0358
G2 X359.1543 Y259.1937 I-0.71 J-0.3687
G1 X176.0512 Y215.0684
G3 X155.9555 Y208.041 I24.9976 J-103.7305
G1 X145.3165 Y203.08
G1 F300.0 X145.8237 Y201.9924
G1 F800.0 X131.7208 Y195.4161
G2 X129.063 Y196.3835 I-0.8452 J1.8126
G1 X116.9694 Y222.3182
G2 X118.4767 Y225.14 I1.8126 J0.8452
G1 X358.5356 Y262.2182
G2 X360.6878 Y261.0089 I0.3053 J-1.9766
G3 X360.7418 Y260.8931 I1.3852 J0.5755
G2 X359.4354 Y258.0271 I-1.775 J-0.9217
G1 X176.3324 Y213.9018
G3 X156.4626 Y206.9534 I24.7165 J-102.5639
G1 X145.8237 Y201.9924
G0 Z5.0
G0 X120.5521 Y135.3226
G0 Z1.0
G1 F300.0 Z-3.0
G1 F800.0 X117.1437 Y133.7332
G1 X116.6813 Y134.7247
G1 X120.5521 Y135.3226
G1 F300.0 X120.8057 Y134.7788
G1 F800.0 X116.8535 Y132.9359
G1 X115.7997 Y135.1957
G1 X124.6218 Y136.5583
G1 X120.8057 Y134.7788
G1 F300.0 X121.3128 Y133.6913
G1 F800.0 X116.273 Y131.3412
G1 X114.0364 Y136.1376
G1 X132.7735 Y139.0316
G3 X131.9518 Y138.6523 I48.8359 J-106.8705
G1 X121.3128 Y133.6913
G1 F300.0 X121.82 Y132.6037
G1 F800.0 X115.6926 Y129.7464
G1 X112.2732 Y137.0795
G1 X142.799 Y141.7943
G3 X132.4589 Y137.5647 I38.8105 J-109.6332
G1 X121.82 Y132.6037
G1 F300.0 X122.3271 Y131.5161
G1 F800.0 X115.1122 Y128.1517
G1 X110.5099 Y138.0213
G1 X163.6606 Y146.2307
G1 X154.6438 Y144.0578
G3 X132.966 Y136.4771 I26.9656 J-111.8967
G1 X122.3271 Y131.5161
G1 F300.0 X122.8343 Y130.4285
G1 F800.0 X114.5318 Y126.557
G1 X108.7467 Y138.9632
G1 X191.9575 Y151.8155
G1 X154.925 Y142.8912
G3 X133.4732 Y135.3896 I26.6844 J-110.7301
G1 X122.8343 Y130.4285
G1 F300.0 X123.3414 Y129.341
G1 F800.0 X113.9513 Y124.9623
G1 X106.9834 Y139.9051
G1 X220.2544 Y157.4003
G1 X155.2061 Y141.7246
G3 X133.9803 Y134.302 I26.4033 J-109.5635
G1 X123.3414 Y129.341
G1 F300.0 X123.8485 Y128.2534
G1 F800.0 X113.3709 Y123.3676
G1 X105.2201 Y140.847
G1 X248.5513 Y162.9851
G1 X155.4873 Y140.558
G3 X134.4875 Y133.2144 I26.1222 J-108.3969
G1 X123.8485 Y128.2534
G1 F300.0 X124.3557 Y127.1658
G1 F800.0 X112.7905 Y121.7729
G1 X103.4569 Y141.7889
G1 X276.8481 Y168.5699
G1 X155.7684 Y139.3914
G3 X134.9946 Y132.1268 I25.841 J-107.2303
G1 X124.3557 Y127.1658
G1 F300.0 X124.8628 Y126.0783
G1 F800.0 X112.2101 Y120.1782
G1 X101.6936 Y142.7308
G1 X305.145 Y174.1547
G1 X156.0495 Y138.2248
G3 X135.5018 Y131.0393 I25.5599 J-106.0637
G1 X124.8628 Y126.0783
G1 F300.0 X125.37 Y124.9907
G1 F800.0 X111.6296 Y118.5835
G1 X99.9303 Y143.6727
G1 X333.4419 Y179.7395
G1 X156.3307 Y137.0582
G3 X136.0089 Y129.9517 I25.2788 J-104.8971
G1 X125.37 Y124.9907
G1 F300.0 X125.8771 Y123.9031
G1 F800.0 X111.7743 Y117.3269
G2 X110.7111 Y117.7138 I-0.3381 J0.725
G1 X98.6175 Y143.6485
G2 X99.2205 Y144.7772 I0.725 J0.3381
G1 X339.2793 Y181.8554
G2 X340.1402 Y181.3717 I0.1221 J-0.7906
G3 X340.2374 Y181.1633 I2.4934 J1.0358
G2 X339.7148 Y180.0169 I-0.71 J-0.3687
G1 X156.6118 Y135.8916
G3 X136.516 Y128.8641 I24.9976 J-103.7305
G1 X125.8771 Y123.9031
G1 F300.0 X126.3843 Y122.8156
G1 F800.0 X112.2814 Y116.2393
G2 X109.6235 Y117.2067 I-0.8452 J1.8126
G1 X97.53 Y143.1414
G2 X99.0373 Y145.9632 I1.8126 J0.8452
G1 X339.0961 Y183.0413
G2 X341.2484 Y181.832 I0.3053 J-1.9766
G3 X341.3024 Y181.7163 I1.3852 J0.5755
G2 X339.996 Y178.8503 I-1.775 J-0.9217
G1 X156.8929 Y134.725
G3 X137.0232 Y127.7766 I24.7165 J-102.5639
G1 X126.3843 Y122.8156
G0 Z5.0
G0 X120.5521 Y135.3226
G0 Z-2.0
G1 F300.0 Z-6.0
G1 F800.0 X117.1437 Y133.7332
G1 X116.6813 Y134.7247
G1 X120.5521 Y135.3226
G1 F300.0 X120.8057 Y134.7788
G1 F800.0 X116.8535 Y132.9359
G1 X115.7997 Y135.1957
G1 X124.6218 Y136.5583
G1 X120.8057 Y134.7788
G1 F300.0 X121.3128 Y133.6913
G1 F800.0 X116.273 Y131.3412
G1 X114.0364 Y136.1376
G1 X132.7735 Y139.0316
G3 X131.9518 Y138.6523 I48.8359 J-106.8705
G1 X121.3128 Y133.6913
G1 F300.0 X121.82 Y132.6037
G1 F800.0 X115.6926 Y129.7464
G1 X112.2732 Y137.0795
G1 X142.799 Y141.7943
G3 X132.4589 Y137.5647 I38.8105 J-109.6332
G1 X121.82 Y132.6037
G1 F300.0 X122.3271 Y131.5161
G1 F800.0 X115.1122 Y128.1517
G1 X110.5099 Y138.0213
G1 X163.6606 Y146.2307
G1 X154.6438 Y144.0578
G3 X132.966 Y136.4771 I26.9656 J-111.8967
G1 X122.3271 Y131.5161
G1 F300.0 X122.8343 Y130.4285
G1 F800.0 X114.5318 Y126.557
G1 X108.7467 Y138.9632
G1 X191.9575 Y151.8155
G1 X154.925 Y142.8912
G3 X133.4732 Y135.3896 I26.6844 J-110.7301
G1 X122.8343 Y130.4285
G1 F300.0 X123.3414 Y129.341
G1 F800.0 X113.9513 Y124.9623
G1 X106.9834 Y139.9051
G1 X220.2544 Y157.4003
G1 X155.2061 Y141.7246
G3 X133.9803 Y134.302 I26.4033 J-109.5635
G1 X123.3414 Y129.341
G1 F300.0 X123.8485 Y128.2534
G1 F800.0 X113.3709 Y123.3676
G1 X105.2201 Y140.847
G1 X248.5513 Y162.9851
G1 X155.4873 Y140.558
G3 X134.4875 Y133.2144 I26.1222 J-108.3969
G1 X123.8485 Y128.2534
G1 F300.0 X124.3557 Y127.1658
G1 F800.0 X112.7905 Y121.7729
G1 X103.4569 Y141.7889
G1 X276.8481 Y168.5699
G1 X155.7684 Y139.3914
G3 X134.9946 Y132.1268 I25.841 J-107.2303
G1 X124.3557 Y127.1658
G1 F300.0 X124.8628 Y126.0783
G1 F800.0 X112.2101 Y120.1782
G1 X101.6936 Y142.7308
G1 X305.145 Y174.1547
G1 X156.0495 Y138.2248
G3 X135.5018 Y131.0393 I25.5599 J-106.0637
G1 X124.8628 Y126.0783
G1 F300.0 X125.37 Y124.9907
G1 F800.0 X111.6296 Y118.5835
G1 X99.9303 Y143.6727
G1 X333.4419 Y179.7395
G1 X156.3307 Y137.0582
G3 X136.0089 Y129.9517 I25.2788 J-104.8971
G1 X125.37 Y124.9907
G1 F300.0 X125.8771 Y123.9031
G1 F800.0 X111.7743 Y117.3269
G2 X110.7111 Y117.7138 I-0.3381 J0.725
G1 X98.6175 Y143.6485
G2 X99.2205 Y144.7772 I0.725 J0.3381
G1 X339.2793 Y181.8554
G2 X340.1402 Y181.3717 I0.1221 J-0.7906
G3 X340.2374 Y181.1633 I2.4934 J1.0358
G2 X339.7148 Y180.0169 I-0.71 J-0.3687
G1 X156.6118 Y135.8916
G3 X136.516 Y128.8641 I24.9976 J-103.7305
G1 X125.8771 Y123.9031
G1 F300.0 X126.3843 Y122.8156
G1 F800.0 X112.2814 Y116.2393
G2 X109.6235 Y117.2067 I-0.8452 J1.8126
G1 X97.53 Y143.1414
G2 X99.0373 Y145.9632 I1.8126 J0.8452
G1 X339.0961 Y183.0413
G2 X341.2484 Y181.832 I0.3053 J-1.9766
G3 X341.3024 Y181.7163 I1.3852 J0.5755
G2 X339.996 Y178.8503 I-1.775 J-0.9217
G1 X156.8929 Y134.725
G3 X137.0232 Y127.7766 I24.7165 J-102.5639
G1 X126.3843 Y122.8156
G0 Z5.0
G0 X99.9916 Y54.4994
G0 Z1.0
G1 F300.0 Z-3.0
G1 F800.0 X96.5831 Y52.9101
G1 X96.1208 Y53.9016
G1 X99.9916 Y54.4994
G1 F300.0 X99.9 Y55.0924
G1 F800.0 X104.0612 Y55.7351
G1 X96.2929 Y52.1127
G1 X95.2391 Y54.3725
G1 X99.9 Y55.0924
G1 F300.0 X99.7168 Y56.2784
G1 F800.0 X112.2129 Y58.2084
G3 X111.3912 Y57.8291 I48.8359 J-106.8705
G1 X95.7125 Y50.518
G1 X93.4759 Y55.3144
G1 X99.7168 Y56.2784
G1 F300.0 X99.5336 Y57.4643
G1 F800.0 X122.2384 Y60.9711
G3 X111.8983 Y56.7415 I38.8105 J-109.6332
G1 X95.1321 Y48.9233
G1 X91.7126 Y56.2563
G1 X99.5336 Y57.4643
G1 F300.0 X99.3505 Y58.6502
G1 F800.0 X143.1001 Y65.4075
G1 X134.0833 Y63.2346
G3 X112.4055 Y55.654 I26.9656 J-111.8967
G1 X94.5516 Y47.3286
G1 X89.9493 Y57.1982
G1 X99.3505 Y58.6502
G1 F300.0 X99.1673 Y59.8362
G1 F800.0 X171.3969 Y70.9923
G1 X134.3644 Y62.068
G3 X112.9126 Y54.5664 I26.6844 J-110.7301
G1 X93.9712 Y45.7339
G1 X88.1861 Y58.1401
G1 X99.1673 Y59.8362
G1 F300.0 X98.9841 Y61.0221
G1 F800.0 X199.6938 Y76.5772
G1 X134.6455 Y60.9014
G3 X113.4198 Y53.4788 I26.4033 J-109.5635
G1 X93.3908 Y44.1392
G1 X86.4228 Y59.082
G1 X98.9841 Y61.0221
G1 F300.0 X98.8009 Y62.208
G1 F800.0 X227.9907 Y82.162
G1 X134.9267 Y59.7348
G3 X113.9269 Y52.3913 I26.1222 J-108.3969
G1 X92.8103 Y42.5444
G1 X84.6596 Y60.0238
G1 X98.8009 Y62.208
G1 F300.0 X98.6178 Y63.394
G1 F800.0 X256.2876 Y87.7468
G1 X135.2078 Y58.5682
G3 X114.434 Y51.3037 I25.841 J-107.2303
G1 X92.2299 Y40.9497
G1 X82.8963 Y60.9657
G1 X98.6178 Y63.394
G1 F300.0 X98.4346 Y64.5799
G1 F800.0 X284.5844 Y93.3316
G1 X135.489 Y57.4016
G3 X114.9412 Y50.2161 I25.5599 J-106.0637
G1 X91.6495 Y39.355
G1 X81.133 Y61.9076
G1 X98.4346 Y64.5799
G1 F300.0 X98.2514 Y65.7659
G1 F800.0 X312.8813 Y98.9164
G1 X135.7701 Y56.235
G3 X115.4483 Y49.1285 I25.2788 J-104.8971
G1 X91.0691 Y37.7603
G1 X79.3698 Y62.8495
G1 X98.2514 Y65.7659
G1 F300.0 X98.0682 Y66.9518
G1 F800.0 X318.7187 Y101.0322
G2 X319.5796 Y100.5485 I0.1221 J-0.7906
G3 X319.6768 Y100.3401 I2.4934 J1.0358
G2 X319.1543 Y99.1937 I-0.71 J-0.3687
G1 X136.0512 Y55.0684
G3 X115.9555 Y48.041 I24.9976 J-103.7305
G1 X91.2137 Y36.5037
G2 X90.1505 Y36.8906 I-0.3381 J0.725
G1 X78.057 Y62.8254
G2 X78.6599 Y63.9541 I0.725 J0.3381
G1 X98.0682 Y66.9518
G1 F300.0 X97.8851 Y68.1377
G1 F800.0 X318.5356 Y102.2182
G2 X320.6878 Y101.0089 I0.3053 J-1.9766
G3 X320.7418 Y100.8931 I1.3852 J0.5755
G2 X319.4354 Y98.0271 I-1.775 J-0.9217
G1 X136.3324 Y53.9018
G3 X116.4626 Y46.9534 I24.7165 J-102.5639
G1 X91.7208 Y35.4161
G2 X89.063 Y36.3835 I-0.8452 J1.8126
G1 X76.9694 Y62.3182
G2 X78.4767 Y65.14 I1.8126 J0.8452
G1 X97.8851 Y68.1377
G0 Z5.0
G0 X99.9916 Y54.4994
G0 Z-2.0
G1 F300.0 Z-6.0
G1 F800.0 X96.5831 Y52.9101
G1 X96.1208 Y53.9016
G1 X99.9916 Y54.4994
G1 F300.0 X99.9 Y55.0924
G1 F800.0 X104.0612 Y55.7351
G1 X96.2929 Y52.1127
G1 X95.2391 Y54.3725
G1 X99.9 Y55.0924
G1 F300.0 X99.7168 Y56.2784
G1 F800.0 X112.2129 Y58.2084
G3 X111.3912 Y57.8291 I48.8359 J-106.8705
G1 X95.7125 Y50.518
G1 X93.4759 Y55.3144
G1 X99.7168 Y56.2784
G1 F300.0 X99.5336 Y57.4643
G1 F800.0 X122.2384 Y60.9711
G3 X111.8983 Y56.7415 I38.8105 J-109.6332
G1 X95.1321 Y48.9233
G1 X91.7126 Y56.2563
G1 X99.5336 Y57.4643
G1 F300.0 X99.3505 Y58.6502
G1 F800.0 X143.1001 Y65.4075
G1 X134.0833 Y63.2346
G3 X112.4055 Y55.654 I26.9656 J-111.8967
G1 X94.5516 Y47.3286
G1 X89.9493 Y57.1982
G1 X99.3505 Y58.6502
G1 F300.0 X99.1673 Y59.8362
G1 F800.0 X171.3969 Y70.9923
G1 X134.3644 Y62.068
G3 X112.9126 Y54.5664 I26.6844 J-110.7301
G1 X93.9712 Y45.7339
G1 X88.1861 Y58.1401
G1 X99.1673 Y59.8362
G1 F300.0 X98.9841 Y61.0221
G1 F800.0 X199.6938 Y76.5772
G1 X134.6455 Y60.9014
G3 X113.4198 Y53.4788 I26.4033 J-109.5635
G1 X93.3908 Y44.1392
G1 X86.4228 Y59.082
G1 X98.9841 Y61.0221
G1 F300.0 X98.8009 Y62.208
G1 F800.0 X227.9907 Y82.162
G1 X134.9267 Y59.7348
G3 X113.9269 Y52.3913 I26.1222 J-108.3969
G1 X92.8103 Y42.5444
G1 X84.6596 Y60.0238
G1 X98.8009 Y62.208
G1 F300.0 X98.6178 Y63.394
G1 F800.0 X256.2876 Y87.7468
G1 X135.2078 Y58.5682
G3 X114.434 Y51.3037 I25.841 J-107.2303
G1 X92.2299 Y40.9497
G1 X82.8963 Y60.9657
G1 X98.6178 Y63.394
G1 F300.0 X98.4346 Y64.5799
G1 F800.0 X284.5844 Y93.3316
G1 X135.489 Y57.4016
G3 X114.9412 Y50.2161 I25.5599 J-106.0637
G1 X91.6495 Y39.355
G1 X81.133 Y61.9076
G1 X98.4346 Y64.5799
G1 F300.0 X98.2514 Y65.7659
G1 F800.0 X312.8813 Y98.9164
G1 X135.7701 Y56.235
G3 X115.4483 Y49.1285 I25.2788 J-104.8971
G1 X91.0691 Y37.7603
G1 X79.3698 Y62.8495
G1 X98.2514 Y65.7659
G1 F300.0 X98.0682 Y66.9518
G1 F800.0 X318.7187 Y101.0322
G2 X319.5796 Y100.5485 I0.1221 J-0.7906
G3 X319.6768 Y100.3401 I2.4934 J1.0358
G2 X319.1543 Y99.1937 I-0.71 J-0.3687
G1 X136.0512 Y55.0684
G3 X115.9555 Y48.041 I24.9976 J-103.7305
G1 X91.2137 Y36.5037
G2 X90.1505 Y36.8906 I-0.3381 J0.725
G1 X78.057 Y62.8254
G2 X78.6599 Y63.9541 I0.725 J0.3381
G1 X98.0682 Y66.9518
G1 F300.0 X97.8851 Y68.1377
G1 F800.0 X318.5356 Y102.2182
G2 X320.6878 Y101.0089 I0.3053 J-1.9766
G3 X320.7418 Y100.8931 I1.3852 J0.5755
G2 X319.4354 Y98.0271 I-1.775 J-0.9217
G1 X136.3324 Y53.9018
G3 X116.4626 Y46.9534 I24.7165 J-102.5639
G1 X91.7208 Y35.4161
G2 X89.063 Y36.3835 I-0.8452 J1.8126
G1 X76.9694 Y62.3182
G2 X78.4767 Y65.14 I1.8126 J0.8452
G1 X97.8851 Y68.1377
( Profile3  LegB  )
S1000
G0 Z5.0
G0 X104.412 Y234.0933
G0 Z1.0
G1 F300.0 Z0.0
G2 F800.0 X102.1382 Y235.1942 Z-0.016 I-0.4612 J1.9461
G1 X80.291 Y282.0457 Z-0.3182
G3 X78.2638 Y282.755 Z-0.3322 I-1.3595 J-0.6339
G1 X69.3064 Y278.3023 Z-0.3906
G3 X68.6146 Y276.3251 Z-0.4042 I0.6677 J-1.3432
G1 X71.3609 Y270.4357 Z-0.4422
G3 X73.3543 Y269.7101 Z-0.4559 I1.3595 J0.6339
G2 X75.0448 Y266.0849 Z-0.4927 I0.8452 J-1.8126
G1 X61.4502 Y259.7456 Z-0.5803
G3 X60.7247 Y257.7523 Z-0.5941 I0.6339 J-1.3595
G1 X73.4032 Y230.563 Z-0.7695
G3 X75.3966 Y229.8375 Z-0.7833 I1.3595 J0.6339
G1 X81.7407 Y232.7958 Z-0.8242
G3 X82.4962 Y234.7205 Z-0.8375 I-0.6339 J1.3595
G1 X78.6573 Y244.157 Z-0.8971
G2 X79.6646 Y246.7233 Z-0.9148 I1.8526 J0.7537
G1 X80.1138 Y246.9327 Z-0.9177
G2 X82.7716 Y245.9654 Z-0.9361 I0.8452 J-1.8126
G1 X96.718 Y216.0572 Z-1.129
G3 X98.7114 Y215.3317 Z-1.1428 I1.3595 J0.6339
G2 X100.4019 Y211.7065 Z-1.1795 I0.8452 J-1.8126
G1 X86.8073 Y205.3672 Z-1.2672
G3 X86.0817 Y203.3738 Z-1.281 I0.6339 J-1.3595
G1 X98.7603 Y176.1846 Z-1.4563
G3 X100.7537 Y175.459 Z-1.4701 I1.3595 J0.6339
G1 X107.0978 Y178.4173 Z-1.511
G3 X107.8533 Y180.3421 Z-1.5243 I-0.6339 J1.3595
G1 X104.0144 Y189.7785 Z-1.5839
G2 X105.0217 Y192.3448 Z-1.6017 I1.8526 J0.7537
G1 X105.4709 Y192.5543 Z-1.6046
G2 X108.1287 Y191.5869 Z-1.6229 I0.8452 J-1.8126
G1 X112.3549 Y182.5238 Z-1.6814
G3 X114.3483 Y181.7983 Z-1.6952 I1.3595 J0.6339
G1 X117.0672 Y183.0662 Z-1.7127
G3 X117.7928 Y185.0595 Z-1.7265 I-0.6339 J1.3595
G2 X121.418 Y186.75 Z-1.7632 I1.8126 J0.8452
G1 X123.9537 Y181.3122 Z-1.7983
G3 X125.9471 Y180.5866 Z-1.812 I1.3595 J0.6339
G1 X161.1114 Y196.984 Z-2.0388
G2 X178.9094 Y203.2079 Z-2.1492 I39.9374 J-85.6461
G1 X368.0755 Y248.7944 Z-3.2867
G3 X373.3845 Y259.8132 Z-3.3684 I-1.8508 J7.6801
G1 X370.0202 Y267.0281 Z-3.415
G3 X358.2658 Y273.3069 Z-3.4985 I-10.06 J-4.6911
G1 X104.529 Y234.1162 Z-4.9993
G3 X104.412 Y234.0933 Z-5.0 I0.229 J-1.4824
G2 X102.1382 Y235.1942 Z-5.016 I-0.4612 J1.9461
G1 X80.291 Y282.0457 Z-5.3182
G3 X78.2638 Y282.755 Z-5.3322 I-1.3595 J-0.6339
G1 X69.3064 Y278.3023 Z-5.3906
G3 X68.6146 Y276.3251 Z-5.4042 I0.6677 J-1.3432
G1 X71.3609 Y270.4357 Z-5.4422
G3 X73.3543 Y269.7101 Z-5.4559 I1.3595 J0.6339
G2 X75.0448 Y266.0849 Z-5.4927 I0.8452 J-1.8126
G1 X61.4502 Y259.7456 Z-5.5803
G3 X60.7247 Y257.7523 Z-5.5941 I0.6339 J-1.3595
G1 X73.4032 Y230.563 Z-5.7695
G3 X75.3966 Y229.8375 Z-5.7833 I1.3595 J0.6339
G1 X81.7407 Y232.7958 Z-5.8242
G3 X82.4962 Y234.7205 Z-5.8375 I-0.6339 J1.3595
G1 X78.6573 Y244.157 Z-5.8971
G2 X79.6646 Y246.7233 Z-5.9148 I1.8526 J0.7537
G1 X80.1138 Y246.9327 Z-5.9177
G2 X82.7716 Y245.9654 Z-5.9361 I0.8452 J-1.8126
G1 X96.718 Y216.0572 Z-6.129
G3 X98.7114 Y215.3317 Z-6.1428 I1.3595 J0.6339
G2 X100.4019 Y211.7065 Z-6.1795 I0.8452 J-1.8126
G1 X86.8073 Y205.3672 Z-6.2672
G3 X86.0817 Y203.3738 Z-6.281 I0.6339 J-1.3595
G1 X98.7603 Y176.1846 Z-6.4563
G3 X100.7537 Y175.459 Z-6.4701 I1.3595 J0.6339
G1 X107.0978 Y178.4173 Z-6.511
G3 X107.8533 Y180.3421 Z-6.5243 I-0.6339 J1.3595
G1 X104.0144 Y189.7785 Z-6.5839
G2 X105.0217 Y192.3448 Z-6.6017 I1.8526 J0.7537
G1 X105.4709 Y192.5543 Z-6.6046
G2 X108.1287 Y191.5869 Z-6.6229 I0.8452 J-1.8126
G1 X112.3549 Y182.5238 Z-6.6814
G3 X114.3483 Y181.7983 Z-6.6952 I1.3595 J0.6339
G1 X117.0672 Y183.0662 Z-6.7127
G3 X117.7928 Y185.0595 Z-6.7265 I-0.6339 J1.3595
G2 X121.418 Y186.75 Z-6.7632 I1.8126 J0.8452
G1 X123.9537 Y181.3122 Z-6.7983
G3 X125.9471 Y180.5866 Z-6.812 I1.3595 J0.6339
G1 X161.1114 Y196.984 Z-7.0388
G2 X178.9094 Y203.2079 Z-7.1492 I39.9374 J-85.6461
G1 X368.0755 Y248.7944 Z-8.2867
G3 X373.3845 Y259.8132 Z-8.3684 I-1.8508 J7.6801
G1 X370.0202 Y267.0281 Z-8.415
G3 X358.2658 Y273.3069 Z-8.4985 I-10.06 J-4.6911
G1 X104.529 Y234.1162 Z-9.9993
G3 X104.412 Y234.0933 Z-10.0 I0.229 J-1.4824
G2 X102.1382 Y235.1942 Z-10.016 I-0.4612 J1.9461
G1 X80.291 Y282.0457 Z-10.3182
G3 X78.2638 Y282.755 Z-10.3322 I-1.3595 J-0.6339
G1 X69.3064 Y278.3023 Z-10.3906
G3 X68.6146 Y276.3251 Z-10.4042 I0.6677 J-1.3432
G1 X71.3609 Y270.4357 Z-10.4422
G3 X73.3543 Y269.7101 Z-10.4559 I1.3595 J0.6339
G2 X75.0448 Y266.0849 Z-10.4927 I0.8452 J-1.8126
G1 X61.4502 Y259.7456 Z-10.5803
G3 X60.7247 Y257.7523 Z-10.5941 I0.6339 J-1.3595
G1 X73.4032 Y230.563 Z-10.7695
G3 X75.3966 Y229.8375 Z-10.7833 I1.3595 J0.6339
G1 X81.7407 Y232.7958 Z-10.8242
G3 X82.4962 Y234.7205 Z-10.8375 I-0.6339 J1.3595
G1 X78.6573 Y244.157 Z-10.8971
G2 X79.6646 Y246.7233 Z-10.9148 I1.8526 J0.7537
G1 X80.1138 Y246.9327 Z-10.9177
G2 X82.7716 Y245.9654 Z-10.9361 I0.8452 J-1.8126
G1 X96.718 Y216.0572 Z-11.129
G3 X98.7114 Y215.3317 Z-11.1428 I1.3595 J0.6339
G2 X100.4019 Y211.7065 Z-11.1795 I0.8452 J-1.8126
G1 X86.8073 Y205.3672 Z-11.2672
G3 X86.0817 Y203.3738 Z-11.281 I0.6339 J-1.3595
G1 X98.7603 Y176.1846 Z-11.4563
G3 X100.7537 Y175.459 Z-11.4701 I1.3595 J0.6339
G1 X107.0978 Y178.4173 Z-11.511
G3 X107.8533 Y180.3421 Z-11.5243 I-0.6339 J1.3595
G1 X104.0144 Y189.7785 Z-11.5839
G2 X105.0217 Y192.3448 Z-11.6017 I1.8526 J0.7537
G1 X105.4709 Y192.5543 Z-11.6046
G2 X108.1287 Y191.5869 Z-11.6229 I0.8452 J-1.8126
G1 X112.3549 Y182.5238 Z-11.6814
G3 X114.3483 Y181.7983 Z-11.6952 I1.3595 J0.6339
G1 X117.0672 Y183.0662 Z-11.7127
G3 X117.7928 Y185.0595 Z-11.7265 I-0.6339 J1.3595
G2 X121.418 Y186.75 Z-11.7632 I1.8126 J0.8452
G1 X123.9537 Y181.3122 Z-11.7983
G3 X125.9471 Y180.5866 Z-11.812 I1.3595 J0.6339
G1 X161.1114 Y196.984 Z-12.0388
G2 X178.9094 Y203.2079 Z-12.1492 I39.9374 J-85.6461
G1 X368.0755 Y248.7944 Z-13.2867
G3 X373.3845 Y259.8132 Z-13.3684 I-1.8508 J7.6801
G1 X370.0202 Y267.0281 Z-13.415
G3 X358.2658 Y273.3069 Z-13.4985 I-10.06 J-4.6911
G1 X104.529 Y234.1162 Z-14.9993
G3 X104.412 Y234.0933 Z-15.0 I0.229 J-1.4824
G2 X102.1382 Y235.1942 Z-15.0131 I-0.4612 J1.9461
G1 X80.291 Y282.0457 Z-15.2609
G3 X78.2638 Y282.755 Z-15.2724 I-1.3595 J-0.6339
G1 X69.3064 Y278.3023 Z-15.3203
G3 X68.6146 Y276.3251 Z-15.3314 I0.6677 J-1.3432
G1 X69.0424 Y275.4078 Z-15.3363
G1 X71.3609 Y270.4357 Z-15.3626
G3 X71.6604 Y270.0083 Z-15.3651 I1.3595 J0.6339
G3 X73.3543 Y269.7101 Z-15.3739 I1.06 J1.0613
G2 X75.0448 Y266.0849 Z-15.404 I0.8452 J-1.8126
G1 X61.4502 Y259.7456 Z-15.4759
G3 X60.7247 Y257.7523 Z-15.4872 I0.6339 J-1.3595
G1 X73.4032 Y230.563 Z-15.631
G3 X75.3966 Y229.8375 Z-15.6423 I1.3595 J0.6339
G1 X81.7407 Y232.7958 Z-15.6758
G3 X82.4962 Y234.7205 Z-15.6868 I-0.6339 J1.3595
G1 X78.6573 Y244.157 Z-15.7356
G2 X79.6646 Y246.7233 Z-15.7502 I1.8526 J0.7537
G1 X80.1138 Y246.9327 Z-15.7525
G2 X82.7716 Y245.9654 Z-15.7676 I0.8452 J-1.8126
G1 X96.718 Y216.0572 Z-15.9258
G3 X98.7114 Y215.3317 Z-15.9371 I1.3595 J0.6339
G2 X100.4019 Y211.7065 Z-15.9672 I0.8452 J-1.8126
G1 X94.0492 Y208.7441 Z-16.0008
G1 X88.6113 Y206.2084 Z-16.0296
G1 X86.8073 Y205.3672 Z-16.0391
G3 X86.0817 Y203.3738 Z-16.0504 I0.6339 J-1.3595
G1 X98.7603 Y176.1846 Z-16.1942
G3 X100.7537 Y175.459 Z-16.2055 I1.3595 J0.6339
G1 X107.0978 Y178.4173 Z-16.239
G3 X107.8533 Y180.3421 Z-16.25 I-0.6339 J1.3595
G1 X104.0144 Y189.7785 Z-16.2988
G2 X105.0217 Y192.3448 Z-16.3134 I1.8526 J0.7537
G1 X105.4709 Y192.5543 Z-16.3158
G2 X108.1287 Y191.5869 Z-16.3308 I0.8452 J-1.8126
G1 X112.3549 Y182.5238 Z-16.3787
G3 X114.3483 Y181.7983 Z-16.39 I1.3595 J0.6339
G1 X117.0672 Y183.0662 Z-16.4044
G3 X117.7928 Y185.0595 Z-16.4157 I-0.6339 J1.3595
G2 X121.418 Y186.75 Z-16.4458 I1.8126 J0.8452
G1 X123.9537 Y181.3122 Z-16.4746
G3 X125.9471 Y180.5866 Z-16.4859 I1.3595 J0.6339
G1 X161.1114 Y196.984 Z-16.6719
G2 X166.221 Y199.1859 Z-16.6985 I39.9374 J-85.6461
G0 Z-16.1
G2 X171.866 Y201.219 I34.8279 J-87.848
G1 F300.0 Z-16.7273
G2 F800.0 X178.9094 Y203.2079 Z-16.7624 I29.1828 J-89.8811
G1 X302.8664 Y233.0799 Z-17.3735
G0 Z-16.1
G1 X308.6994 Y234.4855
G1 F300.0 Z-17.4023
G1 F800.0 X368.0755 Y248.7944 Z-17.6951
G3 X373.3845 Y259.8132 Z-17.7621 I-1.8508 J7.6801
G1 X370.0202 Y267.0281 Z-17.8003
G3 X358.2658 Y273.3069 Z-17.8688 I-10.06 J-4.6911
G1 X316.5013 Y266.8562 Z-18.0713
G0 Z-16.1
G1 X310.5716 Y265.9403
G1 F300.0 Z-18.1001
G1 F800.0 X177.163 Y245.3348 Z-18.7471
G0 Z-16.1
G1 X171.2333 Y244.4189
G1 F300.0 Z-18.7759
G1 F800.0 X104.529 Y234.1162 Z-19.0994
G3 X104.412 Y234.0933 Z-19.1 I0.229 J-1.4824
G2 X102.1382 Y235.1942 I-0.4612 J1.9461
G1 X80.291 Y282.0457
G3 X78.2638 Y282.755 I-1.3595 J-0.6339
G1 X69.3064 Y278.3023
G3 X68.6146 Y276.3251 I0.6677 J-1.3432
G1 X69.0424 Y275.4078
G0 Z-16.1
G1 X71.3609 Y270.4357
G3 X71.6604 Y270.0083 I1.3595 J0.6339
G1 F300.0 Z-19.1
G3 F800.0 X73.3543 Y269.7101 I1.06 J1.0613
G2 X75.0448 Y266.0849 I0.8452 J-1.8126
G1 X61.4502 Y259.7456
G3 X60.7247 Y257.7523 I0.6339 J-1.3595
G1 X73.4032 Y230.563
G3 X75.3966 Y229.8375 I1.3595 J0.6339
G1 X81.7407 Y232.7958
G3 X82.4962 Y234.7205 I-0.6339 J1.3595
G1 X78.6573 Y244.157
G2 X79.6646 Y246.7233 I1.8526 J0.7537
G1 X80.1138 Y246.9327
G2 X82.7716 Y245.9654 I0.8452 J-1.8126
G1 X96.718 Y216.0572
G3 X98.7114 Y215.3317 I1.3595 J0.6339
G2 X100.4019 Y211.7065 I0.8452 J-1.8126
G1 X94.0492 Y208.7441
G0 Z-16.1
G1 X88.6113 Y206.2084
G1 F300.0 Z-19.1
G1 F800.0 X86.8073 Y205.3672
G3 X86.0817 Y203.3738 I0.6339 J-1.3595
G1 X98.7603 Y176.1846
G3 X100.7537 Y175.459 I1.3595 J0.6339
G1 X107.0978 Y178.4173
G3 X107.8533 Y180.3421 I-0.6339 J1.3595
G1 X104.0144 Y189.7785
G2 X105.0217 Y192.3448 I1.8526 J0.7537
G1 X105.4709 Y192.5543
G2 X108.1287 Y191.5869 I0.8452 J-1.8126
G1 X112.3549 Y182.5238
G3 X114.3483 Y181.7983 I1.3595 J0.6339
G1 X117.0672 Y183.0662
G3 X117.7928 Y185.0595 I-0.6339 J1.3595
G2 X121.418 Y186.75 I1.8126 J0.8452
G1 X123.9537 Y181.3122
G3 X125.9471 Y180.5866 I1.3595 J0.6339
G1 X161.1114 Y196.984
G2 X166.221 Y199.1859 I39.9374 J-85.6461
G0 Z-16.1
G2 X171.866 Y201.219 I34.8279 J-87.848
G1 F300.0 Z-19.1
G2 F800.0 X178.9094 Y203.2079 I29.1828 J-89.8811
G1 X302.8664 Y233.0799
G0 Z-16.1
G1 X308.6994 Y234.4855
G0 Z-16.4023
G1 F300.0 Z-19.1
G1 F800.0 X368.0755 Y248.7944
G3 X373.3845 Y259.8132 I-1.8508 J7.6801
G1 X370.0202 Y267.0281
G3 X358.2658 Y273.3069 I-10.06 J-4.6911
G1 X316.5013 Y266.8562
G0 Z-16.1
G1 X310.5716 Y265.9403
G0 Z-17.1001
G1 F300.0 Z-19.1
G1 F800.0 X177.163 Y245.3348
G0 Z-16.1
G1 X171.2333 Y244.4189
G0 Z-17.7759
G1 F300.0 Z-19.1
G1 F800.0 X104.529 Y234.1162
G3 X104.412 Y234.0933 I0.229 J-1.4824
G0 Z5.0
G0 X60.7156 Y203.1027
G0 Z1.0
G1 F300.0 Z0.0
G3 F800.0 X58.8244 Y203.5782 Z-0.0124 I-1.2235 J-0.8678
G1 X49.867 Y199.1254 Z-0.0709
G3 X49.1752 Y197.1483 Z-0.0844 I0.6677 J-1.3432
G1 X51.9215 Y191.2588 Z-0.1224
G3 X53.9149 Y190.5333 Z-0.1362 I1.3595 J0.6339
G2 X55.6054 Y186.9081 Z-0.1729 I0.8452 J-1.8126
G1 X42.0108 Y180.5688 Z-0.2606
G3 X41.2852 Y178.5754 Z-0.2744 I0.6339 J-1.3595
G1 X53.9638 Y151.3862 Z-0.4497
G3 X55.9572 Y150.6606 Z-0.4635 I1.3595 J0.6339
G1 X62.3013 Y153.619 Z-0.5044
G3 X63.0568 Y155.5437 Z-0.5178 I-0.6339 J1.3595
G1 X59.2178 Y164.9802 Z-0.5773
G2 X60.2252 Y167.5464 Z-0.5951 I1.8526 J0.7537
G1 X60.6744 Y167.7559 Z-0.598
G2 X63.3322 Y166.7885 Z-0.6164 I0.8452 J-1.8126
G1 X77.2786 Y136.8804 Z-0.8093
G3 X79.272 Y136.1548 Z-0.823 I1.3595 J0.6339
G2 X80.9625 Y132.5296 Z-0.8598 I0.8452 J-1.8126
G1 X67.3679 Y126.1903 Z-0.9474
G3 X66.6423 Y124.1969 Z-0.9612 I0.6339 J-1.3595
G1 X79.3209 Y97.0077 Z-1.1366
G3 X81.3143 Y96.2822 Z-1.1503 I1.3595 J0.6339
G1 X87.6584 Y99.2405 Z-1.1913
G3 X88.4139 Y101.1652 Z-1.2046 I-0.6339 J1.3595
G1 X84.5749 Y110.6017 Z-1.2642
G2 X85.5823 Y113.168 Z-1.2819 I1.8526 J0.7537
G1 X86.0314 Y113.3774 Z-1.2848
G2 X88.6893 Y112.4101 Z-1.3032 I0.8452 J-1.8126
G1 X92.9155 Y103.347 Z-1.3616
G3 X94.9089 Y102.6215 Z-1.3754 I1.3595 J0.6339
G1 X97.6278 Y103.8893 Z-1.393
G3 X98.3533 Y105.8827 Z-1.4067 I-0.6339 J1.3595
G2 X101.9786 Y107.5732 Z-1.4435 I1.8126 J0.8452
G1 X104.5143 Y102.1353 Z-1.4785
G3 X106.5077 Y101.4098 Z-1.4923 I1.3595 J0.6339
G1 X141.672 Y117.8072 Z-1.7191
G2 X159.47 Y124.0311 Z-1.8295 I39.9374 J-85.6461
G1 X348.6361 Y169.6175 Z-2.9669
G3 X353.9451 Y180.6363 Z-3.0487 I-1.8508 J7.6801
G1 X350.5808 Y187.8512 Z-3.0952
G3 X338.8264 Y194.1301 Z-3.1788 I-10.06 J-4.6911
G1 X85.0895 Y154.9393 Z-4.6796
G3 X84.9726 Y154.9165 Z-4.6803 I0.229 J-1.4824
G2 X82.6988 Y156.0173 Z-4.6962 I-0.4612 J1.9461
G1 X60.8516 Y202.8689 Z-4.9984
G3 X60.7156 Y203.1027 Z-5.0 I-1.3595 J-0.6339
G3 X58.8244 Y203.5782 Z-5.0124 I-1.2235 J-0.8678
G1 X49.867 Y199.1254 Z-5.0709
G3 X49.1752 Y197.1483 Z-5.0844 I0.6677 J-1.3432
G1 X51.9215 Y191.2588 Z-5.1224
G3 X53.9149 Y190.5333 Z-5.1362 I1.3595 J0.6339
G2 X55.6054 Y186.9081 Z-5.1729 I0.8452 J-1.8126
G1 X42.0108 Y180.5688 Z-5.2606
G3 X41.2852 Y178.5754 Z-5.2744 I0.6339 J-1.3595
G1 X53.9638 Y151.3862 Z-5.4497
G3 X55.9572 Y150.6606 Z-5.4635 I1.3595 J0.6339
G1 X62.3013 Y153.619 Z-5.5044
G3 X63.0568 Y155.5437 Z-5.5178 I-0.6339 J1.3595
G1 X59.2178 Y164.9802 Z-5.5773
G2 X60.2252 Y167.5464 Z-5.5951 I1.8526 J0.7537
G1 X60.6744 Y167.7559 Z-5.598
G2 X63.3322 Y166.7885 Z-5.6164 I0.8452 J-1.8126
G1 X77.2786 Y136.8804 Z-5.8093
G3 X79.272 Y136.1548 Z-5.823 I1.3595 J0.6339
G2 X80.9625 Y132.5296 Z-5.8598 I0.8452 J-1.8126
G1 X67.3679 Y126.1903 Z-5.9474
G3 X66.6423 Y124.1969 Z-5.9612 I0.6339 J-1.3595
G1 X79.3209 Y97.0077 Z-6.1366
G3 X81.3143 Y96.2822 Z-6.1503 I1.3595 J0.6339
G1 X87.6584 Y99.2405 Z-6.1913
G3 X88.4139 Y101.1652 Z-6.2046 I-0.6339 J1.3595
G1 X84.5749 Y110.6017 Z-6.2642
G2 X85.5823 Y113.168 Z-6.2819 I1.8526 J0.7537
G1 X86.0314 Y113.3774 Z-6.2848
G2 X88.6893 Y112.4101 Z-6.3032 I0.8452 J-1.8126
G1 X92.9155 Y103.347 Z-6.3616
G3 X94.9089 Y102.6215 Z-6.3754 I1.3595 J0.6339
G1 X97.6278 Y103.8893 Z-6.393
G3 X98.3533 Y105.8827 Z-6.4067 I-0.6339 J1.3595
G2 X101.9786 Y107.5732 Z-6.4435 I1.8126 J0.8452
G1 X104.5143 Y102.1353 Z-6.4785
G3 X106.5077 Y101.4098 Z-6.4923 I1.3595 J0.6339
G1 X141.672 Y117.8072 Z-6.7191
G2 X159.47 Y124.0311 Z-6.8295 I39.9374 J-85.6461
G1 X348.6361 Y169.6175 Z-7.9669
G3 X353.9451 Y180.6363 Z-8.0487 I-1.8508 J7.6801
G1 X350.5808 Y187.8512 Z-8.0952
G3 X338.8264 Y194.1301 Z-8.1788 I-10.06 J-4.6911
G1 X85.0895 Y154.9393 Z-9.6796
G3 X84.9726 Y154.9165 Z-9.6803 I0.229 J-1.4824
G2 X82.6988 Y156.0173 Z-9.6962 I-0.4612 J1.9461
G1 X60.8516 Y202.8689 Z-9.9984
G3 X60.7156 Y203.1027 Z-10.0 I-1.3595 J-0.6339
G3 X58.8244 Y203.5782 Z-10.0124 I-1.2235 J-0.8678
G1 X49.867 Y199.1254 Z-10.0709
G3 X49.1752 Y197.1483 Z-10.0844 I0.6677 J-1.3432
G1 X51.9215 Y191.2588 Z-10.1224
G3 X53.9149 Y190.5333 Z-10.1362 I1.3595 J0.6339
G2 X55.6054 Y186.9081 Z-10.1729 I0.8452 J-1.8126
G1 X42.0108 Y180.5688 Z-10.2606
G3 X41.2852 Y178.5754 Z-10.2744 I0.6339 J-1.3595
G1 X53.9638 Y151.3862 Z-10.4497
G3 X55.9572 Y150.6606 Z-10.4635 I1.3595 J0.6339
G1 X62.3013 Y153.619 Z-10.5044
G3 X63.0568 Y155.5437 Z-10.5178 I-0.6339 J1.3595
G1 X59.2178 Y164.9802 Z-10.5773
G2 X60.2252 Y167.5464 Z-10.5951 I1.8526 J0.7537
G1 X60.6744 Y167.7559 Z-10.598
G2 X63.3322 Y166.7885 Z-10.6164 I0.8452 J-1.8126
G1 X77.2786 Y136.8804 Z-10.8093
G3 X79.272 Y136.1548 Z-10.823 I1.3595 J0.6339
G2 X80.9625 Y132.5296 Z-10.8598 I0.8452 J-1.8126
G1 X67.3679 Y126.1903 Z-10.9474
G3 X66.6423 Y124.1969 Z-10.9612 I0.6339 J-1.3595
G1 X79.3209 Y97.0077 Z-11.1366
G3 X81.3143 Y96.2822 Z-11.1503 I1.3595 J0.6339
G1 X87.6584 Y99.2405 Z-11.1913
G3 X88.4139 Y101.1652 Z-11.2046 I-0.6339 J1.3595
G1 X84.5749 Y110.6017 Z-11.2642
G2 X85.5823 Y113.168 Z-11.2819 I1.8526 J0.7537
G1 X86.0314 Y113.3774 Z-11.2848
G2 X88.6893 Y112.4101 Z-11.3032 I0.8452 J-1.8126
G1 X92.9155 Y103.347 Z-11.3616
G3 X94.9089 Y102.6215 Z-11.3754 I1.3595 J0.6339
G1 X97.6278 Y103.8893 Z-11.393
G3 X98.3533 Y105.8827 Z-11.4067 I-0.6339 J1.3595
G2 X101.9786 Y107.5732 Z-11.4435 I1.8126 J0.8452
G1 X104.5143 Y102.1353 Z-11.4785
G3 X106.5077 Y101.4098 Z-11.4923 I1.3595 J0.6339
G1 X141.672 Y117.8072 Z-11.7191
G2 X159.47 Y124.0311 Z-11.8295 I39.9374 J-85.6461
G1 X348.6361 Y169.6175 Z-12.9669
G3 X353.9451 Y180.6363 Z-13.0487 I-1.8508 J7.6801
G1 X350.5808 Y187.8512 Z-13.0952
G3 X338.8264 Y194.1301 Z-13.1788 I-10.06 J-4.6911
G1 X85.0895 Y154.9393 Z-14.6796
G3 X84.9726 Y154.9165 Z-14.6803 I0.229 J-1.4824
G2 X82.6988 Y156.0173 Z-14.6962 I-0.4612 J1.9461
G1 X60.8516 Y202.8689 Z-14.9984
G3 X60.7156 Y203.1027 Z-15.0 I-1.3595 J-0.6339
G3 X58.8244 Y203.5782 Z-15.0102 I-1.2235 J-0.8678
G1 X49.867 Y199.1254 Z-15.0581
G3 X49.1752 Y197.1483 Z-15.0692 I0.6677 J-1.3432
G1 X49.603 Y196.231 Z-15.0741
G1 X51.9215 Y191.2588 Z-15.1004
G3 X52.2209 Y190.8315 Z-15.1029 I1.3595 J0.6339
G3 X53.9149 Y190.5333 Z-15.1117 I1.06 J1.0613
G2 X55.6054 Y186.9081 Z-15.1418 I0.8452 J-1.8126
G1 X42.0108 Y180.5688 Z-15.2137
G3 X41.2852 Y178.5754 Z-15.225 I0.6339 J-1.3595
G1 X53.9638 Y151.3862 Z-15.3688
G3 X55.9572 Y150.6606 Z-15.3801 I1.3595 J0.6339
G1 X62.3013 Y153.619 Z-15.4136
G3 X63.0568 Y155.5437 Z-15.4246 I-0.6339 J1.3595
G1 X59.2178 Y164.9802 Z-15.4734
G2 X60.2252 Y167.5464 Z-15.488 I1.8526 J0.7537
G1 X60.6744 Y167.7559 Z-15.4904
G2 X63.3322 Y166.7885 Z-15.5054 I0.8452 J-1.8126
G1 X77.2786 Y136.8804 Z-15.6636
G3 X79.272 Y136.1548 Z-15.6749 I1.3595 J0.6339
G2 X80.9625 Y132.5296 Z-15.705 I0.8452 J-1.8126
G1 X74.6097 Y129.5673 Z-15.7386
G1 X69.1719 Y127.0316 Z-15.7674
G1 X67.3679 Y126.1903 Z-15.7769
G3 X66.6423 Y124.1969 Z-15.7882 I0.6339 J-1.3595
G1 X79.3209 Y97.0077 Z-15.932
G3 X81.3143 Y96.2822 Z-15.9433 I1.3595 J0.6339
G1 X87.6584 Y99.2405 Z-15.9768
G3 X88.4139 Y101.1652 Z-15.9878 I-0.6339 J1.3595
G1 X84.5749 Y110.6017 Z-16.0366
G2 X85.5823 Y113.168 Z-16.0512 I1.8526 J0.7537
G1 X86.0314 Y113.3774 Z-16.0536
G2 X88.6893 Y112.4101 Z-16.0686 I0.8452 J-1.8126
G1 X92.9155 Y103.347 Z-16.1165
G3 X94.9089 Y102.6215 Z-16.1278 I1.3595 J0.6339
G1 X97.6278 Y103.8893 Z-16.1422
G3 X98.3533 Y105.8827 Z-16.1535 I-0.6339 J1.3595
G2 X101.9786 Y107.5732 Z-16.1836 I1.8126 J0.8452
G1 X104.5143 Y102.1353 Z-16.2124
G3 X106.5077 Y101.4098 Z-16.2237 I1.3595 J0.6339
G1 X141.672 Y117.8072 Z-16.4097
G2 X146.7815 Y120.0091 Z-16.4363 I39.9374 J-85.6461
G0 Z-16.1
G2 X152.4266 Y122.0422 I34.8279 J-87.848
G1 F300.0 Z-16.4651
G2 F800.0 X159.47 Y124.0311 Z-16.5002 I29.1828 J-89.8811
G1 X283.427 Y153.903 Z-17.1114
G0 Z-16.1
G1 X289.26 Y155.3087
G1 F300.0 Z-17.1401
G1 F800.0 X348.6361 Y169.6175 Z-17.4329
G3 X353.9451 Y180.6363 Z-17.4999 I-1.8508 J7.6801
G1 X350.5808 Y187.8512 Z-17.5381
G3 X338.8264 Y194.1301 Z-17.6066 I-10.06 J-4.6911
G1 X297.0618 Y187.6794 Z-17.8092
G0 Z-16.1
G1 X291.1322 Y186.7635
G1 F300.0 Z-17.8379
G1 F800.0 X157.7235 Y166.158 Z-18.485
G0 Z-16.1
G1 X151.7938 Y165.2421
G1 F300.0 Z-18.5137
G1 F800.0 X85.0895 Y154.9393 Z-18.8372
G3 X84.9726 Y154.9165 Z-18.8378 I0.229 J-1.4824
G2 X82.6988 Y156.0173 Z-18.8509 I-0.4612 J1.9461
G1 X60.8516 Y202.8689 Z-19.0987
G3 X60.7156 Y203.1027 Z-19.1 I-1.3595 J-0.6339
G3 X58.8244 Y203.5782 I-1.2235 J-0.8678
G1 X49.867 Y199.1254
G3 X49.1752 Y197.1483 I0.6677 J-1.3432
G1 X49.603 Y196.231
G0 Z-16.1
G1 X51.9215 Y191.2588
G3 X52.2209 Y190.8315 I1.3595 J0.6339
G1 F300.0 Z-19.1
G3 F800.0 X53.9149 Y190.5333 I1.06 J1.0613
G2 X55.6054 Y186.9081 I0.8452 J-1.8126
G1 X42.0108 Y180.5688
G3 X41.2852 Y178.5754 I0.6339 J-1.3595
G1 X53.9638 Y151.3862
G3 X55.9572 Y150.6606 I1.3595 J0.6339
G1 X62.3013 Y153.619
G3 X63.0568 Y155.5437 I-0.6339 J1.3595
G1 X59.2178 Y164.9802
G2 X60.2252 Y167.5464 I1.8526 J0.7537
G1 X60.6744 Y167.7559
G2 X63.3322 Y166.7885 I0.8452 J-1.8126
G1 X77.2786 Y136.8804
G3 X79.272 Y136.1548 I1.3595 J0.6339
G2 X80.9625 Y132.5296 I0.8452 J-1.8126
G1 X74.6097 Y129.5673
G0 Z-16.1
G1 X69.1719 Y127.0316
G1 F300.0 Z-19.1
G1 F800.0 X67.3679 Y126.1903
G3 X66.6423 Y124.1969 I0.6339 J-1.3595
G1 X79.3209 Y97.0077
G3 X81.3143 Y96.2822 I1.3595 J0.6339
G1 X87.6584 Y99.2405
G3 X88.4139 Y101.1652 I-0.6339 J1.3595
G1 X84.5749 Y110.6017
G2 X85.5823 Y113.168 I1.8526 J0.7537
G1 X86.0314 Y113.3774
G2 X88.6893 Y112.4101 I0.8452 J-1.8126
G1 X92.9155 Y103.347
G3 X94.9089 Y102.6215 I1.3595 J0.6339
G1 X97.6278 Y103.8893
G3 X98.3533 Y105.8827 I-0.6339 J1.3595
G2 X101.9786 Y107.5732 I1.8126 J0.8452
G1 X104.5143 Y102.1353
G3 X106.5077 Y101.4098 I1.3595 J0.6339
G1 X141.672 Y117.8072
G2 X146.7815 Y120.0091 I39.9374 J-85.6461
G0 Z-16.1
G2 X152.4266 Y122.0422 I34.8279 J-87.848
G1 F300.0 Z-19.1
G2 F800.0 X159.47 Y124.0311 I29.1828 J-89.8811
G1 X283.427 Y153.903
G0 Z-16.1
G1 X289.26 Y155.3087
G0 Z-16.1401
G1 F300.0 Z-19.1
G1 F800.0 X348.6361 Y169.6175
G3 X353.9451 Y180.6363 I-1.8508 J7.6801
G1 X350.5808 Y187.8512
G3 X338.8264 Y194.1301 I-10.06 J-4.6911
G1 X297.0618 Y187.6794
G0 Z-16.1
G1 X291.1322 Y186.7635
G0 Z-16.8379
G1 F300.0 Z-19.1
G1 F800.0 X157.7235 Y166.158
G0 Z-16.1
G1 X151.7938 Y165.2421
G0 Z-17.5137
G1 F300.0 Z-19.1
G1 F800.0 X85.0895 Y154.9393
G3 X84.9726 Y154.9165 I0.229 J-1.4824
G2 X82.6988 Y156.0173 I-0.4612 J1.9461
G1 X60.8516 Y202.8689
G3 X60.7156 Y203.1027 I-1.3595 J-0.6339
G0 Z5.0
G0 X39.318 Y122.8612
G0 Z1.0
G1 F300.0 Z0.0
G3 F800.0 X38.2638 Y122.755 Z-0.0063 I-0.3865 J-1.4494
G1 X29.3064 Y118.3023 Z-0.0648
G3 X28.6146 Y116.3251 Z-0.0784 I0.6677 J-1.3432
G1 X31.3609 Y110.4357 Z-0.1163
G3 X33.3543 Y109.7101 Z-0.1301 I1.3595 J0.6339
G2 X35.0448 Y106.0849 Z-0.1668 I0.8452 J-1.8126
G1 X21.4502 Y99.7456 Z-0.2545
G3 X20.7247 Y97.7523 Z-0.2683 I0.6339 J-1.3595
G1 X33.4032 Y70.563 Z-0.4437
G3 X35.3966 Y69.8375 Z-0.4574 I1.3595 J0.6339
G1 X41.7407 Y72.7958 Z-0.4984
G3 X42.4962 Y74.7205 Z-0.5117 I-0.6339 J1.3595
G1 X38.6573 Y84.157 Z-0.5712
G2 X39.6646 Y86.7233 Z-0.589 I1.8526 J0.7537
G1 X40.1138 Y86.9327 Z-0.5919
G2 X42.7716 Y85.9654 Z-0.6103 I0.8452 J-1.8126
G1 X56.718 Y56.0572 Z-0.8032
G3 X58.7114 Y55.3317 Z-0.8169 I1.3595 J0.6339
G2 X60.4019 Y51.7065 Z-0.8537 I0.8452 J-1.8126
G1 X46.8073 Y45.3672 Z-0.9414
G3 X46.0817 Y43.3738 Z-0.9551 I0.6339 J-1.3595
G1 X58.7603 Y16.1846 Z-1.1305
G3 X60.7537 Y15.459 Z-1.1443 I1.3595 J0.6339
G1 X67.0978 Y18.4173 Z-1.1852
G3 X67.8533 Y20.3421 Z-1.1985 I-0.6339 J1.3595
G1 X64.0144 Y29.7785 Z-1.2581
G2 X65.0217 Y32.3448 Z-1.2759 I1.8526 J0.7537
G1 X65.4709 Y32.5543 Z-1.2787
G2 X68.1287 Y31.5869 Z-1.2971 I0.8452 J-1.8126
G1 X72.3549 Y22.5238 Z-1.3556
G3 X74.3483 Y21.7983 Z-1.3693 I1.3595 J0.6339
G1 X77.0672 Y23.0662 Z-1.3869
G3 X77.7928 Y25.0595 Z-1.4006 I-0.6339 J1.3595
G2 X81.418 Y26.75 Z-1.4374 I1.8126 J0.8452
G1 X83.9537 Y21.3122 Z-1.4725
G3 X85.9471 Y20.5866 Z-1.4862 I1.3595 J0.6339
G1 X121.1114 Y36.984 Z-1.713
G2 X138.9094 Y43.2079 Z-1.8234 I39.9374 J-85.6461
G1 X328.0755 Y88.7944 Z-2.9608
G3 X333.3845 Y99.8132 Z-3.0426 I-1.8508 J7.6801
G1 X330.0202 Y107.0281 Z-3.0891
G3 X318.2658 Y113.3069 Z-3.1727 I-10.06 J-4.6911
G1 X64.529 Y74.1162 Z-4.6735
G3 X64.412 Y74.0933 Z-4.6742 I0.229 J-1.4824
G2 X62.1382 Y75.1942 Z-4.6902 I-0.4612 J1.9461
G1 X40.291 Y122.0457 Z-4.9923
G3 X39.318 Y122.8612 Z-5.0 I-1.3595 J-0.6339
G3 X38.2638 Y122.755 Z-5.0063 I-0.3865 J-1.4494
G1 X29.3064 Y118.3023 Z-5.0648
G3 X28.6146 Y116.3251 Z-5.0784 I0.6677 J-1.3432
G1 X31.3609 Y110.4357 Z-5.1163
G3 X33.3543 Y109.7101 Z-5.1301 I1.3595 J0.6339
G2 X35.0448 Y106.0849 Z-5.1668 I0.8452 J-1.8126
G1 X21.4502 Y99.7456 Z-5.2545
G3 X20.7247 Y97.7523 Z-5.2683 I0.6339 J-1.3595
G1 X33.4032 Y70.563 Z-5.4437
G3 X35.3966 Y69.8375 Z-5.4574 I1.3595 J0.6339
G1 X41.7407 Y72.7958 Z-5.4984
G3 X42.4962 Y74.7205 Z-5.5117 I-0.6339 J1.3595
G1 X38.6573 Y84.157 Z-5.5712
G2 X39.6646 Y86.7233 Z-5.589 I1.8526 J0.7537
G1 X40.1138 Y86.9327 Z-5.5919
G2 X42.7716 Y85.9654 Z-5.6103 I0.8452 J-1.8126
G1 X56.718 Y56.0572 Z-5.8032
G3 X58.7114 Y55.3317 Z-5.8169 I1.3595 J0.6339
G2 X60.4019 Y51.7065 Z-5.8537 I0.8452 J-1.8126
G1 X46.8073 Y45.3672 Z-5.9414
G3 X46.0817 Y43.3738 Z-5.9551 I0.6339 J-1.3595
G1 X58.7603 Y16.1846 Z-6.1305
G3 X60.7537 Y15.459 Z-6.1443 I1.3595 J0.6339
G1 X67.0978 Y18.4173 Z-6.1852
G3 X67.8533 Y20.3421 Z-6.1985 I-0.6339 J1.3595
G1 X64.0144 Y29.7785 Z-6.2581
G2 X65.0217 Y32.3448 Z-6.2759 I1.8526 J0.7537
G1 X65.4709 Y32.5543 Z-6.2787
G2 X68.1287 Y31.5869 Z-6.2971 I0.8452 J-1.8126
G1 X72.3549 Y22.5238 Z-6.3556
G3 X74.3483 Y21.7983 Z-6.3693 I1.3595 J0.6339
G1 X77.0672 Y23.0662 Z-6.3869
G3 X77.7928 Y25.0595 Z-6.4006 I-0.6339 J1.3595
G2 X81.418 Y26.75 Z-6.4374 I1.8126 J0.8452
G1 X83.9537 Y21.3122 Z-6.4725
G3 X85.9471 Y20.5866 Z-6.4862 I1.3595 J0.6339
G1 X121.1114 Y36.984 Z-6.713
G2 X138.9094 Y43.2079 Z-6.8234 I39.9374 J-85.6461
G1 X328.0755 Y88.7944 Z-7.9608
G3 X333.3845 Y99.8132 Z-8.0426 I-1.8508 J7.6801
G1 X330.0202 Y107.0281 Z-8.0891
G3 X318.2658 Y113.3069 Z-8.1727 I-10.06 J-4.6911
G1 X64.529 Y74.1162 Z-9.6735
G3 X64.412 Y74.0933 Z-9.6742 I0.229 J-1.4824
G2 X62.1382 Y75.1942 Z-9.6902 I-0.4612 J1.9461
G1 X40.291 Y122.0457 Z-9.9923
G3 X39.318 Y122.8612 Z-10.0 I-1.3595 J-0.6339
G3 X38.2638 Y122.755 Z-10.0063 I-0.3865 J-1.4494
G1 X29.3064 Y118.3023 Z-10.0648
G3 X28.6146 Y116.3251 Z-10.0784 I0.6677 J-1.3432
G1 X31.3609 Y110.4357 Z-10.1163
G3 X33.3543 Y109.7101 Z-10.1301 I1.3595 J0.6339
G2 X35.0448 Y106.0849 Z-10.1668 I0.8452 J-1.8126
G1 X21.4502 Y99.7456 Z-10.2545
G3 X20.7247 Y97.7523 Z-10.2683 I0.6339 J-1.3595
G1 X33.4032 Y70.563 Z-10.4437
G3 X35.3966 Y69.8375 Z-10.4574 I1.3595 J0.6339
G1 X41.7407 Y72.7958 Z-10.4984
G3 X42.4962 Y74.7205 Z-10.5117 I-0.6339 J1.3595
G1 X38.6573 Y84.157 Z-10.5712
G2 X39.6646 Y86.7233 Z-10.589 I1.8526 J0.7537
G1 X40.1138 Y86.9327 Z-10.5919
G2 X42.7716 Y85.9654 Z-10.6103 I0.8452 J-1.8126
G1 X56.718 Y56.0572 Z-10.8032
G3 X58.7114 Y55.3317 Z-10.8169 I1.3595 J0.6339
G2 X60.4019 Y51.7065 Z-10.8537 I0.8452 J-1.8126
G1 X46.8073 Y45.3672 Z-10.9414
G3 X46.0817 Y43.3738 Z-10.9551 I0.6339 J-1.3595
G1 X58.7603 Y16.1846 Z-11.1305
G3 X60.7537 Y15.459 Z-11.1443 I1.3595 J0.6339
G1 X67.0978 Y18.4173 Z-11.1852
G3 X67.8533 Y20.3421 Z-11.1985 I-0.6339 J1.3595
G1 X64.0144 Y29.7785 Z-11.2581
G2 X65.0217 Y32.3448 Z-11.2759 I1.8526 J0.7537
G1 X65.4709 Y32.5543 Z-11.2787
G2 X68.1287 Y31.5869 Z-11.2971 I0.8452 J-1.8126
G1 X72.3549 Y22.5238 Z-11.3556
G3 X74.3483 Y21.7983 Z-11.3693 I1.3595 J0.6339
G1 X77.0672 Y23.0662 Z-11.3869
G3 X77.7928 Y25.0595 Z-11.4006 I-0.6339 J1.3595
G2 X81.418 Y26.75 Z-11.4374 I1.8126 J0.8452
G1 X83.9537 Y21.3122 Z-11.4725
G3 X85.9471 Y20.5866 Z-11.4862 I1.3595 J0.6339
G1 X121.1114 Y36.984 Z-11.713
G2 X138.9094 Y43.2079 Z-11.8234 I39.9374 J-85.6461
G1 X328.0755 Y88.7944 Z-12.9608
G3 X333.3845 Y99.8132 Z-13.0426 I-1.8508 J7.6801
G1 X330.0202 Y107.0281 Z-13.0891
G3 X318.2658 Y113.3069 Z-13.1727 I-10.06 J-4.6911
G1 X64.529 Y74.1162 Z-14.6735
G3 X64.412 Y74.0933 Z-14.6742 I0.229 J-1.4824
G2 X62.1382 Y75.1942 Z-14.6902 I-0.4612 J1.9461
G1 X40.291 Y122.0457 Z-14.9923
G3 X39.318 Y122.8612 Z-15.0 I-1.3595 J-0.6339
G3 X38.2638 Y122.755 Z-15.0052 I-0.3865 J-1.4494
G1 X29.3064 Y118.3023 Z-15.0531
G3 X28.6146 Y116.3251 Z-15.0643 I0.6677 J-1.3432
G1 X29.0424 Y115.4078 Z-15.0691
G1 X31.3609 Y110.4357 Z-15.0954
G3 X31.6604 Y110.0083 Z-15.0979 I1.3595 J0.6339
G3 X33.3543 Y109.7101 Z-15.1067 I1.06 J1.0613
G2 X35.0448 Y106.0849 Z-15.1368 I0.8452 J-1.8126
G1 X21.4502 Y99.7456 Z-15.2087
G3 X20.7247 Y97.7523 Z-15.22 I0.6339 J-1.3595
G1 X33.4032 Y70.563 Z-15.3638
G3 X35.3966 Y69.8375 Z-15.3751 I1.3595 J0.6339
G1 X41.7407 Y72.7958 Z-15.4086
G3 X42.4962 Y74.7205 Z-15.4196 I-0.6339 J1.3595
G1 X38.6573 Y84.157 Z-15.4684
G2 X39.6646 Y86.7233 Z-15.483 I1.8526 J0.7537
G1 X40.1138 Y86.9327 Z-15.4854
G2 X42.7716 Y85.9654 Z-15.5004 I0.8452 J-1.8126
G1 X56.718 Y56.0572 Z-15.6586
G3 X58.7114 Y55.3317 Z-15.6699 I1.3595 J0.6339
G2 X60.4019 Y51.7065 Z-15.7 I0.8452 J-1.8126
G1 X54.0492 Y48.7441 Z-15.7336
G1 X48.6113 Y46.2084 Z-15.7624
G1 X46.8073 Y45.3672 Z-15.7719
G3 X46.0817 Y43.3738 Z-15.7832 I0.6339 J-1.3595
G1 X58.7603 Y16.1846 Z-15.927
G3 X60.7537 Y15.459 Z-15.9383 I1.3595 J0.6339
G1 X67.0978 Y18.4173 Z-15.9719
G3 X67.8533 Y20.3421 Z-15.9828 I-0.6339 J1.3595
G1 X64.0144 Y29.7785 Z-16.0316
G2 X65.0217 Y32.3448 Z-16.0462 I1.8526 J0.7537
G1 X65.4709 Y32.5543 Z-16.0486
G2 X68.1287 Y31.5869 Z-16.0636 I0.8452 J-1.8126
G1 X72.3549 Y22.5238 Z-16.1116
G3 X74.3483 Y21.7983 Z-16.1229 I1.3595 J0.6339
G1 X77.0672 Y23.0662 Z-16.1372
G3 X77.7928 Y25.0595 Z-16.1485 I-0.6339 J1.3595
G2 X81.418 Y26.75 Z-16.1786 I1.8126 J0.8452
G1 X83.9537 Y21.3122 Z-16.2074
G3 X85.9471 Y20.5866 Z-16.2187 I1.3595 J0.6339
G1 X121.1114 Y36.984 Z-16.4047
G2 X126.221 Y39.1859 Z-16.4314 I39.9374 J-85.6461
G0 Z-16.1
G2 X131.866 Y41.219 I34.8279 J-87.848
G1 F300.0 Z-16.4601
G2 F800.0 X138.9094 Y43.2079 Z-16.4952 I29.1828 J-89.8811
G1 X262.8664 Y73.0799 Z-17.1064
G0 Z-16.1
G1 X268.6994 Y74.4855
G1 F300.0 Z-17.1351
G1 F800.0 X328.0755 Y88.7944 Z-17.4279
G3 X333.3845 Y99.8132 Z-17.4949 I-1.8508 J7.6801
G1 X330.0202 Y107.0281 Z-17.5331
G3 X318.2658 Y113.3069 Z-17.6016 I-10.06 J-4.6911
G1 X276.5013 Y106.8562 Z-17.8042
G0 Z-16.1
G1 X270.5716 Y105.9403
G1 F300.0 Z-17.8329
G1 F800.0 X137.163 Y85.3348 Z-18.48
G0 Z-16.1
G1 X131.2333 Y84.4189
G1 F300.0 Z-18.5087
G1 F800.0 X64.529 Y74.1162 Z-18.8323
G3 X64.412 Y74.0933 Z-18.8328 I0.229 J-1.4824
G2 X62.1382 Y75.1942 Z-18.8459 I-0.4612 J1.9461
G1 X40.291 Y122.0457 Z-19.0937
G3 X39.318 Y122.8612 Z-19.1 I-1.3595 J-0.6339
G3 X38.2638 Y122.755 I-0.3865 J-1.4494
G1 X29.3064 Y118.3023
G3 X28.6146 Y116.3251 I0.6677 J-1.3432
G1 X29.0424 Y115.4078
G0 Z-16.1
G1 X31.3609 Y110.4357
G3 X31.6604 Y110.0083 I1.3595 J0.6339
G1 F300.0 Z-19.1
G3 F800.0 X33.3543 Y109.7101 I1.06 J1.0613
G2 X35.0448 Y106.0849 I0.8452 J-1.8126
G1 X21.4502 Y99.7456
G3 X20.7247 Y97.7523 I0.6339 J-1.3595
G1 X33.4032 Y70.563
G3 X35.3966 Y69.8375 I1.3595 J0.6339
G1 X41.7407 Y72.7958
G3 X42.4962 Y74.7205 I-0.6339 J1.3595
G1 X38.6573 Y84.157
G2 X39.6646 Y86.7233 I1.8526 J0.7537
G1 X40.1138 Y86.9327
G2 X42.7716 Y85.9654 I0.8452 J-1.8126
G1 X56.718 Y56.0572
G3 X58.7114 Y55.3317 I1.3595 J0.6339
G2 X60.4019 Y51.7065 I0.8452 J-1.8126
G1 X54.0492 Y48.7441
G0 Z-16.1
G1 X48.6113 Y46.2084
G1 F300.0 Z-19.1
G1 F800.0 X46.8073 Y45.3672
G3 X46.0817 Y43.3738 I0.6339 J-1.3595
G1 X58.7603 Y16.1846
G3 X60.7537 Y15.459 I1.3595 J0.6339
G1 X67.0978 Y18.4173
G3 X67.8533 Y20.3421 I-0.6339 J1.3595
G1 X64.0144 Y29.7785
G2 X65.0217 Y32.3448 I1.8526 J0.7537
G1 X65.4709 Y32.5543
G2 X68.1287 Y31.5869 I0.8452 J-1.8126
G1 X72.3549 Y22.5238
G3 X74.3483 Y21.7983 I1.3595 J0.6339
G1 X77.0672 Y23.0662
G3 X77.7928 Y25.0595 I-0.6339 J1.3595
G2 X81.418 Y26.75 I1.8126 J0.8452
G1 X83.9537 Y21.3122
G3 X85.9471 Y20.5866 I1.3595 J0.6339
G1 X121.1114 Y36.984
G2 X126.221 Y39.1859 I39.9374 J-85.6461
G0 Z-16.1
G2 X131.866 Y41.219 I34.8279 J-87.848
G1 F300.0 Z-19.1
G2 F800.0 X138.9094 Y43.2079 I29.1828 J-89.8811
G1 X262.8664 Y73.0799
G0 Z-16.1
