( Made using CamBam - http://www.cambam.co.uk )
( Ken-Stool.Cutting-Files 8/16/2015 2:20:12 PM )
( T3 : 3.0 )
G21 G90 G64 G40
G0 Z3.0
( T3 : 3.0 )
T3 M6
( Pocket1 )
G17
M3 S1000
G0 X45.4463 Y319.1695
G1 F300.0 Z-6.0
G3 F800.0 X44.7802 Y318.7084 I12.755 J-19.1392
G1 X45.478 Y320.6257
G3 X45.4463 Y319.1695 I22.9648 J-1.2285
G1 F300.0 X46.1117 Y318.1709
G3 F800.0 X42.0232 Y314.6422 I12.0895 J-18.1407
G1 X55.8134 Y352.5307
G1 X57.1312 Y352.051
G1 X47.9597 Y326.8524
G3 X46.6625 Y318.5262 I20.483 J-7.4552
G3 X46.1117 Y318.1709 I11.5387 J-18.4959
G1 F300.0 X46.7772 Y317.1724
G3 F800.0 X38.8436 Y307.0759 I11.424 J-17.1421
G1 X26.5772 Y273.3744
G1 X25.8255 Y273.6481
G1 X55.0962 Y354.0687
G1 X58.6693 Y352.7682
G1 X49.0873 Y326.442
G3 X47.9018 Y317.8707 I19.3554 J-7.0448
G3 X46.7772 Y317.1724 I10.2995 J-17.8404
G1 F300.0 X47.4427 Y316.1738
G3 F800.0 X39.9712 Y306.6654 I10.7585 J-16.1435
G1 X27.2945 Y271.8364
G1 X24.2874 Y272.9309
G1 X54.379 Y355.6068
G1 X60.2161 Y353.4822
G3 X60.0021 Y352.9216 I18.0138 J-7.195
G1 X50.215 Y326.0316
G3 X49.17 Y317.1999 I18.2278 J-6.6344
G3 X47.4427 Y316.1738 I9.0312 J-17.1696
G1 F300.0 X48.1082 Y315.1752
G3 F800.0 X41.0988 Y306.255 I10.0931 J-15.145
G1 X28.0117 Y270.2983
G1 X22.7494 Y272.2136
G1 X53.6618 Y357.1448
G1 X61.8293 Y354.1721
G3 X61.1298 Y352.5112 I16.4007 J-7.8849
G1 X51.3426 Y325.6211
G3 X50.4758 Y316.5092 I17.1001 J-6.224
G3 X48.1082 Y315.1752 I7.7255 J-16.479
G1 F300.0 X48.7736 Y314.1767
G3 F800.0 X42.2265 Y305.8446 I9.4276 J-14.1464
G1 X28.7289 Y268.7603
G1 X21.2113 Y271.4964
G1 X52.9446 Y358.6829
G1 X63.5342 Y354.8286
G3 X62.2574 Y352.1008 I14.6957 J-8.5413
G1 X52.4702 Y325.2107
G3 X51.8319 Y315.792 I15.9725 J-5.8135
G3 X48.7736 Y314.1767 I6.3694 J-15.7617
G1 F300.0 X49.4391 Y313.1781
G3 F800.0 X43.3541 Y305.4342 I8.7621 J-13.1478
G1 X29.4461 Y267.2222
G1 X19.6733 Y270.7792
G1 X52.2274 Y360.2209
G1 X65.3558 Y355.4426
G3 X63.385 Y351.6903 I12.8741 J-9.1554
G1 X53.5978 Y324.8003
G3 X53.2587 Y315.0373 I14.8449 J-5.4031
G3 X49.4391 Y313.1781 I4.9426 J-15.007
G1 F300.0 X50.1046 Y312.1795
G3 F800.0 X44.4817 Y305.0237 I8.0966 J-12.1493
G1 X30.1633 Y265.6842
G1 X18.1352 Y270.062
G1 X51.5102 Y361.759
G1 X67.3327 Y356.0001
G3 X64.5127 Y351.2799 I10.8973 J-9.7128
G1 X54.7255 Y324.3899
G3 X54.7916 Y314.2265 I13.7173 J-4.9927
G3 X50.1046 Y312.1795 I3.4097 J-14.1963
G1 F300.0 X50.7701 Y311.1809
G3 F800.0 X45.6094 Y304.6133 I7.4312 J-11.1507
G1 X30.8805 Y264.1461
G1 X16.5972 Y269.3448
G1 X50.793 Y363.297
G1 X69.5312 Y356.4769
G3 X65.6403 Y350.8695 I8.6987 J-10.1896
G1 X55.8531 Y323.9794
G3 X56.5017 Y313.322 I12.5896 J-4.5823
G3 X50.7701 Y311.1809 I1.6995 J-13.2918
G1 F300.0 X51.4356 Y310.1824
G3 F800.0 X46.737 Y304.2029 I6.7657 J-10.1521
G1 X31.5977 Y262.6081
G1 X15.0591 Y268.6276
G1 X50.0758 Y364.8351
G1 X72.0855 Y356.8242
G3 X66.7679 Y350.4591 I6.1444 J-10.537
G1 X56.9807 Y323.569
G3 X58.577 Y312.2245 I11.462 J-4.1718
G3 X51.4356 Y310.1824 I-0.3757 J-12.1942
G1 F300.0 X52.101 Y309.1838
G3 F800.0 X47.8646 Y303.7925 I6.1002 J-9.1536
G1 X32.3149 Y261.07
G1 X13.5211 Y267.9104
G1 X49.3586 Y366.3731
G1 X75.3689 Y356.9062
G3 X67.8956 Y350.0486 I2.861 J-10.6189
G1 X58.1084 Y323.1586
G3 X61.5427 Y310.8335 I10.3344 J-3.7614
G1 X58.9265 Y311.0063
G3 X52.101 Y309.1838 I-0.7252 J-10.9761
G0 Z3.0
G0 X318.5108 Y311.622
G1 F300.0 Z-6.0
G2 F800.0 X321.5401 Y306.5253 I-0.6638 J-3.8431
G3 X318.5108 Y311.622 I-10.6185 J-2.8626
G0 Z3.0
G0 X315.1984 Y308.1481
G1 F300.0 Z-6.0
G3 F800.0 X311.8429 Y309.7915 I-4.2768 J-4.4854
G1 X125.5909 Y337.7904
G2 X106.0028 Y342.7741 I15.0594 J100.1768
G1 X80.3496 Y352.1111
G3 X72.4061 Y348.4069 I-2.1197 J-5.8238
G1 X62.6189 Y321.5169
G3 X68.0341 Y313.2131 I5.8238 J-2.1197
G1 X310.4111 Y297.1985
G3 X316.6928 Y301.4036 I0.4086 J6.1841
G3 X315.1984 Y308.1481 I-5.7712 J2.2591
G1 F300.0 X314.372 Y307.2814
G3 F800.0 X311.6649 Y308.6072 I-3.4504 J-3.6187
G1 X125.4128 Y336.6061
G2 X105.5932 Y341.6487 I15.2374 J101.3611
G1 X79.94 Y350.9857
G3 X73.5315 Y347.9973 I-1.7101 J-4.6985
G1 X63.7443 Y321.1073
G3 X68.1131 Y314.4081 I4.6985 J-1.7101
G1 X310.49 Y298.3935
G3 X315.567 Y301.8134 I0.3296 J4.9891
G3 X314.372 Y307.2814 I-4.6454 J1.8494
G0 Z3.0
G0 X316.0265 Y309.0166
G1 F300.0 Z-6.0
G2 F800.0 X317.8207 Y300.9931 I-5.1049 J-5.3539
G2 X310.3319 Y296.0011 I-7.001 J2.3896
G1 X67.955 Y312.0157
G2 X61.4913 Y321.9273 I0.4877 J7.3815
G1 X71.2785 Y348.8174
G2 X80.7601 Y353.2387 I6.9515 J-2.5301
G1 X106.4132 Y343.9017
G3 X125.7693 Y338.9771 I34.237 J94.0655
G1 X312.0213 Y310.9781
G2 X316.0265 Y309.0166 I-1.0997 J-7.3154
G1 F300.0 X316.8546 Y309.8851
G2 F800.0 X318.9485 Y300.5826 I-5.933 J-6.2224
G2 X310.2528 Y294.8037 I-8.1289 J2.8001
G1 X67.8759 Y310.8183
G2 X60.3636 Y322.3377 I0.5668 J8.5789
G1 X70.1508 Y349.2278
G2 X81.1705 Y354.3663 I8.0791 J-2.9406
G1 X106.8237 Y345.0293
G3 X125.9477 Y340.1637 I33.8266 J92.9379
G1 X312.1997 Y312.1648
G2 X316.8546 Y309.8851 I-1.2781 J-8.5021
G1 F300.0 X317.6827 Y310.7536
G2 F800.0 X320.0763 Y300.1721 I-6.7611 J-7.0908
G2 X310.1737 Y293.6064 I-9.2566 J3.2105
G1 X67.7968 Y309.6209
G2 X59.236 Y322.7482 I0.6459 J9.7763
G1 X69.0232 Y349.6382
G2 X81.5809 Y355.494 I9.2067 J-3.351
G1 X107.2341 Y346.157
G3 X126.126 Y341.3504 I33.4162 J91.8102
G1 X312.3781 Y313.3515
G2 X317.6827 Y310.7536 I-1.4565 J-9.6887
G0 Z3.0
G0 X318.0072 Y312.9122
G1 F300.0 Z-6.0
G1 F800.0 X318.6052 Y312.8223
G2 X322.6395 Y306.0346 I-0.7582 J-5.0433
G1 X319.9284 Y298.586
G2 X311.3492 Y293.1251 I-7.9391 J3.003
G3 X311.2894 Y293.1294 I-0.4751 J-6.2821
G1 X58.8473 Y309.8089
G3 X48.9922 Y303.3821 I-0.6461 J-9.7787
G1 X33.0321 Y259.5319
G1 X11.983 Y267.1932
G1 X48.6414 Y367.9112
G1 X107.3717 Y346.5351
G3 X126.1859 Y341.7483 I33.2786 J91.4321
G1 X318.0072 Y312.9122
G1 F300.0 X318.1856 Y314.0988
G1 F800.0 X318.7836 Y314.0089
G2 X323.7671 Y305.6242 I-0.9365 J-6.23
G1 X321.0536 Y298.1688
G2 X311.2587 Y291.9285 I-9.0642 J3.4203
G3 X311.2103 Y291.932 I-0.3846 J-5.0855
G1 X58.7682 Y308.6115
G3 X50.1199 Y302.9716 I-0.567 J-8.5813
G1 X33.7493 Y257.9939
G1 X10.4449 Y266.476
G1 X47.9241 Y369.4493
G1 X107.7821 Y347.6627
G3 X126.3643 Y342.935 I32.8681 J90.3045
G1 X318.1856 Y314.0988
G1 F300.0 X318.364 Y315.2855
G1 F800.0 X318.962 Y315.1956
G2 X324.8948 Y305.2138 I-1.1149 J-7.4167
G1 X322.1789 Y297.7519
G2 X311.1682 Y290.732 I-10.1895 J3.8371
G3 X311.1312 Y290.7346 I-0.2941 J-3.8889
G1 X58.6891 Y307.4142
G3 X51.2475 Y302.5612 I-0.4879 J-7.3839
G1 X34.4665 Y256.4558
G1 X8.9069 Y265.7588
G1 X47.2069 Y370.9873
G1 X108.1926 Y348.7904
G3 X126.5426 Y344.1217 I32.4577 J89.1768
G1 X318.364 Y315.2855
G1 F300.0 X318.5424 Y316.4722
G1 F800.0 X319.1404 Y316.3823
G2 X326.0224 Y304.8034 I-1.2933 J-8.6033
G1 X323.3043 Y297.3354
G2 X311.0777 Y289.5354 I-11.3149 J4.2536
G3 X311.0521 Y289.5372 I-0.2036 J-2.6923
G1 X58.61 Y306.2168
G3 X52.3751 Y302.1508 I-0.4088 J-6.1865
G1 X35.457 Y255.6687
G2 X34.4147 Y255.197 I-0.7518 J0.2736
G3 X34.3573 Y255.2186 I-0.9809 J-2.5155
G1 X8.1206 Y264.768
G2 X7.6424 Y265.7933 I0.2736 J0.7518
G1 X46.2161 Y371.7736
G2 X47.2415 Y372.2518 I0.7518 J-0.2736
G1 X108.603 Y349.918
G3 X126.721 Y345.3083 I32.0473 J88.0492
G1 X318.5424 Y316.4722
G1 F300.0 X318.7208 Y317.6588
G1 F800.0 X319.3188 Y317.5689
G2 X327.15 Y304.3929 I-1.4717 J-9.79
G1 X324.4298 Y296.9192
G2 X310.9872 Y288.3388 I-12.4405 J4.6698
G3 X310.973 Y288.3398 I-0.1131 J-1.4957
G1 X58.5309 Y305.0194
G3 X53.5028 Y301.7404 I-0.3296 J-4.9891
G1 X36.5847 Y255.2583
G2 X33.9787 Y254.0789 I-1.8794 J0.684
G3 X33.9468 Y254.091 I-0.5449 J-1.3975
G1 X7.7102 Y263.6403
G2 X6.5148 Y266.2038 I0.684 J1.8794
G1 X45.0885 Y372.184
G2 X47.6519 Y373.3794 I1.8794 J-0.684
G1 X109.0134 Y351.0456
G3 X126.8994 Y346.495 I31.6369 J86.9216
G1 X318.7208 Y317.6588
G0 Z3.0
G0 X495.1668 Y318.0965
G1 F300.0 Z-6.0
G1 F800.0 X496.784 Y316.8525
G3 X495.4053 Y317.3223 I-8.1037 J-21.5225
G3 X495.1668 Y318.0965 I-22.0968 J-6.3823
G1 F300.0 X495.8985 Y319.0476
G1 F800.0 X524.0805 Y297.3679
G1 X523.2254 Y296.2563
G1 X501.971 Y312.6068
G3 X494.4248 Y316.357 I-13.2907 J-17.2769
G3 X492.1226 Y321.9523 I-21.1163 J-5.4169
G1 X495.8985 Y319.0476
G1 F300.0 X496.6302 Y319.9987
G1 F800.0 X525.7633 Y297.5873
G1 X523.4448 Y294.5735
G1 X501.2393 Y311.6557
G3 X493.4258 Y315.3734 I-12.5591 J-16.3258
G3 X485.8691 Y327.2677 I-20.1173 J-4.4334
G1 X457.4428 Y349.1354
G1 X457.9306 Y349.7695
G1 X496.6302 Y319.9987
G1 F300.0 X497.3619 Y320.9499
G1 F800.0 X527.4461 Y297.8068
G1 X523.6586 Y292.8834
G3 X523.1887 Y293.2565 I-12.2973 J-15.0015
G1 X500.5077 Y310.7046
G3 X492.4035 Y314.3669 I-11.8274 J-15.3747
G3 X485.1374 Y326.3166 I-19.0949 J-3.4268
G1 X455.76 Y348.916
G1 X457.7111 Y351.4523
G1 X497.3619 Y320.9499
G1 F300.0 X498.0936 Y321.901
G1 F800.0 X529.1289 Y298.0262
G1 X523.8293 Y291.1372
G3 X522.457 Y292.3054 I-12.468 J-13.2553
G1 X499.776 Y309.7535
G3 X491.3509 Y313.3305 I-11.0957 J-14.4235
G3 X484.4057 Y325.3655 I-18.0423 J-2.3905
G1 X454.0772 Y348.6965
G1 X457.4917 Y353.1351
G1 X498.0936 Y321.901
G1 F300.0 X498.8252 Y322.8521
G1 F800.0 X530.8117 Y298.2457
G1 X523.9405 Y289.3136
G3 X521.7254 Y291.3543 I-12.5791 J-11.4317
G1 X499.0443 Y308.8023
G3 X490.2577 Y312.2542 I-10.364 J-13.4724
G3 X483.674 Y324.4143 I-16.9491 J-1.3141
G1 X452.3944 Y348.4771
G1 X457.2722 Y354.8179
G1 X498.8252 Y322.8521
G1 F300.0 X499.5569 Y323.8033
G1 F800.0 X532.4945 Y298.4651
G1 X523.976 Y287.3917
G3 X520.9937 Y290.4032 I-12.6146 J-9.5098
G1 X498.3126 Y307.8512
G3 X489.1075 Y311.1217 I-9.6323 J-12.5213
G3 X482.9423 Y323.4632 I-15.799 J-0.1817
G1 X450.7116 Y348.2576
G1 X457.0528 Y356.5007
G1 X499.5569 Y323.8033
G1 F300.0 X500.2886 Y324.7544
G1 F800.0 X534.1773 Y298.6846
G1 X523.9107 Y285.3387
G3 X520.262 Y289.452 I-12.5493 J-7.4568
G1 X497.5809 Y306.9001
G3 X487.8718 Y309.9051 I-8.9007 J-11.5701
G3 X482.2107 Y322.5121 I-14.5633 J1.0349
G1 X449.0287 Y348.0382
G1 X456.8333 Y358.1835
G1 X500.2886 Y324.7544
G1 F300.0 X501.0203 Y325.7055
G1 F800.0 X535.8601 Y298.904
G1 X523.7015 Y283.0988
G3 X519.5303 Y288.5009 I-12.3402 J-5.2169
G1 X496.8493 Y305.9489
G3 X486.4933 Y308.5478 I-8.169 J-10.619
G3 X481.479 Y321.561 I-13.1847 J2.3922
G1 X447.3459 Y347.8187
G1 X456.6139 Y359.8663
G1 X501.0203 Y325.7055
G1 F300.0 X501.752 Y326.6566
G1 F800.0 X537.5429 Y299.1234
G1 X523.2616 Y280.5588
G3 X518.7986 Y287.5498 I-11.9002 J-2.6769
G1 X496.1176 Y304.9978
G3 X484.8204 Y306.9007 I-7.4373 J-9.6679
G3 X480.7473 Y320.6098 I-11.5119 J4.0393
G1 X445.6631 Y347.5993
G1 X456.3945 Y361.5491
G1 X501.752 Y326.6566
G1 F300.0 X502.4836 Y327.6078
G1 F800.0 X539.2257 Y299.3429
G1 X522.3485 Y277.4039
G3 X518.067 Y286.5987 I-10.9872 J0.478
G1 X495.3859 Y304.0467
G3 X482.599 Y304.4932 I-6.7056 J-8.7168
G1 X483.5536 Y306.9352
G3 X480.0156 Y319.6587 I-10.2451 J4.0048
G1 X443.9803 Y347.3798
G1 X456.175 Y363.232
G1 X502.4836 Y327.6078
G0 Z3.0
G0 X405.7785 Y59.2753
G1 F300.0 Z-6.0
G2 F800.0 X400.0051 Y57.9259 I-3.4634 J1.7929
G3 X405.7785 Y59.2753 I0.4764 J10.9873
G0 Z3.0
G0 X403.4666 Y63.4818
G1 F300.0 Z-6.0
G3 F800.0 X406.0462 Y66.1847 I-2.9851 J5.4314
G1 X488.9638 Y235.2954
G2 X499.6281 Y252.4652 I90.9572 J-44.5977
G1 X516.2736 Y274.103
G3 X515.1402 Y282.7941 I-4.9123 J3.7789
G1 X492.4592 Y300.2422
G3 X482.908 Y297.5863 I-3.7789 J-4.9123
G1 X394.473 Y71.3513
G3 X396.5856 Y64.0932 I5.7723 J-2.2564
G3 X403.4666 Y63.4818 I3.8959 J4.82
G1 F300.0 X402.8898 Y64.5313
G3 F800.0 X404.9709 Y66.7119 I-2.4082 J4.3818
G1 X487.8885 Y235.8227
G2 X498.6789 Y253.1954 I92.0325 J-45.125
G1 X515.3244 Y274.8332
G3 X514.41 Y281.8449 I-3.963 J3.0487
G1 X491.729 Y299.293
G3 X484.0234 Y297.1503 I-3.0487 J-3.963
G1 X395.5884 Y70.9153
G3 X397.3161 Y65.0428 I4.6569 J-1.8204
G3 X402.8898 Y64.5313 I3.1654 J3.8704
G0 Z3.0
G0 X404.0446 Y62.4302
G1 F300.0 Z-6.0
G2 F800.0 X395.8537 Y63.1418 I-3.563 J6.483
G2 X393.3554 Y71.7882 I4.3915 J5.9531
G1 X481.7904 Y298.0232
G2 X493.1909 Y301.1933 I6.8899 J-2.6933
G1 X515.8719 Y283.7453
G2 X517.2247 Y273.3713 I-4.5106 J-5.8634
G1 X500.5793 Y251.7335
G3 X490.0413 Y234.7671 I79.3418 J-61.0358
G1 X407.1237 Y65.6564
G2 X404.0446 Y62.4302 I-6.6421 J3.2567
G1 F300.0 X404.6226 Y61.3785
G2 F800.0 X395.1219 Y62.1905 I-4.141 J7.5346
G2 X392.2377 Y72.2251 I5.1233 J6.9044
G1 X480.6727 Y298.4601
G2 X493.9225 Y302.1444 I8.0076 J-3.1301
G1 X516.6036 Y284.6964
G2 X518.1759 Y272.6396 I-5.2423 J-6.8145
G1 X501.5304 Y251.0019
G3 X491.1187 Y234.2388 I78.3906 J-60.3042
G1 X408.2011 Y65.1281
G2 X404.6226 Y61.3785 I-7.7196 J3.785
G1 F300.0 X405.2005 Y60.3269
G2 F800.0 X394.3902 Y61.2393 I-4.719 J8.5863
G2 X391.1201 Y72.6619 I5.8551 J7.8556
G1 X479.5551 Y298.897
G2 X494.6542 Y303.0956 I9.1252 J-3.567
G1 X517.3353 Y285.6475
G2 X519.127 Y271.908 I-5.9739 J-7.7656
G1 X502.4815 Y250.2702
G3 X492.1962 Y233.7106 I77.4395 J-59.5725
G1 X409.2786 Y64.5998
G2 X405.2005 Y60.3269 I-8.7971 J4.3133
G0 Z3.0
G0 X407.1605 Y59.3659
G1 F300.0 Z-6.0
G1 F800.0 X406.8942 Y58.8229
G2 X399.2054 Y57.0259 I-4.5792 J2.2452
G1 X392.9227 Y61.859
G2 X390.3064 Y71.6865 I5.2595 J6.6622
G3 X390.3285 Y71.7422 I-5.8456 J2.3494
G1 X482.436 Y307.3721
G3 X479.2839 Y318.7076 I-9.1274 J3.5679
G1 X442.2975 Y347.1604
G1 X455.9556 Y364.9148
G1 X540.9086 Y299.5623
G1 X502.8005 Y250.0248
G3 X492.5575 Y233.5334 I77.1206 J-59.3271
G1 X407.1605 Y59.3659
G1 F300.0 X408.2379 Y58.8376
G1 F800.0 X407.9717 Y58.2947
G2 X398.4737 Y56.0748 I-5.6566 J2.7735
G1 X392.1853 Y60.9124
G2 X389.193 Y72.134 I5.997 J7.6089
G3 X389.2109 Y72.1791 I-4.7321 J1.9019
G1 X481.3183 Y307.809
G3 X478.5522 Y317.7564 I-8.0098 J3.131
G1 X440.6147 Y346.9409
G1 X455.7361 Y366.5976
G1 X542.5914 Y299.7818
G1 X503.7516 Y249.2931
G3 X493.6349 Y233.0051 I76.1694 J-58.5954
G1 X408.2379 Y58.8376
G1 F300.0 X409.3154 Y58.3093
G1 F800.0 X409.0492 Y57.7664
G2 X397.7421 Y55.1236 I-6.7341 J3.3018
G1 X391.4482 Y59.9654
G2 X388.0796 Y72.5815 I6.7341 J8.5558
G3 X388.0932 Y72.616 I-3.6187 J1.4544
G1 X480.2007 Y308.2459
G3 X477.8206 Y316.8053 I-6.8921 J2.6941
G1 X438.9319 Y346.7215
G1 X455.5167 Y368.2804
G1 X544.2742 Y300.0012
G1 X504.7027 Y248.5615
G3 X494.7124 Y232.4768 I75.2183 J-57.8638
G1 X409.3154 Y58.3093
G1 F300.0 X410.3928 Y57.781
G1 F800.0 X410.1266 Y57.2381
G2 X397.0104 Y54.1725 I-7.8115 J3.8301
G1 X390.7113 Y59.0182
G2 X386.9661 Y73.029 I7.4709 J9.503
G3 X386.9756 Y73.0529 I-2.5052 J1.0069
G1 X479.083 Y308.6828
G3 X477.0889 Y315.8542 I-5.7745 J2.2572
G1 X437.8825 Y346.0148
G2 X437.7474 Y347.151 I0.4878 J0.6341
G3 X437.7854 Y347.1992 I-2.1021 J1.6945
G1 X454.8094 Y369.3291
G2 X455.9313 Y369.4754 I0.6341 J-0.4878
G1 X545.3229 Y300.7085
G2 X545.4692 Y299.5866 I-0.4878 J-0.6341
G1 X505.6538 Y247.8298
G3 X495.7898 Y231.9485 I74.2672 J-57.1321
G1 X410.3928 Y57.781
G1 F300.0 X411.4703 Y57.2527
G1 F800.0 X411.2041 Y56.7098
G2 X396.2787 Y53.2214 I-8.889 J4.3584
G1 X389.9748 Y58.0709
G2 X385.8527 Y73.4765 I8.2074 J10.4504
G3 X385.8579 Y73.4898 I-1.3918 J0.5594
G1 X477.9654 Y309.1197
G3 X476.3572 Y314.9031 I-4.6569 J1.8204
G1 X437.1508 Y345.0637
G2 X436.8132 Y347.9041 I1.2195 J1.5852
G3 X436.8342 Y347.9308 I-1.1678 J0.9414
G1 X453.8583 Y370.0608
G2 X456.663 Y370.4265 I1.5852 J-1.2195
G1 X546.0546 Y301.6596
G2 X546.4203 Y298.8549 I-1.2195 J-1.5852
G1 X506.605 Y247.0981
G3 X496.8673 Y231.4202 I73.3161 J-56.4004
G1 X411.4703 Y57.2527
G0 Z3.0
G0 X522.9754 Y77.8091
G1 F300.0 Z-6.0
G3 F800.0 X524.3897 Y77.461 I6.2012 J22.1458
G3 X524.6946 Y76.7104 I21.458 J8.2798
G1 X522.9754 Y77.8091
G1 F300.0 X522.3292 Y76.798
G1 F800.0 X494.0878 Y94.846
G1 X494.843 Y96.0277
G1 X517.4388 Y81.5876
G3 X525.2825 Y78.5079 I11.7379 J18.3673
G3 X528.0626 Y73.1339 I20.5652 J7.2328
G1 X522.3292 Y76.798
G1 F300.0 X521.683 Y75.7868
G1 F800.0 X492.4305 Y94.481
G1 X494.478 Y97.685
G1 X518.085 Y82.5987
G3 X526.1922 Y79.5746 I11.0917 J17.3561
G3 X534.7548 Y68.3826 I19.6555 J6.1661
G1 X564.9751 Y49.0699
G1 X564.5443 Y48.3958
G1 X521.683 Y75.7868
G1 F300.0 X521.0369 Y74.7756
G1 F800.0 X490.7731 Y94.1161
G1 X494.1181 Y99.3502
G3 X494.6186 Y99.0193 I10.9461 J16.0141
G1 X518.7312 Y83.6099
G3 X527.1231 Y80.6663 I10.4455 J16.345
G3 X535.4009 Y69.3937 I18.7246 J5.0745
G1 X566.6324 Y49.4348
G1 X564.9093 Y46.7384
G1 X521.0369 Y74.7756
G1 F300.0 X520.3907 Y73.7645
G1 F800.0 X489.1158 Y93.7511
G1 X493.7962 Y101.0749
G3 X495.2648 Y100.0305 I11.268 J14.2894
G1 X519.3774 Y84.621
G3 X528.0816 Y81.7902 I9.7993 J15.3338
G3 X536.0471 Y70.4049 I17.7661 J3.9505
G1 X568.2898 Y49.7998
G1 X565.2742 Y45.0811
G1 X520.3907 Y73.7645
G1 F300.0 X519.7445 Y72.7533
G1 F800.0 X487.4584 Y93.3861
G1 X493.5268 Y102.8819
G3 X495.911 Y101.0416 I11.5373 J12.4824
G1 X520.0235 Y85.6322
G3 X529.0771 Y82.9576 I9.1531 J14.3227
G3 X536.6933 Y71.416 I16.7706 J2.7832
G1 X569.9471 Y50.1648
G1 X565.6392 Y43.4237
G1 X519.7445 Y72.7533
G1 F300.0 X519.0983 Y71.7422
G1 F800.0 X485.8011 Y93.0212
G1 X493.3243 Y104.7935
G3 X496.5572 Y102.0528 I11.7398 J10.5708
G1 X520.6697 Y86.6433
G3 X530.1244 Y84.1857 I8.5069 J13.3115
G3 X537.3395 Y72.4272 I15.7233 J1.555
G1 X571.6045 Y50.5297
G1 X566.0042 Y41.7664
G1 X519.0983 Y71.7422
G1 F300.0 X518.4521 Y70.731
G1 F800.0 X484.1437 Y92.6562
G1 X493.2108 Y106.8443
G3 X497.2034 Y103.0639 I11.8533 J8.5199
G1 X521.3159 Y87.6545
G3 X531.2496 Y85.5052 I7.8607 J12.3004
G3 X537.9857 Y73.4383 I14.5981 J0.2355
G1 X573.2618 Y50.8947
G1 X566.3691 Y40.109
G1 X518.4521 Y70.731
G1 F300.0 X517.8059 Y69.7199
G1 F800.0 X482.4864 Y92.2912
G1 X493.2244 Y109.094
G3 X497.8496 Y104.0751 I11.8397 J6.2703
G1 X521.9621 Y88.6656
G3 X532.5049 Y86.9773 I7.2145 J11.2892
G3 X538.6319 Y74.4495 I13.3428 J-1.2365
G1 X574.9192 Y51.2597
G1 X566.7341 Y38.4517
G1 X517.8059 Y69.7199
G1 F300.0 X517.1597 Y68.7087
G1 F800.0 X480.829 Y91.9263
G1 X493.4418 Y111.6626
G3 X498.4958 Y105.0862 I11.6223 J3.7017
G1 X522.6083 Y89.6768
G3 X534.0281 Y88.7636 I6.5683 J10.2781
G3 X539.2781 Y75.4607 I11.8196 J-3.0229
G1 X576.5765 Y51.6246
G1 X567.099 Y36.7943
G1 X517.1597 Y68.7087
G1 F300.0 X516.5135 Y67.6975
G1 F800.0 X479.1717 Y91.5613
G1 X494.077 Y114.885
G3 X499.142 Y106.0974 I10.9872 J0.4793
G1 X523.2545 Y90.688
G3 X536.0318 Y91.3552 I5.9221 J9.2669
G1 X535.2932 Y88.8394
G3 X539.9243 Y76.4718 I10.5545 J-3.0986
G1 X578.2339 Y51.9896
G1 X567.464 Y35.137
G1 X516.5135 Y67.6975
G0 Z3.0
G0 X591.2354 Y342.3249
G1 F300.0 Z-6.0
G2 F800.0 X596.8695 Y344.1712 I3.6062 J-1.4849
G3 X591.2354 Y342.3249 I0.4809 J-10.9871
G0 Z3.0
G0 X593.9043 Y338.3353
G1 F300.0 Z-6.0
G3 F800.0 X591.5696 Y335.4183 I3.4461 J-5.1512
G1 X523.6732 Y159.7372
G2 X514.5425 Y141.7051 I-94.4911 J36.5185
G1 X499.8418 Y118.7017
G3 X501.7268 Y110.142 I5.2223 J-3.3374
G1 X525.8393 Y94.7326
G3 X535.1233 Y98.209 I3.3374 J5.2223
G1 X603.5482 Y331.2778
G3 X600.8124 Y338.3247 I-5.9466 J1.7458
G3 X593.9043 Y338.3353 I-3.462 J-5.1405
G1 F300.0 X594.5703 Y337.3399
G3 F800.0 X592.6866 Y334.9866 I2.7802 J-4.1558
G1 X524.7903 Y159.3055
G2 X515.5516 Y141.0602 I-95.6082 J36.9502
G1 X500.851 Y118.0568
G3 X502.3717 Y111.1511 I4.2131 J-2.6925
G1 X526.4842 Y95.7417
G3 X533.9742 Y98.5464 I2.6925 J4.2131
G1 X602.3991 Y331.6152
G3 X600.1673 Y337.3152 I-4.7975 J1.4085
G3 X594.5703 Y337.3399 I-2.8169 J-4.131
G0 Z3.0
G0 X593.2371 Y339.3327
G1 F300.0 Z-6.0
G2 F800.0 X601.4588 Y339.3361 I4.1134 J-6.1486
G2 X604.6996 Y330.9398 I-3.8572 J-6.3124
G1 X536.2747 Y97.871
G2 X525.1931 Y93.7214 I-7.098 J2.0839
G1 X501.0806 Y109.1309
G2 X498.8307 Y119.3478 I3.9836 J6.2334
G1 X513.5313 Y142.3513
G3 X522.5539 Y160.1698 I-84.3493 J53.9045
G1 X590.4502 Y335.8509
G2 X593.2371 Y339.3327 I6.9002 J-2.6668
G1 F300.0 X592.5698 Y340.3301
G2 F800.0 X602.1051 Y340.3474 I4.7806 J-7.1459
G2 X605.851 Y330.6018 I-4.5035 J-7.3238
G1 X537.4261 Y97.533
G2 X524.5469 Y92.7103 I-8.2494 J2.4219
G1 X500.4344 Y108.1197
G2 X497.8195 Y119.994 I4.6298 J7.2446
G1 X512.5201 Y142.9975
G3 X521.4345 Y160.6024 I-83.3381 J53.2583
G1 X589.3309 Y336.2835
G2 X592.5698 Y340.3301 I8.0195 J-3.0993
G1 F300.0 X591.9026 Y341.3275
G2 F800.0 X602.7514 Y341.3587 I5.4478 J-8.1433
G2 X607.0025 Y330.2637 I-5.1497 J-8.3351
G1 X538.5775 Y97.1949
G2 X523.9007 Y91.6991 I-9.4008 J2.7599
G1 X499.7882 Y107.1085
G2 X496.8084 Y120.6402 I5.2759 J8.2557
G1 X511.509 Y143.6436
G3 X520.3152 Y161.035 I-82.327 J52.6121
G1 X588.2116 Y336.7161
G2 X591.9026 Y341.3275 I9.1388 J-3.5319
G0 Z3.0
G0 X589.8665 Y342.1144
G1 F300.0 Z-6.0
G1 F800.0 X590.0845 Y342.6785
G2 X597.5879 Y345.1374 I4.7571 J-1.8385
G1 X604.2671 Y340.8689
G2 X607.7282 Y331.3062 I-4.6602 J-7.0943
G3 X607.711 Y331.2488 I6.0277 J-1.8321
G1 X536.4446 Y88.5013
G3 X540.5705 Y77.483 I9.4031 J-2.7606
G1 X579.8912 Y52.3546
G1 X567.829 Y33.4796
G1 X477.5143 Y91.1964
G1 X511.1699 Y143.8603
G3 X519.9399 Y161.1801 I-81.9879 J52.3954
G1 X589.8665 Y342.1144
G1 F300.0 X588.7472 Y342.547
G1 F800.0 X588.9652 Y343.111
G2 X598.2341 Y346.1485 I5.8764 J-2.2711
G1 X604.9195 Y341.8762
G2 X608.8763 Y330.9572 I-5.3125 J-8.1016
G3 X608.8624 Y330.9107 I4.8796 J-1.4831
G1 X537.596 Y88.1633
G3 X541.2167 Y78.4941 I8.2517 J-2.4226
G1 X581.5486 Y52.7195
G1 X568.1939 Y31.8223
G1 X475.857 Y90.8314
G1 X510.1588 Y144.5065
G3 X518.8206 Y161.6127 I-80.9767 J51.7492
G1 X588.7472 Y342.547
G1 F300.0 X587.6279 Y342.9796
G1 F800.0 X587.8459 Y343.5436
G2 X598.8803 Y347.1597 I6.9957 J-2.7037
G1 X605.5714 Y342.8836
G2 X610.0245 Y330.6083 I-5.9645 J-9.1091
G3 X610.0138 Y330.5727 I3.7314 J-1.1341
G1 X538.7474 Y87.8253
G3 X541.8629 Y79.5053 I7.1003 J-2.0845
G1 X583.2059 Y53.0845
G1 X568.5589 Y30.1649
G1 X474.1996 Y90.4664
G1 X509.1476 Y145.1527
G3 X517.7013 Y162.0452 I-79.9656 J51.103
G1 X587.6279 Y342.9796
G1 F300.0 X586.5086 Y343.4122
G1 F800.0 X586.7266 Y343.9762
G2 X599.5265 Y348.1708 I8.115 J-3.1363
G1 X606.2231 Y343.8913
G2 X611.1726 Y330.2593 I-6.6161 J-10.1167
G3 X611.1652 Y330.2347 I2.5833 J-0.7852
G1 X539.8988 Y87.4872
G3 X542.5091 Y80.5164 I5.9489 J-1.7465
G1 X584.1899 Y53.8798
G2 X584.4233 Y52.7596 I-0.4308 J-0.6741
G3 X584.3896 Y52.7083 I2.2415 J-1.5052
G1 X569.3547 Y29.1817
G2 X568.2498 Y28.9384 I-0.6741 J0.4308
G1 X473.2164 Y89.6707
G2 X472.9731 Y90.7756 I0.4308 J0.6741
G1 X508.1364 Y145.7989
G3 X516.5819 Y162.4778 I-78.9544 J50.4568
G1 X586.5086 Y343.4122
G1 F300.0 X585.3892 Y343.8447
G1 F800.0 X585.6072 Y344.4088
G2 X600.1727 Y349.182 I9.2344 J-3.5688
G1 X606.8745 Y344.8991
G2 X612.3207 Y329.9103 I-7.2675 J-11.1246
G3 X612.3167 Y329.8966 I1.4352 J-0.4362
G1 X541.0502 Y87.1492
G3 X543.1553 Y81.5276 I4.7975 J-1.4085
G1 X584.8361 Y54.8909
G2 X585.4195 Y52.0906 I-1.077 J-1.6853
G3 X585.4008 Y52.0621 I1.2453 J-0.8362
G1 X570.3658 Y28.5355
G2 X567.6036 Y27.9272 I-1.6853 J1.077
G1 X472.5702 Y88.6595
G2 X471.9619 Y91.4218 I1.077 J1.6853
G1 X507.1253 Y146.4451
G3 X515.4626 Y162.9104 I-77.9433 J49.8106
G1 X585.3892 Y343.8447
( Profile2  LegA  )
S1000
G0 Z3.0
G0 X126.6021 Y344.5172
G0 Z1.0
G1 F300.0 Z0.0
G2 F800.0 X108.3294 Y349.1662 Z-0.1104 I14.0482 J93.45
G1 X71.8697 Y362.4365 Z-0.3372
G3 X69.9472 Y361.54 Z-0.351 I-0.513 J-1.4095
G1 X67.895 Y355.9018 Z-0.386
G2 X64.1363 Y357.2699 Z-0.4228 I-1.8794 J0.684
G3 X63.2398 Y359.1924 Z-0.4365 I-1.4095 J0.513
G1 X60.4207 Y360.2185 Z-0.4541
G3 X58.4981 Y359.322 Z-0.4679 I-0.513 J-1.4095
G1 X55.0779 Y349.9251 Z-0.5263
G2 X52.5145 Y348.7297 Z-0.5447 I-1.8794 J0.684
G1 X52.0487 Y348.8993 Z-0.5476
G2 X50.8216 Y351.368 Z-0.5654 I0.684 J1.8794
G1 X53.8235 Y361.1031 Z-0.6249
G3 X52.9031 Y362.9547 Z-0.6382 I-1.4334 J0.442
G1 X46.3253 Y365.3488 Z-0.6792
G3 X44.4027 Y364.4523 Z-0.6929 I-0.513 J-1.4095
G1 X34.1421 Y336.2615 Z-0.8683
G3 X35.0386 Y334.339 Z-0.8821 I1.4095 J-0.513
G1 X49.134 Y329.2087 Z-0.9697
G2 X47.7659 Y325.4499 Z-1.0065 I-0.684 J-1.8794
G3 X45.8434 Y324.5534 Z-1.0202 I-0.513 J-1.4095
G1 X34.5567 Y293.5435 Z-1.2131
G2 X31.9933 Y292.3482 Z-1.2315 I-1.8794 J0.684
G1 X31.5275 Y292.5177 Z-1.2344
G2 X30.3004 Y294.9864 Z-1.2522 I0.684 J1.8794
G1 X33.3023 Y304.7216 Z-1.3117
G3 X32.3819 Y306.5731 Z-1.3251 I-1.4334 J0.442
G1 X25.8041 Y308.9673 Z-1.366
G3 X23.8815 Y308.0707 Z-1.3798 I-0.513 J-1.4095
G1 X13.6209 Y279.88 Z-1.5551
G3 X14.5174 Y277.9574 Z-1.5689 I1.4095 J-0.513
G1 X28.6128 Y272.8271 Z-1.6566
G2 X27.2447 Y269.0683 Z-1.6933 I-0.684 J-1.8794
G3 X25.3222 Y268.1718 Z-1.7071 I-0.513 J-1.4095
G1 X23.0996 Y262.0654 Z-1.7451
G3 X23.9611 Y260.1561 Z-1.7586 I1.4095 J-0.513
G1 X33.2725 Y256.501 Z-1.8171
G3 X35.2301 Y257.3842 Z-1.8311 I0.5481 J1.3963
G1 X52.9108 Y305.9616 Z-2.1333
G2 X55.08 Y307.2565 Z-2.1492 I1.8794 J-0.684
G3 X55.1985 Y307.2439 Z-2.1499 I0.2174 J1.4842
G1 X311.3855 Y290.3169 Z-3.6507
G3 X322.5479 Y297.5963 Z-3.7343 I0.7318 J11.0758
G1 X325.2707 Y305.077 Z-3.7808
G3 X319.0215 Y315.5912 Z-3.8626 I-7.4236 J2.702
G1 X126.6021 Y344.5172 Z-5.0
G2 X108.3294 Y349.1662 Z-5.1104 I14.0482 J93.45
G1 X71.8697 Y362.4365 Z-5.3372
G3 X69.9472 Y361.54 Z-5.351 I-0.513 J-1.4095
G1 X67.895 Y355.9018 Z-5.386
G2 X64.1363 Y357.2699 Z-5.4228 I-1.8794 J0.684
G3 X63.2398 Y359.1924 Z-5.4365 I-1.4095 J0.513
G1 X60.4207 Y360.2185 Z-5.4541
G3 X58.4981 Y359.322 Z-5.4679 I-0.513 J-1.4095
G1 X55.0779 Y349.9251 Z-5.5263
G2 X52.5145 Y348.7297 Z-5.5447 I-1.8794 J0.684
G1 X52.0487 Y348.8993 Z-5.5476
G2 X50.8216 Y351.368 Z-5.5654 I0.684 J1.8794
G1 X53.8235 Y361.1031 Z-5.6249
G3 X52.9031 Y362.9547 Z-5.6382 I-1.4334 J0.442
G1 X46.3253 Y365.3488 Z-5.6792
G3 X44.4027 Y364.4523 Z-5.6929 I-0.513 J-1.4095
G1 X34.1421 Y336.2615 Z-5.8683
G3 X35.0386 Y334.339 Z-5.8821 I1.4095 J-0.513
G1 X49.134 Y329.2087 Z-5.9697
G2 X47.7659 Y325.4499 Z-6.0065 I-0.684 J-1.8794
G3 X45.8434 Y324.5534 Z-6.0202 I-0.513 J-1.4095
G1 X34.5567 Y293.5435 Z-6.2131
G2 X31.9933 Y292.3482 Z-6.2315 I-1.8794 J0.684
G1 X31.5275 Y292.5177 Z-6.2344
G2 X30.3004 Y294.9864 Z-6.2522 I0.684 J1.8794
G1 X33.3023 Y304.7216 Z-6.3117
G3 X32.3819 Y306.5731 Z-6.3251 I-1.4334 J0.442
G1 X25.8041 Y308.9673 Z-6.366
G3 X23.8815 Y308.0707 Z-6.3798 I-0.513 J-1.4095
G1 X13.6209 Y279.88 Z-6.5551
G3 X14.5174 Y277.9574 Z-6.5689 I1.4095 J-0.513
G1 X28.6128 Y272.8271 Z-6.6566
G2 X27.2447 Y269.0683 Z-6.6933 I-0.684 J-1.8794
G3 X25.3222 Y268.1718 Z-6.7071 I-0.513 J-1.4095
G1 X23.0996 Y262.0654 Z-6.7451
G3 X23.9611 Y260.1561 Z-6.7586 I1.4095 J-0.513
G1 X33.2725 Y256.501 Z-6.8171
G3 X35.2301 Y257.3842 Z-6.8311 I0.5481 J1.3963
G1 X52.9108 Y305.9616 Z-7.1333
G2 X55.08 Y307.2565 Z-7.1492 I1.8794 J-0.684
G3 X55.1985 Y307.2439 Z-7.1499 I0.2174 J1.4842
G1 X311.3855 Y290.3169 Z-8.6507
G3 X322.5479 Y297.5963 Z-8.7343 I0.7318 J11.0758
G1 X325.2707 Y305.077 Z-8.7808
G3 X319.0215 Y315.5912 Z-8.8626 I-7.4236 J2.702
G1 X126.6021 Y344.5172 Z-10.0
G2 X108.3294 Y349.1662 Z-10.1104 I14.0482 J93.45
G1 X71.8697 Y362.4365 Z-10.3372
G3 X69.9472 Y361.54 Z-10.351 I-0.513 J-1.4095
G1 X67.895 Y355.9018 Z-10.386
G2 X64.1363 Y357.2699 Z-10.4228 I-1.8794 J0.684
G3 X63.2398 Y359.1924 Z-10.4365 I-1.4095 J0.513
G1 X60.4207 Y360.2185 Z-10.4541
G3 X58.4981 Y359.322 Z-10.4679 I-0.513 J-1.4095
G1 X55.0779 Y349.9251 Z-10.5263
G2 X52.5145 Y348.7297 Z-10.5447 I-1.8794 J0.684
G1 X52.0487 Y348.8993 Z-10.5476
G2 X50.8216 Y351.368 Z-10.5654 I0.684 J1.8794
G1 X53.8235 Y361.1031 Z-10.6249
G3 X52.9031 Y362.9547 Z-10.6382 I-1.4334 J0.442
G1 X46.3253 Y365.3488 Z-10.6792
G3 X44.4027 Y364.4523 Z-10.6929 I-0.513 J-1.4095
G1 X34.1421 Y336.2615 Z-10.8683
G3 X35.0386 Y334.339 Z-10.8821 I1.4095 J-0.513
G1 X49.134 Y329.2087 Z-10.9697
G2 X47.7659 Y325.4499 Z-11.0065 I-0.684 J-1.8794
G3 X45.8434 Y324.5534 Z-11.0202 I-0.513 J-1.4095
G1 X34.5567 Y293.5435 Z-11.2131
G2 X31.9933 Y292.3482 Z-11.2315 I-1.8794 J0.684
G1 X31.5275 Y292.5177 Z-11.2344
G2 X30.3004 Y294.9864 Z-11.2522 I0.684 J1.8794
G1 X33.3023 Y304.7216 Z-11.3117
G3 X32.3819 Y306.5731 Z-11.3251 I-1.4334 J0.442
G1 X25.8041 Y308.9673 Z-11.366
G3 X23.8815 Y308.0707 Z-11.3798 I-0.513 J-1.4095
G1 X13.6209 Y279.88 Z-11.5551
G3 X14.5174 Y277.9574 Z-11.5689 I1.4095 J-0.513
G1 X28.6128 Y272.8271 Z-11.6566
G2 X27.2447 Y269.0683 Z-11.6933 I-0.684 J-1.8794
G3 X25.3222 Y268.1718 Z-11.7071 I-0.513 J-1.4095
G1 X23.0996 Y262.0654 Z-11.7451
G3 X23.9611 Y260.1561 Z-11.7586 I1.4095 J-0.513
G1 X33.2725 Y256.501 Z-11.8171
G3 X35.2301 Y257.3842 Z-11.8311 I0.5481 J1.3963
G1 X52.9108 Y305.9616 Z-12.1333
G2 X55.08 Y307.2565 Z-12.1492 I1.8794 J-0.684
G3 X55.1985 Y307.2439 Z-12.1499 I0.2174 J1.4842
G1 X311.3855 Y290.3169 Z-13.6507
G3 X322.5479 Y297.5963 Z-13.7343 I0.7318 J11.0758
G1 X325.2707 Y305.077 Z-13.7808
G3 X319.0215 Y315.5912 Z-13.8626 I-7.4236 J2.702
G1 X126.6021 Y344.5172 Z-15.0
G2 X108.3294 Y349.1662 Z-15.0729 I14.0482 J93.45
G1 X71.8697 Y362.4365 Z-15.2226
G3 X69.9472 Y361.54 Z-15.2316 I-0.513 J-1.4095
G1 X67.895 Y355.9018 Z-15.2548
G2 X64.1363 Y357.2699 Z-15.279 I-1.8794 J0.684
G3 X63.2398 Y359.1924 Z-15.2881 I-1.4095 J0.513
G1 X60.4207 Y360.2185 Z-15.2997
G3 X58.4981 Y359.322 Z-15.3088 I-0.513 J-1.4095
G1 X55.0779 Y349.9251 Z-15.3474
G2 X52.5145 Y348.7297 Z-15.3595 I-1.8794 J0.684
G1 X52.0487 Y348.8993 Z-15.3614
G2 X50.8216 Y351.368 Z-15.3731 I0.684 J1.8794
G1 X53.8235 Y361.1031 Z-15.4124
G3 X52.9031 Y362.9547 Z-15.4212 I-1.4334 J0.442
G1 X46.3253 Y365.3488 Z-15.4482
G3 X44.4027 Y364.4523 Z-15.4573 I-0.513 J-1.4095
G1 X34.1421 Y336.2615 Z-15.5731
G3 X35.0386 Y334.339 Z-15.5822 I1.4095 J-0.513
G1 X49.134 Y329.2087 Z-15.64
G2 X47.7659 Y325.4499 Z-15.6643 I-0.684 J-1.8794
G3 X45.8434 Y324.5534 Z-15.6734 I-0.513 J-1.4095
G1 X34.5567 Y293.5435 Z-15.8007
G2 X31.9933 Y292.3482 Z-15.8128 I-1.8794 J0.684
G1 X31.5275 Y292.5177 Z-15.8147
G2 X30.3004 Y294.9864 Z-15.8264 I0.684 J1.8794
G1 X33.3023 Y304.7216 Z-15.8657
G3 X32.3819 Y306.5731 Z-15.8745 I-1.4334 J0.442
G1 X25.8041 Y308.9673 Z-15.9016
G3 X23.8815 Y308.0707 Z-15.9106 I-0.513 J-1.4095
G1 X13.6209 Y279.88 Z-16.0264
G3 X14.5174 Y277.9574 Z-16.0355 I1.4095 J-0.513
G1 X28.6128 Y272.8271 Z-16.0933
G2 X27.2447 Y269.0683 Z-16.1176 I-0.684 J-1.8794
G3 X25.3222 Y268.1718 Z-16.1267 I-0.513 J-1.4095
G1 X23.0996 Y262.0654 Z-16.1517
G3 X23.9611 Y260.1561 Z-16.1607 I1.4095 J-0.513
G1 X33.2725 Y256.501 Z-16.1993
G3 X35.2301 Y257.3842 Z-16.2085 I0.5481 J1.3963
G1 X49.9353 Y297.7863 Z-16.3744
G1 X50.4483 Y299.1959 Z-15.3
G1 X51.4744 Y302.0149
G1 X51.9874 Y303.4245 Z-16.3975
G1 X52.9108 Y305.9616 Z-16.408
G2 X55.08 Y307.2565 Z-16.4185 I1.8794 J-0.684
G3 X55.1985 Y307.2439 Z-16.419 I0.2174 J1.4842
G1 X182.4266 Y298.8376 Z-16.9109
G1 X183.9234 Y298.7387 Z-15.3
G1 X186.9169 Y298.5409
G1 X188.4136 Y298.442 Z-16.934
G1 X311.3855 Y290.3169 Z-17.4095
G3 X322.3229 Y297.0275 Z-17.4623 I0.7318 J11.0758
G3 X322.5479 Y297.5963 Z-16.5805 I-10.2056 J4.3653
G1 X322.8518 Y298.4313 Z-15.3
G1 X323.8779 Y301.2503
G1 X324.3909 Y302.6599 Z-17.4854
G1 X325.2707 Y305.077 Z-17.4953
G3 X319.0215 Y315.5912 Z-17.5493 I-7.4236 J2.702
G1 X199.2808 Y333.5916 Z-18.0165
G1 X197.7974 Y333.8146 Z-15.3
G1 X194.8308 Y334.2605
G1 X193.3474 Y334.4835 Z-18.0396
G1 X126.6021 Y344.5172 Z-18.3
G2 X108.3294 Y349.1662 I14.0482 J93.45
G1 X71.8697 Y362.4365
G3 X69.9472 Y361.54 I-0.513 J-1.4095
G1 X67.895 Y355.9018
G2 X64.1363 Y357.2699 I-1.8794 J0.684
G3 X63.2398 Y359.1924 I-1.4095 J0.513
G1 X60.4207 Y360.2185
G3 X58.4981 Y359.322 I-0.513 J-1.4095
G1 X55.0779 Y349.9251
G2 X52.5145 Y348.7297 I-1.8794 J0.684
G1 X52.0487 Y348.8993
G2 X50.8216 Y351.368 I0.684 J1.8794
G1 X53.8235 Y361.1031
G3 X52.9031 Y362.9547 I-1.4334 J0.442
G1 X46.3253 Y365.3488
G3 X44.4027 Y364.4523 I-0.513 J-1.4095
G1 X34.1421 Y336.2615
G3 X35.0386 Y334.339 I1.4095 J-0.513
G1 X49.134 Y329.2087
G2 X47.7659 Y325.4499 I-0.684 J-1.8794
G3 X45.8434 Y324.5534 I-0.513 J-1.4095
G1 X34.5567 Y293.5435
G2 X31.9933 Y292.3482 I-1.8794 J0.684
G1 X31.5275 Y292.5177
G2 X30.3004 Y294.9864 I0.684 J1.8794
G1 X33.3023 Y304.7216
G3 X32.3819 Y306.5731 I-1.4334 J0.442
G1 X25.8041 Y308.9673
G3 X23.8815 Y308.0707 I-0.513 J-1.4095
G1 X13.6209 Y279.88
G3 X14.5174 Y277.9574 I1.4095 J-0.513
G1 X28.6128 Y272.8271
G2 X27.2447 Y269.0683 I-0.684 J-1.8794
G3 X25.3222 Y268.1718 I-0.513 J-1.4095
G1 X23.0996 Y262.0654
G3 X23.9611 Y260.1561 I1.4095 J-0.513
G1 X33.2725 Y256.501
G3 X35.2301 Y257.3842 I0.5481 J1.3963
G1 X49.9353 Y297.7863
G1 X50.4483 Y299.1959 Z-15.3
G1 X51.4744 Y302.0149
G1 X51.9874 Y303.4245 Z-18.3
G1 X52.9108 Y305.9616
G2 X55.08 Y307.2565 I1.8794 J-0.684
G3 X55.1985 Y307.2439 I0.2174 J1.4842
G1 X182.4266 Y298.8376
G1 X183.9234 Y298.7387 Z-15.3
G1 X186.9169 Y298.5409
G1 X188.4136 Y298.442 Z-18.3
G1 X311.3855 Y290.3169
G3 X322.3229 Y297.0275 I0.7318 J11.0758
G3 X322.5479 Y297.5963 Z-17.0765 I-10.2056 J4.3653
G1 X322.8518 Y298.4313 Z-15.3
G1 X323.8779 Y301.2503
G1 X324.3909 Y302.6599 Z-18.3
G1 X325.2707 Y305.077
G3 X319.0215 Y315.5912 I-7.4236 J2.702
G1 X199.2808 Y333.5916
G1 X197.7974 Y333.8146 Z-15.3
G1 X194.8308 Y334.2605
G1 X193.3474 Y334.4835 Z-18.3
G1 X126.6021 Y344.5172
G0 Z3.0
G0 X439.0011 Y346.8908
G0 Z1.0
G1 F300.0 Z0.0
G3 F800.0 X439.5865 Y345.7133 Z-0.008 I1.5 J0.0114
G1 X480.5602 Y314.1931 Z-0.3101
G2 X481.1399 Y311.7342 Z-0.3261 I-1.2195 J-1.5852
G3 X481.0921 Y311.6251 Z-0.3268 I1.3493 J-0.6553
G1 X387.6183 Y72.4997 Z-1.8276
G3 X391.1884 Y59.6605 Z-1.9112 I10.3382 J-4.0412
G1 X397.4982 Y54.8066 Z-1.9577
G3 X409.4083 Y57.5903 Z-2.0395 I4.8169 J6.2616
G1 X495.0715 Y232.3007 Z-3.1769
G2 X505.0198 Y248.3176 Z-3.2873 I84.8495 J-41.603
G1 X528.6772 Y279.0703 Z-3.5141
G3 X528.4029 Y281.1738 Z-3.5278 I-1.1889 J0.9146
G1 X523.6472 Y284.8322 Z-3.5629
G2 X526.0861 Y288.0027 Z-3.5996 I1.2195 J1.5852
G3 X528.1897 Y288.277 Z-3.6134 I0.9146 J1.1889
G1 X530.0189 Y290.6548 Z-3.631
G3 X529.7446 Y292.7583 Z-3.6447 I-1.1889 J0.9146
G1 X521.8185 Y298.8556 Z-3.7032
G2 X521.4528 Y301.6603 Z-3.7215 I1.2195 J1.5852
G1 X521.755 Y302.0531 Z-3.7244
G2 X524.479 Y302.4778 Z-3.7422 I1.5852 J-1.2195
G1 X532.8537 Y296.6771 Z-3.8018
G3 X534.8967 Y296.9956 Z-3.8151 I0.8541 J1.2331
G1 X539.1649 Y302.5439 Z-3.856
G3 X538.8906 Y304.6474 Z-3.8698 I-1.1889 J0.9146
G1 X515.1124 Y322.9394 Z-4.0452
G3 X513.0089 Y322.6651 Z-4.0589 I-0.9146 J-1.1889
G1 X503.8629 Y310.776 Z-4.1466
G2 X500.6924 Y313.2149 Z-4.1833 I-1.5852 J1.2195
G3 X500.4181 Y315.3184 Z-4.1971 I-1.1889 J0.9146
G1 X474.2621 Y335.4397 Z-4.39
G2 X473.8964 Y338.2443 Z-4.4084 I1.2195 J1.5852
G1 X474.1986 Y338.6372 Z-4.4113
G2 X476.9226 Y339.0618 Z-4.4291 I1.5852 J-1.2195
G1 X485.2974 Y333.2612 Z-4.4886
G3 X487.3404 Y333.5797 Z-4.5019 I0.8541 J1.2331
G1 X491.6085 Y339.1279 Z-4.5429
G3 X491.3342 Y341.2314 Z-4.5566 I-1.1889 J0.9146
G1 X467.556 Y359.5234 Z-4.732
G3 X465.4525 Y359.2491 Z-4.7458 I-0.9146 J-1.1889
G1 X456.3065 Y347.36 Z-4.8335
G2 X453.1361 Y349.799 Z-4.8702 I-1.5852 J1.2195
G3 X452.8618 Y351.9025 Z-4.884 I-1.1889 J0.9146
G1 X447.7112 Y355.8647 Z-4.9219
G3 X445.6309 Y355.6198 Z-4.9355 I-0.9146 J-1.1889
G1 X439.3354 Y347.8462 Z-4.994
G3 X439.0011 Y346.8908 Z-5.0 I1.1657 J-0.944
G3 X439.5865 Y345.7133 Z-5.008 I1.5 J0.0114
G1 X480.5602 Y314.1931 Z-5.3101
G2 X481.1399 Y311.7342 Z-5.3261 I-1.2195 J-1.5852
G3 X481.0921 Y311.6251 Z-5.3268 I1.3493 J-0.6553
G1 X387.6183 Y72.4997 Z-6.8276
G3 X391.1884 Y59.6605 Z-6.9112 I10.3382 J-4.0412
G1 X397.4982 Y54.8066 Z-6.9577
G3 X409.4083 Y57.5903 Z-7.0395 I4.8169 J6.2616
G1 X495.0715 Y232.3007 Z-8.1769
G2 X505.0198 Y248.3176 Z-8.2873 I84.8495 J-41.603
G1 X528.6772 Y279.0703 Z-8.5141
G3 X528.4029 Y281.1738 Z-8.5278 I-1.1889 J0.9146
G1 X523.6472 Y284.8322 Z-8.5629
G2 X526.0861 Y288.0027 Z-8.5996 I1.2195 J1.5852
G3 X528.1897 Y288.277 Z-8.6134 I0.9146 J1.1889
G1 X530.0189 Y290.6548 Z-8.631
G3 X529.7446 Y292.7583 Z-8.6447 I-1.1889 J0.9146
G1 X521.8185 Y298.8556 Z-8.7032
G2 X521.4528 Y301.6603 Z-8.7215 I1.2195 J1.5852
G1 X521.755 Y302.0531 Z-8.7244
G2 X524.479 Y302.4778 Z-8.7422 I1.5852 J-1.2195
G1 X532.8537 Y296.6771 Z-8.8018
G3 X534.8967 Y296.9956 Z-8.8151 I0.8541 J1.2331
G1 X539.1649 Y302.5439 Z-8.856
G3 X538.8906 Y304.6474 Z-8.8698 I-1.1889 J0.9146
G1 X515.1124 Y322.9394 Z-9.0452
G3 X513.0089 Y322.6651 Z-9.0589 I-0.9146 J-1.1889
G1 X503.8629 Y310.776 Z-9.1466
G2 X500.6924 Y313.2149 Z-9.1833 I-1.5852 J1.2195
G3 X500.4181 Y315.3184 Z-9.1971 I-1.1889 J0.9146
G1 X474.2621 Y335.4397 Z-9.39
G2 X473.8964 Y338.2443 Z-9.4084 I1.2195 J1.5852
G1 X474.1986 Y338.6372 Z-9.4113
G2 X476.9226 Y339.0618 Z-9.4291 I1.5852 J-1.2195
G1 X485.2974 Y333.2612 Z-9.4886
G3 X487.3404 Y333.5797 Z-9.5019 I0.8541 J1.2331
G1 X491.6085 Y339.1279 Z-9.5429
G3 X491.3342 Y341.2314 Z-9.5566 I-1.1889 J0.9146
G1 X467.556 Y359.5234 Z-9.732
G3 X465.4525 Y359.2491 Z-9.7458 I-0.9146 J-1.1889
G1 X456.3065 Y347.36 Z-9.8335
G2 X453.1361 Y349.799 Z-9.8702 I-1.5852 J1.2195
G3 X452.8618 Y351.9025 Z-9.884 I-1.1889 J0.9146
G1 X447.7112 Y355.8647 Z-9.9219
G3 X445.6309 Y355.6198 Z-9.9355 I-0.9146 J-1.1889
G1 X439.3354 Y347.8462 Z-9.994
G3 X439.0011 Y346.8908 Z-10.0 I1.1657 J-0.944
G3 X439.5865 Y345.7133 Z-10.008 I1.5 J0.0114
G1 X480.5602 Y314.1931 Z-10.3101
G2 X481.1399 Y311.7342 Z-10.3261 I-1.2195 J-1.5852
G3 X481.0921 Y311.6251 Z-10.3268 I1.3493 J-0.6553
G1 X387.6183 Y72.4997 Z-11.8276
G3 X391.1884 Y59.6605 Z-11.9112 I10.3382 J-4.0412
G1 X397.4982 Y54.8066 Z-11.9577
G3 X409.4083 Y57.5903 Z-12.0395 I4.8169 J6.2616
G1 X495.0715 Y232.3007 Z-13.1769
G2 X505.0198 Y248.3176 Z-13.2873 I84.8495 J-41.603
G1 X528.6772 Y279.0703 Z-13.5141
G3 X528.4029 Y281.1738 Z-13.5278 I-1.1889 J0.9146
G1 X523.6472 Y284.8322 Z-13.5629
G2 X526.0861 Y288.0027 Z-13.5996 I1.2195 J1.5852
G3 X528.1897 Y288.277 Z-13.6134 I0.9146 J1.1889
G1 X530.0189 Y290.6548 Z-13.631
G3 X529.7446 Y292.7583 Z-13.6447 I-1.1889 J0.9146
G1 X521.8185 Y298.8556 Z-13.7032
G2 X521.4528 Y301.6603 Z-13.7215 I1.2195 J1.5852
G1 X521.755 Y302.0531 Z-13.7244
G2 X524.479 Y302.4778 Z-13.7422 I1.5852 J-1.2195
G1 X532.8537 Y296.6771 Z-13.8018
G3 X534.8967 Y296.9956 Z-13.8151 I0.8541 J1.2331
G1 X539.1649 Y302.5439 Z-13.856
G3 X538.8906 Y304.6474 Z-13.8698 I-1.1889 J0.9146
G1 X515.1124 Y322.9394 Z-14.0452
G3 X513.0089 Y322.6651 Z-14.0589 I-0.9146 J-1.1889
G1 X503.8629 Y310.776 Z-14.1466
G2 X500.6924 Y313.2149 Z-14.1833 I-1.5852 J1.2195
G3 X500.4181 Y315.3184 Z-14.1971 I-1.1889 J0.9146
G1 X474.2621 Y335.4397 Z-14.39
G2 X473.8964 Y338.2443 Z-14.4084 I1.2195 J1.5852
G1 X474.1986 Y338.6372 Z-14.4113
G2 X476.9226 Y339.0618 Z-14.4291 I1.5852 J-1.2195
G1 X485.2974 Y333.2612 Z-14.4886
G3 X487.3404 Y333.5797 Z-14.5019 I0.8541 J1.2331
G1 X491.6085 Y339.1279 Z-14.5429
G3 X491.3342 Y341.2314 Z-14.5566 I-1.1889 J0.9146
G1 X467.556 Y359.5234 Z-14.732
G3 X465.4525 Y359.2491 Z-14.7458 I-0.9146 J-1.1889
G1 X456.3065 Y347.36 Z-14.8335
G2 X453.1361 Y349.799 Z-14.8702 I-1.5852 J1.2195
G3 X452.8618 Y351.9025 Z-14.884 I-1.1889 J0.9146
G1 X447.7112 Y355.8647 Z-14.9219
G3 X445.6309 Y355.6198 Z-14.9355 I-0.9146 J-1.1889
G1 X439.3354 Y347.8462 Z-14.994
G3 X439.0011 Y346.8908 Z-15.0 I1.1657 J-0.944
G3 X439.5865 Y345.7133 Z-15.0053 I1.5 J0.0114
G1 X480.5602 Y314.1931 Z-15.2047
G2 X481.1399 Y311.7342 Z-15.2152 I-1.2195 J-1.5852
G3 X481.0921 Y311.6251 Z-15.2157 I1.3493 J-0.6553
G1 X465.7065 Y272.2655 Z-15.3787
G1 X465.1604 Y270.8685 Z-15.3
G1 X464.0682 Y268.0744
G1 X463.5221 Y266.6773 Z-15.4019
G1 X414.3758 Y140.951 Z-15.9227
G1 X413.8297 Y139.554 Z-15.3
G1 X412.7375 Y136.7599
G1 X412.1914 Y135.3628 Z-15.9458
G1 X387.6183 Y72.4997 Z-16.2062
G3 X391.1884 Y59.6605 Z-16.2614 I10.3382 J-4.0412
G1 X397.4982 Y54.8066 Z-16.2921
G3 X409.4083 Y57.5903 Z-16.346 I4.8169 J6.2616
G1 X425.1868 Y89.7706 Z-16.4843
G1 X425.8472 Y91.1174 Z-15.3
G1 X427.1679 Y93.811
G1 X427.8283 Y95.1578 Z-16.5075
G1 X487.257 Y216.3629 Z-17.0283
G1 X487.9174 Y217.7098 Z-15.3
G1 X489.2381 Y220.4034
G1 X489.8985 Y221.7502 Z-17.0514
G1 X495.0715 Y232.3007 Z-17.0967
G2 X505.0198 Y248.3176 Z-17.1696 I84.8495 J-41.603
G1 X528.6772 Y279.0703 Z-17.3193
G3 X528.4029 Y281.1738 Z-17.3284 I-1.1889 J0.9146
G1 X523.6472 Y284.8322 Z-17.3515
G2 X526.0861 Y288.0027 Z-17.3758 I1.2195 J1.5852
G3 X528.1897 Y288.277 Z-17.3849 I0.9146 J1.1889
G1 X530.0189 Y290.6548 Z-17.3964
G3 X529.7446 Y292.7583 Z-17.4055 I-1.1889 J0.9146
G1 X521.8185 Y298.8556 Z-17.4441
G2 X521.4528 Y301.6603 Z-17.4562 I1.2195 J1.5852
G1 X521.755 Y302.0531 Z-17.4581
G2 X524.479 Y302.4778 Z-17.4699 I1.5852 J-1.2195
G1 X532.8537 Y296.6771 Z-17.5092
G3 X534.8967 Y296.9956 Z-17.518 I0.8541 J1.2331
G1 X539.1649 Y302.5439 Z-17.545
G3 X538.8906 Y304.6474 Z-17.5541 I-1.1889 J0.9146
G1 X533.5365 Y308.7662 Z-17.5801
G1 X532.3476 Y309.6808 Z-15.3
G1 X529.9697 Y311.51
G1 X528.7808 Y312.4246 Z-17.6033
G1 X515.1124 Y322.9394 Z-17.6698
G3 X513.0089 Y322.6651 Z-17.6789 I-0.9146 J-1.1889
G1 X503.8629 Y310.776 Z-17.7368
G2 X500.6924 Y313.2149 Z-17.761 I-1.5852 J1.2195
G3 X500.4181 Y315.3184 Z-17.7701 I-1.1889 J0.9146
G1 X474.2621 Y335.4397 Z-17.8974
G2 X473.8964 Y338.2443 Z-17.9095 I1.2195 J1.5852
G1 X474.1986 Y338.6372 Z-17.9114
G2 X476.9226 Y339.0618 Z-17.9232 I1.5852 J-1.2195
G1 X485.2974 Y333.2612 Z-17.9625
G3 X487.3404 Y333.5797 Z-17.9713 I0.8541 J1.2331
G1 X491.6085 Y339.1279 Z-17.9983
G3 X491.3342 Y341.2314 Z-18.0074 I-1.1889 J0.9146
G1 X467.556 Y359.5234 Z-18.1231
G3 X465.4525 Y359.2491 Z-18.1322 I-0.9146 J-1.1889
G1 X465.3024 Y359.054 Z-18.1332
G1 X464.3878 Y357.8651 Z-15.3
G1 X462.5586 Y355.4873
G1 X461.644 Y354.2983 Z-18.1563
G1 X456.3065 Y347.36 Z-18.1901
G2 X453.1361 Y349.799 Z-18.2143 I-1.5852 J1.2195
G3 X452.8618 Y351.9025 Z-18.2234 I-1.1889 J0.9146
G1 X447.7112 Y355.8647 Z-18.2485
G3 X445.6309 Y355.6198 Z-18.2574 I-0.9146 J-1.1889
G1 X439.3354 Y347.8462 Z-18.296
G3 X439.0011 Y346.8908 Z-18.3 I1.1657 J-0.944
G3 X439.5865 Y345.7133 I1.5 J0.0114
G1 X480.5602 Y314.1931
G2 X481.1399 Y311.7342 I-1.2195 J-1.5852
G3 X481.0921 Y311.6251 I1.3493 J-0.6553
G1 X465.7065 Y272.2655
G1 X465.1604 Y270.8685 Z-15.3
G1 X464.0682 Y268.0744
G1 X463.5221 Y266.6773 Z-18.3
G1 X414.3758 Y140.951
G1 X413.8297 Y139.554 Z-15.3
G1 X412.7375 Y136.7599
G1 X412.1914 Y135.3628 Z-18.3
G1 X387.6183 Y72.4997
G3 X391.1884 Y59.6605 I10.3382 J-4.0412
G1 X397.4982 Y54.8066
G3 X409.4083 Y57.5903 I4.8169 J6.2616
G1 X425.1868 Y89.7706
G1 X425.8472 Y91.1174 Z-15.3
G1 X427.1679 Y93.811
G1 X427.8283 Y95.1578 Z-18.3
G1 X487.257 Y216.3629
G1 X487.9174 Y217.7098 Z-15.3
G1 X489.2381 Y220.4034
G1 X489.8985 Y221.7502 Z-18.3
G1 X495.0715 Y232.3007
G2 X505.0198 Y248.3176 I84.8495 J-41.603
G1 X528.6772 Y279.0703
G3 X528.4029 Y281.1738 I-1.1889 J0.9146
G1 X523.6472 Y284.8322
G2 X526.0861 Y288.0027 I1.2195 J1.5852
G3 X528.1897 Y288.277 I0.9146 J1.1889
G1 X530.0189 Y290.6548
G3 X529.7446 Y292.7583 I-1.1889 J0.9146
G1 X521.8185 Y298.8556
G2 X521.4528 Y301.6603 I1.2195 J1.5852
G1 X521.755 Y302.0531
G2 X524.479 Y302.4778 I1.5852 J-1.2195
G1 X532.8537 Y296.6771
G3 X534.8967 Y296.9956 I0.8541 J1.2331
G1 X539.1649 Y302.5439
G3 X538.8906 Y304.6474 I-1.1889 J0.9146
G1 X533.5365 Y308.7662
G1 X532.3476 Y309.6808 Z-15.3
G1 X529.9697 Y311.51
G1 X528.7808 Y312.4246 Z-18.3
G1 X515.1124 Y322.9394
G3 X513.0089 Y322.6651 I-0.9146 J-1.1889
G1 X503.8629 Y310.776
G2 X500.6924 Y313.2149 I-1.5852 J1.2195
G3 X500.4181 Y315.3184 I-1.1889 J0.9146
G1 X474.2621 Y335.4397
G2 X473.8964 Y338.2443 I1.2195 J1.5852
G1 X474.1986 Y338.6372
G2 X476.9226 Y339.0618 I1.5852 J-1.2195
G1 X485.2974 Y333.2612
G3 X487.3404 Y333.5797 I0.8541 J1.2331
G1 X491.6085 Y339.1279
G3 X491.3342 Y341.2314 I-1.1889 J0.9146
G1 X467.556 Y359.5234
G3 X465.4525 Y359.2491 I-0.9146 J-1.1889
G1 X465.3024 Y359.054
G1 X464.3878 Y357.8651 Z-15.3
G1 X462.5586 Y355.4873
G1 X461.644 Y354.2983 Z-18.3
G1 X456.3065 Y347.36
G2 X453.1361 Y349.799 I-1.5852 J1.2195
G3 X452.8618 Y351.9025 I-1.1889 J0.9146
G1 X447.7112 Y355.8647
G3 X445.6309 Y355.6198 I-0.9146 J-1.1889
G1 X439.3354 Y347.8462
G3 X439.0011 Y346.8908 I1.1657 J-0.944
G0 Z3.0
G0 X569.2555 Y296.5507
G0 Z1.0
G1 F300.0 Z0.0
G1 F800.0 X517.3282 Y162.1894 Z-0.842
G2 X508.8106 Y145.3681 Z-0.9524 I-88.1461 J34.0663
G1 X487.9173 Y112.6745 Z-1.1792
G3 X488.3735 Y110.6028 Z-1.193 I1.2639 J-0.8077
G1 X493.4292 Y107.3718 Z-1.2281
G2 X491.2753 Y104.0013 Z-1.2648 I-1.077 J-1.6853
G3 X489.2036 Y103.5451 Z-1.2786 I-0.8077 J-1.2639
G1 X487.5881 Y101.0172 Z-1.2961
G3 X488.0443 Y98.9455 Z-1.3099 I1.2639 J-0.8077
G1 X496.4706 Y93.5606 Z-1.3683
G2 X497.0789 Y90.7983 Z-1.3867 I-1.077 J-1.6853
G1 X496.812 Y90.3807 Z-1.3896
G2 X494.1352 Y89.7208 Z-1.4074 I-1.6853 J1.077
G1 X485.2877 Y94.7711 Z-1.4669
G3 X483.2802 Y94.2762 Z-1.4803 I-0.7436 J-1.3027
G1 X479.5107 Y88.3778 Z-1.5212
G3 X479.9669 Y86.3061 Z-1.5349 I1.2639 J-0.8077
G1 X505.2458 Y70.1513 Z-1.7103
G3 X507.3175 Y70.6075 Z-1.7241 I0.8077 J1.2639
G1 X515.3949 Y83.2469 Z-1.8118
G2 X518.7654 Y81.093 Z-1.8485 I1.6853 J-1.077
G3 X519.2216 Y79.0213 Z-1.8623 I1.2639 J-0.8077
G1 X547.0284 Y61.251 Z-2.0552
G2 X547.6367 Y58.4888 Z-2.0735 I-1.077 J-1.6853
G1 X547.3698 Y58.0711 Z-2.0764
G2 X544.693 Y57.4112 Z-2.0942 I-1.6853 J1.077
G1 X535.8455 Y62.4615 Z-2.1538
G3 X533.838 Y61.9666 Z-2.1671 I-0.7436 J-1.3027
G1 X530.0685 Y56.0682 Z-2.208
G3 X530.5247 Y53.9965 Z-2.2218 I1.2639 J-0.8077
G1 X555.8036 Y37.8417 Z-2.3971
G3 X557.8753 Y38.2979 Z-2.4109 I0.8077 J1.2639
G1 X565.9527 Y50.9373 Z-2.4986
G2 X569.3232 Y48.7834 Z-2.5353 I1.6853 J-1.077
G3 X569.7794 Y46.7117 Z-2.5491 I1.2639 J-0.8077
G1 X575.2551 Y43.2124 Z-2.5871
G3 X577.3062 Y43.6373 Z-2.6006 I0.8077 J1.2639
G1 X582.9018 Y51.9289 Z-2.6591
G3 X582.4661 Y54.032 Z-2.6731 I-1.2434 J0.8391
G1 X538.9064 Y81.8694 Z-2.9753
G2 X538.1151 Y84.2685 Z-2.9913 I1.077 J1.6853
G3 X538.1532 Y84.3814 Z-2.992 I-1.4012 J0.5354
G1 X610.4769 Y330.7299 Z-4.4927
G3 X605.8037 Y343.2099 Z-4.5763 I-10.6505 J3.1268
G1 X599.0957 Y347.4967 Z-4.6228
G3 X587.4728 Y343.6878 Z-4.7046 I-4.2541 J-6.6568
G1 X569.2555 Y296.5507 Z-5.0
G1 X517.3282 Y162.1894 Z-5.842
G2 X508.8106 Y145.3681 Z-5.9524 I-88.1461 J34.0663
G1 X487.9173 Y112.6745 Z-6.1792
G3 X488.3735 Y110.6028 Z-6.193 I1.2639 J-0.8077
G1 X493.4292 Y107.3718 Z-6.2281
G2 X491.2753 Y104.0013 Z-6.2648 I-1.077 J-1.6853
G3 X489.2036 Y103.5451 Z-6.2786 I-0.8077 J-1.2639
G1 X487.5881 Y101.0172 Z-6.2961
G3 X488.0443 Y98.9455 Z-6.3099 I1.2639 J-0.8077
G1 X496.4706 Y93.5606 Z-6.3683
G2 X497.0789 Y90.7983 Z-6.3867 I-1.077 J-1.6853
G1 X496.812 Y90.3807 Z-6.3896
G2 X494.1352 Y89.7208 Z-6.4074 I-1.6853 J1.077
G1 X485.2877 Y94.7711 Z-6.4669
G3 X483.2802 Y94.2762 Z-6.4803 I-0.7436 J-1.3027
G1 X479.5107 Y88.3778 Z-6.5212
G3 X479.9669 Y86.3061 Z-6.5349 I1.2639 J-0.8077
G1 X505.2458 Y70.1513 Z-6.7103
G3 X507.3175 Y70.6075 Z-6.7241 I0.8077 J1.2639
G1 X515.3949 Y83.2469 Z-6.8118
G2 X518.7654 Y81.093 Z-6.8485 I1.6853 J-1.077
G3 X519.2216 Y79.0213 Z-6.8623 I1.2639 J-0.8077
G1 X547.0284 Y61.251 Z-7.0552
G2 X547.6367 Y58.4888 Z-7.0735 I-1.077 J-1.6853
G1 X547.3698 Y58.0711 Z-7.0764
G2 X544.693 Y57.4112 Z-7.0942 I-1.6853 J1.077
G1 X535.8455 Y62.4615 Z-7.1538
G3 X533.838 Y61.9666 Z-7.1671 I-0.7436 J-1.3027
G1 X530.0685 Y56.0682 Z-7.208
G3 X530.5247 Y53.9965 Z-7.2218 I1.2639 J-0.8077
G1 X555.8036 Y37.8417 Z-7.3971
G3 X557.8753 Y38.2979 Z-7.4109 I0.8077 J1.2639
G1 X565.9527 Y50.9373 Z-7.4986
G2 X569.3232 Y48.7834 Z-7.5353 I1.6853 J-1.077
G3 X569.7794 Y46.7117 Z-7.5491 I1.2639 J-0.8077
G1 X575.2551 Y43.2124 Z-7.5871
G3 X577.3062 Y43.6373 Z-7.6006 I0.8077 J1.2639
G1 X582.9018 Y51.9289 Z-7.6591
G3 X582.4661 Y54.032 Z-7.6731 I-1.2434 J0.8391
G1 X538.9064 Y81.8694 Z-7.9753
G2 X538.1151 Y84.2685 Z-7.9913 I1.077 J1.6853
G3 X538.1532 Y84.3814 Z-7.992 I-1.4012 J0.5354
G1 X610.4769 Y330.7299 Z-9.4927
G3 X605.8037 Y343.2099 Z-9.5763 I-10.6505 J3.1268
G1 X599.0957 Y347.4967 Z-9.6228
G3 X587.4728 Y343.6878 Z-9.7046 I-4.2541 J-6.6568
G1 X569.2555 Y296.5507 Z-10.0
G1 X517.3282 Y162.1894 Z-10.842
G2 X508.8106 Y145.3681 Z-10.9524 I-88.1461 J34.0663
G1 X487.9173 Y112.6745 Z-11.1792
G3 X488.3735 Y110.6028 Z-11.193 I1.2639 J-0.8077
G1 X493.4292 Y107.3718 Z-11.2281
G2 X491.2753 Y104.0013 Z-11.2648 I-1.077 J-1.6853
G3 X489.2036 Y103.5451 Z-11.2786 I-0.8077 J-1.2639
G1 X487.5881 Y101.0172 Z-11.2961
G3 X488.0443 Y98.9455 Z-11.3099 I1.2639 J-0.8077
G1 X496.4706 Y93.5606 Z-11.3683
G2 X497.0789 Y90.7983 Z-11.3867 I-1.077 J-1.6853
G1 X496.812 Y90.3807 Z-11.3896
G2 X494.1352 Y89.7208 Z-11.4074 I-1.6853 J1.077
G1 X485.2877 Y94.7711 Z-11.4669
G3 X483.2802 Y94.2762 Z-11.4803 I-0.7436 J-1.3027
G1 X479.5107 Y88.3778 Z-11.5212
G3 X479.9669 Y86.3061 Z-11.5349 I1.2639 J-0.8077
G1 X505.2458 Y70.1513 Z-11.7103
G3 X507.3175 Y70.6075 Z-11.7241 I0.8077 J1.2639
G1 X515.3949 Y83.2469 Z-11.8118
G2 X518.7654 Y81.093 Z-11.8485 I1.6853 J-1.077
G3 X519.2216 Y79.0213 Z-11.8623 I1.2639 J-0.8077
G1 X547.0284 Y61.251 Z-12.0552
G2 X547.6367 Y58.4888 Z-12.0735 I-1.077 J-1.6853
G1 X547.3698 Y58.0711 Z-12.0764
G2 X544.693 Y57.4112 Z-12.0942 I-1.6853 J1.077
G1 X535.8455 Y62.4615 Z-12.1538
G3 X533.838 Y61.9666 Z-12.1671 I-0.7436 J-1.3027
G1 X530.0685 Y56.0682 Z-12.208
G3 X530.5247 Y53.9965 Z-12.2218 I1.2639 J-0.8077
G1 X555.8036 Y37.8417 Z-12.3971
G3 X557.8753 Y38.2979 Z-12.4109 I0.8077 J1.2639
G1 X565.9527 Y50.9373 Z-12.4986
G2 X569.3232 Y48.7834 Z-12.5353 I1.6853 J-1.077
G3 X569.7794 Y46.7117 Z-12.5491 I1.2639 J-0.8077
G1 X575.2551 Y43.2124 Z-12.5871
G3 X577.3062 Y43.6373 Z-12.6006 I0.8077 J1.2639
G1 X582.9018 Y51.9289 Z-12.6591
G3 X582.4661 Y54.032 Z-12.6731 I-1.2434 J0.8391
G1 X538.9064 Y81.8694 Z-12.9753
G2 X538.1151 Y84.2685 Z-12.9913 I1.077 J1.6853
G3 X538.1532 Y84.3814 Z-12.992 I-1.4012 J0.5354
G1 X610.4769 Y330.7299 Z-14.4927
G3 X605.8037 Y343.2099 Z-14.5763 I-10.6505 J3.1268
G1 X599.0957 Y347.4967 Z-14.6228
G3 X587.4728 Y343.6878 Z-14.7046 I-4.2541 J-6.6568
G1 X569.2555 Y296.5507 Z-15.0
G1 X543.8224 Y230.7431 Z-15.2722
G1 X543.2817 Y229.344 Z-15.278
G1 X542.2002 Y226.5457 Z-15.2895
G1 X541.6595 Y225.1465 Z-15.2953
G1 X517.3282 Y162.1894 Z-15.5557
G2 X508.8106 Y145.3681 Z-15.6286 I-88.1461 J34.0663
G1 X487.9173 Y112.6745 Z-15.7783
G3 X488.3735 Y110.6028 Z-15.7874 I1.2639 J-0.8077
G1 X493.4292 Y107.3718 Z-15.8105
G2 X491.2753 Y104.0013 Z-15.8348 I-1.077 J-1.6853
G3 X489.2036 Y103.5451 Z-15.8438 I-0.8077 J-1.2639
G1 X487.5881 Y101.0172 Z-15.8554
G3 X488.0443 Y98.9455 Z-15.8645 I1.2639 J-0.8077
G1 X496.4706 Y93.5606 Z-15.9031
G2 X497.0789 Y90.7983 Z-15.9152 I-1.077 J-1.6853
G1 X496.812 Y90.3807 Z-15.9171
G2 X494.1352 Y89.7208 Z-15.9289 I-1.6853 J1.077
G1 X485.2877 Y94.7711 Z-15.9682
G3 X483.2802 Y94.2762 Z-15.977 I-0.7436 J-1.3027
G1 X479.5107 Y88.3778 Z-16.004
G3 X479.9669 Y86.3061 Z-16.0131 I1.2639 J-0.8077
G1 X505.2458 Y70.1513 Z-16.1288
G3 X507.3175 Y70.6075 Z-16.1379 I0.8077 J1.2639
G1 X515.3949 Y83.2469 Z-16.1958
G2 X518.7654 Y81.093 Z-16.22 I1.6853 J-1.077
G3 X519.2216 Y79.0213 Z-16.2291 I1.2639 J-0.8077
G1 X547.0284 Y61.251 Z-16.3564
G2 X547.6367 Y58.4888 Z-16.3685 I-1.077 J-1.6853
G1 X547.3698 Y58.0711 Z-16.3704
G2 X544.693 Y57.4112 Z-16.3822 I-1.6853 J1.077
G1 X535.8455 Y62.4615 Z-16.4215
G3 X533.838 Y61.9666 Z-16.4303 I-0.7436 J-1.3027
G1 X530.0685 Y56.0682 Z-16.4573
G3 X530.5247 Y53.9965 Z-16.4664 I1.2639 J-0.8077
G1 X555.8036 Y37.8417 Z-16.5821
G3 X557.8753 Y38.2979 Z-16.5912 I0.8077 J1.2639
G1 X565.9527 Y50.9373 Z-16.6491
G2 X569.3232 Y48.7834 Z-16.6733 I1.6853 J-1.077
G3 X569.7794 Y46.7117 Z-16.6824 I1.2639 J-0.8077
G1 X575.2551 Y43.2124 Z-16.7075
G3 X577.3062 Y43.6373 Z-16.7164 I0.8077 J1.2639
G1 X582.9018 Y51.9289 Z-16.755
G3 X582.4661 Y54.032 Z-16.7642 I-1.2434 J0.8391
G1 X546.2373 Y77.1845 Z-16.9301
G1 X544.9733 Y77.9922 Z-15.3
G1 X542.4454 Y79.6077
G1 X541.1815 Y80.4154 Z-16.9533
G1 X538.9064 Y81.8694 Z-16.9637
G2 X538.1151 Y84.2685 Z-16.9742 I1.077 J1.6853
G3 X538.1532 Y84.3814 Z-16.9747 I-1.4012 J0.5354
G1 X574.0707 Y206.7235 Z-17.4666
G1 X574.4933 Y208.1628 Z-15.3
G1 X575.3384 Y211.0413
G1 X575.7609 Y212.4806 Z-17.4898
G1 X610.4769 Y330.7299 Z-17.9652
G3 X606.3098 Y342.8664 Z-18.018 I-10.6505 J3.1268
G3 X605.8037 Y343.2099 Z-16.9095 I-6.4835 J-9.0097
G1 X605.055 Y343.6884 Z-15.3
G1 X602.5271 Y345.3039
G1 X601.2631 Y346.1116 Z-18.0411
G1 X599.0957 Y347.4967 Z-18.0511
G3 X587.4728 Y343.6878 Z-18.105 I-4.2541 J-6.6568
G1 X569.2555 Y296.5507 Z-18.3
G1 X543.8224 Y230.7431
G1 X543.2817 Y229.344 Z-15.3
G1 X542.2002 Y226.5457
G1 X541.6595 Y225.1465 Z-18.3
G1 X517.3282 Y162.1894
G2 X508.8106 Y145.3681 I-88.1461 J34.0663
G1 X487.9173 Y112.6745
G3 X488.3735 Y110.6028 I1.2639 J-0.8077
G1 X493.4292 Y107.3718
G2 X491.2753 Y104.0013 I-1.077 J-1.6853
G3 X489.2036 Y103.5451 I-0.8077 J-1.2639
G1 X487.5881 Y101.0172
G3 X488.0443 Y98.9455 I1.2639 J-0.8077
G1 X496.4706 Y93.5606
G2 X497.0789 Y90.7983 I-1.077 J-1.6853
G1 X496.812 Y90.3807
G2 X494.1352 Y89.7208 I-1.6853 J1.077
G1 X485.2877 Y94.7711
G3 X483.2802 Y94.2762 I-0.7436 J-1.3027
G1 X479.5107 Y88.3778
G3 X479.9669 Y86.3061 I1.2639 J-0.8077
G1 X505.2458 Y70.1513
G3 X507.3175 Y70.6075 I0.8077 J1.2639
G1 X515.3949 Y83.2469
G2 X518.7654 Y81.093 I1.6853 J-1.077
G3 X519.2216 Y79.0213 I1.2639 J-0.8077
G1 X547.0284 Y61.251
G2 X547.6367 Y58.4888 I-1.077 J-1.6853
G1 X547.3698 Y58.0711
G2 X544.693 Y57.4112 I-1.6853 J1.077
G1 X535.8455 Y62.4615
G3 X533.838 Y61.9666 I-0.7436 J-1.3027
G1 X530.0685 Y56.0682
G3 X530.5247 Y53.9965 I1.2639 J-0.8077
G1 X555.8036 Y37.8417
G3 X557.8753 Y38.2979 I0.8077 J1.2639
G1 X565.9527 Y50.9373
G2 X569.3232 Y48.7834 I1.6853 J-1.077
G3 X569.7794 Y46.7117 I1.2639 J-0.8077
G1 X575.2551 Y43.2124
G3 X577.3062 Y43.6373 I0.8077 J1.2639
G1 X582.9018 Y51.9289
G3 X582.4661 Y54.032 I-1.2434 J0.8391
G1 X546.2373 Y77.1845
G1 X544.9733 Y77.9922 Z-15.3
G1 X542.4454 Y79.6077
G1 X541.1815 Y80.4154 Z-18.3
G1 X538.9064 Y81.8694
G2 X538.1151 Y84.2685 I1.077 J1.6853
G3 X538.1532 Y84.3814 I-1.4012 J0.5354
G1 X574.0707 Y206.7235
G1 X574.4933 Y208.1628 Z-15.3
G1 X575.3384 Y211.0413
G1 X575.7609 Y212.4806 Z-18.3
G1 X610.4769 Y330.7299
G3 X606.3098 Y342.8664 I-10.6505 J3.1268
G3 X605.8037 Y343.2099 Z-17.0765 I-6.4835 J-9.0097
G1 X605.055 Y343.6884 Z-15.3
G1 X602.5271 Y345.3039
G1 X601.2631 Y346.1116 Z-18.3
G1 X599.0957 Y347.4967
G3 X587.4728 Y343.6878 I-4.2541 J-6.6568
G1 X569.2555 Y296.5507
( Pocket2 )
S1000
G0 Z3.0
G0 X444.8799 Y300.7773
G0 Z1.0
G1 F300.0 Z-10.0
G1 F800.0 X442.5349 Y304.8388
G2 X444.8799 Y300.7773 I-22.0349 J-15.4296
G1 F300.0 X444.3602 Y300.4773
G1 F800.0 X439.0064 Y309.7504
G2 X447.3692 Y295.2657 I-18.5064 J-20.3412
G1 X444.3602 Y300.4773
G1 F300.0 X443.321 Y299.8773
G1 F800.0 X435.0986 Y314.119
G2 X449.1986 Y289.6971 I-14.5986 J-24.7098
G1 X443.321 Y299.8773
G0 Z3.0
G0 X443.9896 Y276.3002
G0 Z1.0
G1 F300.0 Z-10.0
G2 F800.0 X443.5976 Y275.6212 I-23.4896 J13.1091
G1 Y276.0738
G1 X443.9896 Y276.3002
G1 F300.0 X444.5136 Y276.0078
G2 F800.0 X442.9976 Y273.5944 I-24.0136 J13.4015
G1 Y276.4202
G1 X445.4448 Y277.8331
G2 X444.5136 Y276.0078 I-24.9448 J11.5761
G1 F300.0 X445.5614 Y275.423
G2 F800.0 X441.7721 Y270.143 I-25.0614 J13.9863
G3 X441.7976 Y270.7092 I-6.2721 J0.5662
G1 Y277.1131
G1 X447.3435 Y280.315
G3 X447.8211 Y280.6202 I-3.1488 J5.4539
G2 X445.5614 Y275.423 I-27.3211 J8.7891
G0 Z3.0
G0 X422.8449 Y262.6116
G0 Z1.0
G1 F300.0 Z-10.0
G2 F800.0 X418.1551 I-2.3449 J26.7976
G1 X422.8449
G1 F300.0 Y263.2116
G1 F800.0 X428.8628
G2 X412.1372 I-8.3628 J26.1976
G1 X422.8449
G1 F300.0 Y264.4116
G1 F800.0 X434.6
G2 X406.4 I-14.1 J24.9976
G1 X422.8449
G0 Z3.0
G0 X397.4024 Y275.6212
G0 Z1.0
G1 F300.0 Z-10.0
G2 F800.0 X397.0104 Y276.3002 I23.0976 J13.7881
G1 X397.4024 Y276.0738
G1 Y275.6212
G1 F300.0 X398.0024
G1 F800.0 Y273.5944
G2 X395.5552 Y277.8331 I22.4976 J15.8148
G1 X398.0024 Y276.4202
G1 Y275.6212
G1 F300.0 X399.2024
G1 F800.0 Y270.7092
G3 X399.2279 Y270.143 I6.2976 J0.0
G2 X393.1789 Y280.6202 I21.2721 J19.2662
G3 X393.6565 Y280.315 I3.6264 J5.1487
G1 X399.2024 Y277.1131
G1 Y275.6212
G0 Z3.0
G0 X396.1201 Y300.7773
G0 Z1.0
G1 F300.0 Z-10.0
G2 F800.0 X398.4651 Y304.8388 I24.3799 J-11.368
G1 X396.1201 Y300.7773
G1 F300.0 X395.5764 Y301.0308
G2 F800.0 X401.9936 Y309.7504 I24.9236 J-11.6216
G1 X393.6308 Y295.2657
G2 X395.5764 Y301.0308 I26.8692 J-5.8564
G1 F300.0 X394.4888 Y301.538
G2 F800.0 X405.9014 Y314.119 I26.0112 J-12.1287
G1 X391.8014 Y289.6971
G2 X394.4888 Y301.538 I28.6986 J-0.2878
G0 Z3.0
G0 X420.108 Y316.3064
G0 Z1.0
G1 F300.0 Z-10.0
G2 F800.0 X420.892 I0.392 J-26.8971
G1 X420.5 Y316.0801
G1 X420.108 Y316.3064
G1 F300.0 X420.0992 Y316.9063
G2 F800.0 X422.9472 Y316.8001 I0.4008 J-27.4971
G1 X420.5 Y315.3872
G1 X418.0528 Y316.8001
G2 X420.0992 Y316.9063 I2.4472 J-27.3909
G1 F300.0 X420.0817 Y318.1062
G2 F800.0 X426.549 Y317.4645 I0.4183 J-28.697
G3 X426.0459 Y317.2035 I2.6457 J-5.7149
G1 X420.5 Y314.0016
G1 X414.9541 Y317.2035
G3 X414.451 Y317.4645 I-3.1488 J-5.4539
G2 X420.0817 Y318.1062 I6.049 J-28.0553
G0 Z3.0
G0 X416.609 Y312.0912
G0 Z1.0
G1 F300.0 Z-10.0
G1 F800.0 X413.1541 Y314.0858
G3 X409.4691 Y313.0984 I-1.3488 J-2.3362
G1 X394.4691 Y287.1177
G3 X395.4565 Y283.4327 I2.3362 J-1.3488
G1 X402.4012 Y279.4232
G2 X402.8024 Y278.7283 I-0.4012 J-0.6949
G1 Y270.7092
G3 X405.5 Y268.0116 I2.6976 J0.0
G1 X435.5
G3 X438.1976 Y270.7092 I0.0 J2.6976
G1 Y278.7283
G2 X438.5988 Y279.4232 I0.8024 J0.0
G1 X445.5435 Y283.4327
G3 X446.5309 Y287.1177 I-1.3488 J2.3362
G1 X431.5309 Y313.0984
G3 X427.8459 Y314.0858 I-2.3362 J-1.3488
G1 X420.9012 Y310.0763
G2 X420.0988 I-0.4012 J0.6949
G1 X416.609 Y312.0912
G1 F300.0 X416.0102 Y311.054
G1 F800.0 X412.5553 Y313.0487
G3 X410.5063 Y312.4996 I-0.75 J-1.299
G1 X395.5063 Y286.5189
G3 X396.0553 Y284.4698 I1.299 J-0.75
G1 X403.0 Y280.4603
G2 X404.0 Y278.7283 I-1.0 J-1.7321
G1 Y270.7092
G3 X405.5 Y269.2092 I1.5 J0.0
G1 X435.5
G3 X437.0 Y270.7092 I0.0 J1.5
G1 Y278.7283
G2 X438.0 Y280.4603 I2.0 J0.0
G1 X444.9447 Y284.4698
G3 X445.4937 Y286.5189 I-0.75 J1.299
G1 X430.4937 Y312.4996
G3 X428.4447 Y313.0487 I-1.299 J-0.75
G1 X421.5 Y309.0391
G2 X419.5 I-1.0 J1.7321
G1 X416.0102 Y311.054
G0 Z3.0
G0 X417.209 Y313.1304
G0 Z1.0
G1 F300.0 Z-10.0
G1 F800.0 X420.5 Y311.2303
G1 X427.2459 Y315.125
G2 X432.5701 Y313.6984 I1.9488 J-3.3754
G1 X447.5701 Y287.7177
G2 X446.1435 Y282.3934 I-3.3754 J-1.9488
G1 X439.3976 Y278.4987
G1 Y270.7092
G2 X435.5 Y266.8116 I-3.8976 J0.0
G1 X405.5
G2 X401.6024 Y270.7092 I0.0 J3.8976
G1 Y278.4987
G1 X394.8565 Y282.3934
G2 X393.4299 Y287.7177 I1.9488 J3.3754
G1 X408.4299 Y313.6984
G2 X413.7541 Y315.125 I3.3754 J-1.9488
G1 X417.209 Y313.1304
G1 F300.0 X417.809 Y314.1696
G1 F800.0 X420.5 Y312.616
G1 X426.6459 Y316.1643
G2 X433.6093 Y314.2984 I2.5488 J-4.4147
G1 X448.6093 Y288.3177
G2 X446.7435 Y281.3542 I-4.4147 J-2.5488
G1 X440.5976 Y277.8059
G1 Y270.7092
G2 X435.5 Y265.6116 I-5.0976 J0.0
G1 X405.5
G2 X400.4024 Y270.7092 I0.0 J5.0976
G1 Y277.8059
G1 X394.2565 Y281.3542
G2 X392.3907 Y288.3177 I2.5488 J4.4147
G1 X407.3907 Y314.2984
G2 X414.3541 Y316.1643 I4.4147 J-2.5488
G1 X417.809 Y314.1696
G0 Z3.0
G0 X417.2694 Y319.1342
G0 Z1.0
G1 F300.0 Z-10.0
G2 F800.0 X450.4 Y289.4092 I3.2306 J-29.725
G2 X405.55 Y263.5151 I-29.9 J0.0
G2 Y315.3034 I14.95 J25.8942
G2 X417.2694 Y319.1342 I14.95 J-25.8942
G1 F300.0 X417.1397 Y320.3272
G2 F800.0 X451.6 Y289.4092 I3.3603 J-30.9179
G2 X404.95 Y262.4759 I-31.1 J0.0
G2 Y316.3426 I15.55 J26.9334
G2 X417.1397 Y320.3272 I15.55 J-26.9334
G1 F300.0 X417.0101 Y321.5202
G2 F800.0 X452.8 Y289.4092 I3.4899 J-32.1109
G2 X404.35 Y261.4366 I-32.3 J0.0
G2 Y317.3819 I16.15 J27.9726
G2 X417.0101 Y321.5202 I16.15 J-27.9726
G1 F300.0 X416.8804 Y322.7131
G2 F800.0 X454.0 Y289.4092 I3.6196 J-33.3039
G2 X403.75 Y260.3974 I-33.5 J0.0
G2 Y318.4211 I16.75 J29.0119
G2 X416.8804 Y322.7131 I16.75 J-29.0119
G0 Z3.0
G0 X420.108 Y316.3064
G0 Z-9.0
G1 F300.0 Z-14.0
G2 F800.0 X420.892 I0.392 J-26.8971
G1 X420.5 Y316.0801
G1 X420.108 Y316.3064
G1 F300.0 X420.0992 Y316.9063
G2 F800.0 X422.9472 Y316.8001 I0.4008 J-27.4971
G1 X420.5 Y315.3872
G1 X418.0528 Y316.8001
G2 X420.0992 Y316.9063 I2.4472 J-27.3909
G1 F300.0 X420.0817 Y318.1062
G2 F800.0 X426.549 Y317.4645 I0.4183 J-28.697
G3 X426.0459 Y317.2035 I2.6457 J-5.7149
G1 X420.5 Y314.0016
G1 X414.9541 Y317.2035
G3 X414.451 Y317.4645 I-3.1488 J-5.4539
G2 X420.0817 Y318.1062 I6.049 J-28.0553
G0 Z3.0
G0 X398.4651 Y304.8388
G0 Z-9.0
G1 F300.0 Z-14.0
G1 F800.0 X396.1201 Y300.7773
G2 X398.4651 Y304.8388 I24.3799 J-11.368
G1 F300.0 X397.9736 Y305.183
G2 F800.0 X401.9936 Y309.7504 I22.5264 J-15.7737
G1 X393.6308 Y295.2657
G2 X397.9736 Y305.183 I26.8692 J-5.8564
G1 F300.0 X396.9906 Y305.8713
G2 F800.0 X405.9014 Y314.119 I23.5094 J-16.462
G1 X391.8014 Y289.6971
G2 X396.9906 Y305.8713 I28.6986 J-0.2878
G0 Z3.0
G0 X397.0104 Y276.3002
G0 Z-9.0
G1 F300.0 Z-14.0
G1 F800.0 X397.4024 Y276.0738
G1 Y275.6212
G2 X397.0104 Y276.3002 I23.0976 J13.7881
G1 F300.0 X397.3104 Y276.8198
G1 F800.0 X398.0024 Y276.4202
G1 Y273.5944
G2 X395.5552 Y277.8331 I22.4976 J15.8148
G1 X397.3104 Y276.8198
G1 F300.0 X397.9104 Y277.859
G1 F800.0 X399.2024 Y277.1131
G1 Y270.7092
G3 X399.2279 Y270.143 I6.2976 J0.0
G2 X393.1789 Y280.6202 I21.2721 J19.2662
G3 X393.6565 Y280.315 I3.6264 J5.1487
G1 X397.9104 Y277.859
G0 Z3.0
G0 X418.1551 Y262.6116
G0 Z-9.0
G1 F300.0 Z-14.0
G1 F800.0 X422.8449
G2 X418.1551 I-2.3449 J26.7976
G1 F300.0 Y263.2116
G1 F800.0 X428.8628
G2 X412.1372 I-8.3628 J26.1976
G1 X418.1551
G1 F300.0 Y264.4116
G1 F800.0 X434.6
G2 X406.4 I-14.1 J24.9976
G1 X418.1551
G0 Z3.0
G0 X443.5976 Y275.6212
G0 Z-9.0
G1 F300.0 Z-14.0
G1 F800.0 Y276.0738
G1 X443.9896 Y276.3002
G2 X443.5976 Y275.6212 I-23.4896 J13.1091
G1 F300.0 X442.9976
G1 F800.0 Y276.4202
G1 X445.4448 Y277.8331
G2 X442.9976 Y273.5944 I-24.9448 J11.5761
G1 Y275.6212
G1 F300.0 X441.7976
G1 F800.0 Y277.1131
G1 X447.3435 Y280.315
G3 X447.8211 Y280.6202 I-3.1488 J5.4539
G2 X441.7721 Y270.143 I-27.3211 J8.7891
G3 X441.7976 Y270.7092 I-6.2721 J0.5662
G1 Y275.6212
G0 Z3.0
G0 X444.8799 Y300.7773
G0 Z-9.0
G1 F300.0 Z-14.0
G1 F800.0 X442.5349 Y304.8388
G2 X444.8799 Y300.7773 I-22.0349 J-15.4296
G1 F300.0 X444.3602 Y300.4773
G1 F800.0 X439.0064 Y309.7504
G2 X447.3692 Y295.2657 I-18.5064 J-20.3412
G1 X444.3602 Y300.4773
G1 F300.0 X443.321 Y299.8773
G1 F800.0 X435.0986 Y314.119
G2 X449.1986 Y289.6971 I-14.5986 J-24.7098
G1 X443.321 Y299.8773
G0 Z3.0
G0 X440.2033 Y298.0773
G0 Z-3.0
G1 F300.0 Z-14.0
G1 F800.0 X431.5309 Y313.0984
G3 X427.8459 Y314.0858 I-2.3362 J-1.3488
G1 X420.9012 Y310.0763
G2 X420.0988 I-0.4012 J0.6949
G1 X413.1541 Y314.0858
G3 X409.4691 Y313.0984 I-1.3488 J-2.3362
G1 X394.4691 Y287.1177
G3 X395.4565 Y283.4327 I2.3362 J-1.3488
G1 X402.4012 Y279.4232
G2 X402.8024 Y278.7283 I-0.4012 J-0.6949
G1 Y270.7092
G3 X405.5 Y268.0116 I2.6976 J0.0
G1 X435.5
G3 X438.1976 Y270.7092 I0.0 J2.6976
G1 Y278.7283
G2 X438.5988 Y279.4232 I0.8024 J0.0
G1 X445.5435 Y283.4327
G3 X446.5309 Y287.1177 I-1.3488 J2.3362
G1 X440.2033 Y298.0773
G1 F300.0 X439.1662 Y297.4785
G1 F800.0 X430.4937 Y312.4996
G3 X428.4447 Y313.0487 I-1.299 J-0.75
G1 X421.5 Y309.0391
G2 X419.5 I-1.0 J1.7321
G1 X412.5553 Y313.0487
G3 X410.5063 Y312.4996 I-0.75 J-1.299
G1 X395.5063 Y286.5189
G3 X396.0553 Y284.4698 I1.299 J-0.75
G1 X403.0 Y280.4603
G2 X404.0 Y278.7283 I-1.0 J-1.7321
G1 Y270.7092
G3 X405.5 Y269.2092 I1.5 J0.0
G1 X435.5
G3 X437.0 Y270.7092 I0.0 J1.5
G1 Y278.7283
G2 X438.0 Y280.4603 I2.0 J0.0
G1 X444.9447 Y284.4698
G3 X445.4937 Y286.5189 I-0.75 J1.299
G1 X439.1662 Y297.4785
G0 Z3.0
G0 X441.2426 Y298.6773
G0 Z-3.0
G1 F300.0 Z-14.0
G1 F800.0 X447.5701 Y287.7177
G2 X446.1435 Y282.3934 I-3.3754 J-1.9488
G1 X439.3976 Y278.4987
G1 Y270.7092
G2 X435.5 Y266.8116 I-3.8976 J0.0
G1 X405.5
G2 X401.6024 Y270.7092 I0.0 J3.8976
G1 Y278.4987
G1 X394.8565 Y282.3934
G2 X393.4299 Y287.7177 I1.9488 J3.3754
G1 X408.4299 Y313.6984
G2 X413.7541 Y315.125 I3.3754 J-1.9488
G1 X420.5 Y311.2303
G1 X427.2459 Y315.125
G2 X432.5701 Y313.6984 I1.9488 J-3.3754
G1 X441.2426 Y298.6773
G1 F300.0 X442.2818 Y299.2773
G1 F800.0 X448.6093 Y288.3177
G2 X446.7435 Y281.3542 I-4.4147 J-2.5488
G1 X440.5976 Y277.8059
G1 Y270.7092
G2 X435.5 Y265.6116 I-5.0976 J0.0
G1 X405.5
G2 X400.4024 Y270.7092 I0.0 J5.0976
G1 Y277.8059
G1 X394.2565 Y281.3542
G2 X392.3907 Y288.3177 I2.5488 J4.4147
G1 X407.3907 Y314.2984
G2 X414.3541 Y316.1643 I4.4147 J-2.5488
G1 X420.5 Y312.616
G1 X426.6459 Y316.1643
G2 X433.6093 Y314.2984 I2.5488 J-4.4147
G1 X442.2818 Y299.2773
G0 Z3.0
G0 X447.7354 Y301.748
G0 Z-3.0
G1 F300.0 Z-14.0
G2 F800.0 X450.4 Y289.4092 I-27.2354 J-12.3387
G2 X405.55 Y263.5151 I-29.9 J0.0
G2 Y315.3034 I14.95 J25.8942
G2 X447.7354 Y301.748 I14.95 J-25.8942
G1 F300.0 X448.8284 Y302.2432
G2 F800.0 X451.6 Y289.4092 I-28.3284 J-12.8339
G2 X404.95 Y262.4759 I-31.1 J0.0
G2 Y316.3426 I15.55 J26.9334
G2 X448.8284 Y302.2432 I15.55 J-26.9334
G1 F300.0 X449.9215 Y302.7384
G2 F800.0 X452.8 Y289.4092 I-29.4215 J-13.3291
G2 X404.35 Y261.4366 I-32.3 J0.0
G2 Y317.3819 I16.15 J27.9726
G2 X449.9215 Y302.7384 I16.15 J-27.9726
G1 F300.0 X451.0145 Y303.2336
G2 F800.0 X454.0 Y289.4092 I-30.5145 J-13.8243
G2 X403.75 Y260.3974 I-33.5 J0.0
G2 Y318.4211 I16.75 J29.0119
G2 X451.0145 Y303.2336 I16.75 J-29.0119
( Profile1 plug  )
S1000
G0 Z3.0
G0 X451.9 Y289.4092
G0 Z1.0
G1 F300.0 Z0.0
G3 F800.0 X404.8 Y316.6024 Z-1.6667 I-31.4 J0.0
G3 Y262.216 Z-3.3333 I15.7 J-27.1932
G3 X451.9 Y289.4092 Z-5.0 I15.7 J27.1932
G3 X404.8 Y316.6024 Z-6.6667 I-31.4 J0.0
G3 Y262.216 Z-8.3333 I15.7 J-27.1932
G3 X451.9 Y289.4092 Z-10.0 I15.7 J27.1932
G3 X404.8 Y316.6024 Z-11.6667 I-31.4 J0.0
G3 Y262.216 Z-13.3333 I15.7 J-27.1932
G3 X451.9 Y289.4092 Z-15.0 I15.7 J27.1932
G3 X438.7263 Y314.978 Z-15.4997 I-31.4 J0.0
G3 X437.4811 Y315.8214 Z-15.3 I-18.2263 J-25.5688
G3 X434.883 Y317.3214 I-16.9811 J-26.4122
G3 X433.5301 Y317.978 Z-15.6003 I-14.383 J-27.9122
G3 X404.8 Y316.6024 Z-16.1 I-13.0301 J-28.5688
G3 X389.2436 Y292.4092 Z-16.5997 I15.7 J-27.1932
G3 X389.1358 Y290.9092 Z-15.3 I31.2564 J-3.0
G3 Y287.9092 I31.3642 J-1.5
G3 X389.2436 Y286.4092 Z-16.7003 I31.3642 J1.5
G3 X404.8 Y262.216 Z-17.2 I31.2564 J3.0
G3 X433.5301 Y260.8404 Z-17.6997 I15.7 J27.1932
G3 X434.883 Y261.4971 Z-15.3 I-13.0301 J28.5688
G3 X437.4811 Y262.9971 I-14.383 J27.9122
G3 X438.7263 Y263.8404 Z-17.8003 I-16.9811 J26.4122
G3 X451.9 Y289.4092 Z-18.3 I-18.2263 J25.5688
G3 X438.7263 Y314.978 I-31.4 J0.0
G3 X437.4811 Y315.8214 Z-15.3 I-18.2263 J-25.5688
G3 X434.883 Y317.3214 I-16.9811 J-26.4122
G3 X433.5301 Y317.978 Z-18.3 I-14.383 J-27.9122
G3 X404.8 Y316.6024 I-13.0301 J-28.5688
G3 X389.2436 Y292.4092 I15.7 J-27.1932
G3 X389.1358 Y290.9092 Z-15.3 I31.2564 J-3.0
G3 Y287.9092 I31.3642 J-1.5
G3 X389.2436 Y286.4092 Z-18.3 I31.3642 J1.5
G3 X404.8 Y262.216 I31.2564 J3.0
G3 X433.5301 Y260.8404 I15.7 J27.1932
G3 X434.883 Y261.4971 Z-15.3 I-13.0301 J28.5688
G3 X437.4811 Y262.9971 I-14.383 J27.9122
G3 X438.7263 Y263.8404 Z-18.3 I-16.9811 J26.4122
G3 X451.9 Y289.4092 I-18.2263 J25.5688
( Pocket3 )
S1000
G0 Z3.0
G0 X139.9916 Y214.4994
G1 F300.0 Z-6.0
G1 F800.0 X136.5831 Y212.9101
G1 X136.1208 Y213.9016
G1 X139.9916 Y214.4994
G1 F300.0 X140.2451 Y213.9557
G1 F800.0 X136.2929 Y212.1127
G1 X135.2391 Y214.3725
G1 X144.0612 Y215.7351
G1 X140.2451 Y213.9557
G1 F300.0 X140.7523 Y212.8681
G1 F800.0 X135.7125 Y210.518
G1 X133.4759 Y215.3144
G1 X152.2129 Y218.2084
G3 X151.3912 Y217.8291 I48.8359 J-106.8705
G1 X140.7523 Y212.8681
G1 F300.0 X141.2594 Y211.7805
G1 F800.0 X135.1321 Y208.9233
G1 X131.7126 Y216.2563
G1 X162.2384 Y220.9711
G3 X151.8983 Y216.7415 I38.8105 J-109.6332
G1 X141.2594 Y211.7805
G1 F300.0 X141.7666 Y210.693
G1 F800.0 X134.5516 Y207.3286
G1 X129.9493 Y217.1982
G1 X183.1001 Y225.4075
G1 X174.0833 Y223.2346
G3 X152.4055 Y215.654 I26.9656 J-111.8967
G1 X141.7666 Y210.693
G1 F300.0 X142.2737 Y209.6054
G1 F800.0 X133.9712 Y205.7339
G1 X128.1861 Y218.1401
G1 X211.3969 Y230.9923
G1 X174.3644 Y222.068
G3 X152.9126 Y214.5664 I26.6844 J-110.7301
G1 X142.2737 Y209.6054
G1 F300.0 X142.7808 Y208.5178
G1 F800.0 X133.3908 Y204.1392
G1 X126.4228 Y219.082
G1 X239.6938 Y236.5772
G1 X174.6455 Y220.9014
G3 X153.4198 Y213.4788 I26.4033 J-109.5635
G1 X142.7808 Y208.5178
G1 F300.0 X143.288 Y207.4302
G1 F800.0 X132.8103 Y202.5444
G1 X124.6596 Y220.0238
G1 X267.9907 Y242.162
G1 X174.9267 Y219.7348
G3 X153.9269 Y212.3913 I26.1222 J-108.3969
G1 X143.288 Y207.4302
G1 F300.0 X143.7951 Y206.3427
G1 F800.0 X132.2299 Y200.9497
G1 X122.8963 Y220.9657
G1 X296.2876 Y247.7468
G1 X175.2078 Y218.5682
G3 X154.434 Y211.3037 I25.841 J-107.2303
G1 X143.7951 Y206.3427
G1 F300.0 X144.3023 Y205.2551
G1 F800.0 X131.6495 Y199.355
G1 X121.133 Y221.9076
G1 X324.5844 Y253.3316
G1 X175.489 Y217.4016
G3 X154.9412 Y210.2161 I25.5599 J-106.0637
G1 X144.3023 Y205.2551
G1 F300.0 X144.8094 Y204.1675
G1 F800.0 X131.0691 Y197.7603
G1 X119.3698 Y222.8495
G1 X352.8813 Y258.9164
G1 X175.7701 Y216.235
G3 X155.4483 Y209.1285 I25.2788 J-104.8971
G1 X144.8094 Y204.1675
G1 F300.0 X145.3165 Y203.08
G1 F800.0 X131.2137 Y196.5037
G2 X130.1505 Y196.8906 I-0.3381 J0.725
G1 X118.057 Y222.8254
G2 X118.6599 Y223.9541 I0.725 J0.3381
G1 X358.7187 Y261.0322
G2 X359.5796 Y260.5485 I0.1221 J-0.7906
G3 X359.6768 Y260.3401 I2.4934 J1.0358
G2 X359.1543 Y259.1937 I-0.71 J-0.3687
G1 X176.0512 Y215.0684
G3 X155.9555 Y208.041 I24.9976 J-103.7305
G1 X145.3165 Y203.08
G1 F300.0 X145.8237 Y201.9924
G1 F800.0 X131.7208 Y195.4161
G2 X129.063 Y196.3835 I-0.8452 J1.8126
G1 X116.9694 Y222.3182
G2 X118.4767 Y225.14 I1.8126 J0.8452
G1 X358.5356 Y262.2182
G2 X360.6878 Y261.0089 I0.3053 J-1.9766
G3 X360.7418 Y260.8931 I1.3852 J0.5755
G2 X359.4354 Y258.0271 I-1.775 J-0.9217
G1 X176.3324 Y213.9018
G3 X156.4626 Y206.9534 I24.7165 J-102.5639
G1 X145.8237 Y201.9924
G0 Z3.0
G0 X120.5521 Y135.3226
G1 F300.0 Z-6.0
G1 F800.0 X117.1437 Y133.7332
G1 X116.6813 Y134.7247
G1 X120.5521 Y135.3226
G1 F300.0 X120.8057 Y134.7788
G1 F800.0 X116.8535 Y132.9359
G1 X115.7997 Y135.1957
G1 X124.6218 Y136.5583
G1 X120.8057 Y134.7788
G1 F300.0 X121.3128 Y133.6913
G1 F800.0 X116.273 Y131.3412
G1 X114.0364 Y136.1376
G1 X132.7735 Y139.0316
G3 X131.9518 Y138.6523 I48.8359 J-106.8705
G1 X121.3128 Y133.6913
G1 F300.0 X121.82 Y132.6037
G1 F800.0 X115.6926 Y129.7464
G1 X112.2732 Y137.0795
G1 X142.799 Y141.7943
G3 X132.4589 Y137.5647 I38.8105 J-109.6332
G1 X121.82 Y132.6037
G1 F300.0 X122.3271 Y131.5161
G1 F800.0 X115.1122 Y128.1517
G1 X110.5099 Y138.0213
G1 X163.6606 Y146.2307
G1 X154.6438 Y144.0578
G3 X132.966 Y136.4771 I26.9656 J-111.8967
G1 X122.3271 Y131.5161
G1 F300.0 X122.8343 Y130.4285
G1 F800.0 X114.5318 Y126.557
G1 X108.7467 Y138.9632
G1 X191.9575 Y151.8155
G1 X154.925 Y142.8912
G3 X133.4732 Y135.3896 I26.6844 J-110.7301
G1 X122.8343 Y130.4285
G1 F300.0 X123.3414 Y129.341
G1 F800.0 X113.9513 Y124.9623
G1 X106.9834 Y139.9051
G1 X220.2544 Y157.4003
G1 X155.2061 Y141.7246
G3 X133.9803 Y134.302 I26.4033 J-109.5635
G1 X123.3414 Y129.341
G1 F300.0 X123.8485 Y128.2534
G1 F800.0 X113.3709 Y123.3676
G1 X105.2201 Y140.847
G1 X248.5513 Y162.9851
G1 X155.4873 Y140.558
G3 X134.4875 Y133.2144 I26.1222 J-108.3969
G1 X123.8485 Y128.2534
G1 F300.0 X124.3557 Y127.1658
G1 F800.0 X112.7905 Y121.7729
G1 X103.4569 Y141.7889
G1 X276.8481 Y168.5699
G1 X155.7684 Y139.3914
G3 X134.9946 Y132.1268 I25.841 J-107.2303
G1 X124.3557 Y127.1658
G1 F300.0 X124.8628 Y126.0783
G1 F800.0 X112.2101 Y120.1782
G1 X101.6936 Y142.7308
G1 X305.145 Y174.1547
G1 X156.0495 Y138.2248
G3 X135.5018 Y131.0393 I25.5599 J-106.0637
G1 X124.8628 Y126.0783
G1 F300.0 X125.37 Y124.9907
G1 F800.0 X111.6296 Y118.5835
G1 X99.9303 Y143.6727
G1 X333.4419 Y179.7395
G1 X156.3307 Y137.0582
G3 X136.0089 Y129.9517 I25.2788 J-104.8971
G1 X125.37 Y124.9907
G1 F300.0 X125.8771 Y123.9031
G1 F800.0 X111.7743 Y117.3269
G2 X110.7111 Y117.7138 I-0.3381 J0.725
G1 X98.6175 Y143.6485
G2 X99.2205 Y144.7772 I0.725 J0.3381
G1 X339.2793 Y181.8554
G2 X340.1402 Y181.3717 I0.1221 J-0.7906
G3 X340.2374 Y181.1633 I2.4934 J1.0358
G2 X339.7148 Y180.0169 I-0.71 J-0.3687
G1 X156.6118 Y135.8916
G3 X136.516 Y128.8641 I24.9976 J-103.7305
G1 X125.8771 Y123.9031
G1 F300.0 X126.3843 Y122.8156
G1 F800.0 X112.2814 Y116.2393
G2 X109.6235 Y117.2067 I-0.8452 J1.8126
G1 X97.53 Y143.1414
G2 X99.0373 Y145.9632 I1.8126 J0.8452
G1 X339.0961 Y183.0413
G2 X341.2484 Y181.832 I0.3053 J-1.9766
G3 X341.3024 Y181.7163 I1.3852 J0.5755
G2 X339.996 Y178.8503 I-1.775 J-0.9217
G1 X156.8929 Y134.725
G3 X137.0232 Y127.7766 I24.7165 J-102.5639
G1 X126.3843 Y122.8156
G0 Z3.0
G0 X99.9916 Y54.4994
G1 F300.0 Z-6.0
G1 F800.0 X96.5831 Y52.9101
G1 X96.1208 Y53.9016
G1 X99.9916 Y54.4994
G1 F300.0 X99.9 Y55.0924
G1 F800.0 X104.0612 Y55.7351
G1 X96.2929 Y52.1127
G1 X95.2391 Y54.3725
G1 X99.9 Y55.0924
G1 F300.0 X99.7168 Y56.2784
G1 F800.0 X112.2129 Y58.2084
G3 X111.3912 Y57.8291 I48.8359 J-106.8705
G1 X95.7125 Y50.518
G1 X93.4759 Y55.3144
G1 X99.7168 Y56.2784
G1 F300.0 X99.5336 Y57.4643
G1 F800.0 X122.2384 Y60.9711
G3 X111.8983 Y56.7415 I38.8105 J-109.6332
G1 X95.1321 Y48.9233
G1 X91.7126 Y56.2563
G1 X99.5336 Y57.4643
G1 F300.0 X99.3505 Y58.6502
G1 F800.0 X143.1001 Y65.4075
G1 X134.0833 Y63.2346
G3 X112.4055 Y55.654 I26.9656 J-111.8967
G1 X94.5516 Y47.3286
G1 X89.9493 Y57.1982
G1 X99.3505 Y58.6502
G1 F300.0 X99.1673 Y59.8362
G1 F800.0 X171.3969 Y70.9923
G1 X134.3644 Y62.068
G3 X112.9126 Y54.5664 I26.6844 J-110.7301
G1 X93.9712 Y45.7339
G1 X88.1861 Y58.1401
G1 X99.1673 Y59.8362
G1 F300.0 X98.9841 Y61.0221
G1 F800.0 X199.6938 Y76.5772
G1 X134.6455 Y60.9014
G3 X113.4198 Y53.4788 I26.4033 J-109.5635
G1 X93.3908 Y44.1392
G1 X86.4228 Y59.082
G1 X98.9841 Y61.0221
G1 F300.0 X98.8009 Y62.208
G1 F800.0 X227.9907 Y82.162
G1 X134.9267 Y59.7348
G3 X113.9269 Y52.3913 I26.1222 J-108.3969
G1 X92.8103 Y42.5444
G1 X84.6596 Y60.0238
G1 X98.8009 Y62.208
G1 F300.0 X98.6178 Y63.394
G1 F800.0 X256.2876 Y87.7468
G1 X135.2078 Y58.5682
G3 X114.434 Y51.3037 I25.841 J-107.2303
G1 X92.2299 Y40.9497
G1 X82.8963 Y60.9657
G1 X98.6178 Y63.394
G1 F300.0 X98.4346 Y64.5799
G1 F800.0 X284.5844 Y93.3316
G1 X135.489 Y57.4016
G3 X114.9412 Y50.2161 I25.5599 J-106.0637
G1 X91.6495 Y39.355
G1 X81.133 Y61.9076
G1 X98.4346 Y64.5799
G1 F300.0 X98.2514 Y65.7659
G1 F800.0 X312.8813 Y98.9164
G1 X135.7701 Y56.235
G3 X115.4483 Y49.1285 I25.2788 J-104.8971
G1 X91.0691 Y37.7603
G1 X79.3698 Y62.8495
G1 X98.2514 Y65.7659
G1 F300.0 X98.0682 Y66.9518
G1 F800.0 X318.7187 Y101.0322
G2 X319.5796 Y100.5485 I0.1221 J-0.7906
G3 X319.6768 Y100.3401 I2.4934 J1.0358
G2 X319.1543 Y99.1937 I-0.71 J-0.3687
G1 X136.0512 Y55.0684
G3 X115.9555 Y48.041 I24.9976 J-103.7305
G1 X91.2137 Y36.5037
G2 X90.1505 Y36.8906 I-0.3381 J0.725
G1 X78.057 Y62.8254
G2 X78.6599 Y63.9541 I0.725 J0.3381
G1 X98.0682 Y66.9518
G1 F300.0 X97.8851 Y68.1377
G1 F800.0 X318.5356 Y102.2182
G2 X320.6878 Y101.0089 I0.3053 J-1.9766
G3 X320.7418 Y100.8931 I1.3852 J0.5755
G2 X319.4354 Y98.0271 I-1.775 J-0.9217
G1 X136.3324 Y53.9018
G3 X116.4626 Y46.9534 I24.7165 J-102.5639
G1 X91.7208 Y35.4161
G2 X89.063 Y36.3835 I-0.8452 J1.8126
G1 X76.9694 Y62.3182
G2 X78.4767 Y65.14 I1.8126 J0.8452
G1 X97.8851 Y68.1377
( Profile3  LegB  )
S1000
G0 Z3.0
G0 X104.412 Y234.0933
G0 Z1.0
G1 F300.0 Z0.0
G2 F800.0 X102.1382 Y235.1942 Z-0.016 I-0.4612 J1.9461
G1 X80.291 Y282.0457 Z-0.3182
G3 X78.2638 Y282.755 Z-0.3322 I-1.3595 J-0.6339
G1 X69.3064 Y278.3023 Z-0.3906
G3 X68.6146 Y276.3251 Z-0.4042 I0.6677 J-1.3432
G1 X71.3609 Y270.4357 Z-0.4422
G3 X73.3543 Y269.7101 Z-0.4559 I1.3595 J0.6339
G2 X75.0448 Y266.0849 Z-0.4927 I0.8452 J-1.8126
G1 X61.4502 Y259.7456 Z-0.5803
G3 X60.7247 Y257.7523 Z-0.5941 I0.6339 J-1.3595
G1 X73.4032 Y230.563 Z-0.7695
G3 X75.3966 Y229.8375 Z-0.7833 I1.3595 J0.6339
G1 X81.7407 Y232.7958 Z-0.8242
G3 X82.4962 Y234.7205 Z-0.8375 I-0.6339 J1.3595
G1 X78.6573 Y244.157 Z-0.8971
G2 X79.6646 Y246.7233 Z-0.9148 I1.8526 J0.7537
G1 X80.1138 Y246.9327 Z-0.9177
G2 X82.7716 Y245.9654 Z-0.9361 I0.8452 J-1.8126
G1 X96.718 Y216.0572 Z-1.129
G3 X98.7114 Y215.3317 Z-1.1428 I1.3595 J0.6339
G2 X100.4019 Y211.7065 Z-1.1795 I0.8452 J-1.8126
G1 X86.8073 Y205.3672 Z-1.2672
G3 X86.0817 Y203.3738 Z-1.281 I0.6339 J-1.3595
G1 X98.7603 Y176.1846 Z-1.4563
G3 X100.7537 Y175.459 Z-1.4701 I1.3595 J0.6339
G1 X107.0978 Y178.4173 Z-1.511
G3 X107.8533 Y180.3421 Z-1.5243 I-0.6339 J1.3595
G1 X104.0144 Y189.7785 Z-1.5839
G2 X105.0217 Y192.3448 Z-1.6017 I1.8526 J0.7537
G1 X105.4709 Y192.5543 Z-1.6046
G2 X108.1287 Y191.5869 Z-1.6229 I0.8452 J-1.8126
G1 X112.3549 Y182.5238 Z-1.6814
G3 X114.3483 Y181.7983 Z-1.6952 I1.3595 J0.6339
G1 X117.0672 Y183.0662 Z-1.7127
G3 X117.7928 Y185.0595 Z-1.7265 I-0.6339 J1.3595
G2 X121.418 Y186.75 Z-1.7632 I1.8126 J0.8452
G1 X123.9537 Y181.3122 Z-1.7983
G3 X125.9471 Y180.5866 Z-1.812 I1.3595 J0.6339
G1 X161.1114 Y196.984 Z-2.0388
G2 X178.9094 Y203.2079 Z-2.1492 I39.9374 J-85.6461
G1 X368.0755 Y248.7944 Z-3.2867
G3 X373.3845 Y259.8132 Z-3.3684 I-1.8508 J7.6801
G1 X370.0202 Y267.0281 Z-3.415
G3 X358.2658 Y273.3069 Z-3.4985 I-10.06 J-4.6911
G1 X104.529 Y234.1162 Z-4.9993
G3 X104.412 Y234.0933 Z-5.0 I0.229 J-1.4824
G2 X102.1382 Y235.1942 Z-5.016 I-0.4612 J1.9461
G1 X80.291 Y282.0457 Z-5.3182
G3 X78.2638 Y282.755 Z-5.3322 I-1.3595 J-0.6339
G1 X69.3064 Y278.3023 Z-5.3906
G3 X68.6146 Y276.3251 Z-5.4042 I0.6677 J-1.3432
G1 X71.3609 Y270.4357 Z-5.4422
G3 X73.3543 Y269.7101 Z-5.4559 I1.3595 J0.6339
G2 X75.0448 Y266.0849 Z-5.4927 I0.8452 J-1.8126
G1 X61.4502 Y259.7456 Z-5.5803
G3 X60.7247 Y257.7523 Z-5.5941 I0.6339 J-1.3595
G1 X73.4032 Y230.563 Z-5.7695
G3 X75.3966 Y229.8375 Z-5.7833 I1.3595 J0.6339
G1 X81.7407 Y232.7958 Z-5.8242
G3 X82.4962 Y234.7205 Z-5.8375 I-0.6339 J1.3595
G1 X78.6573 Y244.157 Z-5.8971
G2 X79.6646 Y246.7233 Z-5.9148 I1.8526 J0.7537
G1 X80.1138 Y246.9327 Z-5.9177
G2 X82.7716 Y245.9654 Z-5.9361 I0.8452 J-1.8126
G1 X96.718 Y216.0572 Z-6.129
G3 X98.7114 Y215.3317 Z-6.1428 I1.3595 J0.6339
G2 X100.4019 Y211.7065 Z-6.1795 I0.8452 J-1.8126
G1 X86.8073 Y205.3672 Z-6.2672
G3 X86.0817 Y203.3738 Z-6.281 I0.6339 J-1.3595
G1 X98.7603 Y176.1846 Z-6.4563
G3 X100.7537 Y175.459 Z-6.4701 I1.3595 J0.6339
G1 X107.0978 Y178.4173 Z-6.511
G3 X107.8533 Y180.3421 Z-6.5243 I-0.6339 J1.3595
G1 X104.0144 Y189.7785 Z-6.5839
G2 X105.0217 Y192.3448 Z-6.6017 I1.8526 J0.7537
G1 X105.4709 Y192.5543 Z-6.6046
G2 X108.1287 Y191.5869 Z-6.6229 I0.8452 J-1.8126
G1 X112.3549 Y182.5238 Z-6.6814
G3 X114.3483 Y181.7983 Z-6.6952 I1.3595 J0.6339
G1 X117.0672 Y183.0662 Z-6.7127
G3 X117.7928 Y185.0595 Z-6.7265 I-0.6339 J1.3595
G2 X121.418 Y186.75 Z-6.7632 I1.8126 J0.8452
G1 X123.9537 Y181.3122 Z-6.7983
G3 X125.9471 Y180.5866 Z-6.812 I1.3595 J0.6339
G1 X161.1114 Y196.984 Z-7.0388
G2 X178.9094 Y203.2079 Z-7.1492 I39.9374 J-85.6461
G1 X368.0755 Y248.7944 Z-8.2867
G3 X373.3845 Y259.8132 Z-8.3684 I-1.8508 J7.6801
G1 X370.0202 Y267.0281 Z-8.415
G3 X358.2658 Y273.3069 Z-8.4985 I-10.06 J-4.6911
G1 X104.529 Y234.1162 Z-9.9993
G3 X104.412 Y234.0933 Z-10.0 I0.229 J-1.4824
G2 X102.1382 Y235.1942 Z-10.016 I-0.4612 J1.9461
G1 X80.291 Y282.0457 Z-10.3182
G3 X78.2638 Y282.755 Z-10.3322 I-1.3595 J-0.6339
G1 X69.3064 Y278.3023 Z-10.3906
G3 X68.6146 Y276.3251 Z-10.4042 I0.6677 J-1.3432
G1 X71.3609 Y270.4357 Z-10.4422
G3 X73.3543 Y269.7101 Z-10.4559 I1.3595 J0.6339
G2 X75.0448 Y266.0849 Z-10.4927 I0.8452 J-1.8126
G1 X61.4502 Y259.7456 Z-10.5803
G3 X60.7247 Y257.7523 Z-10.5941 I0.6339 J-1.3595
G1 X73.4032 Y230.563 Z-10.7695
G3 X75.3966 Y229.8375 Z-10.7833 I1.3595 J0.6339
G1 X81.7407 Y232.7958 Z-10.8242
G3 X82.4962 Y234.7205 Z-10.8375 I-0.6339 J1.3595
G1 X78.6573 Y244.157 Z-10.8971
G2 X79.6646 Y246.7233 Z-10.9148 I1.8526 J0.7537
G1 X80.1138 Y246.9327 Z-10.9177
G2 X82.7716 Y245.9654 Z-10.9361 I0.8452 J-1.8126
G1 X96.718 Y216.0572 Z-11.129
G3 X98.7114 Y215.3317 Z-11.1428 I1.3595 J0.6339
G2 X100.4019 Y211.7065 Z-11.1795 I0.8452 J-1.8126
G1 X86.8073 Y205.3672 Z-11.2672
G3 X86.0817 Y203.3738 Z-11.281 I0.6339 J-1.3595
G1 X98.7603 Y176.1846 Z-11.4563
G3 X100.7537 Y175.459 Z-11.4701 I1.3595 J0.6339
G1 X107.0978 Y178.4173 Z-11.511
G3 X107.8533 Y180.3421 Z-11.5243 I-0.6339 J1.3595
G1 X104.0144 Y189.7785 Z-11.5839
G2 X105.0217 Y192.3448 Z-11.6017 I1.8526 J0.7537
G1 X105.4709 Y192.5543 Z-11.6046
G2 X108.1287 Y191.5869 Z-11.6229 I0.8452 J-1.8126
G1 X112.3549 Y182.5238 Z-11.6814
G3 X114.3483 Y181.7983 Z-11.6952 I1.3595 J0.6339
G1 X117.0672 Y183.0662 Z-11.7127
G3 X117.7928 Y185.0595 Z-11.7265 I-0.6339 J1.3595
G2 X121.418 Y186.75 Z-11.7632 I1.8126 J0.8452
G1 X123.9537 Y181.3122 Z-11.7983
G3 X125.9471 Y180.5866 Z-11.812 I1.3595 J0.6339
G1 X161.1114 Y196.984 Z-12.0388
G2 X178.9094 Y203.2079 Z-12.1492 I39.9374 J-85.6461
G1 X368.0755 Y248.7944 Z-13.2867
G3 X373.3845 Y259.8132 Z-13.3684 I-1.8508 J7.6801
G1 X370.0202 Y267.0281 Z-13.415
G3 X358.2658 Y273.3069 Z-13.4985 I-10.06 J-4.6911
G1 X104.529 Y234.1162 Z-14.9993
G3 X104.412 Y234.0933 Z-15.0 I0.229 J-1.4824
G2 X102.1382 Y235.1942 Z-15.0096 I-0.4612 J1.9461
G1 X80.291 Y282.0457 Z-15.1909
G3 X78.2638 Y282.755 Z-15.1993 I-1.3595 J-0.6339
G1 X69.3064 Y278.3023 Z-15.2344
G3 X68.6146 Y276.3251 Z-15.2425 I0.6677 J-1.3432
G1 X69.0424 Y275.4078 Z-15.2461
G1 X69.6763 Y274.0484 Z-15.0
G1 X70.9442 Y271.3294
G1 X71.3609 Y270.4357 Z-15.1756
G3 X71.6604 Y270.0083 Z-15.2671 I1.3595 J0.6339
G3 X73.3543 Y269.7101 Z-15.2736 I1.06 J1.0613
G2 X75.0448 Y266.0849 Z-15.2956 I0.8452 J-1.8126
G1 X61.4502 Y259.7456 Z-15.3482
G3 X60.7247 Y257.7523 Z-15.3565 I0.6339 J-1.3595
G1 X73.4032 Y230.563 Z-15.4617
G3 X75.3966 Y229.8375 Z-15.47 I1.3595 J0.6339
G1 X81.7407 Y232.7958 Z-15.4945
G3 X82.4962 Y234.7205 Z-15.5025 I-0.6339 J1.3595
G1 X78.6573 Y244.157 Z-15.5382
G2 X79.6646 Y246.7233 Z-15.5489 I1.8526 J0.7537
G1 X80.1138 Y246.9327 Z-15.5506
G2 X82.7716 Y245.9654 Z-15.5617 I0.8452 J-1.8126
G1 X96.718 Y216.0572 Z-15.6774
G3 X98.7114 Y215.3317 Z-15.6857 I1.3595 J0.6339
G2 X100.4019 Y211.7065 Z-15.7077 I0.8452 J-1.8126
G1 X94.0492 Y208.7441 Z-15.7323
G1 X92.6897 Y208.1102 Z-15.0
G1 X89.9708 Y206.8423
G1 X88.6113 Y206.2084 Z-15.7533
G1 X86.8073 Y205.3672 Z-15.7603
G3 X86.0817 Y203.3738 Z-15.7686 I0.6339 J-1.3595
G1 X98.7603 Y176.1846 Z-15.8738
G3 X100.7537 Y175.459 Z-15.8821 I1.3595 J0.6339
G1 X107.0978 Y178.4173 Z-15.9066
G3 X107.8533 Y180.3421 Z-15.9146 I-0.6339 J1.3595
G1 X104.0144 Y189.7785 Z-15.9503
G2 X105.0217 Y192.3448 Z-15.961 I1.8526 J0.7537
G1 X105.4709 Y192.5543 Z-15.9627
G2 X108.1287 Y191.5869 Z-15.9738 I0.8452 J-1.8126
G1 X112.3549 Y182.5238 Z-16.0088
G3 X114.3483 Y181.7983 Z-16.0171 I1.3595 J0.6339
G1 X117.0672 Y183.0662 Z-16.0276
G3 X117.7928 Y185.0595 Z-16.0359 I-0.6339 J1.3595
G2 X121.418 Y186.75 Z-16.0579 I1.8126 J0.8452
G1 X123.9537 Y181.3122 Z-16.079
G3 X125.9471 Y180.5866 Z-16.0872 I1.3595 J0.6339
G1 X161.1114 Y196.984 Z-16.2233
G2 X166.221 Y199.1859 Z-16.2428 I39.9374 J-85.6461
G2 X167.6201 Y199.7278 Z-15.0 I34.8279 J-87.848
G2 X170.4427 Y200.7444 I33.4287 J-88.3899
G2 X171.866 Y201.219 Z-16.2639 I30.6062 J-89.4064
G2 X178.9094 Y203.2079 Z-16.2895 I29.1828 J-89.8811
G1 X302.8664 Y233.0799 Z-16.7367
G1 X304.3247 Y233.4313 Z-15.0
G1 X307.2412 Y234.1341
G1 X308.6994 Y234.4855 Z-16.7578
G1 X368.0755 Y248.7944 Z-16.972
G3 X373.3845 Y259.8132 Z-17.0211 I-1.8508 J7.6801
G1 X370.0202 Y267.0281 Z-17.049
G3 X358.2658 Y273.3069 Z-17.0991 I-10.06 J-4.6911
G1 X316.5013 Y266.8562 Z-17.2473
G1 X315.0189 Y266.6272 Z-15.0
G1 X312.054 Y266.1693
G1 X310.5716 Y265.9403 Z-17.2684
G1 X177.163 Y245.3348 Z-17.7418
G1 X175.6805 Y245.1058 Z-15.0
G1 X172.7157 Y244.6479
G1 X171.2333 Y244.4189 Z-17.7629
G1 X104.529 Y234.1162 Z-17.9996
G3 X104.412 Y234.0933 Z-18.0 I0.229 J-1.4824
G2 X102.1382 Y235.1942 I-0.4612 J1.9461
G1 X80.291 Y282.0457
G3 X78.2638 Y282.755 I-1.3595 J-0.6339
G1 X69.3064 Y278.3023
G3 X68.6146 Y276.3251 I0.6677 J-1.3432
G1 X69.0424 Y275.4078
G1 X69.6763 Y274.0484 Z-15.0
G1 X70.9442 Y271.3294
G1 X71.3609 Y270.4357 Z-16.9723
G3 X71.6604 Y270.0083 Z-18.0 I1.3595 J0.6339
G3 X73.3543 Y269.7101 I1.06 J1.0613
G2 X75.0448 Y266.0849 I0.8452 J-1.8126
G1 X61.4502 Y259.7456
G3 X60.7247 Y257.7523 I0.6339 J-1.3595
G1 X73.4032 Y230.563
G3 X75.3966 Y229.8375 I1.3595 J0.6339
G1 X81.7407 Y232.7958
G3 X82.4962 Y234.7205 I-0.6339 J1.3595
G1 X78.6573 Y244.157
G2 X79.6646 Y246.7233 I1.8526 J0.7537
G1 X80.1138 Y246.9327
G2 X82.7716 Y245.9654 I0.8452 J-1.8126
G1 X96.718 Y216.0572
G3 X98.7114 Y215.3317 I1.3595 J0.6339
G2 X100.4019 Y211.7065 I0.8452 J-1.8126
G1 X94.0492 Y208.7441
G1 X92.6897 Y208.1102 Z-15.0
G1 X89.9708 Y206.8423
G1 X88.6113 Y206.2084 Z-18.0
G1 X86.8073 Y205.3672
G3 X86.0817 Y203.3738 I0.6339 J-1.3595
G1 X98.7603 Y176.1846
G3 X100.7537 Y175.459 I1.3595 J0.6339
G1 X107.0978 Y178.4173
G3 X107.8533 Y180.3421 I-0.6339 J1.3595
G1 X104.0144 Y189.7785
G2 X105.0217 Y192.3448 I1.8526 J0.7537
G1 X105.4709 Y192.5543
G2 X108.1287 Y191.5869 I0.8452 J-1.8126
G1 X112.3549 Y182.5238
G3 X114.3483 Y181.7983 I1.3595 J0.6339
G1 X117.0672 Y183.0662
G3 X117.7928 Y185.0595 I-0.6339 J1.3595
G2 X121.418 Y186.75 I1.8126 J0.8452
G1 X123.9537 Y181.3122
G3 X125.9471 Y180.5866 I1.3595 J0.6339
G1 X161.1114 Y196.984
G2 X166.221 Y199.1859 I39.9374 J-85.6461
G2 X167.6201 Y199.7278 Z-15.0 I34.8279 J-87.848
G2 X170.4427 Y200.7444 I33.4287 J-88.3899
G2 X171.866 Y201.219 Z-18.0 I30.6062 J-89.4064
G2 X178.9094 Y203.2079 I29.1828 J-89.8811
G1 X302.8664 Y233.0799
G1 X304.3247 Y233.4313 Z-15.0
G1 X307.2412 Y234.1341
G1 X308.6994 Y234.4855 Z-18.0
G1 X368.0755 Y248.7944
G3 X373.3845 Y259.8132 I-1.8508 J7.6801
G1 X370.0202 Y267.0281
G3 X358.2658 Y273.3069 I-10.06 J-4.6911
G1 X316.5013 Y266.8562
G1 X315.0189 Y266.6272 Z-15.0
G1 X312.054 Y266.1693
G1 X310.5716 Y265.9403 Z-18.0
G1 X177.163 Y245.3348
G1 X175.6805 Y245.1058 Z-15.0
G1 X172.7157 Y244.6479
G1 X171.2333 Y244.4189 Z-18.0
G1 X104.529 Y234.1162
G3 X104.412 Y234.0933 I0.229 J-1.4824
G0 Z3.0
G0 X60.7156 Y203.1027
G0 Z1.0
G1 F300.0 Z0.0
G3 F800.0 X58.8244 Y203.5782 Z-0.0124 I-1.2235 J-0.8678
G1 X49.867 Y199.1254 Z-0.0709
G3 X49.1752 Y197.1483 Z-0.0844 I0.6677 J-1.3432
G1 X51.9215 Y191.2588 Z-0.1224
G3 X53.9149 Y190.5333 Z-0.1362 I1.3595 J0.6339
G2 X55.6054 Y186.9081 Z-0.1729 I0.8452 J-1.8126
G1 X42.0108 Y180.5688 Z-0.2606
G3 X41.2852 Y178.5754 Z-0.2744 I0.6339 J-1.3595
G1 X53.9638 Y151.3862 Z-0.4497
G3 X55.9572 Y150.6606 Z-0.4635 I1.3595 J0.6339
G1 X62.3013 Y153.619 Z-0.5044
G3 X63.0568 Y155.5437 Z-0.5178 I-0.6339 J1.3595
G1 X59.2178 Y164.9802 Z-0.5773
G2 X60.2252 Y167.5464 Z-0.5951 I1.8526 J0.7537
G1 X60.6744 Y167.7559 Z-0.598
G2 X63.3322 Y166.7885 Z-0.6164 I0.8452 J-1.8126
G1 X77.2786 Y136.8804 Z-0.8093
G3 X79.272 Y136.1548 Z-0.823 I1.3595 J0.6339
G2 X80.9625 Y132.5296 Z-0.8598 I0.8452 J-1.8126
G1 X67.3679 Y126.1903 Z-0.9474
G3 X66.6423 Y124.1969 Z-0.9612 I0.6339 J-1.3595
G1 X79.3209 Y97.0077 Z-1.1366
G3 X81.3143 Y96.2822 Z-1.1503 I1.3595 J0.6339
G1 X87.6584 Y99.2405 Z-1.1913
G3 X88.4139 Y101.1652 Z-1.2046 I-0.6339 J1.3595
G1 X84.5749 Y110.6017 Z-1.2642
G2 X85.5823 Y113.168 Z-1.2819 I1.8526 J0.7537
G1 X86.0314 Y113.3774 Z-1.2848
G2 X88.6893 Y112.4101 Z-1.3032 I0.8452 J-1.8126
G1 X92.9155 Y103.347 Z-1.3616
G3 X94.9089 Y102.6215 Z-1.3754 I1.3595 J0.6339
G1 X97.6278 Y103.8893 Z-1.393
G3 X98.3533 Y105.8827 Z-1.4067 I-0.6339 J1.3595
G2 X101.9786 Y107.5732 Z-1.4435 I1.8126 J0.8452
G1 X104.5143 Y102.1353 Z-1.4785
G3 X106.5077 Y101.4098 Z-1.4923 I1.3595 J0.6339
G1 X141.672 Y117.8072 Z-1.7191
G2 X159.47 Y124.0311 Z-1.8295 I39.9374 J-85.6461
G1 X348.6361 Y169.6175 Z-2.9669
G3 X353.9451 Y180.6363 Z-3.0487 I-1.8508 J7.6801
G1 X350.5808 Y187.8512 Z-3.0952
G3 X338.8264 Y194.1301 Z-3.1788 I-10.06 J-4.6911
G1 X85.0895 Y154.9393 Z-4.6796
G3 X84.9726 Y154.9165 Z-4.6803 I0.229 J-1.4824
G2 X82.6988 Y156.0173 Z-4.6962 I-0.4612 J1.9461
G1 X60.8516 Y202.8689 Z-4.9984
G3 X60.7156 Y203.1027 Z-5.0 I-1.3595 J-0.6339
G3 X58.8244 Y203.5782 Z-5.0124 I-1.2235 J-0.8678
G1 X49.867 Y199.1254 Z-5.0709
G3 X49.1752 Y197.1483 Z-5.0844 I0.6677 J-1.3432
G1 X51.9215 Y191.2588 Z-5.1224
G3 X53.9149 Y190.5333 Z-5.1362 I1.3595 J0.6339
G2 X55.6054 Y186.9081 Z-5.1729 I0.8452 J-1.8126
G1 X42.0108 Y180.5688 Z-5.2606
G3 X41.2852 Y178.5754 Z-5.2744 I0.6339 J-1.3595
G1 X53.9638 Y151.3862 Z-5.4497
G3 X55.9572 Y150.6606 Z-5.4635 I1.3595 J0.6339
G1 X62.3013 Y153.619 Z-5.5044
G3 X63.0568 Y155.5437 Z-5.5178 I-0.6339 J1.3595
G1 X59.2178 Y164.9802 Z-5.5773
G2 X60.2252 Y167.5464 Z-5.5951 I1.8526 J0.7537
G1 X60.6744 Y167.7559 Z-5.598
G2 X63.3322 Y166.7885 Z-5.6164 I0.8452 J-1.8126
G1 X77.2786 Y136.8804 Z-5.8093
G3 X79.272 Y136.1548 Z-5.823 I1.3595 J0.6339
G2 X80.9625 Y132.5296 Z-5.8598 I0.8452 J-1.8126
G1 X67.3679 Y126.1903 Z-5.9474
G3 X66.6423 Y124.1969 Z-5.9612 I0.6339 J-1.3595
G1 X79.3209 Y97.0077 Z-6.1366
G3 X81.3143 Y96.2822 Z-6.1503 I1.3595 J0.6339
G1 X87.6584 Y99.2405 Z-6.1913
G3 X88.4139 Y101.1652 Z-6.2046 I-0.6339 J1.3595
G1 X84.5749 Y110.6017 Z-6.2642
G2 X85.5823 Y113.168 Z-6.2819 I1.8526 J0.7537
G1 X86.0314 Y113.3774 Z-6.2848
G2 X88.6893 Y112.4101 Z-6.3032 I0.8452 J-1.8126
G1 X92.9155 Y103.347 Z-6.3616
G3 X94.9089 Y102.6215 Z-6.3754 I1.3595 J0.6339
G1 X97.6278 Y103.8893 Z-6.393
G3 X98.3533 Y105.8827 Z-6.4067 I-0.6339 J1.3595
G2 X101.9786 Y107.5732 Z-6.4435 I1.8126 J0.8452
G1 X104.5143 Y102.1353 Z-6.4785
G3 X106.5077 Y101.4098 Z-6.4923 I1.3595 J0.6339
G1 X141.672 Y117.8072 Z-6.7191
G2 X159.47 Y124.0311 Z-6.8295 I39.9374 J-85.6461
G1 X348.6361 Y169.6175 Z-7.9669
G3 X353.9451 Y180.6363 Z-8.0487 I-1.8508 J7.6801
G1 X350.5808 Y187.8512 Z-8.0952
G3 X338.8264 Y194.1301 Z-8.1788 I-10.06 J-4.6911
G1 X85.0895 Y154.9393 Z-9.6796
G3 X84.9726 Y154.9165 Z-9.6803 I0.229 J-1.4824
G2 X82.6988 Y156.0173 Z-9.6962 I-0.4612 J1.9461
G1 X60.8516 Y202.8689 Z-9.9984
G3 X60.7156 Y203.1027 Z-10.0 I-1.3595 J-0.6339
G3 X58.8244 Y203.5782 Z-10.0124 I-1.2235 J-0.8678
G1 X49.867 Y199.1254 Z-10.0709
G3 X49.1752 Y197.1483 Z-10.0844 I0.6677 J-1.3432
G1 X51.9215 Y191.2588 Z-10.1224
G3 X53.9149 Y190.5333 Z-10.1362 I1.3595 J0.6339
G2 X55.6054 Y186.9081 Z-10.1729 I0.8452 J-1.8126
G1 X42.0108 Y180.5688 Z-10.2606
G3 X41.2852 Y178.5754 Z-10.2744 I0.6339 J-1.3595
G1 X53.9638 Y151.3862 Z-10.4497
G3 X55.9572 Y150.6606 Z-10.4635 I1.3595 J0.6339
G1 X62.3013 Y153.619 Z-10.5044
G3 X63.0568 Y155.5437 Z-10.5178 I-0.6339 J1.3595
G1 X59.2178 Y164.9802 Z-10.5773
G2 X60.2252 Y167.5464 Z-10.5951 I1.8526 J0.7537
G1 X60.6744 Y167.7559 Z-10.598
G2 X63.3322 Y166.7885 Z-10.6164 I0.8452 J-1.8126
G1 X77.2786 Y136.8804 Z-10.8093
G3 X79.272 Y136.1548 Z-10.823 I1.3595 J0.6339
G2 X80.9625 Y132.5296 Z-10.8598 I0.8452 J-1.8126
G1 X67.3679 Y126.1903 Z-10.9474
G3 X66.6423 Y124.1969 Z-10.9612 I0.6339 J-1.3595
G1 X79.3209 Y97.0077 Z-11.1366
G3 X81.3143 Y96.2822 Z-11.1503 I1.3595 J0.6339
G1 X87.6584 Y99.2405 Z-11.1913
G3 X88.4139 Y101.1652 Z-11.2046 I-0.6339 J1.3595
G1 X84.5749 Y110.6017 Z-11.2642
G2 X85.5823 Y113.168 Z-11.2819 I1.8526 J0.7537
G1 X86.0314 Y113.3774 Z-11.2848
G2 X88.6893 Y112.4101 Z-11.3032 I0.8452 J-1.8126
G1 X92.9155 Y103.347 Z-11.3616
G3 X94.9089 Y102.6215 Z-11.3754 I1.3595 J0.6339
G1 X97.6278 Y103.8893 Z-11.393
G3 X98.3533 Y105.8827 Z-11.4067 I-0.6339 J1.3595
G2 X101.9786 Y107.5732 Z-11.4435 I1.8126 J0.8452
G1 X104.5143 Y102.1353 Z-11.4785
G3 X106.5077 Y101.4098 Z-11.4923 I1.3595 J0.6339
G1 X141.672 Y117.8072 Z-11.7191
G2 X159.47 Y124.0311 Z-11.8295 I39.9374 J-85.6461
G1 X348.6361 Y169.6175 Z-12.9669
G3 X353.9451 Y180.6363 Z-13.0487 I-1.8508 J7.6801
G1 X350.5808 Y187.8512 Z-13.0952
G3 X338.8264 Y194.1301 Z-13.1788 I-10.06 J-4.6911
G1 X85.0895 Y154.9393 Z-14.6796
G3 X84.9726 Y154.9165 Z-14.6803 I0.229 J-1.4824
G2 X82.6988 Y156.0173 Z-14.6962 I-0.4612 J1.9461
G1 X60.8516 Y202.8689 Z-14.9984
G3 X60.7156 Y203.1027 Z-15.0 I-1.3595 J-0.6339
G3 X58.8244 Y203.5782 Z-15.0074 I-1.2235 J-0.8678
G1 X49.867 Y199.1254 Z-15.0425
G3 X49.1752 Y197.1483 Z-15.0507 I0.6677 J-1.3432
G1 X49.603 Y196.231 Z-15.0542
G1 X50.2369 Y194.8715 Z-15.0
G1 X51.5047 Y192.1526
G1 X51.9215 Y191.2588 Z-15.0495
G3 X52.2209 Y190.8315 Z-15.0753 I1.3595 J0.6339
G3 X53.9149 Y190.5333 Z-15.0817 I1.06 J1.0613
G2 X55.6054 Y186.9081 Z-15.1038 I0.8452 J-1.8126
G1 X42.0108 Y180.5688 Z-15.1564
G3 X41.2852 Y178.5754 Z-15.1646 I0.6339 J-1.3595
G1 X53.9638 Y151.3862 Z-15.2698
G3 X55.9572 Y150.6606 Z-15.2781 I1.3595 J0.6339
G1 X62.3013 Y153.619 Z-15.3027
G3 X63.0568 Y155.5437 Z-15.3107 I-0.6339 J1.3595
G1 X59.2178 Y164.9802 Z-15.3464
G2 X60.2252 Y167.5464 Z-15.3571 I1.8526 J0.7537
G1 X60.6744 Y167.7559 Z-15.3588
G2 X63.3322 Y166.7885 Z-15.3698 I0.8452 J-1.8126
G1 X77.2786 Y136.8804 Z-15.4856
G3 X79.272 Y136.1548 Z-15.4938 I1.3595 J0.6339
G2 X80.9625 Y132.5296 Z-15.5159 I0.8452 J-1.8126
G1 X74.6097 Y129.5673 Z-15.5404
G1 X73.2503 Y128.9334 Z-15.0
G1 X70.5314 Y127.6655
G1 X69.1719 Y127.0316 Z-15.5615
G1 X67.3679 Y126.1903 Z-15.5685
G3 X66.6423 Y124.1969 Z-15.5767 I0.6339 J-1.3595
G1 X79.3209 Y97.0077 Z-15.6819
G3 X81.3143 Y96.2822 Z-15.6902 I1.3595 J0.6339
G1 X87.6584 Y99.2405 Z-15.7148
G3 X88.4139 Y101.1652 Z-15.7228 I-0.6339 J1.3595
G1 X84.5749 Y110.6017 Z-15.7585
G2 X85.5823 Y113.168 Z-15.7692 I1.8526 J0.7537
G1 X86.0314 Y113.3774 Z-15.7709
G2 X88.6893 Y112.4101 Z-15.7819 I0.8452 J-1.8126
G1 X92.9155 Y103.347 Z-15.817
G3 X94.9089 Y102.6215 Z-15.8253 I1.3595 J0.6339
G1 X97.6278 Y103.8893 Z-15.8358
G3 X98.3533 Y105.8827 Z-15.844 I-0.6339 J1.3595
G2 X101.9786 Y107.5732 Z-15.8661 I1.8126 J0.8452
G1 X104.5143 Y102.1353 Z-15.8871
G3 X106.5077 Y101.4098 Z-15.8954 I1.3595 J0.6339
G1 X141.672 Y117.8072 Z-16.0315
G2 X146.7815 Y120.0091 Z-16.051 I39.9374 J-85.6461
G2 X148.1807 Y120.551 Z-15.0 I34.8279 J-87.848
G2 X151.0032 Y121.5675 I33.4287 J-88.3899
G2 X152.4266 Y122.0422 Z-16.072 I30.6062 J-89.4064
G2 X159.47 Y124.0311 Z-16.0977 I29.1828 J-89.8811
G1 X283.427 Y153.903 Z-16.5449
G1 X284.8852 Y154.2544 Z-15.0
G1 X287.8017 Y154.9573
G1 X289.26 Y155.3087 Z-16.5659
G1 X348.6361 Y169.6175 Z-16.7801
G3 X353.9451 Y180.6363 Z-16.8292 I-1.8508 J7.6801
G1 X350.5808 Y187.8512 Z-16.8571
G3 X338.8264 Y194.1301 Z-16.9073 I-10.06 J-4.6911
G1 X297.0618 Y187.6794 Z-17.0555
G1 X295.5794 Y187.4504 Z-15.0
G1 X292.6146 Y186.9925
G1 X291.1322 Y186.7635 Z-17.0765
G1 X157.7235 Y166.158 Z-17.55
G1 X156.2411 Y165.929 Z-15.0
G1 X153.2763 Y165.4711
G1 X151.7938 Y165.2421 Z-17.571
G1 X85.0895 Y154.9393 Z-17.8077
G3 X84.9726 Y154.9165 Z-17.8082 I0.229 J-1.4824
G2 X82.6988 Y156.0173 Z-17.8177 I-0.4612 J1.9461
G1 X60.8516 Y202.8689 Z-17.9991
G3 X60.7156 Y203.1027 Z-18.0 I-1.3595 J-0.6339
G3 X58.8244 Y203.5782 I-1.2235 J-0.8678
G1 X49.867 Y199.1254
G3 X49.1752 Y197.1483 I0.6677 J-1.3432
G1 X49.603 Y196.231
G1 X50.2369 Y194.8715 Z-15.0
G1 X51.5047 Y192.1526
G1 X51.9215 Y191.2588 Z-16.9723
G3 X52.2209 Y190.8315 Z-18.0 I1.3595 J0.6339
G3 X53.9149 Y190.5333 I1.06 J1.0613
G2 X55.6054 Y186.9081 I0.8452 J-1.8126
G1 X42.0108 Y180.5688
G3 X41.2852 Y178.5754 I0.6339 J-1.3595
G1 X53.9638 Y151.3862
G3 X55.9572 Y150.6606 I1.3595 J0.6339
G1 X62.3013 Y153.619
G3 X63.0568 Y155.5437 I-0.6339 J1.3595
G1 X59.2178 Y164.9802
G2 X60.2252 Y167.5464 I1.8526 J0.7537
G1 X60.6744 Y167.7559
G2 X63.3322 Y166.7885 I0.8452 J-1.8126
G1 X77.2786 Y136.8804
G3 X79.272 Y136.1548 I1.3595 J0.6339
G2 X80.9625 Y132.5296 I0.8452 J-1.8126
G1 X74.6097 Y129.5673
G1 X73.2503 Y128.9334 Z-15.0
G1 X70.5314 Y127.6655
G1 X69.1719 Y127.0316 Z-18.0
G1 X67.3679 Y126.1903
G3 X66.6423 Y124.1969 I0.6339 J-1.3595
G1 X79.3209 Y97.0077
G3 X81.3143 Y96.2822 I1.3595 J0.6339
G1 X87.6584 Y99.2405
G3 X88.4139 Y101.1652 I-0.6339 J1.3595
G1 X84.5749 Y110.6017
G2 X85.5823 Y113.168 I1.8526 J0.7537
G1 X86.0314 Y113.3774
G2 X88.6893 Y112.4101 I0.8452 J-1.8126
G1 X92.9155 Y103.347
G3 X94.9089 Y102.6215 I1.3595 J0.6339
G1 X97.6278 Y103.8893
G3 X98.3533 Y105.8827 I-0.6339 J1.3595
G2 X101.9786 Y107.5732 I1.8126 J0.8452
G1 X104.5143 Y102.1353
G3 X106.5077 Y101.4098 I1.3595 J0.6339
G1 X141.672 Y117.8072
G2 X146.7815 Y120.0091 I39.9374 J-85.6461
G2 X148.1807 Y120.551 Z-15.0 I34.8279 J-87.848
G2 X151.0032 Y121.5675 I33.4287 J-88.3899
G2 X152.4266 Y122.0422 Z-18.0 I30.6062 J-89.4064
G2 X159.47 Y124.0311 I29.1828 J-89.8811
G1 X283.427 Y153.903
G1 X284.8852 Y154.2544 Z-15.0
G1 X287.8017 Y154.9573
G1 X289.26 Y155.3087 Z-18.0
G1 X348.6361 Y169.6175
G3 X353.9451 Y180.6363 I-1.8508 J7.6801
G1 X350.5808 Y187.8512
G3 X338.8264 Y194.1301 I-10.06 J-4.6911
G1 X297.0618 Y187.6794
G1 X295.5794 Y187.4504 Z-15.0
G1 X292.6146 Y186.9925
G1 X291.1322 Y186.7635 Z-18.0
G1 X157.7235 Y166.158
G1 X156.2411 Y165.929 Z-15.0
G1 X153.2763 Y165.4711
G1 X151.7938 Y165.2421 Z-18.0
G1 X85.0895 Y154.9393
G3 X84.9726 Y154.9165 I0.229 J-1.4824
G2 X82.6988 Y156.0173 I-0.4612 J1.9461
G1 X60.8516 Y202.8689
G3 X60.7156 Y203.1027 I-1.3595 J-0.6339
G0 Z3.0
G0 X39.318 Y122.8612
G0 Z1.0
G1 F300.0 Z0.0
G3 F800.0 X38.2638 Y122.755 Z-0.0063 I-0.3865 J-1.4494
G1 X29.3064 Y118.3023 Z-0.0648
G3 X28.6146 Y116.3251 Z-0.0784 I0.6677 J-1.3432
G1 X31.3609 Y110.4357 Z-0.1163
G3 X33.3543 Y109.7101 Z-0.1301 I1.3595 J0.6339
G2 X35.0448 Y106.0849 Z-0.1668 I0.8452 J-1.8126
G1 X21.4502 Y99.7456 Z-0.2545
G3 X20.7247 Y97.7523 Z-0.2683 I0.6339 J-1.3595
G1 X33.4032 Y70.563 Z-0.4437
G3 X35.3966 Y69.8375 Z-0.4574 I1.3595 J0.6339
G1 X41.7407 Y72.7958 Z-0.4984
G3 X42.4962 Y74.7205 Z-0.5117 I-0.6339 J1.3595
G1 X38.6573 Y84.157 Z-0.5712
G2 X39.6646 Y86.7233 Z-0.589 I1.8526 J0.7537
G1 X40.1138 Y86.9327 Z-0.5919
G2 X42.7716 Y85.9654 Z-0.6103 I0.8452 J-1.8126
G1 X56.718 Y56.0572 Z-0.8032
G3 X58.7114 Y55.3317 Z-0.8169 I1.3595 J0.6339
G2 X60.4019 Y51.7065 Z-0.8537 I0.8452 J-1.8126
G1 X46.8073 Y45.3672 Z-0.9414
G3 X46.0817 Y43.3738 Z-0.9551 I0.6339 J-1.3595
G1 X58.7603 Y16.1846 Z-1.1305
G3 X60.7537 Y15.459 Z-1.1443 I1.3595 J0.6339
G1 X67.0978 Y18.4173 Z-1.1852
G3 X67.8533 Y20.3421 Z-1.1985 I-0.6339 J1.3595
G1 X64.0144 Y29.7785 Z-1.2581
G2 X65.0217 Y32.3448 Z-1.2759 I1.8526 J0.7537
G1 X65.4709 Y32.5543 Z-1.2787
G2 X68.1287 Y31.5869 Z-1.2971 I0.8452 J-1.8126
G1 X72.3549 Y22.5238 Z-1.3556
G3 X74.3483 Y21.7983 Z-1.3693 I1.3595 J0.6339
G1 X77.0672 Y23.0662 Z-1.3869
G3 X77.7928 Y25.0595 Z-1.4006 I-0.6339 J1.3595
G2 X81.418 Y26.75 Z-1.4374 I1.8126 J0.8452
G1 X83.9537 Y21.3122 Z-1.4725
G3 X85.9471 Y20.5866 Z-1.4862 I1.3595 J0.6339
G1 X121.1114 Y36.984 Z-1.713
G2 X138.9094 Y43.2079 Z-1.8234 I39.9374 J-85.6461
G1 X328.0755 Y88.7944 Z-2.9608
G3 X333.3845 Y99.8132 Z-3.0426 I-1.8508 J7.6801
G1 X330.0202 Y107.0281 Z-3.0891
G3 X318.2658 Y113.3069 Z-3.1727 I-10.06 J-4.6911
G1 X64.529 Y74.1162 Z-4.6735
G3 X64.412 Y74.0933 Z-4.6742 I0.229 J-1.4824
G2 X62.1382 Y75.1942 Z-4.6902 I-0.4612 J1.9461
G1 X40.291 Y122.0457 Z-4.9923
G3 X39.318 Y122.8612 Z-5.0 I-1.3595 J-0.6339
G3 X38.2638 Y122.755 Z-5.0063 I-0.3865 J-1.4494
G1 X29.3064 Y118.3023 Z-5.0648
G3 X28.6146 Y116.3251 Z-5.0784 I0.6677 J-1.3432
G1 X31.3609 Y110.4357 Z-5.1163
G3 X33.3543 Y109.7101 Z-5.1301 I1.3595 J0.6339
G2 X35.0448 Y106.0849 Z-5.1668 I0.8452 J-1.8126
G1 X21.4502 Y99.7456 Z-5.2545
G3 X20.7247 Y97.7523 Z-5.2683 I0.6339 J-1.3595
G1 X33.4032 Y70.563 Z-5.4437
G3 X35.3966 Y69.8375 Z-5.4574 I1.3595 J0.6339
G1 X41.7407 Y72.7958 Z-5.4984
G3 X42.4962 Y74.7205 Z-5.5117 I-0.6339 J1.3595
G1 X38.6573 Y84.157 Z-5.5712
G2 X39.6646 Y86.7233 Z-5.589 I1.8526 J0.7537
G1 X40.1138 Y86.9327 Z-5.5919
G2 X42.7716 Y85.9654 Z-5.6103 I0.8452 J-1.8126
G1 X56.718 Y56.0572 Z-5.8032
G3 X58.7114 Y55.3317 Z-5.8169 I1.3595 J0.6339
G2 X60.4019 Y51.7065 Z-5.8537 I0.8452 J-1.8126
G1 X46.8073 Y45.3672 Z-5.9414
G3 X46.0817 Y43.3738 Z-5.9551 I0.6339 J-1.3595
G1 X58.7603 Y16.1846 Z-6.1305
G3 X60.7537 Y15.459 Z-6.1443 I1.3595 J0.6339
G1 X67.0978 Y18.4173 Z-6.1852
G3 X67.8533 Y20.3421 Z-6.1985 I-0.6339 J1.3595
G1 X64.0144 Y29.7785 Z-6.2581
G2 X65.0217 Y32.3448 Z-6.2759 I1.8526 J0.7537
G1 X65.4709 Y32.5543 Z-6.2787
G2 X68.1287 Y31.5869 Z-6.2971 I0.8452 J-1.8126
G1 X72.3549 Y22.5238 Z-6.3556
G3 X74.3483 Y21.7983 Z-6.3693 I1.3595 J0.6339
G1 X77.0672 Y23.0662 Z-6.3869
G3 X77.7928 Y25.0595 Z-6.4006 I-0.6339 J1.3595
G2 X81.418 Y26.75 Z-6.4374 I1.8126 J0.8452
G1 X83.9537 Y21.3122 Z-6.4725
G3 X85.9471 Y20.5866 Z-6.4862 I1.3595 J0.6339
G1 X121.1114 Y36.984 Z-6.713
G2 X138.9094 Y43.2079 Z-6.8234 I39.9374 J-85.6461
G1 X328.0755 Y88.7944 Z-7.9608
G3 X333.3845 Y99.8132 Z-8.0426 I-1.8508 J7.6801
G1 X330.0202 Y107.0281 Z-8.0891
G3 X318.2658 Y113.3069 Z-8.1727 I-10.06 J-4.6911
G1 X64.529 Y74.1162 Z-9.6735
G3 X64.412 Y74.0933 Z-9.6742 I0.229 J-1.4824
G2 X62.1382 Y75.1942 Z-9.6902 I-0.4612 J1.9461
G1 X40.291 Y122.0457 Z-9.9923
G3 X39.318 Y122.8612 Z-10.0 I-1.3595 J-0.6339
G3 X38.2638 Y122.755 Z-10.0063 I-0.3865 J-1.4494
G1 X29.3064 Y118.3023 Z-10.0648
G3 X28.6146 Y116.3251 Z-10.0784 I0.6677 J-1.3432
G1 X31.3609 Y110.4357 Z-10.1163
G3 X33.3543 Y109.7101 Z-10.1301 I1.3595 J0.6339
G2 X35.0448 Y106.0849 Z-10.1668 I0.8452 J-1.8126
G1 X21.4502 Y99.7456 Z-10.2545
G3 X20.7247 Y97.7523 Z-10.2683 I0.6339 J-1.3595
G1 X33.4032 Y70.563 Z-10.4437
G3 X35.3966 Y69.8375 Z-10.4574 I1.3595 J0.6339
G1 X41.7407 Y72.7958 Z-10.4984
G3 X42.4962 Y74.7205 Z-10.5117 I-0.6339 J1.3595
G1 X38.6573 Y84.157 Z-10.5712
G2 X39.6646 Y86.7233 Z-10.589 I1.8526 J0.7537
G1 X40.1138 Y86.9327 Z-10.5919
G2 X42.7716 Y85.9654 Z-10.6103 I0.8452 J-1.8126
G1 X56.718 Y56.0572 Z-10.8032
G3 X58.7114 Y55.3317 Z-10.8169 I1.3595 J0.6339
G2 X60.4019 Y51.7065 Z-10.8537 I0.8452 J-1.8126
G1 X46.8073 Y45.3672 Z-10.9414
G3 X46.0817 Y43.3738 Z-10.9551 I0.6339 J-1.3595
G1 X58.7603 Y16.1846 Z-11.1305
G3 X60.7537 Y15.459 Z-11.1443 I1.3595 J0.6339
G1 X67.0978 Y18.4173 Z-11.1852
G3 X67.8533 Y20.3421 Z-11.1985 I-0.6339 J1.3595
G1 X64.0144 Y29.7785 Z-11.2581
G2 X65.0217 Y32.3448 Z-11.2759 I1.8526 J0.7537
G1 X65.4709 Y32.5543 Z-11.2787
G2 X68.1287 Y31.5869 Z-11.2971 I0.8452 J-1.8126
G1 X72.3549 Y22.5238 Z-11.3556
G3 X74.3483 Y21.7983 Z-11.3693 I1.3595 J0.6339
G1 X77.0672 Y23.0662 Z-11.3869
G3 X77.7928 Y25.0595 Z-11.4006 I-0.6339 J1.3595
G2 X81.418 Y26.75 Z-11.4374 I1.8126 J0.8452
G1 X83.9537 Y21.3122 Z-11.4725
G3 X85.9471 Y20.5866 Z-11.4862 I1.3595 J0.6339
G1 X121.1114 Y36.984 Z-11.713
G2 X138.9094 Y43.2079 Z-11.8234 I39.9374 J-85.6461
G1 X328.0755 Y88.7944 Z-12.9608
G3 X333.3845 Y99.8132 Z-13.0426 I-1.8508 J7.6801
G1 X330.0202 Y107.0281 Z-13.0891
