( Made using CamBam - http://www.cambam.co.uk )
( BedCleaning 10/31/2015 2:49:00 PM )
( T7 : 19.05 )
G21 G90 G64 G40
G0 Z3.0
( T7 : 19.05 )
T7 M6
( Pocket1 )
G17
M3 S1000
G0 X161.925 Y161.925
G0 Z1.0
G1 F300.0 Z0.0
G1 F800.0 Y168.075 Z-0.0086
G1 X298.075 Z-0.2
G1 Y161.925 Z-0.2086
G1 X161.925 Z-0.4
G1 Y168.075
G1 X298.075
G1 Y161.925
G1 X161.925
G1 F300.0 Y154.305
G1 F800.0 X154.305
G1 Y175.695
G1 X305.695
G1 Y154.305
G1 X161.925
G1 F300.0 Y146.685
G1 F800.0 X146.685
G1 Y183.315
G1 X313.315
G1 Y146.685
G1 X161.925
G1 F300.0 Y139.065
G1 F800.0 X139.065
G1 Y190.935
G1 X320.935
G1 Y139.065
G1 X161.925
G1 F300.0 Y131.445
G1 F800.0 X131.445
G1 Y198.555
G1 X328.555
G1 Y131.445
G1 X161.925
G1 F300.0 Y123.825
G1 F800.0 X123.825
G1 Y206.175
G1 X336.175
G1 Y123.825
G1 X161.925
G1 F300.0 Y116.205
G1 F800.0 X116.205
G1 Y213.795
G1 X343.795
G1 Y116.205
G1 X161.925
G1 F300.0 Y108.585
G1 F800.0 X108.585
G1 Y221.415
G1 X351.415
G1 Y108.585
G1 X161.925
G1 F300.0 Y100.965
G1 F800.0 X100.965
G1 Y229.035
G1 X359.035
G1 Y100.965
G1 X161.925
G1 F300.0 Y93.345
G1 F800.0 X93.345
G1 Y236.655
G1 X366.655
G1 Y93.345
G1 X161.925
G1 F300.0 Y85.725
G1 F800.0 X85.725
G1 Y244.275
G1 X374.275
G1 Y85.725
G1 X161.925
G1 F300.0 Y78.105
G1 F800.0 X78.105
G1 Y251.895
G1 X381.895
G1 Y78.105
G1 X161.925
G1 F300.0 Y70.485
G1 F800.0 X70.485
G1 Y259.515
G1 X389.515
G1 Y70.485
G1 X161.925
G1 F300.0 Y62.865
G1 F800.0 X62.865
G1 Y267.135
G1 X397.135
G1 Y62.865
G1 X161.925
G1 F300.0 Y55.245
G1 F800.0 X55.245
G1 Y274.755
G1 X404.755
G1 Y55.245
G1 X161.925
G1 F300.0 Y47.625
G1 F800.0 X47.625
G1 Y282.375
G1 X412.375
G1 Y47.625
G1 X161.925
G1 F300.0 Y40.005
G1 F800.0 X40.005
G1 Y289.995
G1 X419.995
G1 Y40.005
G1 X161.925
G1 F300.0 Y32.385
G1 F800.0 X32.385
G1 Y297.615
G1 X427.615
G1 Y32.385
G1 X161.925
G1 F300.0 Y24.765
G1 F800.0 X24.765
G1 Y305.235
G1 X435.235
G1 Y24.765
G1 X161.925
G1 F300.0 Y17.145
G1 F800.0 X17.145
G1 Y312.855
G1 X442.855
G1 Y17.145
G1 X161.925
G1 F300.0 Y9.525
G1 F800.0 X9.525
G1 Y320.475
G1 X450.475
G1 Y9.525
G1 X161.925
G0 Z3.0
M5
M30
