( Made using CamBam - http://www.cambam.co.uk )
( BedCleaning 10/18/2015 9:54:03 AM )
( T6 : 1.25 )
G21 G90 G64 G40
G0 Z3.0
( T6 : 1.25 )
T6 M6
( Pocket1 )
G17
M3 S1000
G0 X164.875 Y164.875
G0 Z1.0
G1 F300.0 Z0.0
G1 F800.0 Y165.125 Z-0.0004
G1 X295.125 Z-0.2
G1 Y164.875 Z-0.2004
G1 X164.875 Z-0.4
G1 Y165.125
G1 X295.125
G1 Y164.875
G1 X164.875
G1 F300.0 X164.625
G1 F800.0 Y165.375
G1 X295.375
G1 Y164.625
G1 X164.625
G1 Y164.875
G1 F300.0 X164.125
G1 F800.0 Y165.875
G1 X295.875
G1 Y164.125
G1 X164.125
G1 Y164.875
G1 F300.0 X163.625
G1 F800.0 Y166.375
G1 X296.375
G1 Y163.625
G1 X163.625
G1 Y164.875
G1 F300.0 X163.125
G1 F800.0 Y166.875
G1 X296.875
G1 Y163.125
G1 X163.125
G1 Y164.875
G1 F300.0 X162.625
G1 F800.0 Y167.375
G1 X297.375
G1 Y162.625
G1 X162.625
G1 Y164.875
G1 F300.0 X162.125
G1 F800.0 Y167.875
G1 X297.875
G1 Y162.125
G1 X162.125
G1 Y164.875
G1 F300.0 X161.625
G1 F800.0 Y168.375
G1 X298.375
G1 Y161.625
G1 X161.625
G1 Y164.875
G1 F300.0 X161.125
G1 F800.0 Y168.875
G1 X298.875
G1 Y161.125
G1 X161.125
G1 Y164.875
G1 F300.0 X160.625
G1 F800.0 Y169.375
G1 X299.375
G1 Y160.625
G1 X160.625
G1 Y164.875
G1 F300.0 X160.125
G1 F800.0 Y169.875
G1 X299.875
G1 Y160.125
G1 X160.125
G1 Y164.875
G1 F300.0 X159.625
G1 F800.0 Y170.375
G1 X300.375
G1 Y159.625
G1 X159.625
G1 Y164.875
G1 F300.0 X159.125
G1 F800.0 Y170.875
G1 X300.875
G1 Y159.125
G1 X159.125
G1 Y164.875
G1 F300.0 X158.625
G1 F800.0 Y171.375
G1 X301.375
G1 Y158.625
G1 X158.625
G1 Y164.875
G1 F300.0 X158.125
G1 F800.0 Y171.875
G1 X301.875
G1 Y158.125
G1 X158.125
G1 Y164.875
G1 F300.0 X157.625
G1 F800.0 Y172.375
G1 X302.375
G1 Y157.625
G1 X157.625
G1 Y164.875
G1 F300.0 X157.125
G1 F800.0 Y172.875
G1 X302.875
G1 Y157.125
G1 X157.125
G1 Y164.875
G1 F300.0 X156.625
G1 F800.0 Y173.375
G1 X303.375
G1 Y156.625
G1 X156.625
G1 Y164.875
G1 F300.0 X156.125
G1 F800.0 Y173.875
G1 X303.875
G1 Y156.125
G1 X156.125
G1 Y164.875
G1 F300.0 X155.625
G1 F800.0 Y174.375
G1 X304.375
G1 Y155.625
G1 X155.625
G1 Y164.875
G1 F300.0 X155.125
G1 F800.0 Y174.875
G1 X304.875
G1 Y155.125
G1 X155.125
G1 Y164.875
G1 F300.0 X154.625
G1 F800.0 Y175.375
G1 X305.375
G1 Y154.625
G1 X154.625
G1 Y164.875
G1 F300.0 X154.125
G1 F800.0 Y175.875
G1 X305.875
G1 Y154.125
G1 X154.125
G1 Y164.875
G1 F300.0 X153.625
G1 F800.0 Y176.375
G1 X306.375
G1 Y153.625
G1 X153.625
G1 Y164.875
G1 F300.0 X153.125
G1 F800.0 Y176.875
G1 X306.875
G1 Y153.125
G1 X153.125
G1 Y164.875
G1 F300.0 X152.625
G1 F800.0 Y177.375
G1 X307.375
G1 Y152.625
G1 X152.625
G1 Y164.875
G1 F300.0 X152.125
G1 F800.0 Y177.875
G1 X307.875
G1 Y152.125
G1 X152.125
G1 Y164.875
G1 F300.0 X151.625
G1 F800.0 Y178.375
G1 X308.375
G1 Y151.625
G1 X151.625
G1 Y164.875
G1 F300.0 X151.125
G1 F800.0 Y178.875
G1 X308.875
G1 Y151.125
G1 X151.125
G1 Y164.875
G1 F300.0 X150.625
G1 F800.0 Y179.375
G1 X309.375
G1 Y150.625
G1 X150.625
G1 Y164.875
G1 F300.0 X150.125
G1 F800.0 Y179.875
G1 X309.875
G1 Y150.125
G1 X150.125
G1 Y164.875
G1 F300.0 X149.625
G1 F800.0 Y180.375
G1 X310.375
G1 Y149.625
G1 X149.625
G1 Y164.875
G1 F300.0 X149.125
G1 F800.0 Y180.875
G1 X310.875
G1 Y149.125
G1 X149.125
G1 Y164.875
G1 F300.0 X148.625
G1 F800.0 Y181.375
G1 X311.375
G1 Y148.625
G1 X148.625
G1 Y164.875
G1 F300.0 X148.125
G1 F800.0 Y181.875
G1 X311.875
G1 Y148.125
G1 X148.125
G1 Y164.875
G1 F300.0 X147.625
G1 F800.0 Y182.375
G1 X312.375
G1 Y147.625
G1 X147.625
G1 Y164.875
G1 F300.0 X147.125
G1 F800.0 Y182.875
G1 X312.875
G1 Y147.125
G1 X147.125
G1 Y164.875
G1 F300.0 X146.625
G1 F800.0 Y183.375
G1 X313.375
G1 Y146.625
G1 X146.625
G1 Y164.875
G1 F300.0 X146.125
G1 F800.0 Y183.875
G1 X313.875
G1 Y146.125
G1 X146.125
G1 Y164.875
G1 F300.0 X145.625
G1 F800.0 Y184.375
G1 X314.375
G1 Y145.625
G1 X145.625
G1 Y164.875
G1 F300.0 X145.125
G1 F800.0 Y184.875
G1 X314.875
G1 Y145.125
G1 X145.125
G1 Y164.875
G1 F300.0 X144.625
G1 F800.0 Y185.375
G1 X315.375
G1 Y144.625
G1 X144.625
G1 Y164.875
G1 F300.0 X144.125
G1 F800.0 Y185.875
G1 X315.875
G1 Y144.125
G1 X144.125
G1 Y164.875
G1 F300.0 X143.625
G1 F800.0 Y186.375
G1 X316.375
G1 Y143.625
G1 X143.625
G1 Y164.875
G1 F300.0 X143.125
G1 F800.0 Y186.875
G1 X316.875
G1 Y143.125
G1 X143.125
G1 Y164.875
G1 F300.0 X142.625
G1 F800.0 Y187.375
G1 X317.375
G1 Y142.625
G1 X142.625
G1 Y164.875
G1 F300.0 X142.125
G1 F800.0 Y187.875
G1 X317.875
G1 Y142.125
G1 X142.125
G1 Y164.875
G1 F300.0 X141.625
G1 F800.0 Y188.375
G1 X318.375
G1 Y141.625
G1 X141.625
G1 Y164.875
G1 F300.0 X141.125
G1 F800.0 Y188.875
G1 X318.875
G1 Y141.125
G1 X141.125
G1 Y164.875
G1 F300.0 X140.625
G1 F800.0 Y189.375
G1 X319.375
G1 Y140.625
G1 X140.625
G1 Y164.875
G1 F300.0 X140.125
G1 F800.0 Y189.875
G1 X319.875
G1 Y140.125
G1 X140.125
G1 Y164.875
G1 F300.0 X139.625
G1 F800.0 Y190.375
G1 X320.375
G1 Y139.625
G1 X139.625
G1 Y164.875
G1 F300.0 X139.125
G1 F800.0 Y190.875
G1 X320.875
G1 Y139.125
G1 X139.125
G1 Y164.875
G1 F300.0 X138.625
G1 F800.0 Y191.375
G1 X321.375
G1 Y138.625
G1 X138.625
G1 Y164.875
G1 F300.0 X138.125
G1 F800.0 Y191.875
G1 X321.875
G1 Y138.125
G1 X138.125
G1 Y164.875
G1 F300.0 X137.625
G1 F800.0 Y192.375
G1 X322.375
G1 Y137.625
G1 X137.625
G1 Y164.875
G1 F300.0 X137.125
G1 F800.0 Y192.875
G1 X322.875
G1 Y137.125
G1 X137.125
G1 Y164.875
G1 F300.0 X136.625
G1 F800.0 Y193.375
G1 X323.375
G1 Y136.625
G1 X136.625
G1 Y164.875
G1 F300.0 X136.125
G1 F800.0 Y193.875
G1 X323.875
G1 Y136.125
G1 X136.125
G1 Y164.875
G1 F300.0 X135.625
G1 F800.0 Y194.375
G1 X324.375
G1 Y135.625
G1 X135.625
G1 Y164.875
G1 F300.0 X135.125
G1 F800.0 Y194.875
G1 X324.875
G1 Y135.125
G1 X135.125
G1 Y164.875
G1 F300.0 X134.625
G1 F800.0 Y195.375
G1 X325.375
G1 Y134.625
G1 X134.625
G1 Y164.875
G1 F300.0 X134.125
G1 F800.0 Y195.875
G1 X325.875
G1 Y134.125
G1 X134.125
G1 Y164.875
G1 F300.0 X133.625
G1 F800.0 Y196.375
G1 X326.375
G1 Y133.625
G1 X133.625
G1 Y164.875
G1 F300.0 X133.125
G1 F800.0 Y196.875
G1 X326.875
G1 Y133.125
G1 X133.125
G1 Y164.875
G1 F300.0 X132.625
G1 F800.0 Y197.375
G1 X327.375
G1 Y132.625
G1 X132.625
G1 Y164.875
G1 F300.0 X132.125
G1 F800.0 Y197.875
G1 X327.875
G1 Y132.125
G1 X132.125
G1 Y164.875
G1 F300.0 X131.625
G1 F800.0 Y198.375
G1 X328.375
G1 Y131.625
G1 X131.625
G1 Y164.875
G1 F300.0 X131.125
G1 F800.0 Y198.875
G1 X328.875
G1 Y131.125
G1 X131.125
G1 Y164.875
G1 F300.0 X130.625
G1 F800.0 Y199.375
G1 X329.375
G1 Y130.625
G1 X130.625
G1 Y164.875
G1 F300.0 X130.125
G1 F800.0 Y199.875
G1 X329.875
G1 Y130.125
G1 X130.125
G1 Y164.875
G1 F300.0 X129.625
G1 F800.0 Y200.375
G1 X330.375
G1 Y129.625
G1 X129.625
G1 Y164.875
G1 F300.0 X129.125
G1 F800.0 Y200.875
G1 X330.875
G1 Y129.125
G1 X129.125
G1 Y164.875
G1 F300.0 X128.625
G1 F800.0 Y201.375
G1 X331.375
G1 Y128.625
G1 X128.625
G1 Y164.875
G1 F300.0 X128.125
G1 F800.0 Y201.875
G1 X331.875
G1 Y128.125
G1 X128.125
G1 Y164.875
G1 F300.0 X127.625
G1 F800.0 Y202.375
G1 X332.375
G1 Y127.625
G1 X127.625
G1 Y164.875
G1 F300.0 X127.125
G1 F800.0 Y202.875
G1 X332.875
G1 Y127.125
G1 X127.125
G1 Y164.875
G1 F300.0 X126.625
G1 F800.0 Y203.375
G1 X333.375
G1 Y126.625
G1 X126.625
G1 Y164.875
G1 F300.0 X126.125
G1 F800.0 Y203.875
G1 X333.875
G1 Y126.125
G1 X126.125
G1 Y164.875
G1 F300.0 X125.625
G1 F800.0 Y204.375
G1 X334.375
G1 Y125.625
G1 X125.625
G1 Y164.875
G1 F300.0 X125.125
G1 F800.0 Y204.875
G1 X334.875
G1 Y125.125
G1 X125.125
G1 Y164.875
G1 F300.0 X124.625
G1 F800.0 Y205.375
G1 X335.375
G1 Y124.625
G1 X124.625
G1 Y164.875
G1 F300.0 X124.125
G1 F800.0 Y205.875
G1 X335.875
G1 Y124.125
G1 X124.125
G1 Y164.875
G1 F300.0 X123.625
G1 F800.0 Y206.375
G1 X336.375
G1 Y123.625
G1 X123.625
G1 Y164.875
G1 F300.0 X123.125
G1 F800.0 Y206.875
G1 X336.875
G1 Y123.125
G1 X123.125
G1 Y164.875
G1 F300.0 X122.625
G1 F800.0 Y207.375
G1 X337.375
G1 Y122.625
G1 X122.625
G1 Y164.875
G1 F300.0 X122.125
G1 F800.0 Y207.875
G1 X337.875
G1 Y122.125
G1 X122.125
G1 Y164.875
G1 F300.0 X121.625
G1 F800.0 Y208.375
G1 X338.375
G1 Y121.625
G1 X121.625
G1 Y164.875
G1 F300.0 X121.125
G1 F800.0 Y208.875
G1 X338.875
G1 Y121.125
G1 X121.125
G1 Y164.875
G1 F300.0 X120.625
G1 F800.0 Y209.375
G1 X339.375
G1 Y120.625
G1 X120.625
G1 Y164.875
G1 F300.0 X120.125
G1 F800.0 Y209.875
G1 X339.875
G1 Y120.125
G1 X120.125
G1 Y164.875
G1 F300.0 X119.625
G1 F800.0 Y210.375
G1 X340.375
G1 Y119.625
G1 X119.625
G1 Y164.875
G1 F300.0 X119.125
G1 F800.0 Y210.875
G1 X340.875
G1 Y119.125
G1 X119.125
G1 Y164.875
G1 F300.0 X118.625
G1 F800.0 Y211.375
G1 X341.375
G1 Y118.625
G1 X118.625
G1 Y164.875
G1 F300.0 X118.125
G1 F800.0 Y211.875
G1 X341.875
G1 Y118.125
G1 X118.125
G1 Y164.875
G1 F300.0 X117.625
G1 F800.0 Y212.375
G1 X342.375
G1 Y117.625
G1 X117.625
G1 Y164.875
G1 F300.0 X117.125
G1 F800.0 Y212.875
G1 X342.875
G1 Y117.125
G1 X117.125
G1 Y164.875
G1 F300.0 X116.625
G1 F800.0 Y213.375
G1 X343.375
G1 Y116.625
G1 X116.625
G1 Y164.875
G1 F300.0 X116.125
G1 F800.0 Y213.875
G1 X343.875
G1 Y116.125
G1 X116.125
G1 Y164.875
G1 F300.0 X115.625
G1 F800.0 Y214.375
G1 X344.375
G1 Y115.625
G1 X115.625
G1 Y164.875
G1 F300.0 X115.125
G1 F800.0 Y214.875
G1 X344.875
G1 Y115.125
G1 X115.125
G1 Y164.875
G1 F300.0 X114.625
G1 F800.0 Y215.375
G1 X345.375
G1 Y114.625
G1 X114.625
G1 Y164.875
G1 F300.0 X114.125
G1 F800.0 Y215.875
G1 X345.875
G1 Y114.125
G1 X114.125
G1 Y164.875
G1 F300.0 X113.625
G1 F800.0 Y216.375
G1 X346.375
G1 Y113.625
G1 X113.625
G1 Y164.875
G1 F300.0 X113.125
G1 F800.0 Y216.875
G1 X346.875
G1 Y113.125
G1 X113.125
G1 Y164.875
G1 F300.0 X112.625
G1 F800.0 Y217.375
G1 X347.375
G1 Y112.625
G1 X112.625
G1 Y164.875
G1 F300.0 X112.125
G1 F800.0 Y217.875
G1 X347.875
G1 Y112.125
G1 X112.125
G1 Y164.875
G1 F300.0 X111.625
G1 F800.0 Y218.375
G1 X348.375
G1 Y111.625
G1 X111.625
G1 Y164.875
G1 F300.0 X111.125
G1 F800.0 Y218.875
G1 X348.875
G1 Y111.125
G1 X111.125
G1 Y164.875
G1 F300.0 X110.625
G1 F800.0 Y219.375
G1 X349.375
G1 Y110.625
G1 X110.625
G1 Y164.875
G1 F300.0 X110.125
G1 F800.0 Y219.875
G1 X349.875
G1 Y110.125
G1 X110.125
G1 Y164.875
G1 F300.0 X109.625
G1 F800.0 Y220.375
G1 X350.375
G1 Y109.625
G1 X109.625
G1 Y164.875
G1 F300.0 X109.125
G1 F800.0 Y220.875
G1 X350.875
G1 Y109.125
G1 X109.125
G1 Y164.875
G1 F300.0 X108.625
G1 F800.0 Y221.375
G1 X351.375
G1 Y108.625
G1 X108.625
G1 Y164.875
G1 F300.0 X108.125
G1 F800.0 Y221.875
G1 X351.875
G1 Y108.125
G1 X108.125
G1 Y164.875
G1 F300.0 X107.625
G1 F800.0 Y222.375
G1 X352.375
G1 Y107.625
G1 X107.625
G1 Y164.875
G1 F300.0 X107.125
G1 F800.0 Y222.875
G1 X352.875
G1 Y107.125
G1 X107.125
G1 Y164.875
G1 F300.0 X106.625
G1 F800.0 Y223.375
G1 X353.375
G1 Y106.625
G1 X106.625
G1 Y164.875
G1 F300.0 X106.125
G1 F800.0 Y223.875
G1 X353.875
G1 Y106.125
G1 X106.125
G1 Y164.875
G1 F300.0 X105.625
G1 F800.0 Y224.375
G1 X354.375
G1 Y105.625
G1 X105.625
G1 Y164.875
G1 F300.0 X105.125
G1 F800.0 Y224.875
G1 X354.875
G1 Y105.125
G1 X105.125
G1 Y164.875
G1 F300.0 X104.625
G1 F800.0 Y225.375
G1 X355.375
G1 Y104.625
G1 X104.625
G1 Y164.875
G1 F300.0 X104.125
G1 F800.0 Y225.875
G1 X355.875
G1 Y104.125
G1 X104.125
G1 Y164.875
G1 F300.0 X103.625
G1 F800.0 Y226.375
G1 X356.375
G1 Y103.625
G1 X103.625
G1 Y164.875
G1 F300.0 X103.125
G1 F800.0 Y226.875
G1 X356.875
G1 Y103.125
G1 X103.125
G1 Y164.875
G1 F300.0 X102.625
G1 F800.0 Y227.375
G1 X357.375
G1 Y102.625
G1 X102.625
G1 Y164.875
G1 F300.0 X102.125
G1 F800.0 Y227.875
G1 X357.875
G1 Y102.125
G1 X102.125
G1 Y164.875
G1 F300.0 X101.625
G1 F800.0 Y228.375
G1 X358.375
G1 Y101.625
G1 X101.625
G1 Y164.875
G1 F300.0 X101.125
G1 F800.0 Y228.875
G1 X358.875
G1 Y101.125
G1 X101.125
G1 Y164.875
G1 F300.0 X100.625
G1 F800.0 Y229.375
G1 X359.375
G1 Y100.625
G1 X100.625
G1 Y164.875
G1 F300.0 X100.125
G1 F800.0 Y229.875
G1 X359.875
G1 Y100.125
G1 X100.125
G1 Y164.875
G1 F300.0 X99.625
G1 F800.0 Y230.375
G1 X360.375
G1 Y99.625
G1 X99.625
G1 Y164.875
G1 F300.0 X99.125
G1 F800.0 Y230.875
G1 X360.875
G1 Y99.125
G1 X99.125
G1 Y164.875
G1 F300.0 X98.625
G1 F800.0 Y231.375
G1 X361.375
G1 Y98.625
G1 X98.625
G1 Y164.875
G1 F300.0 X98.125
G1 F800.0 Y231.875
G1 X361.875
G1 Y98.125
G1 X98.125
G1 Y164.875
G1 F300.0 X97.625
G1 F800.0 Y232.375
G1 X362.375
G1 Y97.625
G1 X97.625
G1 Y164.875
G1 F300.0 X97.125
G1 F800.0 Y232.875
G1 X362.875
G1 Y97.125
G1 X97.125
G1 Y164.875
G1 F300.0 X96.625
G1 F800.0 Y233.375
G1 X363.375
G1 Y96.625
G1 X96.625
G1 Y164.875
G1 F300.0 X96.125
G1 F800.0 Y233.875
G1 X363.875
G1 Y96.125
G1 X96.125
G1 Y164.875
G1 F300.0 X95.625
G1 F800.0 Y234.375
G1 X364.375
G1 Y95.625
G1 X95.625
G1 Y164.875
G1 F300.0 X95.125
G1 F800.0 Y234.875
G1 X364.875
G1 Y95.125
G1 X95.125
G1 Y164.875
G1 F300.0 X94.625
G1 F800.0 Y235.375
G1 X365.375
G1 Y94.625
G1 X94.625
G1 Y164.875
G1 F300.0 X94.125
G1 F800.0 Y235.875
G1 X365.875
G1 Y94.125
G1 X94.125
G1 Y164.875
G1 F300.0 X93.625
G1 F800.0 Y236.375
G1 X366.375
G1 Y93.625
G1 X93.625
G1 Y164.875
G1 F300.0 X93.125
G1 F800.0 Y236.875
G1 X366.875
G1 Y93.125
G1 X93.125
G1 Y164.875
G1 F300.0 X92.625
G1 F800.0 Y237.375
G1 X367.375
G1 Y92.625
G1 X92.625
G1 Y164.875
G1 F300.0 X92.125
G1 F800.0 Y237.875
G1 X367.875
G1 Y92.125
G1 X92.125
G1 Y164.875
G1 F300.0 X91.625
G1 F800.0 Y238.375
G1 X368.375
G1 Y91.625
G1 X91.625
G1 Y164.875
G1 F300.0 X91.125
G1 F800.0 Y238.875
G1 X368.875
G1 Y91.125
G1 X91.125
G1 Y164.875
G1 F300.0 X90.625
G1 F800.0 Y239.375
G1 X369.375
G1 Y90.625
G1 X90.625
G1 Y164.875
G1 F300.0 X90.125
G1 F800.0 Y239.875
G1 X369.875
G1 Y90.125
G1 X90.125
G1 Y164.875
G1 F300.0 X89.625
G1 F800.0 Y240.375
G1 X370.375
G1 Y89.625
G1 X89.625
G1 Y164.875
G1 F300.0 X89.125
G1 F800.0 Y240.875
G1 X370.875
G1 Y89.125
G1 X89.125
G1 Y164.875
G1 F300.0 X88.625
G1 F800.0 Y241.375
G1 X371.375
G1 Y88.625
G1 X88.625
G1 Y164.875
G1 F300.0 X88.125
G1 F800.0 Y241.875
G1 X371.875
G1 Y88.125
G1 X88.125
G1 Y164.875
G1 F300.0 X87.625
G1 F800.0 Y242.375
G1 X372.375
G1 Y87.625
G1 X87.625
G1 Y164.875
G1 F300.0 X87.125
G1 F800.0 Y242.875
G1 X372.875
G1 Y87.125
G1 X87.125
G1 Y164.875
G1 F300.0 X86.625
G1 F800.0 Y243.375
G1 X373.375
G1 Y86.625
G1 X86.625
G1 Y164.875
G1 F300.0 X86.125
G1 F800.0 Y243.875
G1 X373.875
G1 Y86.125
G1 X86.125
G1 Y164.875
G1 F300.0 X85.625
G1 F800.0 Y244.375
G1 X374.375
G1 Y85.625
G1 X85.625
G1 Y164.875
G1 F300.0 X85.125
G1 F800.0 Y244.875
G1 X374.875
G1 Y85.125
G1 X85.125
G1 Y164.875
G1 F300.0 X84.625
G1 F800.0 Y245.375
G1 X375.375
G1 Y84.625
G1 X84.625
G1 Y164.875
G1 F300.0 X84.125
G1 F800.0 Y245.875
G1 X375.875
G1 Y84.125
G1 X84.125
G1 Y164.875
G1 F300.0 X83.625
G1 F800.0 Y246.375
G1 X376.375
G1 Y83.625
G1 X83.625
G1 Y164.875
G1 F300.0 X83.125
G1 F800.0 Y246.875
G1 X376.875
G1 Y83.125
G1 X83.125
G1 Y164.875
G1 F300.0 X82.625
G1 F800.0 Y247.375
G1 X377.375
G1 Y82.625
G1 X82.625
G1 Y164.875
G1 F300.0 X82.125
G1 F800.0 Y247.875
G1 X377.875
G1 Y82.125
G1 X82.125
G1 Y164.875
G1 F300.0 X81.625
G1 F800.0 Y248.375
G1 X378.375
G1 Y81.625
G1 X81.625
G1 Y164.875
G1 F300.0 X81.125
G1 F800.0 Y248.875
G1 X378.875
G1 Y81.125
G1 X81.125
G1 Y164.875
G1 F300.0 X80.625
G1 F800.0 Y249.375
G1 X379.375
G1 Y80.625
G1 X80.625
G1 Y164.875
G1 F300.0 X80.125
G1 F800.0 Y249.875
G1 X379.875
G1 Y80.125
G1 X80.125
G1 Y164.875
G1 F300.0 X79.625
G1 F800.0 Y250.375
G1 X380.375
G1 Y79.625
G1 X79.625
G1 Y164.875
G1 F300.0 X79.125
G1 F800.0 Y250.875
G1 X380.875
G1 Y79.125
G1 X79.125
G1 Y164.875
G1 F300.0 X78.625
G1 F800.0 Y251.375
G1 X381.375
G1 Y78.625
G1 X78.625
G1 Y164.875
G1 F300.0 X78.125
G1 F800.0 Y251.875
G1 X381.875
G1 Y78.125
G1 X78.125
G1 Y164.875
G1 F300.0 X77.625
G1 F800.0 Y252.375
G1 X382.375
G1 Y77.625
G1 X77.625
G1 Y164.875
G1 F300.0 X77.125
G1 F800.0 Y252.875
G1 X382.875
G1 Y77.125
G1 X77.125
G1 Y164.875
G1 F300.0 X76.625
G1 F800.0 Y253.375
G1 X383.375
G1 Y76.625
G1 X76.625
G1 Y164.875
G1 F300.0 X76.125
G1 F800.0 Y253.875
G1 X383.875
G1 Y76.125
G1 X76.125
G1 Y164.875
G1 F300.0 X75.625
G1 F800.0 Y254.375
G1 X384.375
G1 Y75.625
G1 X75.625
G1 Y164.875
G1 F300.0 X75.125
G1 F800.0 Y254.875
G1 X384.875
G1 Y75.125
G1 X75.125
G1 Y164.875
G1 F300.0 X74.625
G1 F800.0 Y255.375
G1 X385.375
G1 Y74.625
G1 X74.625
G1 Y164.875
G1 F300.0 X74.125
G1 F800.0 Y255.875
G1 X385.875
G1 Y74.125
G1 X74.125
G1 Y164.875
G1 F300.0 X73.625
G1 F800.0 Y256.375
G1 X386.375
G1 Y73.625
G1 X73.625
G1 Y164.875
G1 F300.0 X73.125
G1 F800.0 Y256.875
G1 X386.875
G1 Y73.125
G1 X73.125
G1 Y164.875
G1 F300.0 X72.625
G1 F800.0 Y257.375
G1 X387.375
G1 Y72.625
G1 X72.625
G1 Y164.875
G1 F300.0 X72.125
G1 F800.0 Y257.875
G1 X387.875
G1 Y72.125
G1 X72.125
G1 Y164.875
G1 F300.0 X71.625
G1 F800.0 Y258.375
G1 X388.375
G1 Y71.625
G1 X71.625
G1 Y164.875
G1 F300.0 X71.125
G1 F800.0 Y258.875
G1 X388.875
G1 Y71.125
G1 X71.125
G1 Y164.875
G1 F300.0 X70.625
G1 F800.0 Y259.375
G1 X389.375
G1 Y70.625
G1 X70.625
G1 Y164.875
G1 F300.0 X70.125
G1 F800.0 Y259.875
G1 X389.875
G1 Y70.125
G1 X70.125
G1 Y164.875
G1 F300.0 X69.625
G1 F800.0 Y260.375
G1 X390.375
G1 Y69.625
G1 X69.625
G1 Y164.875
G1 F300.0 X69.125
G1 F800.0 Y260.875
G1 X390.875
G1 Y69.125
G1 X69.125
G1 Y164.875
G1 F300.0 X68.625
G1 F800.0 Y261.375
G1 X391.375
G1 Y68.625
G1 X68.625
G1 Y164.875
G1 F300.0 X68.125
G1 F800.0 Y261.875
G1 X391.875
G1 Y68.125
G1 X68.125
G1 Y164.875
G1 F300.0 X67.625
G1 F800.0 Y262.375
G1 X392.375
G1 Y67.625
G1 X67.625
G1 Y164.875
G1 F300.0 X67.125
G1 F800.0 Y262.875
G1 X392.875
G1 Y67.125
G1 X67.125
G1 Y164.875
G1 F300.0 X66.625
G1 F800.0 Y263.375
G1 X393.375
G1 Y66.625
G1 X66.625
G1 Y164.875
G1 F300.0 X66.125
G1 F800.0 Y263.875
G1 X393.875
G1 Y66.125
G1 X66.125
G1 Y164.875
G1 F300.0 X65.625
G1 F800.0 Y264.375
G1 X394.375
G1 Y65.625
G1 X65.625
G1 Y164.875
G1 F300.0 X65.125
G1 F800.0 Y264.875
G1 X394.875
G1 Y65.125
G1 X65.125
G1 Y164.875
G1 F300.0 X64.625
G1 F800.0 Y265.375
G1 X395.375
G1 Y64.625
G1 X64.625
G1 Y164.875
G1 F300.0 X64.125
G1 F800.0 Y265.875
G1 X395.875
G1 Y64.125
G1 X64.125
G1 Y164.875
G1 F300.0 X63.625
G1 F800.0 Y266.375
G1 X396.375
G1 Y63.625
G1 X63.625
G1 Y164.875
G1 F300.0 X63.125
G1 F800.0 Y266.875
G1 X396.875
G1 Y63.125
G1 X63.125
G1 Y164.875
G1 F300.0 X62.625
G1 F800.0 Y267.375
G1 X397.375
G1 Y62.625
G1 X62.625
G1 Y164.875
G1 F300.0 X62.125
G1 F800.0 Y267.875
G1 X397.875
G1 Y62.125
G1 X62.125
G1 Y164.875
G1 F300.0 X61.625
G1 F800.0 Y268.375
G1 X398.375
G1 Y61.625
G1 X61.625
G1 Y164.875
G1 F300.0 X61.125
G1 F800.0 Y268.875
G1 X398.875
G1 Y61.125
G1 X61.125
G1 Y164.875
G1 F300.0 X60.625
G1 F800.0 Y269.375
G1 X399.375
G1 Y60.625
G1 X60.625
G1 Y164.875
G1 F300.0 X60.125
G1 F800.0 Y269.875
G1 X399.875
G1 Y60.125
G1 X60.125
G1 Y164.875
G1 F300.0 X59.625
G1 F800.0 Y270.375
G1 X400.375
G1 Y59.625
G1 X59.625
G1 Y164.875
G1 F300.0 X59.125
G1 F800.0 Y270.875
G1 X400.875
G1 Y59.125
G1 X59.125
G1 Y164.875
G1 F300.0 X58.625
G1 F800.0 Y271.375
G1 X401.375
G1 Y58.625
G1 X58.625
G1 Y164.875
G1 F300.0 X58.125
G1 F800.0 Y271.875
G1 X401.875
G1 Y58.125
G1 X58.125
G1 Y164.875
G1 F300.0 X57.625
G1 F800.0 Y272.375
G1 X402.375
G1 Y57.625
G1 X57.625
G1 Y164.875
G1 F300.0 X57.125
G1 F800.0 Y272.875
G1 X402.875
G1 Y57.125
G1 X57.125
G1 Y164.875
G1 F300.0 X56.625
G1 F800.0 Y273.375
G1 X403.375
G1 Y56.625
G1 X56.625
G1 Y164.875
G1 F300.0 X56.125
G1 F800.0 Y273.875
G1 X403.875
G1 Y56.125
G1 X56.125
G1 Y164.875
G1 F300.0 X55.625
G1 F800.0 Y274.375
G1 X404.375
G1 Y55.625
G1 X55.625
G1 Y164.875
G1 F300.0 X55.125
G1 F800.0 Y274.875
G1 X404.875
G1 Y55.125
G1 X55.125
G1 Y164.875
G1 F300.0 X54.625
G1 F800.0 Y275.375
G1 X405.375
G1 Y54.625
G1 X54.625
G1 Y164.875
G1 F300.0 X54.125
G1 F800.0 Y275.875
G1 X405.875
G1 Y54.125
G1 X54.125
G1 Y164.875
G1 F300.0 X53.625
G1 F800.0 Y276.375
G1 X406.375
G1 Y53.625
G1 X53.625
G1 Y164.875
G1 F300.0 X53.125
G1 F800.0 Y276.875
G1 X406.875
G1 Y53.125
G1 X53.125
G1 Y164.875
G1 F300.0 X52.625
G1 F800.0 Y277.375
G1 X407.375
G1 Y52.625
G1 X52.625
G1 Y164.875
G1 F300.0 X52.125
G1 F800.0 Y277.875
G1 X407.875
G1 Y52.125
G1 X52.125
G1 Y164.875
G1 F300.0 X51.625
G1 F800.0 Y278.375
G1 X408.375
G1 Y51.625
G1 X51.625
G1 Y164.875
G1 F300.0 X51.125
G1 F800.0 Y278.875
G1 X408.875
G1 Y51.125
G1 X51.125
G1 Y164.875
G1 F300.0 X50.625
G1 F800.0 Y279.375
G1 X409.375
G1 Y50.625
G1 X50.625
G1 Y164.875
G1 F300.0 X50.125
G1 F800.0 Y279.875
G1 X409.875
G1 Y50.125
G1 X50.125
G1 Y164.875
G1 F300.0 X49.625
G1 F800.0 Y280.375
G1 X410.375
G1 Y49.625
G1 X49.625
G1 Y164.875
G1 F300.0 X49.125
G1 F800.0 Y280.875
G1 X410.875
G1 Y49.125
G1 X49.125
G1 Y164.875
G1 F300.0 X48.625
G1 F800.0 Y281.375
G1 X411.375
G1 Y48.625
G1 X48.625
G1 Y164.875
G1 F300.0 X48.125
G1 F800.0 Y281.875
G1 X411.875
G1 Y48.125
G1 X48.125
G1 Y164.875
G1 F300.0 X47.625
G1 F800.0 Y282.375
G1 X412.375
G1 Y47.625
G1 X47.625
G1 Y164.875
G1 F300.0 X47.125
G1 F800.0 Y282.875
G1 X412.875
G1 Y47.125
G1 X47.125
G1 Y164.875
G1 F300.0 X46.625
G1 F800.0 Y283.375
G1 X413.375
G1 Y46.625
G1 X46.625
G1 Y164.875
G1 F300.0 X46.125
G1 F800.0 Y283.875
G1 X413.875
G1 Y46.125
G1 X46.125
G1 Y164.875
G1 F300.0 X45.625
G1 F800.0 Y284.375
G1 X414.375
G1 Y45.625
G1 X45.625
G1 Y164.875
G1 F300.0 X45.125
G1 F800.0 Y284.875
G1 X414.875
G1 Y45.125
G1 X45.125
G1 Y164.875
G1 F300.0 X44.625
G1 F800.0 Y285.375
G1 X415.375
G1 Y44.625
G1 X44.625
G1 Y164.875
G1 F300.0 X44.125
G1 F800.0 Y285.875
G1 X415.875
G1 Y44.125
G1 X44.125
G1 Y164.875
G1 F300.0 X43.625
G1 F800.0 Y286.375
G1 X416.375
G1 Y43.625
G1 X43.625
G1 Y164.875
G1 F300.0 X43.125
G1 F800.0 Y286.875
G1 X416.875
G1 Y43.125
G1 X43.125
G1 Y164.875
G1 F300.0 X42.625
G1 F800.0 Y287.375
G1 X417.375
G1 Y42.625
G1 X42.625
G1 Y164.875
G1 F300.0 X42.125
G1 F800.0 Y287.875
G1 X417.875
G1 Y42.125
G1 X42.125
G1 Y164.875
G1 F300.0 X41.625
G1 F800.0 Y288.375
G1 X418.375
G1 Y41.625
G1 X41.625
G1 Y164.875
G1 F300.0 X41.125
G1 F800.0 Y288.875
G1 X418.875
G1 Y41.125
G1 X41.125
G1 Y164.875
G1 F300.0 X40.625
G1 F800.0 Y289.375
G1 X419.375
G1 Y40.625
G1 X40.625
G1 Y164.875
G1 F300.0 X40.125
G1 F800.0 Y289.875
G1 X419.875
G1 Y40.125
G1 X40.125
G1 Y164.875
G1 F300.0 X39.625
G1 F800.0 Y290.375
G1 X420.375
G1 Y39.625
G1 X39.625
G1 Y164.875
G1 F300.0 X39.125
G1 F800.0 Y290.875
G1 X420.875
G1 Y39.125
G1 X39.125
G1 Y164.875
G1 F300.0 X38.625
G1 F800.0 Y291.375
G1 X421.375
G1 Y38.625
G1 X38.625
G1 Y164.875
G1 F300.0 X38.125
G1 F800.0 Y291.875
G1 X421.875
G1 Y38.125
G1 X38.125
G1 Y164.875
G1 F300.0 X37.625
G1 F800.0 Y292.375
G1 X422.375
G1 Y37.625
G1 X37.625
G1 Y164.875
G1 F300.0 X37.125
G1 F800.0 Y292.875
G1 X422.875
G1 Y37.125
G1 X37.125
G1 Y164.875
G1 F300.0 X36.625
G1 F800.0 Y293.375
G1 X423.375
G1 Y36.625
G1 X36.625
G1 Y164.875
G1 F300.0 X36.125
G1 F800.0 Y293.875
G1 X423.875
G1 Y36.125
G1 X36.125
G1 Y164.875
G1 F300.0 X35.625
G1 F800.0 Y294.375
G1 X424.375
G1 Y35.625
G1 X35.625
G1 Y164.875
G1 F300.0 X35.125
G1 F800.0 Y294.875
G1 X424.875
G1 Y35.125
G1 X35.125
G1 Y164.875
G1 F300.0 X34.625
G1 F800.0 Y295.375
G1 X425.375
G1 Y34.625
G1 X34.625
G1 Y164.875
G1 F300.0 X34.125
G1 F800.0 Y295.875
G1 X425.875
G1 Y34.125
G1 X34.125
G1 Y164.875
G1 F300.0 X33.625
G1 F800.0 Y296.375
G1 X426.375
G1 Y33.625
G1 X33.625
G1 Y164.875
G1 F300.0 X33.125
G1 F800.0 Y296.875
G1 X426.875
G1 Y33.125
G1 X33.125
G1 Y164.875
G1 F300.0 X32.625
G1 F800.0 Y297.375
G1 X427.375
G1 Y32.625
G1 X32.625
G1 Y164.875
G1 F300.0 X32.125
G1 F800.0 Y297.875
G1 X427.875
G1 Y32.125
G1 X32.125
G1 Y164.875
G1 F300.0 X31.625
G1 F800.0 Y298.375
G1 X428.375
G1 Y31.625
G1 X31.625
G1 Y164.875
G1 F300.0 X31.125
G1 F800.0 Y298.875
G1 X428.875
G1 Y31.125
G1 X31.125
G1 Y164.875
G1 F300.0 X30.625
G1 F800.0 Y299.375
G1 X429.375
G1 Y30.625
G1 X30.625
G1 Y164.875
G1 F300.0 X30.125
G1 F800.0 Y299.875
G1 X429.875
G1 Y30.125
G1 X30.125
G1 Y164.875
G1 F300.0 X29.625
G1 F800.0 Y300.375
G1 X430.375
G1 Y29.625
G1 X29.625
G1 Y164.875
G1 F300.0 X29.125
G1 F800.0 Y300.875
G1 X430.875
G1 Y29.125
G1 X29.125
G1 Y164.875
G1 F300.0 X28.625
G1 F800.0 Y301.375
G1 X431.375
G1 Y28.625
G1 X28.625
G1 Y164.875
G1 F300.0 X28.125
G1 F800.0 Y301.875
G1 X431.875
G1 Y28.125
G1 X28.125
G1 Y164.875
G1 F300.0 X27.625
G1 F800.0 Y302.375
G1 X432.375
G1 Y27.625
G1 X27.625
G1 Y164.875
G1 F300.0 X27.125
G1 F800.0 Y302.875
G1 X432.875
G1 Y27.125
G1 X27.125
G1 Y164.875
G1 F300.0 X26.625
G1 F800.0 Y303.375
G1 X433.375
G1 Y26.625
G1 X26.625
G1 Y164.875
G1 F300.0 X26.125
G1 F800.0 Y303.875
G1 X433.875
G1 Y26.125
G1 X26.125
G1 Y164.875
G1 F300.0 X25.625
G1 F800.0 Y304.375
G1 X434.375
G1 Y25.625
G1 X25.625
G1 Y164.875
G1 F300.0 X25.125
G1 F800.0 Y304.875
G1 X434.875
G1 Y25.125
G1 X25.125
G1 Y164.875
G1 F300.0 X24.625
G1 F800.0 Y305.375
G1 X435.375
G1 Y24.625
G1 X24.625
G1 Y164.875
G1 F300.0 X24.125
G1 F800.0 Y305.875
G1 X435.875
G1 Y24.125
G1 X24.125
G1 Y164.875
G1 F300.0 X23.625
G1 F800.0 Y306.375
G1 X436.375
G1 Y23.625
G1 X23.625
G1 Y164.875
G1 F300.0 X23.125
G1 F800.0 Y306.875
G1 X436.875
G1 Y23.125
G1 X23.125
G1 Y164.875
G1 F300.0 X22.625
G1 F800.0 Y307.375
G1 X437.375
G1 Y22.625
G1 X22.625
G1 Y164.875
G1 F300.0 X22.125
G1 F800.0 Y307.875
G1 X437.875
G1 Y22.125
G1 X22.125
G1 Y164.875
G1 F300.0 X21.625
G1 F800.0 Y308.375
G1 X438.375
G1 Y21.625
G1 X21.625
G1 Y164.875
G1 F300.0 X21.125
G1 F800.0 Y308.875
G1 X438.875
G1 Y21.125
G1 X21.125
G1 Y164.875
G1 F300.0 X20.625
G1 F800.0 Y309.375
G1 X439.375
G1 Y20.625
G1 X20.625
G1 Y164.875
G1 F300.0 X20.125
G1 F800.0 Y309.875
G1 X439.875
G1 Y20.125
G1 X20.125
G1 Y164.875
G1 F300.0 X19.625
G1 F800.0 Y310.375
G1 X440.375
G1 Y19.625
G1 X19.625
G1 Y164.875
G1 F300.0 X19.125
G1 F800.0 Y310.875
G1 X440.875
G1 Y19.125
G1 X19.125
G1 Y164.875
G1 F300.0 X18.625
G1 F800.0 Y311.375
G1 X441.375
G1 Y18.625
G1 X18.625
G1 Y164.875
G1 F300.0 X18.125
G1 F800.0 Y311.875
G1 X441.875
G1 Y18.125
G1 X18.125
G1 Y164.875
G1 F300.0 X17.625
G1 F800.0 Y312.375
G1 X442.375
G1 Y17.625
G1 X17.625
G1 Y164.875
G1 F300.0 X17.125
G1 F800.0 Y312.875
G1 X442.875
G1 Y17.125
G1 X17.125
G1 Y164.875
G1 F300.0 X16.625
G1 F800.0 Y313.375
G1 X443.375
G1 Y16.625
G1 X16.625
G1 Y164.875
G1 F300.0 X16.125
G1 F800.0 Y313.875
G1 X443.875
G1 Y16.125
G1 X16.125
G1 Y164.875
G1 F300.0 X15.625
G1 F800.0 Y314.375
G1 X444.375
G1 Y15.625
G1 X15.625
G1 Y164.875
G1 F300.0 X15.125
G1 F800.0 Y314.875
G1 X444.875
G1 Y15.125
G1 X15.125
G1 Y164.875
G1 F300.0 X14.625
G1 F800.0 Y315.375
G1 X445.375
G1 Y14.625
G1 X14.625
G1 Y164.875
G1 F300.0 X14.125
G1 F800.0 Y315.875
G1 X445.875
G1 Y14.125
G1 X14.125
G1 Y164.875
G1 F300.0 X13.625
G1 F800.0 Y316.375
G1 X446.375
G1 Y13.625
G1 X13.625
G1 Y164.875
G1 F300.0 X13.125
G1 F800.0 Y316.875
G1 X446.875
G1 Y13.125
G1 X13.125
G1 Y164.875
G1 F300.0 X12.625
G1 F800.0 Y317.375
G1 X447.375
G1 Y12.625
G1 X12.625
G1 Y164.875
G1 F300.0 X12.125
G1 F800.0 Y317.875
G1 X447.875
G1 Y12.125
G1 X12.125
G1 Y164.875
G1 F300.0 X11.625
G1 F800.0 Y318.375
G1 X448.375
G1 Y11.625
G1 X11.625
G1 Y164.875
G1 F300.0 X11.125
G1 F800.0 Y318.875
G1 X448.875
G1 Y11.125
G1 X11.125
G1 Y164.875
G1 F300.0 X10.625
G1 F800.0 Y319.375
G1 X449.375
G1 Y10.625
G1 X10.625
G1 Y164.875
G1 F300.0 X10.125
G1 F800.0 Y319.875
G1 X449.875
G1 Y10.125
G1 X10.125
G1 Y164.875
G1 F300.0 X9.625
G1 F800.0 Y320.375
G1 X450.375
G1 Y9.625
G1 X9.625
G1 Y164.875
G1 F300.0 X9.125
G1 F800.0 Y320.875
G1 X450.875
G1 Y9.125
G1 X9.125
G1 Y164.875
G1 F300.0 X8.625
G1 F800.0 Y321.375
G1 X451.375
G1 Y8.625
G1 X8.625
G1 Y164.875
G1 F300.0 X8.125
G1 F800.0 Y321.875
G1 X451.875
G1 Y8.125
G1 X8.125
G1 Y164.875
G1 F300.0 X7.625
G1 F800.0 Y322.375
G1 X452.375
G1 Y7.625
G1 X7.625
G1 Y164.875
G1 F300.0 X7.125
G1 F800.0 Y322.875
G1 X452.875
G1 Y7.125
G1 X7.125
G1 Y164.875
G1 F300.0 X6.625
G1 F800.0 Y323.375
G1 X453.375
G1 Y6.625
G1 X6.625
G1 Y164.875
G1 F300.0 X6.125
G1 F800.0 Y323.875
G1 X453.875
G1 Y6.125
G1 X6.125
G1 Y164.875
G1 F300.0 X5.625
G1 F800.0 Y324.375
G1 X454.375
G1 Y5.625
G1 X5.625
G1 Y164.875
G1 F300.0 X5.125
G1 F800.0 Y324.875
G1 X454.875
G1 Y5.125
G1 X5.125
G1 Y164.875
G1 F300.0 X4.625
G1 F800.0 Y325.375
G1 X455.375
G1 Y4.625
G1 X4.625
G1 Y164.875
G1 F300.0 X4.125
G1 F800.0 Y325.875
G1 X455.875
G1 Y4.125
G1 X4.125
G1 Y164.875
G1 F300.0 X3.625
G1 F800.0 Y326.375
G1 X456.375
G1 Y3.625
G1 X3.625
G1 Y164.875
G1 F300.0 X3.125
G1 F800.0 Y326.875
G1 X456.875
G1 Y3.125
G1 X3.125
G1 Y164.875
G1 F300.0 X2.625
G1 F800.0 Y327.375
G1 X457.375
G1 Y2.625
G1 X2.625
G1 Y164.875
G1 F300.0 X2.125
G1 F800.0 Y327.875
G1 X457.875
G1 Y2.125
G1 X2.125
G1 Y164.875
G1 F300.0 X1.625
G1 F800.0 Y328.375
G1 X458.375
G1 Y1.625
G1 X1.625
G1 Y164.875
G1 F300.0 X1.125
G1 F800.0 Y328.875
G1 X458.875
G1 Y1.125
G1 X1.125
G1 Y164.875
G1 F300.0 X0.625
G1 F800.0 Y329.375
G1 X459.375
G1 Y0.625
G1 X0.625
G1 Y164.875
G0 Z3.0
M5
M30
